565950964-design/kaipule_sdk/control/csv_file/aoteman.csv
Head_1,Head_2,Joint_1,Joint_2,Joint_3,Joint_4,Joint_5,Joint_6,Joint_7,Joint_8,Joint_9,Joint_10,Joint_11,Joint_12,Joint_13,Joint_14,Joint_15,Joint_16,Joint_17,Joint_18,Joint_19,Joint_20,Joint_21,Joint_22,Joint_23,Joint_24,Joint_25,Joint_26,Joint_27,Joint_28,Finger_1,Finger_2,Finger_3,Finger_4,Finger_5,Finger_6,Finger_7,Finger_8,Finger_9,Finger_10,Finger_11,Finger_12
-0.0370426,10,-0.405607,-0.695944,-14.3484,27.5141,-13.1738,0.405607,-0.405607,-0.695944,-14.1396,27.5141,-13.3826,0.405607,4.21484,15.3186,4.30068,5,4.9744,-9.08061,2.59907,7.69456,19.6595,19.4452,5,-14.8012,-10.4173,2.97059,0.521958,-0.217045,92,97,98,98,94,8,88,96,97,97,99,12
-0.0370537,10,-0.405607,-0.695942,-14.3484,27.5141,-13.1738,0.405607,-0.405607,-0.695942,-14.1396,27.5141,-13.3826,0.405607,4.21485,15.3186,4.30068,5,4.97439,-9.0806,2.59906,7.69456,19.6595,19.4452,5,-14.8012,-10.4173,2.97058,0.521957,-0.217045,92,97,98,98,94,8,88,96,97,97,99,12
-0.0370748,10,-0.405607,-0.695939,-14.3484,27.5141,-13.1738,0.405607,-0.405607,-0.695939,-14.1396,27.5141,-13.3826,0.405607,4.21487,15.3186,4.30068,5,4.97439,-9.08058,2.59903,7.69457,19.6595,19.4452,5,-14.8012,-10.4173,2.97057,0.521954,-0.217045,92,97,98,98,94,8,88,96,97,97,99,12
-0.0371048,10,-0.405609,-0.695935,-14.3484,27.5141,-13.1738,0.405609,-0.405609,-0.695935,-14.1396,27.5141,-13.3826,0.405609,4.2149,15.3186,4.30068,5,4.97438,-9.08054,2.599,7.69457,19.6595,19.4452,5,-14.8012,-10.4173,2.97056,0.521951,-0.217046,92,97,98,98,94,8,88,96,97,97,99,12
-0.0371428,10,-0.40561,-0.69593,-14.3484,27.5141,-13.1738,0.40561,-0.40561,-0.69593,-14.1396,27.5141,-13.3826,0.40561,4.21493,15.3186,4.30067,5,4.97438,-9.08049,2.59897,7.69457,19.6595,19.4452,5,-14.8012,-10.4174,2.97055,0.521947,-0.217047,92,97,98,98,94,8,88,96,97,97,99,12
-0.0371878,10,-0.405612,-0.695923,-14.3484,27.5141,-13.1738,0.405612,-0.405612,-0.695923,-14.1397,27.5141,-13.3826,0.405612,4.21495,15.3186,4.30066,5,4.97437,-9.08043,2.59894,7.69457,19.6596,19.4451,5,-14.8012,-10.4174,2.97053,0.521942,-0.217048,92,97,98,98,94,8,88,96,97,97,99,12
-0.0372391,10,-0.405615,-0.695916,-14.3484,27.5141,-13.1738,0.405615,-0.405615,-0.695916,-14.1397,27.5141,-13.3826,0.405615,4.21497,15.3186,4.30065,5,4.97437,-9.08036,2.59891,7.69455,19.6596,19.4451,5,-14.8011,-10.4174,2.97052,0.521937,-0.217049,92,97,98,98,94,8,88,96,97,97,99,12
-0.0372958,10,-0.405618,-0.695908,-14.3475,27.5134,-13.1736,0.405618,-0.405618,-0.695908,-14.1387,27.5134,-13.3824,0.405618,4.21499,15.3186,4.30064,5,4.97437,-9.08028,2.59888,7.69453,19.6596,19.445,5,-14.8011,-10.4175,2.9705,0.521931,-0.217051,92,97,98,98,94,8,88,96,97,97,99,12
-0.0373587,10,-0.405623,-0.695899,-14.3475,27.5134,-13.1736,0.405623,-0.405623,-0.695899,-14.1387,27.5134,-13.3824,0.405623,4.21499,15.3186,4.30063,5,4.97437,-9.08018,2.59888,7.69448,19.6597,19.4449,5,-14.801,-10.4175,2.97049,0.521924,-0.217054,92,97,98,98,94,8,88,96,97,97,99,12
-0.0374266,10,-0.405628,-0.69589,-14.3474,27.5134,-13.1736,0.405628,-0.405628,-0.69589,-14.1387,27.5134,-13.3824,0.405628,4.21496,15.3186,4.30061,5,4.97438,-9.08007,2.5989,7.69441,19.6597,19.4448,5,-14.801,-10.4176,2.97048,0.521918,-0.217057,92,97,98,98,94,8,88,96,97,97,99,12
-0.0374982,10,-0.405634,-0.69588,-14.3474,27.5134,-13.1736,0.405634,-0.405634,-0.69588,-14.1387,27.5134,-13.3824,0.405634,4.21494,15.3185,4.30059,5,4.97439,-9.07995,2.59892,7.69434,19.6597,19.4446,5,-14.8009,-10.4176,2.97047,0.52191,-0.21706,92,97,98,98,94,8,88,96,97,97,99,12
-0.0375725,10,-0.40564,-0.69587,-14.3474,27.5134,-13.1736,0.40564,-0.40564,-0.69587,-14.1387,27.5134,-13.3824,0.40564,4.21492,15.3185,4.30057,5,4.97439,-9.07982,2.59893,7.69427,19.6598,19.4445,5,-14.8008,-10.4177,2.97045,0.521903,-0.217063,92,97,98,98,94,8,88,96,97,97,99,12
-0.0376489,10,-0.405646,-0.69586,-14.3474,27.5134,-13.1736,0.405646,-0.405646,-0.69586,-14.1387,27.5134,-13.3824,0.405646,4.21491,15.3185,4.30056,5,4.9744,-9.0797,2.59894,7.69421,19.6598,19.4444,5,-14.8007,-10.4178,2.97044,0.521895,-0.217066,92,97,98,98,94,8,88,96,97,97,99,12
-0.0377267,10,-0.405651,-0.695849,-14.3474,27.5134,-13.1736,0.405651,-0.405651,-0.695849,-14.1387,27.5134,-13.3824,0.405651,4.21492,15.3185,4.30054,5,4.9744,-9.07959,2.59892,7.69416,19.6599,19.4443,5,-14.8007,-10.4178,2.97042,0.521887,-0.217069,92,97,98,98,94,8,88,96,97,97,99,12
-0.0378055,10,-0.405655,-0.695838,-14.3489,27.5145,-13.1739,0.405655,-0.405655,-0.695838,-14.1401,27.5145,-13.3827,0.405655,4.21495,15.3185,4.30053,5,4.97439,-9.07947,2.59887,7.69414,19.6599,19.4442,5,-14.8006,-10.4179,2.9704,0.521878,-0.217071,92,97,98,98,94,8,88,96,97,97,99,12
-0.0378815,10,-0.405657,-0.695826,-14.3489,27.5145,-13.1739,0.405657,-0.405657,-0.695826,-14.1401,27.5145,-13.3827,0.405657,4.21503,15.3185,4.30052,5,4.97437,-9.07938,2.59878,7.69416,19.66,19.4441,5,-14.8006,-10.418,2.97036,0.521869,-0.217072,92,97,98,98,94,8,88,96,97,97,99,12
-0.0379564,10,-0.405658,-0.695814,-14.3489,27.5145,-13.1739,0.405658,-0.405658,-0.695814,-14.1402,27.5145,-13.3827,0.405658,4.21515,15.3186,4.30051,5,4.97434,-9.0793,2.59864,7.69422,19.6601,19.4441,5,-14.8006,-10.418,2.97032,0.52186,-0.217073,92,97,98,98,94,8,88,96,97,97,99,12
-0.0380317,10,-0.405657,-0.695801,-14.3489,27.5145,-13.1739,0.405657,-0.405657,-0.695801,-14.1402,27.5145,-13.3826,0.405657,4.21531,15.3187,4.30051,5,4.9743,-9.07924,2.59846,7.69432,19.6601,19.4442,5,-14.8006,-10.4181,2.97028,0.521851,-0.217072,92,97,98,98,94,8,88,96,97,97,99,12
-0.0381086,10,-0.405655,-0.695789,-14.3489,27.5145,-13.1739,0.405655,-0.405655,-0.695789,-14.1402,27.5145,-13.3826,0.405655,4.21549,15.3188,4.30051,5,4.97425,-9.07918,2.59825,7.69444,19.6602,19.4442,5,-14.8007,-10.4181,2.97023,0.521841,-0.217071,92,97,98,98,94,8,88,96,97,97,99,12
-0.0381884,10,-0.405652,-0.695776,-14.3489,27.5145,-13.1739,0.405652,-0.405652,-0.695776,-14.1402,27.5145,-13.3826,0.405652,4.21571,15.3189,4.30051,5,4.9742,-9.07914,2.59802,7.69458,19.6603,19.4443,5,-14.8007,-10.4182,2.97017,0.521832,-0.21707,92,97,98,98,94,8,88,96,97,97,99,12
-0.0382721,10,-0.405648,-0.695763,-14.3489,27.5145,-13.1739,0.405648,-0.405648,-0.695763,-14.1402,27.5145,-13.3826,0.405648,4.21594,15.3191,4.30052,5,4.97414,-9.0791,2.59775,7.69475,19.6604,19.4444,5,-14.8008,-10.4182,2.97011,0.521822,-0.217067,92,97,98,98,94,8,88,96,97,97,99,12
-0.0383605,10,-0.405643,-0.69575,-14.3505,27.5156,-13.1742,0.405643,-0.405643,-0.69575,-14.1418,27.5156,-13.3829,0.405643,4.21619,15.3192,4.30053,5,4.97408,-9.07907,2.59747,7.69494,19.6605,19.4445,5,-14.8009,-10.4183,2.97005,0.521813,-0.217065,92,97,98,98,94,8,88,96,97,97,99,12
-0.0384549,10,-0.405639,-0.695737,-14.3506,27.5156,-13.1742,0.405639,-0.405639,-0.695737,-14.1418,27.5156,-13.3829,0.405639,4.21646,15.3194,4.30054,5,4.97403,-9.07904,2.59718,7.69514,19.6606,19.4446,5,-14.8009,-10.4183,2.97,0.521803,-0.217063,92,97,98,98,94,8,88,96,97,97,99,12
-0.0385558,10,-0.405635,-0.695725,-14.3506,27.5156,-13.1742,0.405635,-0.405635,-0.695725,-14.1419,27.5156,-13.3829,0.405635,4.21673,15.3195,4.30056,5,4.97398,-9.07901,2.59688,7.69535,19.6607,19.4448,5,-14.801,-10.4184,2.96994,0.521793,-0.21706,92,97,98,98,94,8,88,96,97,97,99,12
-0.0386632,10,-0.40563,-0.695712,-14.3506,27.5156,-13.1741,0.40563,-0.40563,-0.695712,-14.1419,27.5156,-13.3829,0.40563,4.21702,15.3197,4.30058,5,4.97392,-9.07899,2.59657,7.69558,19.6608,19.4449,5,-14.8011,-10.4184,2.96988,0.521784,-0.217058,92,97,98,98,94,8,88,96,97,97,99,12
-0.0387773,10,-0.405624,-0.695699,-14.3506,27.5156,-13.1741,0.405624,-0.405624,-0.695699,-14.1419,27.5156,-13.3828,0.405624,4.21732,15.3199,4.3006,5,4.97387,-9.07898,2.59624,7.69582,19.6609,19.4451,5,-14.8011,-10.4185,2.96982,0.521775,-0.217055,92,97,98,98,94,8,88,96,97,97,99,12
-0.0388984,10,-0.405618,-0.695687,-14.3506,27.5156,-13.1741,0.405618,-0.405618,-0.695687,-14.1419,27.5156,-13.3828,0.405618,4.21763,15.32,4.30062,5,4.9738,-9.07897,2.5959,7.69607,19.6611,19.4453,5,-14.8012,-10.4185,2.96976,0.521765,-0.217051,92,97,98,98,94,8,88,96,97,97,99,12
-0.0390262,10,-0.40561,-0.695674,-14.3506,27.5156,-13.1741,0.40561,-0.40561,-0.695674,-14.1419,27.5156,-13.3828,0.40561,4.21796,15.3202,4.30064,5,4.97373,-9.07897,2.59554,7.69633,19.6612,19.4454,5,-14.8013,-10.4186,2.96969,0.521756,-0.217047,92,97,98,98,94,8,88,96,97,97,99,12
-0.0391608,10,-0.405602,-0.695662,-14.3507,27.5156,-13.1741,0.405602,-0.405602,-0.695662,-14.142,27.5156,-13.3828,0.405602,4.2183,15.3204,4.30065,5,4.97365,-9.07898,2.59516,7.6966,19.6613,19.4457,5,-14.8014,-10.4186,2.96962,0.521746,-0.217042,92,97,98,98,94,8,88,96,97,97,99,12
-0.0393028,10,-0.405592,-0.695649,-14.3507,27.5156,-13.174,0.405592,-0.405592,-0.695649,-14.142,27.5156,-13.3827,0.405592,4.21865,15.3207,4.30067,5,4.97355,-9.07901,2.59477,7.6969,19.6614,19.4459,5,-14.8016,-10.4187,2.96953,0.521737,-0.217037,92,97,98,98,94,8,88,96,97,97,99,12
-0.0394517,10,-0.405581,-0.695636,-14.3507,27.5156,-13.174,0.405581,-0.405581,-0.695636,-14.142,27.5156,-13.3827,0.405581,4.21902,15.3209,4.30069,5,4.97343,-9.07904,2.59435,7.6972,19.6615,19.4461,5,-14.8018,-10.4187,2.96944,0.521727,-0.217031,92,97,98,98,94,8,88,96,97,97,99,12
-0.0396069,10,-0.405568,-0.695623,-14.3507,27.5156,-13.174,0.405568,-0.405568,-0.695623,-14.1421,27.5156,-13.3827,0.405568,4.21941,15.3211,4.30071,5,4.97329,-9.07909,2.59392,7.69752,19.6616,19.4464,5,-14.8021,-10.4187,2.96934,0.521717,-0.217024,92,97,98,98,94,8,88,96,97,97,99,12
-0.0397678,10,-0.405555,-0.695609,-14.3508,27.5156,-13.174,0.405555,-0.405555,-0.695609,-14.1421,27.5156,-13.3826,0.405555,4.2198,15.3214,4.30073,5,4.97314,-9.07915,2.59348,7.69785,19.6617,19.4467,5,-14.8023,-10.4188,2.96923,0.521707,-0.217017,92,97,98,98,94,8,88,96,97,97,99,12
-0.0399339,10,-0.40554,-0.695596,-14.3508,27.5156,-13.1739,0.40554,-0.40554,-0.695596,-14.1421,27.5156,-13.3826,0.40554,4.22021,15.3217,4.30074,5,4.97298,-9.07922,2.59302,7.69819,19.6618,19.447,5,-14.8026,-10.4188,2.96912,0.521697,-0.217009,92,97,98,98,94,8,88,96,97,97,99,12
-0.0401047,10,-0.405524,-0.695582,-14.3508,27.5156,-13.1739,0.405524,-0.405524,-0.695582,-14.1422,27.5156,-13.3826,0.405524,4.22063,15.322,4.30075,5,4.9728,-9.0793,2.59256,7.69853,19.662,19.4473,5,-14.803,-10.4188,2.969,0.521686,-0.217,92,97,98,98,94,8,88,96,97,97,99,12
-0.0402795,10,-0.405507,-0.695567,-14.3523,27.5167,-13.1742,0.405507,-0.405507,-0.695567,-14.1437,27.5167,-13.3829,0.405507,4.22105,15.3222,4.30076,5,4.97262,-9.0794,2.59208,7.69889,19.6621,19.4476,5,-14.8034,-10.4188,2.96888,0.521675,-0.216991,92,97,98,98,94,8,88,96,97,97,99,12
-0.0404581,10,-0.405489,-0.695553,-14.3524,27.5167,-13.1742,0.405489,-0.405489,-0.695553,-14.1437,27.5167,-13.3828,0.405489,4.22148,15.3225,4.30077,5,4.97242,-9.0795,2.5916,7.69924,19.6622,19.448,5,-14.8038,-10.4189,2.96876,0.521665,-0.216981,92,97,98,98,94,8,88,96,97,97,99,12
-0.0406398,10,-0.40547,-0.695538,-14.3524,27.5167,-13.1741,0.40547,-0.40547,-0.695538,-14.1437,27.5167,-13.3828,0.40547,4.22192,15.3229,4.30077,5,4.97222,-9.07962,2.59111,7.69961,19.6623,19.4483,5,-14.8042,-10.4189,2.96863,0.521654,-0.21697,92,97,98,98,94,8,88,96,97,97,99,12
-0.0408242,10,-0.40545,-0.695523,-14.3524,27.5167,-13.1741,0.40545,-0.40545,-0.695523,-14.1438,27.5167,-13.3828,0.40545,4.22236,15.3232,4.30077,5,4.97201,-9.07975,2.59061,7.69997,19.6624,19.4487,5,-14.8047,-10.4189,2.9685,0.521642,-0.21696,92,97,98,98,94,8,88,96,97,97,99,12
-0.0410105,10,-0.40543,-0.695507,-14.3525,27.5167,-13.1741,0.40543,-0.40543,-0.695507,-14.1438,27.5167,-13.3827,0.40543,4.22281,15.3235,4.30077,5,4.97179,-9.07988,2.59011,7.70034,19.6625,19.449,5,-14.8052,-10.4189,2.96837,0.52163,-0.216949,92,97,98,98,94,8,88,96,97,97,99,12
-0.0411984,10,-0.40541,-0.69549,-14.3525,27.5167,-13.174,0.40541,-0.40541,-0.69549,-14.1439,27.5167,-13.3827,0.40541,4.22326,15.3238,4.30078,5,4.97155,-9.08002,2.5896,7.70072,19.6625,19.4493,5,-14.8057,-10.4189,2.96823,0.521618,-0.216938,92,97,98,98,94,8,88,96,97,97,99,12
-0.0413874,10,-0.40539,-0.695473,-14.3525,27.5167,-13.174,0.40539,-0.40539,-0.695473,-14.1439,27.5167,-13.3826,0.40539,4.22372,15.3241,4.3008,5,4.97129,-9.08018,2.58908,7.70109,19.6626,19.4496,5,-14.8062,-10.4189,2.96809,0.521605,-0.216927,92,97,98,98,94,8,88,96,97,97,99,12
-0.0415767,10,-0.405371,-0.695455,-14.3525,27.5167,-13.174,0.405371,-0.405371,-0.695455,-14.1439,27.5167,-13.3826,0.405371,4.22419,15.3244,4.30083,5,4.97101,-9.08033,2.58855,7.70146,19.6627,19.4499,5,-14.8068,-10.4189,2.96794,0.521591,-0.216916,92,97,98,98,94,8,88,96,97,97,99,12
-0.0417661,10,-0.405352,-0.695435,-14.3526,27.5167,-13.1739,0.405352,-0.405352,-0.695435,-14.1439,27.5167,-13.3826,0.405352,4.22466,15.3247,4.30087,5,4.97071,-9.0805,2.58801,7.70184,19.6628,19.4502,5,-14.8074,-10.419,2.96779,0.521577,-0.216906,92,97,98,98,94,8,88,96,97,97,99,12
-0.0419551,10,-0.405335,-0.695415,-14.3526,27.5167,-13.1739,0.405335,-0.405335,-0.695415,-14.144,27.5167,-13.3825,0.405335,4.22514,15.325,4.30092,5,4.9704,-9.08067,2.58745,7.70221,19.6629,19.4504,5,-14.8079,-10.419,2.96762,0.521561,-0.216897,92,97,98,98,94,8,88,96,97,97,99,12
-0.0421432,10,-0.405318,-0.695393,-14.3526,27.5167,-13.1739,0.405318,-0.405318,-0.695393,-14.144,27.5167,-13.3825,0.405318,4.22562,15.3252,4.30099,5,4.97006,-9.08085,2.58689,7.70259,19.663,19.4506,5,-14.8085,-10.419,2.96745,0.521545,-0.216888,92,97,98,98,94,8,88,96,97,97,99,12
-0.0423301,10,-0.405303,-0.69537,-14.3526,27.5167,-13.1738,0.405303,-0.405303,-0.69537,-14.144,27.5167,-13.3825,0.405303,4.22611,15.3255,4.30107,5,4.9697,-9.08103,2.58631,7.70296,19.6631,19.4507,5,-14.8091,-10.4191,2.96727,0.521528,-0.21688,92,97,98,98,94,8,88,96,97,97,99,12
-0.0425154,10,-0.405289,-0.695347,-14.3527,27.5167,-13.1738,0.405289,-0.405289,-0.695347,-14.1441,27.5167,-13.3824,0.405289,4.22659,15.3257,4.30118,5,4.96932,-9.08121,2.58572,7.70333,19.6631,19.4508,5,-14.8097,-10.4192,2.96708,0.52151,-0.216872,92,97,98,98,94,8,88,96,97,97,99,12
-0.0426987,10,-0.405276,-0.695324,-14.3527,27.5167,-13.1738,0.405276,-0.405276,-0.695324,-14.1441,27.5167,-13.3824,0.405276,4.22708,15.3259,4.3013,5,4.96893,-9.0814,2.58512,7.7037,19.6632,19.4509,5,-14.8103,-10.4192,2.96689,0.521493,-0.216865,92,97,98,98,94,8,88,96,97,97,99,12
-0.0428797,10,-0.405265,-0.6953,-14.3526,27.5166,-13.1737,0.405265,-0.405265,-0.6953,-14.144,27.5166,-13.3823,0.405265,4.22757,15.3261,4.30144,5,4.96851,-9.08158,2.5845,7.70407,19.6633,19.4509,5,-14.8108,-10.4193,2.96668,0.521475,-0.216859,92,97,98,98,94,8,88,96,97,97,99,12
-0.0430588,10,-0.405255,-0.695276,-14.3527,27.5166,-13.1737,0.405255,-0.405255,-0.695276,-14.1441,27.5166,-13.3823,0.405255,4.22806,15.3263,4.3016,5,4.96807,-9.08177,2.58388,7.70445,19.6634,19.4509,5,-14.8114,-10.4194,2.96647,0.521457,-0.216853,92,97,98,98,94,8,88,96,97,97,99,12
-0.0432353,10,-0.405246,-0.695253,-14.3527,27.5166,-13.1737,0.405246,-0.405246,-0.695253,-14.1441,27.5166,-13.3822,0.405246,4.22855,15.3265,4.30178,5,4.96762,-9.08196,2.58324,7.70482,19.6634,19.4509,5,-14.812,-10.4195,2.96625,0.52144,-0.216848,92,97,98,98,94,8,88,96,97,97,99,12
-0.0434086,10,-0.405238,-0.69523,-14.3527,27.5166,-13.1736,0.405238,-0.405238,-0.69523,-14.1441,27.5166,-13.3822,0.405238,4.22904,15.3266,4.30199,5,4.96714,-9.08215,2.58259,7.70519,19.6635,19.4508,5,-14.8125,-10.4196,2.96603,0.521422,-0.216844,92,97,98,98,94,8,88,96,97,97,99,12
-0.0435781,10,-0.405233,-0.695206,-14.3527,27.5166,-13.1736,0.405233,-0.405233,-0.695206,-14.1442,27.5166,-13.3822,0.405233,4.22953,15.3267,4.30221,5,4.96666,-9.08234,2.58193,7.70556,19.6636,19.4507,5,-14.813,-10.4197,2.96579,0.521405,-0.216842,92,97,98,98,94,8,88,96,97,97,99,12
-0.0437432,10,-0.40523,-0.695182,-14.3528,27.5166,-13.1736,0.40523,-0.40523,-0.695182,-14.1442,27.5166,-13.3821,0.40523,4.23001,15.3268,4.30244,5,4.96616,-9.08253,2.58125,7.70592,19.6636,19.4506,5,-14.8135,-10.4199,2.96555,0.521387,-0.21684,92,97,98,98,94,8,88,96,97,97,99,12
-0.0439036,10,-0.40523,-0.695158,-14.3528,27.5166,-13.1735,0.40523,-0.40523,-0.695158,-14.1443,27.5166,-13.3821,0.40523,4.23049,15.3269,4.30269,5,4.96565,-9.08273,2.58056,7.70628,19.6637,19.4504,5,-14.814,-10.42,2.9653,0.521368,-0.21684,92,97,98,98,94,8,88,96,97,97,99,12
-0.044059,10,-0.405232,-0.695132,-14.3528,27.5166,-13.1735,0.405232,-0.405232,-0.695132,-14.1443,27.5166,-13.3821,0.405232,4.23096,15.327,4.30295,5,4.96514,-9.08294,2.57986,7.70662,19.6638,19.4502,5,-14.8145,-10.4202,2.96504,0.521349,-0.216841,92,97,98,98,94,8,88,96,97,97,99,12
-0.0442082,10,-0.405239,-0.695105,-14.3529,27.5166,-13.1735,0.405239,-0.405239,-0.695105,-14.1443,27.5166,-13.382,0.405239,4.23143,15.327,4.30322,5,4.96463,-9.08315,2.57915,7.70695,19.6639,19.45,5,-14.8149,-10.4204,2.96476,0.521329,-0.216845,92,97,98,98,94,8,88,96,97,97,99,12
-0.0443515,10,-0.405249,-0.695077,-14.3529,27.5166,-13.1735,0.405249,-0.405249,-0.695077,-14.1444,27.5166,-13.382,0.405249,4.23189,15.327,4.30349,5,4.96411,-9.08337,2.57842,7.70727,19.664,19.4498,5,-14.8153,-10.4206,2.96448,0.521308,-0.21685,92,97,98,98,94,8,88,96,97,97,99,12
-0.044489,10,-0.405262,-0.695048,-14.3529,27.5166,-13.1734,0.405262,-0.405262,-0.695048,-14.1444,27.5166,-13.3819,0.405262,4.23234,15.327,4.30376,5,4.96359,-9.08359,2.57767,7.70758,19.6641,19.4496,5,-14.8157,-10.4208,2.96419,0.521286,-0.216858,92,97,98,98,94,8,88,96,97,97,99,12
-0.0446211,10,-0.405278,-0.695018,-14.3529,27.5166,-13.1734,0.405278,-0.405278,-0.695018,-14.1444,27.5166,-13.3819,0.405278,4.23278,15.3269,4.30405,5,4.96307,-9.08382,2.57693,7.70788,19.6642,19.4493,5,-14.8161,-10.4211,2.96389,0.521264,-0.216866,92,97,98,98,94,8,88,96,97,97,99,12
-0.0447479,10,-0.405296,-0.694988,-14.353,27.5166,-13.1734,0.405296,-0.405296,-0.694988,-14.1445,27.5166,-13.3819,0.405296,4.23322,15.3269,4.30434,5,4.96255,-9.08405,2.57617,7.70816,19.6644,19.4491,5,-14.8164,-10.4213,2.96359,0.521241,-0.216876,92,97,98,98,94,8,88,96,97,97,99,12
-0.0448696,10,-0.405315,-0.694958,-14.353,27.5166,-13.1734,0.405315,-0.405315,-0.694958,-14.1445,27.5166,-13.3818,0.405315,4.23365,15.3268,4.30463,5,4.96203,-9.08429,2.57542,7.70844,19.6645,19.4488,5,-14.8168,-10.4216,2.96328,0.521219,-0.216886,92,97,98,98,94,8,88,96,97,97,99,12
-0.0449864,10,-0.405336,-0.694928,-14.3519,27.5158,-13.1731,0.405336,-0.405336,-0.694928,-14.1435,27.5158,-13.3816,0.405336,4.23408,15.3267,4.30493,5,4.9615,-9.08452,2.57466,7.70872,19.6646,19.4485,5,-14.8171,-10.4218,2.96297,0.521196,-0.216898,92,97,98,98,95,8,87,96,97,97,99,12
-0.0450948,10,-0.405357,-0.694899,-14.352,27.5158,-13.1731,0.405357,-0.405357,-0.694899,-14.1435,27.5158,-13.3815,0.405357,4.23449,15.3266,4.30524,5,4.96098,-9.08475,2.57391,7.70899,19.6648,19.4482,5,-14.8174,-10.4221,2.96267,0.521174,-0.216909,92,97,98,98,95,8,87,96,97,97,99,12
-0.0451967,10,-0.405377,-0.694871,-14.352,27.5158,-13.1731,0.405377,-0.405377,-0.694871,-14.1435,27.5158,-13.3815,0.405377,4.2349,15.3265,4.30556,5,4.96045,-9.08498,2.57317,7.70925,19.6649,19.4479,5,-14.8177,-10.4224,2.96236,0.521153,-0.21692,92,97,98,98,95,8,87,96,97,97,99,12
-0.045294,10,-0.405399,-0.694843,-14.352,27.5158,-13.173,0.405399,-0.405399,-0.694843,-14.1435,27.5158,-13.3815,0.405399,4.2353,15.3264,4.30588,5,4.95993,-9.0852,2.57243,7.70951,19.665,19.4475,5,-14.818,-10.4226,2.96205,0.521132,-0.216932,92,97,98,98,95,8,87,96,97,97,99,12
-0.045388,10,-0.405422,-0.694815,-14.352,27.5158,-13.173,0.405422,-0.405422,-0.694815,-14.1436,27.5158,-13.3815,0.405422,4.23569,15.3263,4.30619,5,4.95941,-9.08543,2.57169,7.70976,19.6652,19.4472,5,-14.8183,-10.4229,2.96175,0.521111,-0.216944,92,97,98,98,95,8,87,96,97,97,99,12
-0.0454796,10,-0.405446,-0.694786,-14.352,27.5158,-13.173,0.405446,-0.405446,-0.694786,-14.1436,27.5158,-13.3814,0.405446,4.23607,15.3262,4.30651,5,4.9589,-9.08565,2.57096,7.71,19.6653,19.4469,5,-14.8185,-10.4232,2.96144,0.521089,-0.216958,92,97,98,98,95,8,87,96,97,97,99,12
-0.0455696,10,-0.405472,-0.694757,-14.3521,27.5158,-13.173,0.405472,-0.405472,-0.694757,-14.1436,27.5158,-13.3814,0.405472,4.23645,15.326,4.30681,5,4.9584,-9.08588,2.57024,7.71023,19.6655,19.4466,5,-14.8188,-10.4235,2.96113,0.521067,-0.216972,92,97,98,98,95,8,87,96,97,97,99,12
-0.0456584,10,-0.405501,-0.694726,-14.3518,27.5156,-13.1729,0.405501,-0.405501,-0.694726,-14.1434,27.5156,-13.3813,0.405501,4.23681,15.3259,4.30711,5,4.95792,-9.08611,2.56952,7.71044,19.6656,19.4462,5,-14.819,-10.4238,2.96082,0.521045,-0.216987,92,97,98,98,95,8,87,96,97,97,99,13
-0.0457514,10,-0.405532,-0.694694,-14.3518,27.5156,-13.1729,0.405532,-0.405532,-0.694694,-14.1434,27.5156,-13.3813,0.405532,4.23717,15.3257,4.30738,5,4.95746,-9.08635,2.5688,7.71064,19.6658,19.446,5,-14.8192,-10.424,2.96051,0.52102,-0.217005,92,97,98,98,95,8,87,96,97,97,99,13
-0.045846,10,-0.405567,-0.69466,-14.3518,27.5156,-13.1729,0.405567,-0.405567,-0.69466,-14.1434,27.5156,-13.3813,0.405567,4.23752,15.3255,4.30765,5,4.95701,-9.08659,2.56808,7.71082,19.6659,19.4457,5,-14.8194,-10.4243,2.9602,0.520995,-0.217023,92,97,98,98,95,8,87,96,97,97,99,13
-0.0459394,10,-0.405604,-0.694624,-14.3518,27.5156,-13.1728,0.405604,-0.405604,-0.694624,-14.1434,27.5156,-13.3812,0.405604,4.23785,15.3253,4.30789,5,4.95659,-9.08683,2.56736,7.71098,19.6661,19.4454,5,-14.8196,-10.4246,2.95989,0.520968,-0.217043,92,97,98,98,95,8,87,96,97,97,99,13
-0.0460293,10,-0.405643,-0.694587,-14.3518,27.5156,-13.1728,0.405643,-0.405643,-0.694587,-14.1435,27.5156,-13.3812,0.405643,4.23818,15.325,4.30811,5,4.95619,-9.08708,2.56665,7.71112,19.6663,19.4452,5,-14.8198,-10.4249,2.95958,0.520941,-0.217065,92,97,98,98,95,8,87,96,97,97,99,13
-0.0461135,10,-0.405685,-0.694549,-14.3519,27.5156,-13.1728,0.405685,-0.405685,-0.694549,-14.1435,27.5156,-13.3812,0.405685,4.2385,15.3248,4.30831,5,4.95581,-9.08733,2.56595,7.71125,19.6665,19.445,5,-14.82,-10.4252,2.95927,0.520912,-0.217088,92,97,98,98,95,8,87,96,97,97,99,13
-0.04619,10,-0.405729,-0.694509,-14.3519,27.5156,-13.1728,0.405729,-0.405729,-0.694509,-14.1435,27.5156,-13.3812,0.405729,4.23881,15.3245,4.30848,5,4.95546,-9.08758,2.56525,7.71136,19.6667,19.4449,5,-14.8201,-10.4255,2.95896,0.520882,-0.217112,92,97,98,98,95,8,87,96,97,97,99,13
-0.0462571,10,-0.405775,-0.694468,-14.3519,27.5156,-13.1728,0.405775,-0.405775,-0.694468,-14.1435,27.5156,-13.3811,0.405775,4.23912,15.3242,4.30862,5,4.95514,-9.08784,2.56456,7.71146,19.6669,19.4447,5,-14.8203,-10.4258,2.95865,0.520851,-0.217137,92,97,98,98,95,8,87,96,97,97,99,13
-0.0463154,10,-0.405822,-0.694426,-14.3519,27.5156,-13.1728,0.405822,-0.405822,-0.694426,-14.1436,27.5156,-13.3811,0.405822,4.23941,15.3239,4.30876,5,4.95484,-9.08809,2.56388,7.71154,19.6672,19.4446,5,-14.8204,-10.4261,2.95834,0.520819,-0.217162,92,97,98,98,95,8,87,96,97,97,99,13
-0.0463625,10,-0.405872,-0.694382,-14.3519,27.5156,-13.1728,0.405872,-0.405872,-0.694382,-14.1436,27.5156,-13.3811,0.405872,4.2397,15.3236,4.30886,5,4.95456,-9.08834,2.56321,7.71162,19.6674,19.4446,5,-14.8206,-10.4264,2.95803,0.520787,-0.217189,92,97,98,98,95,8,87,96,97,97,99,13
-0.046396,10,-0.405922,-0.694338,-14.3519,27.5156,-13.1728,0.405922,-0.405922,-0.694338,-14.1436,27.5156,-13.3811,0.405922,4.23999,15.3233,4.30894,5,4.95431,-9.0886,2.56254,7.71168,19.6676,19.4445,5,-14.8207,-10.4267,2.95773,0.520753,-0.217217,92,97,98,98,95,8,87,96,97,97,99,13
-0.0464143,10,-0.405974,-0.694292,-14.3519,27.5156,-13.1728,0.405974,-0.405974,-0.694292,-14.1436,27.5156,-13.3811,0.405974,4.24026,15.323,4.30897,5,4.9541,-9.08885,2.56188,7.71172,19.6679,19.4445,5,-14.8209,-10.427,2.95743,0.520719,-0.217245,92,97,98,98,95,8,87,96,97,97,99,13
-0.0464158,10,-0.406028,-0.694245,-14.3519,27.5156,-13.1728,0.406028,-0.406028,-0.694245,-14.1436,27.5156,-13.381,0.406028,4.24053,15.3226,4.30895,5,4.95392,-9.08911,2.56122,7.71176,19.6681,19.4446,5,-14.821,-10.4273,2.95713,0.520684,-0.217274,92,97,98,98,95,8,87,96,97,97,99,13
-0.0463996,10,-0.406082,-0.694197,-14.3519,27.5156,-13.1728,0.406082,-0.406082,-0.694197,-14.1437,27.5156,-13.381,0.406082,4.24079,15.3223,4.30888,5,4.95379,-9.08938,2.56055,7.71178,19.6684,19.4447,5,-14.8211,-10.4276,2.95684,0.520648,-0.217304,92,97,98,98,95,8,87,96,97,97,99,13
-0.0463649,10,-0.406138,-0.694148,-14.3517,27.5155,-13.1727,0.406138,-0.406138,-0.694148,-14.1435,27.5155,-13.381,0.406138,4.24104,15.3219,4.30876,5,4.9537,-9.08964,2.55988,7.71178,19.6686,19.4448,5,-14.8213,-10.4278,2.95656,0.520611,-0.217334,92,97,98,98,95,8,87,96,97,97,99,13
-0.046304,10,-0.406194,-0.694099,-14.3517,27.5155,-13.1727,0.406194,-0.406194,-0.694099,-14.1435,27.5155,-13.3809,0.406194,4.24129,15.3216,4.30857,5,4.95366,-9.08992,2.5592,7.71178,19.6689,19.445,5,-14.8215,-10.4281,2.95628,0.520574,-0.217365,92,97,98,98,95,8,87,96,97,97,99,13
-0.0462204,10,-0.406252,-0.694048,-14.3517,27.5155,-13.1727,0.406252,-0.406252,-0.694048,-14.1435,27.5155,-13.3809,0.406252,4.24152,15.3212,4.30831,5,4.95367,-9.0902,2.55851,7.71177,19.6691,19.4453,5,-14.8217,-10.4283,2.95601,0.520536,-0.217396,92,97,98,98,95,8,87,96,97,97,99,13
-0.0461172,10,-0.40631,-0.693997,-14.3517,27.5155,-13.1727,0.40631,-0.40631,-0.693997,-14.1435,27.5155,-13.3809,0.40631,4.24175,15.3208,4.30798,5,4.95373,-9.09048,2.55781,7.71174,19.6694,19.4456,5,-14.8219,-10.4285,2.95575,0.520498,-0.217428,92,97,98,98,95,8,87,96,97,97,99,13
-0.0459972,10,-0.406369,-0.693945,-14.3517,27.5155,-13.1727,0.406369,-0.406369,-0.693945,-14.1436,27.5155,-13.3809,0.406369,4.24198,15.3205,4.3076,5,4.95383,-9.09077,2.5571,7.7117,19.6697,19.4459,5,-14.8221,-10.4286,2.95549,0.520459,-0.21746,92,97,98,98,95,8,87,96,97,97,99,13
-0.045863,10,-0.406428,-0.693891,-14.3517,27.5155,-13.1727,0.406428,-0.406428,-0.693891,-14.1436,27.5155,-13.3809,0.406428,4.2422,15.3201,4.30715,5,4.95397,-9.09106,2.55639,7.71165,19.6699,19.4463,5,-14.8223,-10.4288,2.95524,0.520418,-0.217492,92,97,98,98,95,8,87,96,97,97,99,13
-0.0457166,10,-0.406487,-0.693836,-14.3517,27.5155,-13.1727,0.406487,-0.406487,-0.693836,-14.1436,27.5155,-13.3809,0.406487,4.24241,15.3197,4.30665,5,4.95416,-9.09135,2.55566,7.71159,19.6702,19.4468,5,-14.8226,-10.4289,2.955,0.520377,-0.217524,92,97,98,98,95,8,87,96,97,97,99,13
-0.04556,10,-0.406546,-0.693779,-14.35,27.5142,-13.1724,0.406546,-0.406546,-0.693779,-14.1419,27.5142,-13.3805,0.406546,4.24263,15.3193,4.30609,5,4.95438,-9.09164,2.55493,7.71152,19.6704,19.4473,5,-14.8228,-10.429,2.95477,0.520335,-0.217556,92,97,98,98,95,8,87,96,97,97,99,13
-0.0453984,10,-0.406604,-0.693721,-14.35,27.5142,-13.1724,0.406604,-0.406604,-0.693721,-14.1419,27.5142,-13.3805,0.406604,4.24284,15.3189,4.30548,5,4.95464,-9.09192,2.55419,7.71144,19.6707,19.4479,5,-14.8231,-10.4291,2.95454,0.520291,-0.217588,92,97,98,98,95,8,87,96,97,97,99,13
-0.0452313,10,-0.406663,-0.69366,-14.35,27.5142,-13.1724,0.406663,-0.406663,-0.69366,-14.1419,27.5142,-13.3805,0.406663,4.24305,15.3186,4.30482,5,4.95493,-9.09221,2.55344,7.71135,19.671,19.4484,5,-14.8234,-10.4292,2.95433,0.520245,-0.21762,92,97,98,98,95,8,87,96,97,97,99,13
-0.0450578,10,-0.406721,-0.693598,-14.35,27.5142,-13.1724,0.406721,-0.406721,-0.693598,-14.1419,27.5142,-13.3804,0.406721,4.24326,15.3182,4.30411,5,4.95525,-9.09249,2.55268,7.71125,19.6712,19.4491,5,-14.8238,-10.4292,2.95412,0.520199,-0.217652,92,97,98,98,95,8,87,96,97,97,99,13
-0.0448775,10,-0.406778,-0.693535,-14.35,27.5142,-13.1724,0.406778,-0.406778,-0.693535,-14.142,27.5142,-13.3804,0.406778,4.24346,15.3178,4.30337,5,4.9556,-9.09276,2.55192,7.71114,19.6715,19.4497,5,-14.8241,-10.4293,2.95392,0.520151,-0.217683,92,97,98,98,95,8,87,96,97,97,99,13
-0.0446898,10,-0.406835,-0.69347,-14.35,27.5142,-13.1724,0.406835,-0.406835,-0.69347,-14.142,27.5142,-13.3804,0.406835,4.24367,15.3174,4.30259,5,4.95597,-9.09304,2.55116,7.71102,19.6717,19.4504,5,-14.8245,-10.4293,2.95373,0.520103,-0.217714,92,97,98,98,95,8,87,96,97,97,99,13
-0.0444943,10,-0.406891,-0.693404,-14.35,27.5142,-13.1724,0.406891,-0.406891,-0.693404,-14.142,27.5142,-13.3804,0.406891,4.24388,15.3171,4.30179,5,4.95636,-9.09331,2.5504,7.7109,19.6719,19.4511,5,-14.8248,-10.4293,2.95355,0.520053,-0.217744,92,97,98,98,95,8,87,96,97,97,99,13
-0.0442907,10,-0.406946,-0.693338,-14.3494,27.5138,-13.1723,0.406946,-0.406946,-0.693338,-14.1414,27.5138,-13.3803,0.406946,4.24408,15.3167,4.30097,5,4.95677,-9.09358,2.54963,7.71077,19.6722,19.4519,5,-14.8252,-10.4293,2.95339,0.520003,-0.217774,92,97,98,99,95,8,87,96,97,97,99,13
-0.0440776,10,-0.407,-0.69327,-14.3494,27.5138,-13.1723,0.407,-0.407,-0.69327,-14.1414,27.5138,-13.3803,0.407,4.24428,15.3163,4.30012,5,4.9572,-9.09384,2.54887,7.71064,19.6724,19.4526,5,-14.8257,-10.4293,2.95323,0.519953,-0.217804,92,97,98,99,95,8,87,96,97,97,99,13
-0.0438552,10,-0.407053,-0.693203,-14.3494,27.5138,-13.1723,0.407053,-0.407053,-0.693203,-14.1414,27.5138,-13.3802,0.407053,4.24449,15.316,4.29927,5,4.95763,-9.0941,2.54811,7.7105,19.6726,19.4534,5,-14.8261,-10.4292,2.95308,0.519902,-0.217833,92,97,98,99,95,8,87,96,97,97,99,13
-0.0436236,10,-0.407105,-0.693134,-14.3494,27.5138,-13.1723,0.407105,-0.407105,-0.693134,-14.1414,27.5138,-13.3802,0.407105,4.24469,15.3156,4.2984,5,4.95807,-9.09436,2.54736,7.71036,19.6728,19.4542,5,-14.8265,-10.4292,2.95294,0.519851,-0.217861,92,97,98,99,95,8,87,96,97,97,99,13
-0.0433831,10,-0.407157,-0.693065,-14.3493,27.5138,-13.1723,0.407157,-0.407157,-0.693065,-14.1414,27.5138,-13.3802,0.407157,4.24489,15.3152,4.29753,5,4.95852,-9.09461,2.54661,7.71021,19.673,19.455,5,-14.827,-10.4291,2.95281,0.519799,-0.217889,92,97,98,99,95,8,87,96,97,97,99,13
-0.0431339,10,-0.407208,-0.692995,-14.3493,27.5138,-13.1723,0.407208,-0.407208,-0.692995,-14.1414,27.5138,-13.3802,0.407208,4.24509,15.3149,4.29668,5,4.95898,-9.09485,2.54586,7.71006,19.6732,19.4558,5,-14.8275,-10.429,2.9527,0.519746,-0.217917,92,97,98,99,95,8,87,96,97,97,99,13
-0.0428759,10,-0.40726,-0.692923,-14.3493,27.5138,-13.1723,0.40726,-0.40726,-0.692923,-14.1415,27.5138,-13.3802,0.40726,4.24529,15.3145,4.29583,5,4.95943,-9.09509,2.54513,7.70991,19.6734,19.4566,5,-14.8279,-10.4289,2.95259,0.519693,-0.217945,92,97,98,99,95,8,87,96,97,97,99,13
-0.0426094,10,-0.407312,-0.692851,-14.3493,27.5138,-13.1723,0.407312,-0.407312,-0.692851,-14.1415,27.5138,-13.3802,0.407312,4.2455,15.3141,4.295,5,4.95988,-9.09532,2.5444,7.70976,19.6736,19.4574,5,-14.8284,-10.4288,2.9525,0.519638,-0.217974,92,97,98,99,95,8,87,96,97,97,99,13
-0.0423377,10,-0.407364,-0.692778,-14.3493,27.5138,-13.1723,0.407364,-0.407364,-0.692778,-14.1415,27.5138,-13.3802,0.407364,4.24571,15.3138,4.29419,5,4.96033,-9.09554,2.54368,7.7096,19.6738,19.4582,5,-14.8289,-10.4287,2.95242,0.519584,-0.218002,92,97,98,99,95,8,87,96,97,97,99,13
-0.0420591,10,-0.407417,-0.692704,-14.3493,27.5138,-13.1723,0.407417,-0.407417,-0.692704,-14.1415,27.5138,-13.3801,0.407417,4.24593,15.3134,4.29341,5,4.96077,-9.09575,2.54297,7.70945,19.674,19.459,5,-14.8294,-10.4285,2.95235,0.519528,-0.218031,92,97,98,99,95,8,87,96,97,97,99,13
-0.0417722,10,-0.407471,-0.692629,-14.3493,27.5138,-13.1723,0.407471,-0.407471,-0.692629,-14.1415,27.5138,-13.3801,0.407471,4.24615,15.313,4.29265,5,4.96121,-9.09595,2.54227,7.70929,19.6742,19.4598,5,-14.8299,-10.4284,2.9523,0.519472,-0.21806,92,97,98,99,95,8,87,96,97,97,99,13
-0.041476,10,-0.407525,-0.692552,-14.3493,27.5138,-13.1724,0.407525,-0.407525,-0.692552,-14.1415,27.5138,-13.3801,0.407525,4.24637,15.3127,4.29192,5,4.96164,-9.09614,2.54158,7.70913,19.6745,19.4605,5,-14.8303,-10.4282,2.95225,0.519414,-0.21809,92,97,98,99,95,8,87,96,97,97,99,13
-0.0411694,10,-0.40758,-0.692474,-14.3493,27.5138,-13.1724,0.40758,-0.40758,-0.692474,-14.1415,27.5138,-13.3801,0.40758,4.24659,15.3123,4.29122,5,4.96206,-9.09633,2.54089,7.70896,19.6747,19.4612,5,-14.8308,-10.428,2.95221,0.519355,-0.21812,92,97,98,99,95,8,87,96,97,97,99,13
-0.0408521,10,-0.407635,-0.692394,-14.3493,27.5138,-13.1724,0.407635,-0.407635,-0.692394,-14.1416,27.5138,-13.3801,0.407635,4.24682,15.3119,4.29055,5,4.96248,-9.0965,2.54022,7.70879,19.6749,19.4618,5,-14.8312,-10.4279,2.95218,0.519295,-0.21815,92,97,98,99,95,8,87,96,97,97,99,13
-0.0405236,10,-0.407691,-0.692312,-14.3492,27.5137,-13.1724,0.407691,-0.407691,-0.692312,-14.1415,27.5137,-13.3801,0.407691,4.24706,15.3116,4.28992,5,4.96288,-9.09667,2.53954,7.70862,19.6752,19.4624,5,-14.8317,-10.4277,2.95216,0.519234,-0.21818,92,97,98,99,95,8,87,96,97,97,99,13
-0.0401804,10,-0.407747,-0.692226,-14.3491,27.5137,-13.1724,0.407747,-0.407747,-0.692226,-14.1415,27.5137,-13.38,0.407747,4.2473,15.3112,4.28932,5,4.96327,-9.09683,2.53887,7.70843,19.6754,19.463,5,-14.832,-10.4275,2.95213,0.51917,-0.21821,92,97,98,99,95,8,87,96,97,97,99,13
-0.0398243,10,-0.407803,-0.692138,-14.3491,27.5137,-13.1724,0.407803,-0.407803,-0.692138,-14.1415,27.5137,-13.38,0.407803,4.24754,15.3108,4.28875,5,4.96365,-9.09697,2.5382,7.70824,19.6757,19.4635,5,-14.8324,-10.4273,2.95211,0.519104,-0.218241,92,97,98,99,95,8,87,96,97,97,99,13
-0.0394571,10,-0.40786,-0.692048,-14.3491,27.5137,-13.1724,0.40786,-0.40786,-0.692048,-14.1415,27.5137,-13.38,0.40786,4.24779,15.3105,4.28822,5,4.96402,-9.09711,2.53754,7.70803,19.6759,19.4639,5,-14.8327,-10.4271,2.95209,0.519036,-0.218272,92,97,98,99,95,8,87,96,97,97,99,13
-0.0390803,10,-0.407917,-0.691957,-14.3491,27.5137,-13.1724,0.407917,-0.407917,-0.691957,-14.1415,27.5137,-13.38,0.407917,4.24804,15.3102,4.28772,5,4.96438,-9.09724,2.53688,7.70783,19.6762,19.4643,5,-14.833,-10.4269,2.95207,0.518968,-0.218303,92,97,98,99,95,8,87,96,97,97,99,13
-0.0386955,10,-0.407973,-0.691866,-14.3491,27.5137,-13.1724,0.407973,-0.407973,-0.691866,-14.1415,27.5137,-13.38,0.407973,4.24829,15.3098,4.28724,5,4.96473,-9.09736,2.53623,7.70762,19.6765,19.4646,5,-14.8333,-10.4268,2.95206,0.518899,-0.218334,92,97,98,99,95,8,87,96,97,97,99,13
-0.0383042,10,-0.408029,-0.691774,-14.3491,27.5137,-13.1724,0.408029,-0.408029,-0.691774,-14.1416,27.5137,-13.38,0.408029,4.24854,15.3095,4.28678,5,4.96508,-9.09748,2.53559,7.70741,19.6768,19.465,5,-14.8336,-10.4266,2.95205,0.51883,-0.218364,92,97,98,99,95,8,87,96,97,97,99,13
-0.037908,10,-0.408085,-0.691682,-14.3491,27.5137,-13.1724,0.408085,-0.408085,-0.691682,-14.1416,27.5137,-13.3799,0.408085,4.24879,15.3092,4.28635,5,4.96541,-9.09759,2.53496,7.7072,19.6771,19.4653,5,-14.8338,-10.4264,2.95204,0.518762,-0.218394,92,97,98,99,95,8,87,96,97,97,99,13
-0.0375073,10,-0.408139,-0.691593,-14.3491,27.5137,-13.1725,0.408139,-0.408139,-0.691593,-14.1416,27.5137,-13.3799,0.408139,4.24903,15.3088,4.28592,5,4.96574,-9.09769,2.53434,7.707,19.6773,19.4656,5,-14.8341,-10.4262,2.95203,0.518695,-0.218424,92,97,98,99,95,8,87,96,97,97,99,13
-0.0371037,10,-0.408193,-0.691506,-14.349,27.5137,-13.1725,0.408193,-0.408193,-0.691506,-14.1416,27.5137,-13.3799,0.408193,4.24927,15.3085,4.28551,5,4.96607,-9.0978,2.53373,7.7068,19.6776,19.4659,5,-14.8344,-10.426,2.95203,0.51863,-0.218453,92,97,98,99,95,8,87,96,97,97,99,13
-0.0366988,10,-0.408246,-0.69142,-14.349,27.5137,-13.1725,0.408246,-0.408246,-0.69142,-14.1416,27.5137,-13.3799,0.408246,4.24951,15.3082,4.28512,5,4.96639,-9.0979,2.53314,7.70661,19.6779,19.4661,5,-14.8346,-10.4258,2.95203,0.518565,-0.218482,92,97,98,99,95,8,87,96,97,97,99,13
-0.0362938,10,-0.408298,-0.691333,-14.349,27.5137,-13.1725,0.408298,-0.408298,-0.691333,-14.1416,27.5137,-13.3799,0.408298,4.24974,15.3079,4.28474,5,4.9667,-9.09799,2.53255,7.70641,19.6782,19.4664,5,-14.8348,-10.4256,2.95204,0.5185,-0.218511,92,97,98,99,95,8,87,96,97,97,99,13
-0.03589,10,-0.40835,-0.691247,-14.349,27.5137,-13.1725,0.40835,-0.40835,-0.691247,-14.1416,27.5137,-13.3799,0.40835,4.24998,15.3076,4.28439,5,4.967,-9.09808,2.53197,7.70621,19.6784,19.4666,5,-14.835,-10.4254,2.95204,0.518435,-0.218539,92,97,98,99,95,8,87,96,97,97,99,13
-0.0354885,10,-0.408402,-0.691159,-14.349,27.5137,-13.1725,0.408402,-0.408402,-0.691159,-14.1417,27.5137,-13.3799,0.408402,4.25021,15.3074,4.28406,5,4.96729,-9.09816,2.5314,7.70601,19.6787,19.4667,5,-14.8352,-10.4252,2.95204,0.518369,-0.218567,92,97,98,99,95,8,87,96,97,97,99,13
-0.0350903,10,-0.408453,-0.691069,-14.3489,27.5136,-13.1725,0.408453,-0.408453,-0.691069,-14.1416,27.5136,-13.3798,0.408453,4.25045,15.3071,4.28377,5,4.96756,-9.09823,2.53084,7.7058,19.679,19.4668,5,-14.8354,-10.425,2.95204,0.518302,-0.218595,92,97,98,99,95,8,87,96,97,97,99,13
-0.0347009,10,-0.408504,-0.690976,-14.3489,27.5136,-13.1725,0.408504,-0.408504,-0.690976,-14.1416,27.5136,-13.3798,0.408504,4.25069,15.3068,4.2835,5,4.96781,-9.0983,2.53028,7.70557,19.6793,19.4669,5,-14.8355,-10.4249,2.95204,0.518232,-0.218623,92,97,98,99,95,8,87,96,97,97,99,13
-0.0343187,10,-0.408556,-0.690881,-14.3489,27.5136,-13.1725,0.408556,-0.408556,-0.690881,-14.1416,27.5136,-13.3798,0.408556,4.25094,15.3065,4.28326,5,4.96805,-9.09835,2.52973,7.70534,19.6796,19.4669,5,-14.8355,-10.4247,2.95203,0.518161,-0.218651,92,97,98,99,95,8,87,96,97,97,99,13
-0.0339425,10,-0.408607,-0.690783,-14.3489,27.5136,-13.1725,0.408607,-0.408607,-0.690783,-14.1416,27.5136,-13.3798,0.408607,4.25119,15.3063,4.28306,5,4.96827,-9.09839,2.52918,7.7051,19.6799,19.4669,5,-14.8356,-10.4246,2.95202,0.518087,-0.218679,92,97,98,99,95,8,87,96,97,97,99,13
-0.0335713,10,-0.408659,-0.690682,-14.3488,27.5136,-13.1726,0.408659,-0.408659,-0.690682,-14.1416,27.5136,-13.3798,0.408659,4.25144,15.306,4.28288,5,4.96848,-9.09843,2.52863,7.70485,19.6802,19.4668,5,-14.8356,-10.4245,2.95201,0.518012,-0.218707,92,97,98,99,95,8,87,96,97,97,99,13
-0.0332044,10,-0.40871,-0.690579,-14.3488,27.5136,-13.1726,0.40871,-0.40871,-0.690579,-14.1417,27.5136,-13.3798,0.40871,4.2517,15.3058,4.28272,5,4.96868,-9.09846,2.52809,7.70459,19.6805,19.4666,5,-14.8355,-10.4244,2.95198,0.517935,-0.218735,92,97,98,99,95,8,87,96,97,97,99,13
-0.0328417,10,-0.408761,-0.690474,-14.3488,27.5136,-13.1726,0.408761,-0.408761,-0.690474,-14.1417,27.5136,-13.3797,0.408761,4.25196,15.3055,4.28258,5,4.96886,-9.09848,2.52756,7.70433,19.6808,19.4665,5,-14.8355,-10.4243,2.95196,0.517856,-0.218763,92,97,98,99,95,8,87,96,97,97,99,13
-0.0324829,10,-0.408813,-0.690366,-14.3488,27.5136,-13.1726,0.408813,-0.408813,-0.690366,-14.1417,27.5136,-13.3797,0.408813,4.25222,15.3053,4.28247,5,4.96903,-9.0985,2.52703,7.70405,19.6811,19.4662,5,-14.8353,-10.4242,2.95192,0.517775,-0.218791,92,97,98,99,95,8,87,96,97,97,99,13
-0.0321191,10,-0.408864,-0.690257,-14.3488,27.5136,-13.1726,0.408864,-0.408864,-0.690257,-14.1417,27.5136,-13.3797,0.408864,4.25248,15.3051,4.28238,5,4.9692,-9.09851,2.52651,7.70377,19.6815,19.4659,5,-14.8352,-10.4241,2.95188,0.517693,-0.218819,92,97,98,99,95,8,87,96,97,97,99,13
-0.0317552,10,-0.408914,-0.690146,-14.3488,27.5136,-13.1726,0.408914,-0.408914,-0.690146,-14.1417,27.5136,-13.3797,0.408914,4.25275,15.3049,4.28231,5,4.96935,-9.09852,2.52599,7.70348,19.6818,19.4656,5,-14.835,-10.4241,2.95183,0.51761,-0.218846,92,97,98,99,95,8,87,96,97,97,99,13
-0.0313959,10,-0.408965,-0.690033,-14.3487,27.5136,-13.1727,0.408965,-0.408965,-0.690033,-14.1417,27.5136,-13.3797,0.408965,4.25302,15.3046,4.28226,5,4.96949,-9.09852,2.52548,7.70318,19.6821,19.4653,5,-14.8348,-10.4241,2.95177,0.517525,-0.218874,92,97,98,99,95,8,87,96,97,97,99,13
-0.0310449,10,-0.409015,-0.689918,-14.3487,27.5136,-13.1727,0.409015,-0.409015,-0.689918,-14.1418,27.5136,-13.3797,0.409015,4.25329,15.3044,4.28221,5,4.96963,-9.09852,2.52498,7.70288,19.6825,19.4649,5,-14.8346,-10.424,2.95171,0.517438,-0.218901,92,97,98,99,95,8,87,96,97,97,99,13
-0.0307057,10,-0.409066,-0.689801,-14.3487,27.5136,-13.1727,0.409066,-0.409066,-0.689801,-14.1418,27.5136,-13.3796,0.409066,4.25356,15.3042,4.28216,5,4.96976,-9.09852,2.52447,7.70256,19.6828,19.4645,5,-14.8343,-10.424,2.95164,0.51735,-0.218929,92,97,98,99,95,8,87,96,97,97,99,13
-0.0303812,10,-0.409117,-0.689681,-14.3487,27.5136,-13.1727,0.409117,-0.409117,-0.689681,-14.1418,27.5136,-13.3796,0.409117,4.25384,15.304,4.28212,5,4.96988,-9.09852,2.52397,7.70224,19.6832,19.464,5,-14.8341,-10.4241,2.95157,0.517261,-0.218957,92,97,98,99,95,8,87,96,97,97,99,13
-0.0300734,10,-0.409168,-0.689559,-14.3487,27.5136,-13.1727,0.409168,-0.409168,-0.689559,-14.1418,27.5136,-13.3796,0.409168,4.25411,15.3038,4.28207,5,4.97001,-9.09851,2.52346,7.70191,19.6835,19.4636,5,-14.8338,-10.4241,2.95149,0.517169,-0.218984,92,97,98,99,95,8,87,96,97,97,99,13
-0.0297908,10,-0.409219,-0.689433,-14.3486,27.5136,-13.1728,0.409219,-0.409219,-0.689433,-14.1418,27.5136,-13.3796,0.409219,4.2544,15.3037,4.282,5,4.97012,-9.0985,2.52294,7.70156,19.6839,19.4632,5,-14.8335,-10.4241,2.9514,0.517075,-0.219012,92,97,98,99,95,8,87,96,97,97,99,13
-0.0295314,10,-0.409271,-0.689305,-14.3486,27.5136,-13.1728,0.409271,-0.409271,-0.689305,-14.1418,27.5136,-13.3796,0.409271,4.25468,15.3035,4.28191,5,4.97024,-9.09848,2.52241,7.7012,19.6843,19.4627,5,-14.8332,-10.4242,2.95131,0.516979,-0.219041,92,97,98,99,95,8,87,96,97,97,99,13
-0.0292934,10,-0.409323,-0.689174,-14.3486,27.5136,-13.1728,0.409323,-0.409323,-0.689174,-14.1419,27.5136,-13.3796,0.409323,4.25497,15.3033,4.2818,5,4.97035,-9.09847,2.52187,7.70084,19.6847,19.4623,5,-14.8329,-10.4243,2.95121,0.51688,-0.219069,92,97,98,99,95,8,87,96,97,97,99,13
-0.0290753,10,-0.409375,-0.689042,-14.3486,27.5136,-13.1728,0.409375,-0.409375,-0.689042,-14.1419,27.5136,-13.3795,0.409375,4.25525,15.3031,4.28169,5,4.97046,-9.09845,2.52134,7.70046,19.6851,19.4619,5,-14.8326,-10.4244,2.95111,0.516781,-0.219097,92,97,98,99,95,8,87,96,97,97,99,13
-0.0288753,10,-0.409426,-0.688909,-14.3486,27.5136,-13.1729,0.409426,-0.409426,-0.688909,-14.1419,27.5136,-13.3795,0.409426,4.25554,15.303,4.28158,5,4.97056,-9.09843,2.52081,7.70008,19.6855,19.4615,5,-14.8323,-10.4244,2.95101,0.516682,-0.219125,92,97,98,99,95,8,87,96,97,97,99,13
-0.0286922,10,-0.409478,-0.688776,-14.3485,27.5136,-13.1729,0.409478,-0.409478,-0.688776,-14.1419,27.5136,-13.3795,0.409478,4.25582,15.3028,4.28146,5,4.97067,-9.09841,2.52028,7.6997,19.6859,19.461,5,-14.832,-10.4246,2.9509,0.516582,-0.219154,92,97,98,99,95,8,87,96,97,97,99,13
-0.0285244,10,-0.40953,-0.688643,-14.3485,27.5136,-13.1729,0.40953,-0.40953,-0.688643,-14.1419,27.5136,-13.3795,0.40953,4.2561,15.3026,4.28134,5,4.97077,-9.09838,2.51975,7.69932,19.6863,19.4606,5,-14.8317,-10.4247,2.95079,0.516483,-0.219182,92,97,98,99,95,8,87,96,97,97,99,13
-0.028374,10,-0.40958,-0.688513,-14.3496,27.5145,-13.1732,0.40958,-0.40958,-0.688513,-14.1431,27.5145,-13.3797,0.40958,4.25638,15.3025,4.28124,5,4.97087,-9.09835,2.51925,7.69894,19.6867,19.4602,5,-14.8313,-10.4248,2.95068,0.516385,-0.219209,92,97,98,99,95,8,87,96,97,97,99,13
-0.0282383,10,-0.409631,-0.688384,-14.3496,27.5145,-13.1732,0.409631,-0.409631,-0.688384,-14.1431,27.5145,-13.3797,0.409631,4.25665,15.3023,4.28114,5,4.97097,-9.09832,2.51876,7.69857,19.6871,19.4597,5,-14.831,-10.4249,2.95057,0.516288,-0.219237,92,97,98,99,95,8,87,96,97,97,99,13
-0.028115,10,-0.409681,-0.688257,-14.3496,27.5145,-13.1732,0.409681,-0.409681,-0.688257,-14.1431,27.5145,-13.3797,0.409681,4.25692,15.3022,4.28105,5,4.97106,-9.09828,2.51827,7.6982,19.6875,19.4593,5,-14.8307,-10.425,2.95046,0.516193,-0.219264,92,97,98,99,95,8,87,96,97,97,99,13
-0.0280021,10,-0.40973,-0.68813,-14.3495,27.5145,-13.1732,0.40973,-0.40973,-0.68813,-14.1431,27.5145,-13.3797,0.40973,4.25718,15.302,4.28095,5,4.97116,-9.09825,2.51779,7.69783,19.6879,19.4588,5,-14.8303,-10.4252,2.95035,0.516097,-0.219291,92,97,98,99,95,8,87,96,97,97,99,13
-0.027898,10,-0.409779,-0.688003,-14.3495,27.5145,-13.1733,0.409779,-0.409779,-0.688003,-14.1431,27.5145,-13.3797,0.409779,4.25745,15.3019,4.28084,5,4.97125,-9.09821,2.51731,7.69746,19.6883,19.4584,5,-14.83,-10.4253,2.95024,0.516002,-0.219317,92,97,98,99,95,8,87,96,97,97,99,13
-0.0278016,10,-0.409827,-0.687876,-14.3495,27.5145,-13.1733,0.409827,-0.409827,-0.687876,-14.1431,27.5145,-13.3796,0.409827,4.25771,15.3018,4.28071,5,4.97133,-9.09818,2.51682,7.69709,19.6886,19.458,5,-14.8296,-10.4254,2.95013,0.515907,-0.219344,92,97,98,99,95,8,87,96,97,97,99,13
-0.027712,10,-0.409875,-0.687748,-14.351,27.5156,-13.1736,0.409875,-0.409875,-0.687748,-14.1447,27.5156,-13.38,0.409875,4.25797,15.3016,4.28056,5,4.97142,-9.09815,2.51633,7.69671,19.689,19.4576,5,-14.8293,-10.4256,2.95002,0.515811,-0.21937,92,97,98,99,95,8,87,96,97,97,99,13
-0.0276257,10,-0.409922,-0.687619,-14.351,27.5156,-13.1737,0.409922,-0.409922,-0.687619,-14.1447,27.5156,-13.3799,0.409922,4.25823,15.3015,4.28039,5,4.97149,-9.09813,2.51582,7.69633,19.6894,19.4572,5,-14.8291,-10.4257,2.94991,0.515714,-0.219395,92,97,98,99,95,8,87,96,97,97,99,13
-0.027544,10,-0.409968,-0.687488,-14.351,27.5156,-13.1737,0.409968,-0.409968,-0.687488,-14.1447,27.5156,-13.3799,0.409968,4.25849,15.3014,4.28018,5,4.97157,-9.0981,2.5153,7.69593,19.6898,19.4569,5,-14.8288,-10.4259,2.9498,0.515616,-0.21942,92,97,98,99,95,8,87,96,97,97,99,13
-0.0274681,10,-0.410014,-0.687355,-14.3509,27.5156,-13.1737,0.410014,-0.410014,-0.687355,-14.1447,27.5156,-13.3799,0.410014,4.25876,15.3013,4.27995,5,4.97164,-9.09808,2.51476,7.69553,19.6902,19.4567,5,-14.8286,-10.426,2.94969,0.515516,-0.219445,92,97,98,99,95,8,87,96,97,97,99,13
-0.0273992,10,-0.410059,-0.687221,-14.3509,27.5156,-13.1737,0.410059,-0.410059,-0.687221,-14.1447,27.5156,-13.3799,0.410059,4.25902,15.3012,4.27968,5,4.97171,-9.09807,2.51421,7.69513,19.6906,19.4564,5,-14.8284,-10.4262,2.94957,0.515415,-0.21947,92,97,98,99,95,8,87,96,97,97,99,13
-0.0273387,10,-0.410103,-0.687085,-14.3509,27.5156,-13.1738,0.410103,-0.410103,-0.687085,-14.1448,27.5156,-13.3799,0.410103,4.25929,15.3011,4.27937,5,4.97177,-9.09806,2.51364,7.69471,19.6909,19.4562,5,-14.8283,-10.4264,2.94946,0.515313,-0.219494,92,97,98,99,95,8,87,96,97,97,99,13
-0.0272879,10,-0.410146,-0.686947,-14.3508,27.5156,-13.1738,0.410146,-0.410146,-0.686947,-14.1448,27.5156,-13.3799,0.410146,4.25956,15.301,4.27904,5,4.97183,-9.09806,2.51306,7.6943,19.6913,19.4561,5,-14.8282,-10.4265,2.94935,0.51521,-0.219517,92,97,98,99,95,8,87,96,97,97,99,13
-0.0272482,10,-0.410188,-0.686808,-14.3508,27.5156,-13.1738,0.410188,-0.410188,-0.686808,-14.1448,27.5156,-13.3799,0.410188,4.25983,15.3009,4.27866,5,4.97188,-9.09806,2.51247,7.69387,19.6917,19.456,5,-14.8281,-10.4267,2.94924,0.515106,-0.21954,92,97,98,99,95,8,87,96,97,97,99,13
-0.027212,10,-0.410229,-0.686669,-14.3508,27.5156,-13.1738,0.410229,-0.410229,-0.686669,-14.1448,27.5156,-13.3798,0.410229,4.26011,15.3008,4.27826,5,4.97194,-9.09807,2.51187,7.69345,19.692,19.4559,5,-14.828,-10.4269,2.94913,0.515002,-0.219563,92,97,98,99,95,8,87,96,97,97,99,13
-0.0271852,10,-0.41027,-0.686529,-14.3508,27.5156,-13.1739,0.41027,-0.41027,-0.686529,-14.1448,27.5156,-13.3798,0.41027,4.26039,15.3007,4.27782,5,4.97199,-9.09809,2.51125,7.69303,19.6924,19.4559,5,-14.828,-10.4271,2.94901,0.514897,-0.219585,92,97,98,99,95,8,87,96,97,97,99,13
-0.027173,10,-0.410309,-0.686387,-14.3507,27.5156,-13.1739,0.410309,-0.410309,-0.686387,-14.1448,27.5156,-13.3798,0.410309,4.26067,15.3006,4.27734,5,4.97204,-9.09811,2.51063,7.6926,19.6927,19.4559,5,-14.828,-10.4272,2.9489,0.51479,-0.219606,92,97,98,99,95,8,87,96,97,97,99,13
-0.0271798,10,-0.410347,-0.686242,-14.3507,27.5156,-13.1739,0.410347,-0.410347,-0.686242,-14.1448,27.5156,-13.3798,0.410347,4.26095,15.3005,4.27683,5,4.97208,-9.09814,2.50999,7.69216,19.693,19.456,5,-14.8281,-10.4274,2.94878,0.514682,-0.219627,92,97,98,99,95,8,87,96,97,97,99,13
-0.0272091,10,-0.410385,-0.686095,-14.3507,27.5156,-13.174,0.410385,-0.410385,-0.686095,-14.1449,27.5156,-13.3798,0.410385,4.26124,15.3004,4.27629,5,4.97211,-9.09817,2.50934,7.69171,19.6934,19.4562,5,-14.8282,-10.4276,2.94867,0.514571,-0.219647,92,97,98,99,95,8,87,96,97,97,99,13
-0.0272639,10,-0.410421,-0.685944,-14.3507,27.5156,-13.174,0.410421,-0.410421,-0.685944,-14.1449,27.5156,-13.3798,0.410421,4.26152,15.3003,4.27571,5,4.97215,-9.09819,2.50867,7.69124,19.6937,19.4564,5,-14.8284,-10.4278,2.94857,0.514458,-0.219667,92,97,98,99,95,8,87,96,97,97,99,13
-0.0273461,10,-0.410456,-0.685788,-14.3506,27.5156,-13.174,0.410456,-0.410456,-0.685788,-14.1449,27.5156,-13.3797,0.410456,4.26181,15.3003,4.27511,5,4.97217,-9.09822,2.508,7.69075,19.694,19.4566,5,-14.8285,-10.4279,2.94846,0.514341,-0.219686,92,97,98,99,95,8,87,96,97,97,99,13
-0.0274667,10,-0.410489,-0.685627,-14.3506,27.5156,-13.174,0.410489,-0.410489,-0.685627,-14.1449,27.5156,-13.3797,0.410489,4.2621,15.3002,4.27447,5,4.97218,-9.09823,2.5073,7.69023,19.6943,19.457,5,-14.8288,-10.4281,2.94836,0.51422,-0.219705,92,97,98,99,95,8,87,96,97,97,99,13
-0.0276221,10,-0.410522,-0.68546,-14.3506,27.5156,-13.1741,0.410522,-0.410522,-0.68546,-14.1449,27.5156,-13.3797,0.410522,4.26239,15.3001,4.2738,5,4.97219,-9.09824,2.5066,7.68969,19.6946,19.4574,5,-14.8291,-10.4283,2.94827,0.514095,-0.219722,92,97,98,99,95,8,87,96,97,97,99,13
-0.0278086,10,-0.410554,-0.685289,-14.3505,27.5156,-13.1741,0.410554,-0.410554,-0.685289,-14.1449,27.5156,-13.3797,0.410554,4.26268,15.3001,4.2731,5,4.97218,-9.09825,2.50588,7.68912,19.6949,19.4578,5,-14.8294,-10.4284,2.94819,0.513967,-0.21974,92,97,98,99,95,8,87,96,97,97,99,13
-0.028023,10,-0.410584,-0.685115,-14.3505,27.5156,-13.1742,0.410584,-0.410584,-0.685115,-14.1449,27.5156,-13.3797,0.410584,4.26297,15.3,4.27238,5,4.97217,-9.09825,2.50515,7.68854,19.6952,19.4584,5,-14.8298,-10.4285,2.9481,0.513836,-0.219756,92,97,98,99,95,8,87,96,97,97,99,13
-0.0282619,10,-0.410613,-0.684937,-14.3504,27.5156,-13.1742,0.410613,-0.410613,-0.684937,-14.145,27.5156,-13.3797,0.410613,4.26325,15.3,4.27165,5,4.97215,-9.09825,2.50442,7.68794,19.6954,19.4589,5,-14.8302,-10.4287,2.94803,0.513703,-0.219772,92,97,98,99,95,8,87,96,97,97,99,13
-0.0285226,10,-0.410642,-0.684757,-14.3504,27.5156,-13.1742,0.410642,-0.410642,-0.684757,-14.145,27.5156,-13.3797,0.410642,4.26354,15.3,4.27089,5,4.97213,-9.09824,2.50368,7.68733,19.6957,19.4596,5,-14.8307,-10.4288,2.94796,0.513568,-0.219788,92,97,98,99,95,8,87,96,97,97,99,13
-0.0288021,10,-0.410669,-0.684576,-14.3499,27.5153,-13.1742,0.410669,-0.410669,-0.684576,-14.1446,27.5153,-13.3796,0.410669,4.26382,15.2999,4.27013,5,4.9721,-9.09823,2.50294,7.6867,19.696,19.4602,5,-14.8312,-10.4289,2.94789,0.513432,-0.219803,92,97,98,99,95,8,87,96,97,97,99,13
-0.0290985,10,-0.410695,-0.684393,-14.3499,27.5153,-13.1742,0.410695,-0.410695,-0.684393,-14.1446,27.5153,-13.3795,0.410695,4.2641,15.2999,4.26938,5,4.97205,-9.09821,2.50221,7.68607,19.6962,19.4609,5,-14.8316,-10.429,2.94783,0.513295,-0.219817,92,97,98,99,95,8,87,96,97,97,99,13
-0.0294091,10,-0.41072,-0.684211,-14.3498,27.5153,-13.1743,0.41072,-0.41072,-0.684211,-14.1446,27.5153,-13.3795,0.41072,4.26437,15.2999,4.26863,5,4.97199,-9.09819,2.50147,7.68542,19.6965,19.4616,5,-14.8321,-10.4291,2.94777,0.513158,-0.21983,92,97,98,99,95,8,87,96,97,97,99,13
-0.0297317,10,-0.410744,-0.684028,-14.3498,27.5153,-13.1743,0.410744,-0.410744,-0.684028,-14.1446,27.5153,-13.3795,0.410744,4.26463,15.2999,4.26789,5,4.97192,-9.09816,2.50074,7.68477,19.6967,19.4624,5,-14.8327,-10.4293,2.94772,0.513021,-0.219844,92,97,98,99,95,8,87,96,97,97,99,13
-0.030064,10,-0.410768,-0.683845,-14.3498,27.5153,-13.1744,0.410768,-0.410768,-0.683845,-14.1446,27.5153,-13.3795,0.410768,4.2649,15.2999,4.26713,5,4.97186,-9.09814,2.50001,7.68412,19.697,19.4631,5,-14.8332,-10.4294,2.94768,0.512884,-0.219856,92,97,98,99,95,8,87,96,97,97,99,13
-0.0304042,10,-0.410791,-0.683663,-14.3497,27.5153,-13.1744,0.410791,-0.410791,-0.683663,-14.1446,27.5153,-13.3795,0.410791,4.26516,15.2999,4.26637,5,4.9718,-9.09811,2.49928,7.68348,19.6972,19.4639,5,-14.8337,-10.4295,2.94763,0.512747,-0.219869,92,97,98,99,95,8,87,96,97,97,99,13
-0.0307503,10,-0.410813,-0.683483,-14.3497,27.5153,-13.1744,0.410813,-0.410813,-0.683483,-14.1446,27.5153,-13.3795,0.410813,4.26542,15.2998,4.2656,5,4.97174,-9.09808,2.49857,7.68283,19.6975,19.4647,5,-14.8343,-10.4295,2.94758,0.512612,-0.219881,92,97,98,99,95,8,87,96,97,97,99,13
-0.0311008,10,-0.410834,-0.683303,-14.3506,27.516,-13.1747,0.410834,-0.410834,-0.683303,-14.1456,27.516,-13.3797,0.410834,4.26568,15.2998,4.26482,5,4.97169,-9.09806,2.49786,7.6822,19.6977,19.4655,5,-14.8349,-10.4296,2.94754,0.512478,-0.219893,92,97,98,99,95,8,87,96,97,97,99,13
-0.0314566,10,-0.410857,-0.683127,-14.3506,27.516,-13.1747,0.410857,-0.410857,-0.683127,-14.1456,27.516,-13.3797,0.410857,4.26595,15.2998,4.26398,5,4.97168,-9.09805,2.49716,7.68158,19.6979,19.4663,5,-14.8355,-10.4297,2.94748,0.512345,-0.219905,92,97,98,99,95,8,87,96,97,97,99,13
-0.0318155,10,-0.410879,-0.682952,-14.3505,27.516,-13.1748,0.410879,-0.410879,-0.682952,-14.1457,27.516,-13.3797,0.410879,4.26623,15.2998,4.26311,5,4.97169,-9.09804,2.49648,7.68099,19.6981,19.4671,5,-14.8361,-10.4298,2.94742,0.512214,-0.219917,92,97,98,99,95,8,87,96,97,97,99,13
-0.0321754,10,-0.4109,-0.682779,-14.3505,27.516,-13.1748,0.4109,-0.4109,-0.682779,-14.1457,27.516,-13.3796,0.4109,4.2665,15.2997,4.26224,5,4.97171,-9.09804,2.4958,7.6804,19.6983,19.468,5,-14.8367,-10.4299,2.94736,0.512084,-0.219929,92,97,98,99,95,8,87,96,97,97,99,13
-0.0325349,10,-0.410921,-0.682609,-14.3505,27.516,-13.1748,0.410921,-0.410921,-0.682609,-14.1457,27.516,-13.3796,0.410921,4.26677,15.2997,4.26138,5,4.97172,-9.09803,2.49514,7.67981,19.6985,19.4688,5,-14.8373,-10.4299,2.9473,0.511956,-0.21994,92,97,98,99,95,8,87,96,97,97,99,13
-0.0328928,10,-0.410941,-0.68244,-14.3504,27.516,-13.1749,0.410941,-0.410941,-0.68244,-14.1457,27.516,-13.3796,0.410941,4.26702,15.2997,4.26056,5,4.97171,-9.09802,2.49448,7.67923,19.6987,19.4696,5,-14.838,-10.43,2.94725,0.51183,-0.219951,92,97,98,99,95,8,87,96,97,97,99,13
-0.0332482,10,-0.41096,-0.682274,-14.3504,27.516,-13.1749,0.41096,-0.41096,-0.682274,-14.1457,27.516,-13.3796,0.41096,4.26727,15.2997,4.25979,5,4.97168,-9.098,2.49384,7.67864,19.6989,19.4704,5,-14.8385,-10.4301,2.94721,0.511706,-0.219961,92,97,98,99,95,8,87,96,97,97,99,13
-0.0336006,10,-0.410976,-0.68211,-14.3504,27.516,-13.175,0.410976,-0.410976,-0.68211,-14.1458,27.516,-13.3796,0.410976,4.26749,15.2997,4.25908,5,4.97161,-9.09796,2.4932,7.67804,19.6991,19.4712,5,-14.8391,-10.4302,2.94718,0.511583,-0.21997,92,97,98,99,95,8,87,96,97,97,99,13
-0.0339406,10,-0.410991,-0.681949,-14.3504,27.516,-13.175,0.410991,-0.410991,-0.681949,-14.1458,27.516,-13.3796,0.410991,4.26768,15.2997,4.25848,5,4.97148,-9.09791,2.49257,7.67743,19.6992,19.472,5,-14.8396,-10.4302,2.94718,0.511462,-0.219978,92,97,98,99,95,8,87,96,97,97,99,13
-0.0342729,10,-0.411003,-0.681789,-14.3503,27.516,-13.1751,0.411003,-0.411003,-0.681789,-14.1458,27.516,-13.3796,0.411003,4.26785,15.2997,4.25798,5,4.9713,-9.09784,2.49195,7.6768,19.6994,19.4727,5,-14.8401,-10.4303,2.94719,0.511342,-0.219985,92,97,98,99,95,8,87,96,97,97,99,13
-0.0346017,10,-0.411014,-0.681632,-14.3503,27.516,-13.1751,0.411014,-0.411014,-0.681632,-14.1458,27.516,-13.3796,0.411014,4.26799,15.2998,4.25756,5,4.97106,-9.09775,2.49134,7.67615,19.6996,19.4735,5,-14.8405,-10.4303,2.94722,0.511224,-0.21999,92,97,98,99,95,8,87,96,97,97,99,13
-0.0349304,10,-0.411022,-0.681478,-14.3502,27.516,-13.1752,0.411022,-0.411022,-0.681478,-14.1458,27.516,-13.3796,0.411022,4.26811,15.2999,4.25723,5,4.97078,-9.09764,2.49074,7.6755,19.6998,19.4742,5,-14.8409,-10.4304,2.94726,0.511108,-0.219995,92,97,98,99,95,8,87,96,97,97,99,13
-0.0352623,10,-0.411029,-0.681325,-14.3502,27.516,-13.1752,0.411029,-0.411029,-0.681325,-14.1458,27.516,-13.3796,0.411029,4.26821,15.3,4.25697,5,4.97046,-9.09753,2.49014,7.67484,19.7,19.4749,5,-14.8412,-10.4305,2.94732,0.510994,-0.219999,92,97,98,99,95,8,87,96,97,97,99,13
-0.0356,10,-0.411035,-0.681176,-14.3501,27.516,-13.1752,0.411035,-0.411035,-0.681176,-14.1458,27.516,-13.3796,0.411035,4.2683,15.3001,4.25677,5,4.97011,-9.0974,2.48956,7.67417,19.7002,19.4756,5,-14.8415,-10.4305,2.94739,0.510882,-0.220002,92,97,98,99,95,8,87,96,97,97,99,13
-0.0359453,10,-0.411039,-0.681028,-14.3496,27.5157,-13.1752,0.411039,-0.411039,-0.681028,-14.1453,27.5157,-13.3795,0.411039,4.26836,15.3003,4.25664,5,4.96973,-9.09726,2.48899,7.6735,19.7003,19.4763,5,-14.8418,-10.4306,2.94747,0.510771,-0.220004,92,97,98,99,95,8,87,96,97,97,99,13
-0.0363049,10,-0.411043,-0.680884,-14.3496,27.5157,-13.1752,0.411043,-0.411043,-0.680884,-14.1453,27.5157,-13.3795,0.411043,4.26842,15.3004,4.25655,5,4.96932,-9.09712,2.48843,7.67284,19.7005,19.4769,5,-14.8421,-10.4306,2.94756,0.510663,-0.220006,92,97,98,99,95,8,87,96,97,97,99,13
-0.0366776,10,-0.411045,-0.680741,-14.3495,27.5157,-13.1753,0.411045,-0.411045,-0.680741,-14.1453,27.5157,-13.3795,0.411045,4.26846,15.3005,4.2565,5,4.96889,-9.09697,2.48788,7.67217,19.7007,19.4776,5,-14.8424,-10.4307,2.94765,0.510556,-0.220007,92,97,98,99,95,8,87,96,97,97,99,13
-0.0370623,10,-0.411047,-0.680602,-14.3495,27.5157,-13.1753,0.411047,-0.411047,-0.680602,-14.1453,27.5157,-13.3795,0.411047,4.2685,15.3007,4.2565,5,4.96845,-9.09681,2.48734,7.67151,19.7009,19.4783,5,-14.8426,-10.4307,2.94775,0.510451,-0.220008,92,97,98,99,95,8,87,96,97,97,99,13
-0.0374576,10,-0.411047,-0.680465,-14.3494,27.5157,-13.1754,0.411047,-0.411047,-0.680465,-14.1453,27.5157,-13.3795,0.411047,4.26852,15.3009,4.25654,5,4.96799,-9.09665,2.48681,7.67084,19.701,19.4789,5,-14.8428,-10.4308,2.94786,0.510349,-0.220009,92,97,98,99,95,8,87,96,97,97,99,13
-0.0378624,10,-0.411047,-0.680332,-14.3494,27.5157,-13.1754,0.411047,-0.411047,-0.680332,-14.1453,27.5157,-13.3795,0.411047,4.26853,15.301,4.25662,5,4.96751,-9.09648,2.48629,7.67019,19.7012,19.4795,5,-14.843,-10.4308,2.94798,0.510249,-0.220009,92,97,98,99,95,8,87,96,97,97,99,13
-0.0382756,10,-0.411046,-0.680201,-14.3493,27.5157,-13.1755,0.411046,-0.411046,-0.680201,-14.1453,27.5157,-13.3795,0.411046,4.26853,15.3012,4.25673,5,4.96702,-9.0963,2.48578,7.66953,19.7014,19.4801,5,-14.8431,-10.4309,2.9481,0.510151,-0.220008,92,97,98,99,95,8,87,96,97,97,99,13
-0.0386957,10,-0.411044,-0.680074,-14.3493,27.5157,-13.1755,0.411044,-0.411044,-0.680074,-14.1453,27.5157,-13.3795,0.411044,4.26851,15.3014,4.25688,5,4.96652,-9.09613,2.48528,7.66888,19.7015,19.4807,5,-14.8433,-10.4309,2.94822,0.510055,-0.220007,92,97,98,99,95,8,87,96,97,97,99,13
-0.0391235,10,-0.411041,-0.679949,-14.3492,27.5157,-13.1755,0.411041,-0.411041,-0.679949,-14.1452,27.5157,-13.3795,0.411041,4.26849,15.3016,4.25706,5,4.966,-9.09594,2.48479,7.66824,19.7017,19.4812,5,-14.8434,-10.431,2.94835,0.509962,-0.220005,92,97,98,99,95,8,87,96,97,97,99,13
-0.039557,10,-0.411037,-0.679828,-14.3492,27.5157,-13.1756,0.411037,-0.411037,-0.679828,-14.1452,27.5157,-13.3795,0.411037,4.26846,15.3018,4.25728,5,4.96548,-9.09575,2.48432,7.6676,19.7018,19.4817,5,-14.8434,-10.431,2.94849,0.509871,-0.220003,92,97,98,99,95,8,87,96,97,97,99,13
-0.0399944,10,-0.411032,-0.67971,-14.3491,27.5157,-13.1756,0.411032,-0.411032,-0.67971,-14.1452,27.5157,-13.3796,0.411032,4.26842,15.302,4.25752,5,4.96496,-9.09556,2.48385,7.66697,19.702,19.4822,5,-14.8435,-10.431,2.94862,0.509783,-0.22,92,97,98,99,95,8,87,96,97,97,99,13
-0.0404338,10,-0.411027,-0.679596,-14.3491,27.5157,-13.1757,0.411027,-0.411027,-0.679596,-14.1452,27.5157,-13.3796,0.411027,4.26836,15.3022,4.25778,5,4.96442,-9.09537,2.4834,7.66634,19.7021,19.4826,5,-14.8435,-10.4311,2.94876,0.509697,-0.219997,92,97,98,99,95,8,87,96,97,97,99,13
-0.0408738,10,-0.41102,-0.679485,-14.3491,27.5157,-13.1757,0.41102,-0.41102,-0.679485,-14.1452,27.5157,-13.3796,0.41102,4.2683,15.3024,4.25807,5,4.96387,-9.09518,2.48296,7.66572,19.7023,19.483,5,-14.8435,-10.4311,2.94891,0.509614,-0.219994,92,97,98,99,95,8,87,96,97,97,99,13
-0.0413131,10,-0.411013,-0.679378,-14.349,27.5157,-13.1758,0.411013,-0.411013,-0.679378,-14.1452,27.5157,-13.3796,0.411013,4.26822,15.3026,4.25838,5,4.96332,-9.095,2.48253,7.6651,19.7024,19.4834,5,-14.8434,-10.4311,2.94905,0.509533,-0.21999,92,97,98,99,95,8,87,96,97,97,99,13
-0.0417502,10,-0.411005,-0.679274,-14.3484,27.5152,-13.1757,0.411005,-0.411005,-0.679274,-14.1446,27.5152,-13.3795,0.411005,4.26812,15.3029,4.25871,5,4.96276,-9.09482,2.48212,7.66449,19.7026,19.4837,5,-14.8434,-10.4311,2.9492,0.509455,-0.219986,92,97,98,99,95,8,87,96,97,97,99,13
-0.0421817,10,-0.410997,-0.679174,-14.3483,27.5152,-13.1757,0.410997,-0.410997,-0.679174,-14.1446,27.5152,-13.3795,0.410997,4.26802,15.3031,4.25904,5,4.96219,-9.09465,2.48174,7.66389,19.7027,19.484,5,-14.8433,-10.4312,2.94934,0.50938,-0.219981,92,97,98,99,95,8,87,96,97,97,99,13
-0.0426078,10,-0.410987,-0.679078,-14.3483,27.5152,-13.1758,0.410987,-0.410987,-0.679078,-14.1446,27.5152,-13.3795,0.410987,4.2679,15.3034,4.25938,5,4.96162,-9.09449,2.48137,7.66329,19.7029,19.4842,5,-14.8432,-10.4312,2.94948,0.509308,-0.219976,92,97,98,99,95,8,87,96,97,97,99,13
-0.0430287,10,-0.410978,-0.678985,-14.3483,27.5152,-13.1758,0.410978,-0.410978,-0.678985,-14.1446,27.5152,-13.3795,0.410978,4.26776,15.3036,4.25973,5,4.96104,-9.09433,2.48102,7.66269,19.703,19.4844,5,-14.843,-10.4312,2.94962,0.509239,-0.219971,92,97,98,99,95,8,87,96,97,97,99,13
-0.0434443,10,-0.410967,-0.678896,-14.3482,27.5152,-13.1759,0.410967,-0.410967,-0.678896,-14.1445,27.5152,-13.3795,0.410967,4.26762,15.3039,4.2601,5,4.96046,-9.09419,2.48069,7.6621,19.7032,19.4845,5,-14.8429,-10.4313,2.94976,0.509172,-0.219965,92,97,98,99,95,8,87,96,97,97,99,13
-0.0438547,10,-0.410957,-0.67881,-14.3482,27.5152,-13.1759,0.410957,-0.410957,-0.67881,-14.1445,27.5152,-13.3795,0.410957,4.26747,15.3042,4.26048,5,4.95987,-9.09405,2.48037,7.66152,19.7034,19.4846,5,-14.8427,-10.4313,2.94991,0.509107,-0.219959,92,97,98,99,95,8,87,96,97,97,99,13
-0.0442595,10,-0.410946,-0.678728,-14.3481,27.5152,-13.1759,0.410946,-0.410946,-0.678728,-14.1445,27.5152,-13.3796,0.410946,4.26731,15.3045,4.26087,5,4.95928,-9.09391,2.48007,7.66094,19.7035,19.4847,5,-14.8425,-10.4313,2.95005,0.509046,-0.219953,92,97,98,99,95,8,87,96,97,97,99,13
-0.0446587,10,-0.410934,-0.678649,-14.3474,27.5148,-13.1758,0.410934,-0.410934,-0.678649,-14.1438,27.5148,-13.3794,0.410934,4.26714,15.3047,4.26127,5,4.95868,-9.09378,2.47978,7.66038,19.7037,19.4848,5,-14.8423,-10.4314,2.95019,0.508986,-0.219947,92,97,98,99,95,8,87,96,97,97,99,13
-0.0450554,10,-0.410923,-0.678573,-14.3474,27.5148,-13.1759,0.410923,-0.410923,-0.678573,-14.1438,27.5148,-13.3795,0.410923,4.26697,15.305,4.26169,5,4.95809,-9.09365,2.4795,7.65983,19.7038,19.4848,5,-14.8421,-10.4314,2.95034,0.508929,-0.219941,92,97,98,99,95,8,87,96,97,97,99,13
-0.0454475,10,-0.410912,-0.6785,-14.3474,27.5148,-13.1759,0.410912,-0.410912,-0.6785,-14.1438,27.5148,-13.3795,0.410912,4.26679,15.3053,4.26213,5,4.95749,-9.09352,2.47922,7.65929,19.704,19.4848,5,-14.8419,-10.4314,2.95048,0.508875,-0.219935,92,97,98,99,95,8,87,96,97,97,99,13
-0.045833,10,-0.410901,-0.678429,-14.3473,27.5148,-13.176,0.410901,-0.410901,-0.678429,-14.1438,27.5148,-13.3795,0.410901,4.26661,15.3055,4.26257,5,4.95689,-9.09339,2.47896,7.65876,19.7041,19.4848,5,-14.8417,-10.4314,2.95063,0.508822,-0.219929,92,97,98,99,95,8,87,96,97,97,99,13
-0.0462104,10,-0.41089,-0.678362,-14.3473,27.5148,-13.176,0.41089,-0.41089,-0.678362,-14.1438,27.5148,-13.3795,0.41089,4.26643,15.3058,4.26302,5,4.9563,-9.09327,2.47871,7.65824,19.7043,19.4848,5,-14.8414,-10.4314,2.95077,0.508771,-0.219923,92,97,98,99,95,8,87,96,97,97,99,13
-0.0465782,10,-0.410879,-0.678296,-14.3472,27.5148,-13.176,0.410879,-0.410879,-0.678296,-14.1438,27.5148,-13.3795,0.410879,4.26624,15.3061,4.26345,5,4.95571,-9.09316,2.47847,7.65773,19.7044,19.4848,5,-14.8412,-10.4314,2.95091,0.508722,-0.219917,92,97,98,99,95,8,87,96,97,97,99,13
-0.0469351,10,-0.410867,-0.678233,-14.3472,27.5148,-13.1761,0.410867,-0.410867,-0.678233,-14.1437,27.5148,-13.3796,0.410867,4.26605,15.3064,4.26387,5,4.95514,-9.09306,2.47824,7.65722,19.7046,19.4847,5,-14.841,-10.4315,2.95105,0.508675,-0.21991,92,97,98,99,95,8,87,96,97,97,99,13
-0.0472803,10,-0.410855,-0.678172,-14.3472,27.5148,-13.1761,0.410855,-0.410855,-0.678172,-14.1437,27.5148,-13.3796,0.410855,4.26586,15.3066,4.26427,5,4.95458,-9.09296,2.47804,7.65673,19.7047,19.4847,5,-14.8407,-10.4315,2.95117,0.508629,-0.219904,92,97,98,99,95,8,87,96,97,97,99,13
-0.0476088,10,-0.410843,-0.678115,-14.3471,27.5148,-13.1762,0.410843,-0.410843,-0.678115,-14.1437,27.5148,-13.3796,0.410843,4.26566,15.3069,4.26465,5,4.95403,-9.09288,2.47785,7.65624,19.7049,19.4846,5,-14.8405,-10.4315,2.95129,0.508586,-0.219897,92,97,98,99,95,8,87,96,97,97,99,13
-0.0479222,10,-0.41083,-0.678059,-14.3471,27.5148,-13.1762,0.41083,-0.41083,-0.678059,-14.1437,27.5148,-13.3796,0.41083,4.26546,15.3072,4.26501,5,4.95349,-9.09282,2.47767,7.65575,19.705,19.4844,5,-14.8402,-10.4316,2.9514,0.508544,-0.21989,92,97,98,99,95,8,87,96,97,97,99,13
-0.0482217,10,-0.410816,-0.678005,-14.3471,27.5148,-13.1762,0.410816,-0.410816,-0.678005,-14.1437,27.5148,-13.3796,0.410816,4.26525,15.3075,4.26534,5,4.95297,-9.09276,2.47752,7.65528,19.7051,19.4843,5,-14.84,-10.4317,2.9515,0.508504,-0.219883,92,97,98,99,95,8,87,96,97,97,99,13
-0.0485084,10,-0.410803,-0.677951,-14.347,27.5148,-13.1763,0.410803,-0.410803,-0.677951,-14.1436,27.5148,-13.3796,0.410803,4.26505,15.3078,4.26562,5,4.95248,-9.09272,2.47737,7.6548,19.7053,19.4841,5,-14.8398,-10.4317,2.95159,0.508463,-0.219875,92,97,98,99,95,8,87,96,97,97,99,13
-0.0487833,10,-0.410789,-0.677897,-14.347,27.5148,-13.1763,0.410789,-0.410789,-0.677897,-14.1436,27.5148,-13.3797,0.410789,4.26485,15.3081,4.26585,5,4.95202,-9.09269,2.47724,7.65433,19.7054,19.484,5,-14.8396,-10.4318,2.95167,0.508423,-0.219868,92,97,98,99,95,8,87,96,97,97,99,13
-0.0490472,10,-0.410774,-0.677842,-14.347,27.5148,-13.1763,0.410774,-0.410774,-0.677842,-14.1436,27.5148,-13.3797,0.410774,4.26466,15.3084,4.26602,5,4.9516,-9.09266,2.47712,7.65387,19.7056,19.4838,5,-14.8394,-10.4319,2.95173,0.508381,-0.21986,92,97,98,99,95,8,87,96,97,97,99,13
-0.0493007,10,-0.41076,-0.677785,-14.3469,27.5148,-13.1764,0.41076,-0.41076,-0.677785,-14.1436,27.5148,-13.3797,0.41076,4.26448,15.3087,4.26613,5,4.95123,-9.09264,2.47701,7.65341,19.7057,19.4837,5,-14.8393,-10.432,2.95179,0.508339,-0.219852,92,97,98,99,95,8,87,96,97,97,99,13
-0.0495481,10,-0.410746,-0.677725,-14.3469,27.5148,-13.1764,0.410746,-0.410746,-0.677725,-14.1436,27.5148,-13.3797,0.410746,4.26432,15.309,4.26615,5,4.9509,-9.09263,2.47691,7.65295,19.7059,19.4836,5,-14.8391,-10.4321,2.95182,0.508294,-0.219844,92,97,98,99,95,8,87,96,97,97,99,13
-0.0497879,10,-0.410731,-0.677662,-14.3469,27.5148,-13.1764,0.410731,-0.410731,-0.677662,-14.1436,27.5148,-13.3797,0.410731,4.26417,15.3093,4.2661,5,4.95064,-9.09262,2.47681,7.65248,19.706,19.4836,5,-14.8391,-10.4322,2.95185,0.508247,-0.219836,92,97,98,99,95,8,87,96,97,97,99,13
-0.0500188,10,-0.410716,-0.677596,-14.3468,27.5148,-13.1765,0.410716,-0.410716,-0.677596,-14.1435,27.5148,-13.3797,0.410716,4.26404,15.3096,4.26598,5,4.95041,-9.09262,2.47672,7.65202,19.7062,19.4836,5,-14.839,-10.4323,2.95186,0.508197,-0.219828,92,97,98,99,95,8,87,96,97,97,99,13
-0.0502397,10,-0.410701,-0.677529,-14.3468,27.5148,-13.1765,0.410701,-0.410701,-0.677529,-14.1435,27.5148,-13.3798,0.410701,4.26393,15.3099,4.2658,5,4.95023,-9.09262,2.47663,7.65157,19.7063,19.4836,5,-14.839,-10.4324,2.95185,0.508147,-0.21982,92,97,98,99,95,8,87,96,97,97,99,13
-0.0504499,10,-0.410687,-0.67746,-14.3468,27.5148,-13.1765,0.410687,-0.410687,-0.67746,-14.1435,27.5148,-13.3798,0.410687,4.26382,15.3102,4.26557,5,4.95009,-9.09263,2.47655,7.65112,19.7065,19.4836,5,-14.839,-10.4326,2.95184,0.508095,-0.219812,92,97,98,99,95,8,87,96,97,97,99,13
-0.0506487,10,-0.410672,-0.67739,-14.3467,27.5148,-13.1766,0.410672,-0.410672,-0.67739,-14.1435,27.5148,-13.3798,0.410672,4.26372,15.3105,4.26529,5,4.94999,-9.09264,2.47648,7.65067,19.7066,19.4836,5,-14.839,-10.4327,2.95182,0.508042,-0.219804,92,97,98,99,95,8,87,96,97,97,99,13
-0.0508355,10,-0.410658,-0.677319,-14.3461,27.5144,-13.1765,0.410658,-0.410658,-0.677319,-14.143,27.5144,-13.3797,0.410658,4.26363,15.3108,4.26496,5,4.94991,-9.09265,2.47641,7.65023,19.7068,19.4837,5,-14.8391,-10.4328,2.95179,0.507989,-0.219796,92,97,98,99,95,8,87,96,97,97,99,13
-0.0510071,10,-0.410643,-0.677249,-14.3461,27.5144,-13.1765,0.410643,-0.410643,-0.677249,-14.1429,27.5144,-13.3797,0.410643,4.26355,15.3111,4.26462,5,4.94985,-9.09267,2.47635,7.64979,19.7069,19.4837,5,-14.8391,-10.4329,2.95175,0.507937,-0.219788,92,97,98,99,95,8,87,96,97,97,99,13
-0.0511648,10,-0.410629,-0.677179,-14.3461,27.5144,-13.1765,0.410629,-0.410629,-0.677179,-14.1429,27.5144,-13.3797,0.410629,4.26347,15.3114,4.26424,5,4.94982,-9.0927,2.47629,7.64937,19.7071,19.4838,5,-14.8392,-10.4331,2.95171,0.507884,-0.219781,92,97,98,99,95,8,87,96,97,97,99,13
-0.0513098,10,-0.410615,-0.677109,-14.3461,27.5144,-13.1766,0.410615,-0.410615,-0.677109,-14.1429,27.5144,-13.3797,0.410615,4.2634,15.3117,4.26384,5,4.94981,-9.09273,2.47624,7.64894,19.7072,19.4838,5,-14.8393,-10.4332,2.95167,0.507832,-0.219773,92,97,98,99,95,8,87,96,97,97,99,13
-0.0514431,10,-0.410602,-0.677039,-14.346,27.5144,-13.1766,0.410602,-0.410602,-0.677039,-14.1429,27.5144,-13.3797,0.410602,4.26333,15.312,4.26341,5,4.94982,-9.09276,2.47619,7.64853,19.7073,19.4839,5,-14.8394,-10.4333,2.95162,0.507779,-0.219766,92,97,98,99,95,8,87,96,97,97,99,13
-0.0515659,10,-0.410588,-0.676968,-14.346,27.5144,-13.1766,0.410588,-0.410588,-0.676968,-14.1429,27.5144,-13.3797,0.410588,4.26328,15.3123,4.26296,5,4.94986,-9.09279,2.47615,7.64812,19.7075,19.484,5,-14.8395,-10.4335,2.95156,0.507726,-0.219758,92,97,98,99,95,8,87,96,97,97,99,13
-0.051679,10,-0.410575,-0.676897,-14.346,27.5144,-13.1767,0.410575,-0.410575,-0.676897,-14.1429,27.5144,-13.3797,0.410575,4.26323,15.3126,4.26248,5,4.94991,-9.09282,2.4761,7.64772,19.7076,19.4841,5,-14.8396,-10.4336,2.9515,0.507673,-0.219751,92,97,98,99,95,8,87,96,97,97,99,13
-0.0517832,10,-0.410561,-0.676825,-14.3455,27.5141,-13.1766,0.410561,-0.410561,-0.676825,-14.1425,27.5141,-13.3796,0.410561,4.2632,15.3129,4.26197,5,4.94998,-9.09285,2.47606,7.64732,19.7078,19.4842,5,-14.8397,-10.4337,2.95143,0.507619,-0.219744,92,97,98,99,95,8,87,96,97,97,99,13
-0.0518805,10,-0.410548,-0.676752,-14.3455,27.5141,-13.1766,0.410548,-0.410548,-0.676752,-14.1425,27.5141,-13.3796,0.410548,4.26317,15.3132,4.26143,5,4.95008,-9.09287,2.47601,7.64693,19.7079,19.4844,5,-14.8399,-10.4339,2.95135,0.507564,-0.219736,92,97,98,99,95,8,87,96,97,97,99,13
-0.0519708,10,-0.410534,-0.676677,-14.3455,27.5141,-13.1767,0.410534,-0.410534,-0.676677,-14.1425,27.5141,-13.3797,0.410534,4.26316,15.3135,4.26088,5,4.95019,-9.0929,2.47596,7.64655,19.708,19.4845,5,-14.84,-10.434,2.95126,0.507508,-0.219729,92,97,98,99,95,8,87,96,97,97,99,13
-0.0520542,10,-0.410521,-0.676602,-14.3454,27.5141,-13.1767,0.410521,-0.410521,-0.676602,-14.1425,27.5141,-13.3797,0.410521,4.26316,15.3137,4.2603,5,4.95033,-9.09292,2.47592,7.64617,19.7082,19.4847,5,-14.8402,-10.4341,2.95117,0.507451,-0.219722,92,97,98,99,95,8,87,96,97,97,99,13
-0.0521308,10,-0.410507,-0.676525,-14.3454,27.5141,-13.1767,0.410507,-0.410507,-0.676525,-14.1425,27.5141,-13.3797,0.410507,4.26317,15.314,4.2597,5,4.95048,-9.09293,2.47587,7.6458,19.7083,19.4849,5,-14.8404,-10.4343,2.95108,0.507393,-0.219714,92,97,98,99,95,8,87,96,97,97,99,13
-0.0522007,10,-0.410494,-0.676446,-14.3454,27.5141,-13.1767,0.410494,-0.410494,-0.676446,-14.1425,27.5141,-13.3797,0.410494,4.26319,15.3143,4.25909,5,4.95064,-9.09294,2.47582,7.64543,19.7084,19.4851,5,-14.8406,-10.4344,2.95099,0.507335,-0.219707,92,97,98,99,95,8,87,96,97,97,99,13
-0.052264,10,-0.41048,-0.676367,-14.3454,27.5141,-13.1768,0.41048,-0.41048,-0.676367,-14.1425,27.5141,-13.3797,0.41048,4.26323,15.3146,4.25848,5,4.95083,-9.09295,2.47577,7.64506,19.7086,19.4854,5,-14.8408,-10.4345,2.9509,0.507275,-0.2197,92,97,98,99,95,8,87,96,97,97,99,13
-0.0523208,10,-0.410467,-0.676286,-14.3454,27.5141,-13.1768,0.410467,-0.410467,-0.676286,-14.1425,27.5141,-13.3797,0.410467,4.26327,15.3148,4.25786,5,4.95102,-9.09294,2.47572,7.64469,19.7087,19.4857,5,-14.8411,-10.4346,2.95082,0.507214,-0.219693,92,97,98,99,95,8,87,96,97,97,99,13
-0.0523713,10,-0.410454,-0.676203,-14.3453,27.5141,-13.1768,0.410454,-0.410454,-0.676203,-14.1425,27.5141,-13.3797,0.410454,4.26332,15.3151,4.25724,5,4.95124,-9.09292,2.47568,7.64433,19.7088,19.4861,5,-14.8413,-10.4347,2.95076,0.507152,-0.219685,92,97,98,99,95,8,87,96,97,97,99,13
-0.0524156,10,-0.410442,-0.676118,-14.3453,27.5141,-13.1768,0.410442,-0.410442,-0.676118,-14.1425,27.5141,-13.3797,0.410442,4.26338,15.3154,4.25661,5,4.95147,-9.0929,2.47564,7.64397,19.709,19.4865,5,-14.8416,-10.4349,2.9507,0.507089,-0.219679,92,97,98,99,95,8,87,96,97,97,99,13
-0.0524541,10,-0.410429,-0.676032,-14.3453,27.5141,-13.1769,0.410429,-0.410429,-0.676032,-14.1425,27.5141,-13.3797,0.410429,4.26344,15.3156,4.256,5,4.95171,-9.09286,2.4756,7.64361,19.7091,19.487,5,-14.8419,-10.435,2.95065,0.507024,-0.219672,92,97,98,99,95,8,87,96,97,97,99,13
-0.0524868,10,-0.410416,-0.675945,-14.3453,27.5141,-13.1769,0.410416,-0.410416,-0.675945,-14.1425,27.5141,-13.3797,0.410416,4.26352,15.3159,4.25539,5,4.95195,-9.09282,2.47557,7.64324,19.7092,19.4875,5,-14.8422,-10.4351,2.95062,0.506959,-0.219665,92,97,98,99,95,8,87,96,97,97,99,13
-0.0525142,10,-0.410404,-0.675858,-14.3452,27.5141,-13.1769,0.410404,-0.410404,-0.675858,-14.1425,27.5141,-13.3797,0.410404,4.26359,15.3162,4.25479,5,4.95221,-9.09277,2.47553,7.64288,19.7093,19.488,5,-14.8425,-10.4352,2.9506,0.506893,-0.219658,92,97,98,99,95,8,87,96,97,97,99,13
-0.0525364,10,-0.410392,-0.675769,-14.3452,27.5141,-13.1769,0.410392,-0.410392,-0.675769,-14.1425,27.5141,-13.3797,0.410392,4.26367,15.3164,4.25421,5,4.95247,-9.09272,2.4755,7.64252,19.7095,19.4886,5,-14.8429,-10.4353,2.95058,0.506827,-0.219651,92,97,98,99,95,8,87,96,97,97,99,13
-0.0525539,10,-0.410379,-0.67568,-14.3452,27.5141,-13.177,0.410379,-0.410379,-0.67568,-14.1425,27.5141,-13.3797,0.410379,4.26376,15.3167,4.25365,5,4.95273,-9.09267,2.47547,7.64216,19.7096,19.4892,5,-14.8432,-10.4355,2.95058,0.50676,-0.219644,92,97,98,99,95,8,87,96,97,97,99,13
-0.0525661,10,-0.410367,-0.675591,-14.3452,27.5141,-13.177,0.410367,-0.410367,-0.675591,-14.1425,27.5141,-13.3797,0.410367,4.26384,15.317,4.25311,5,4.953,-9.09261,2.47544,7.64179,19.7097,19.4899,5,-14.8435,-10.4356,2.9506,0.506693,-0.219638,92,97,98,99,95,8,87,96,97,97,99,13
-0.0525737,10,-0.410354,-0.675501,-14.3451,27.5141,-13.177,0.410354,-0.410354,-0.675501,-14.1425,27.5141,-13.3797,0.410354,4.26392,15.3172,4.25259,5,4.95326,-9.09256,2.47541,7.64143,19.7099,19.4905,5,-14.8439,-10.4357,2.95062,0.506626,-0.219631,92,97,98,99,95,8,87,96,97,97,99,13
-0.0525774,10,-0.410342,-0.675412,-14.3451,27.5141,-13.177,0.410342,-0.410342,-0.675412,-14.1425,27.5141,-13.3797,0.410342,4.264,15.3175,4.2521,5,4.95352,-9.09251,2.47539,7.64106,19.71,19.4912,5,-14.8442,-10.4358,2.95065,0.506559,-0.219624,92,97,98,99,95,8,87,96,97,97,99,13
-0.0525777,10,-0.410329,-0.675322,-14.3451,27.5141,-13.1771,0.410329,-0.410329,-0.675322,-14.1425,27.5141,-13.3797,0.410329,4.26409,15.3177,4.25163,5,4.95378,-9.09246,2.47537,7.6407,19.7101,19.4919,5,-14.8445,-10.4359,2.9507,0.506491,-0.219617,92,97,98,99,95,8,87,96,97,97,99,13
-0.0525753,10,-0.410317,-0.675233,-14.3451,27.5141,-13.1771,0.410317,-0.410317,-0.675233,-14.1425,27.5141,-13.3796,0.410317,4.26417,15.318,4.25119,5,4.95403,-9.09241,2.47534,7.64033,19.7102,19.4926,5,-14.8448,-10.436,2.95075,0.506424,-0.21961,92,97,98,99,95,8,87,96,97,97,99,13
-0.0525704,10,-0.410303,-0.675143,-14.345,27.5141,-13.1771,0.410303,-0.410303,-0.675143,-14.1425,27.5141,-13.3796,0.410303,4.26425,15.3183,4.25077,5,4.95429,-9.09236,2.47532,7.63997,19.7103,19.4934,5,-14.8451,-10.4361,2.95082,0.506358,-0.219603,92,97,98,99,95,8,87,96,97,97,99,13
-0.0525637,10,-0.41029,-0.675055,-14.3451,27.5141,-13.1771,0.41029,-0.41029,-0.675055,-14.1426,27.5141,-13.3797,0.41029,4.26434,15.3185,4.25038,5,4.95454,-9.09231,2.47531,7.63961,19.7105,19.4941,5,-14.8454,-10.4362,2.95089,0.506291,-0.219596,92,97,98,99,95,8,87,96,97,97,99,13
-0.0525552,10,-0.410275,-0.674967,-14.3451,27.5141,-13.1772,0.410275,-0.410275,-0.674967,-14.1426,27.5141,-13.3797,0.410275,4.26442,15.3188,4.25,5,4.95478,-9.09226,2.47529,7.63925,19.7106,19.4949,5,-14.8456,-10.4363,2.95097,0.506225,-0.219588,92,97,98,99,95,8,87,96,97,97,99,13
-0.0525455,10,-0.41026,-0.67488,-14.345,27.5141,-13.1772,0.41026,-0.41026,-0.67488,-14.1426,27.5141,-13.3797,0.41026,4.26451,15.3191,4.24964,5,4.95503,-9.09221,2.47528,7.6389,19.7107,19.4956,5,-14.8459,-10.4364,2.95107,0.50616,-0.21958,92,97,98,99,95,8,87,96,97,97,99,13
-0.0525348,10,-0.410245,-0.674793,-14.345,27.5141,-13.1772,0.410245,-0.410245,-0.674793,-14.1426,27.5141,-13.3797,0.410245,4.26459,15.3194,4.24931,5,4.95526,-9.09217,2.47526,7.63856,19.7108,19.4964,5,-14.8461,-10.4365,2.95117,0.506095,-0.219571,92,97,98,99,95,8,87,96,97,97,99,13
-0.0525237,10,-0.410229,-0.674708,-14.345,27.5141,-13.1772,0.410229,-0.410229,-0.674708,-14.1426,27.5141,-13.3796,0.410229,4.26468,15.3196,4.24901,5,4.95549,-9.09213,2.47525,7.63821,19.7109,19.4971,5,-14.8464,-10.4366,2.95128,0.506031,-0.219563,92,97,98,99,95,8,87,96,97,97,99,13
-0.0525123,10,-0.410213,-0.674622,-14.345,27.5141,-13.1773,0.410213,-0.410213,-0.674622,-14.1426,27.5141,-13.3796,0.410213,4.26476,15.3199,4.24873,5,4.95571,-9.0921,2.47524,7.63787,19.711,19.4978,5,-14.8465,-10.4367,2.95139,0.505967,-0.219554,92,97,98,99,95,8,87,96,97,97,99,13
-0.0525009,10,-0.410196,-0.674537,-14.3449,27.5141,-13.1773,0.410196,-0.410196,-0.674537,-14.1426,27.5141,-13.3796,0.410196,4.26485,15.3202,4.24849,5,4.95592,-9.09207,2.47523,7.63753,19.7111,19.4985,5,-14.8466,-10.4368,2.95152,0.505903,-0.219545,92,97,98,99,95,8,87,96,97,97,99,13
-0.0524897,10,-0.410179,-0.674453,-14.3449,27.5141,-13.1773,0.410179,-0.410179,-0.674453,-14.1426,27.5141,-13.3796,0.410179,4.26493,15.3205,4.24828,5,4.95611,-9.09206,2.47523,7.6372,19.7112,19.4992,5,-14.8467,-10.4369,2.95165,0.50584,-0.219536,92,97,98,99,95,8,87,96,97,97,99,13
-0.0524798,10,-0.410162,-0.674369,-14.345,27.5142,-13.1774,0.410162,-0.410162,-0.674369,-14.1427,27.5142,-13.3797,0.410162,4.26502,15.3208,4.24811,5,4.95629,-9.09206,2.47522,7.63686,19.7113,19.4998,5,-14.8467,-10.437,2.95178,0.505776,-0.219526,92,97,98,99,95,8,87,96,97,97,99,13
-0.0524709,10,-0.410145,-0.674285,-14.345,27.5142,-13.1774,0.410145,-0.410145,-0.674285,-14.1427,27.5142,-13.3797,0.410145,4.2651,15.321,4.24798,5,4.95645,-9.09208,2.47522,7.63653,19.7114,19.5003,5,-14.8466,-10.4371,2.95192,0.505714,-0.219517,92,97,98,99,95,8,87,96,97,97,99,13
-0.0524624,10,-0.410127,-0.674201,-14.345,27.5142,-13.1774,0.410127,-0.410127,-0.674201,-14.1427,27.5142,-13.3797,0.410127,4.26519,15.3213,4.24788,5,4.95659,-9.09211,2.47522,7.63619,19.7115,19.5008,5,-14.8464,-10.4372,2.95207,0.505651,-0.219507,92,97,98,99,95,8,87,96,97,97,99,13
-0.0524541,10,-0.410109,-0.674119,-14.345,27.5142,-13.1774,0.410109,-0.410109,-0.674119,-14.1427,27.5142,-13.3797,0.410109,4.26527,15.3216,4.24781,5,4.95672,-9.09215,2.47521,7.63586,19.7115,19.5012,5,-14.8462,-10.4372,2.95222,0.505589,-0.219497,92,97,98,99,95,8,87,96,97,97,99,13
-0.0524456,10,-0.410091,-0.674036,-14.3449,27.5142,-13.1774,0.410091,-0.410091,-0.674036,-14.1427,27.5142,-13.3797,0.410091,4.26535,15.3219,4.24776,5,4.95684,-9.0922,2.47522,7.63553,19.7116,19.5016,5,-14.8459,-10.4373,2.95237,0.505527,-0.219487,92,97,98,99,95,8,87,96,97,97,99,13
-0.0524365,10,-0.410073,-0.673955,-14.3449,27.5142,-13.1775,0.410073,-0.410073,-0.673955,-14.1427,27.5142,-13.3797,0.410073,4.26543,15.3222,4.24774,5,4.95695,-9.09226,2.47522,7.63521,19.7117,19.502,5,-14.8456,-10.4374,2.95252,0.505466,-0.219478,92,97,98,99,95,8,87,96,97,97,99,13
-0.0524267,10,-0.410055,-0.673874,-14.3452,27.5145,-13.1776,0.410055,-0.410055,-0.673874,-14.1431,27.5145,-13.3797,0.410055,4.26551,15.3224,4.24774,5,4.95705,-9.09232,2.47522,7.63489,19.7118,19.5023,5,-14.8453,-10.4374,2.95268,0.505406,-0.219468,92,97,98,99,95,8,87,96,97,97,99,13
-0.0524157,10,-0.410037,-0.673795,-14.3452,27.5145,-13.1776,0.410037,-0.410037,-0.673795,-14.1431,27.5145,-13.3797,0.410037,4.26559,15.3227,4.24776,5,4.95715,-9.09239,2.47522,7.63457,19.7119,19.5026,5,-14.8449,-10.4375,2.95284,0.505346,-0.219458,92,97,98,99,95,8,87,96,97,97,99,13
-0.0524035,10,-0.410019,-0.673717,-14.3452,27.5145,-13.1776,0.410019,-0.410019,-0.673717,-14.1431,27.5145,-13.3797,0.410019,4.26567,15.323,4.24779,5,4.95723,-9.09246,2.47523,7.63426,19.7119,19.5029,5,-14.8445,-10.4375,2.953,0.505288,-0.219448,92,97,98,99,95,8,87,96,97,97,99,13
-0.0523899,10,-0.410001,-0.673641,-14.3452,27.5145,-13.1776,0.410001,-0.410001,-0.673641,-14.1431,27.5145,-13.3797,0.410001,4.26575,15.3232,4.24783,5,4.95731,-9.09253,2.47523,7.63395,19.712,19.5032,5,-14.8441,-10.4376,2.95316,0.505231,-0.219438,92,97,98,99,95,8,87,96,97,97,99,13
-0.0523752,10,-0.409983,-0.673565,-14.3451,27.5145,-13.1776,0.409983,-0.409983,-0.673565,-14.1431,27.5145,-13.3797,0.409983,4.26582,15.3235,4.24789,5,4.95739,-9.09261,2.47524,7.63365,19.712,19.5034,5,-14.8437,-10.4376,2.95332,0.505174,-0.219429,92,97,98,99,95,8,87,96,97,97,99,13
-0.0523593,10,-0.409966,-0.673491,-14.3451,27.5145,-13.1777,0.409966,-0.409966,-0.673491,-14.1431,27.5145,-13.3797,0.409966,4.2659,15.3237,4.24797,5,4.95745,-9.0927,2.47524,7.63335,19.7121,19.5037,5,-14.8432,-10.4377,2.95348,0.505118,-0.219419,92,97,98,99,95,8,87,96,97,97,99,13
-0.0523422,10,-0.409948,-0.673417,-14.3451,27.5145,-13.1777,0.409948,-0.409948,-0.673417,-14.1431,27.5145,-13.3797,0.409948,4.26597,15.324,4.24805,5,4.95751,-9.09279,2.47525,7.63306,19.7122,19.5038,5,-14.8428,-10.4377,2.95363,0.505063,-0.21941,92,97,98,99,95,8,87,96,97,97,99,13
-0.052324,10,-0.409931,-0.673345,-14.3451,27.5145,-13.1777,0.409931,-0.409931,-0.673345,-14.1431,27.5145,-13.3797,0.409931,4.26604,15.3242,4.24816,5,4.95756,-9.09288,2.47526,7.63277,19.7122,19.504,5,-14.8422,-10.4378,2.95379,0.505009,-0.2194,92,97,98,99,95,8,87,96,97,97,99,13
-0.0523043,10,-0.409915,-0.673272,-14.3451,27.5145,-13.1777,0.409915,-0.409915,-0.673272,-14.1431,27.5145,-13.3797,0.409915,4.26612,15.3245,4.24827,5,4.9576,-9.09298,2.47526,7.63248,19.7123,19.5041,5,-14.8417,-10.4378,2.95394,0.504954,-0.219392,92,97,98,99,95,8,87,96,97,97,99,13
-0.0522834,10,-0.409899,-0.6732,-14.345,27.5145,-13.1777,0.409899,-0.409899,-0.6732,-14.1431,27.5145,-13.3797,0.409899,4.2662,15.3247,4.24838,5,4.95764,-9.09308,2.47526,7.6322,19.7124,19.5042,5,-14.8411,-10.4378,2.95409,0.5049,-0.219383,92,97,98,99,95,8,87,96,97,97,99,13
-0.0522615,10,-0.409884,-0.673129,-14.345,27.5145,-13.1778,0.409884,-0.409884,-0.673129,-14.1431,27.5145,-13.3797,0.409884,4.26627,15.3249,4.24852,5,4.95767,-9.09319,2.47526,7.63192,19.7124,19.5042,5,-14.8405,-10.4379,2.95424,0.504847,-0.219375,92,97,98,99,95,8,87,96,97,97,99,13
-0.0522388,10,-0.409868,-0.67306,-14.345,27.5145,-13.1778,0.409868,-0.409868,-0.67306,-14.1431,27.5145,-13.3797,0.409868,4.26635,15.3252,4.24867,5,4.95769,-9.09331,2.47527,7.63165,19.7125,19.5042,5,-14.8399,-10.4379,2.95439,0.504795,-0.219366,92,97,98,99,95,8,87,96,97,97,99,13
-0.0522156,10,-0.409853,-0.672994,-14.345,27.5145,-13.1778,0.409853,-0.409853,-0.672994,-14.1431,27.5145,-13.3797,0.409853,4.26641,15.3254,4.24884,5,4.95768,-9.09343,2.47527,7.63138,19.7125,19.5042,5,-14.8393,-10.4379,2.95454,0.504745,-0.219358,92,97,98,99,95,8,87,96,97,97,99,13
-0.0521919,10,-0.409837,-0.672931,-14.345,27.5145,-13.1778,0.409837,-0.409837,-0.672931,-14.1431,27.5145,-13.3797,0.409837,4.26647,15.3256,4.24903,5,4.95765,-9.09357,2.47528,7.63112,19.7126,19.5041,5,-14.8386,-10.4379,2.95468,0.504698,-0.219349,92,97,98,99,95,8,87,96,97,97,99,13
-0.052168,10,-0.40982,-0.672871,-14.345,27.5145,-13.1778,0.40982,-0.40982,-0.672871,-14.1431,27.5145,-13.3797,0.40982,4.26651,15.3258,4.24924,5,4.95759,-9.09371,2.47529,7.63087,19.7126,19.5041,5,-14.8379,-10.4379,2.95484,0.504653,-0.21934,92,97,98,99,95,8,88,96,97,97,99,13
-0.0521446,10,-0.409802,-0.672816,-14.345,27.5145,-13.1779,0.409802,-0.409802,-0.672816,-14.1431,27.5145,-13.3797,0.409802,4.26654,15.3261,4.24947,5,4.95749,-9.09387,2.47531,7.63062,19.7127,19.5039,5,-14.8372,-10.4379,2.955,0.504612,-0.21933,92,97,98,99,95,8,88,96,97,97,99,13
-0.0521214,10,-0.409784,-0.672766,-14.3449,27.5145,-13.1779,0.409784,-0.409784,-0.672766,-14.1431,27.5145,-13.3797,0.409784,4.26656,15.3263,4.24972,5,4.95735,-9.09405,2.47534,7.63039,19.7127,19.5038,5,-14.8365,-10.4379,2.95516,0.504575,-0.21932,92,97,98,99,95,8,88,96,97,97,99,13
-0.0520983,10,-0.409764,-0.672721,-14.3449,27.5145,-13.1779,0.409764,-0.409764,-0.672721,-14.1431,27.5145,-13.3797,0.409764,4.26656,15.3265,4.25,5,4.95719,-9.09424,2.47538,7.63016,19.7127,19.5036,5,-14.8358,-10.4378,2.95533,0.504541,-0.219309,92,97,98,99,95,8,88,96,97,97,99,13
-0.0520749,10,-0.409744,-0.672679,-14.3449,27.5145,-13.1779,0.409744,-0.409744,-0.672679,-14.1431,27.5145,-13.3797,0.409744,4.26654,15.3268,4.2503,5,4.95699,-9.09444,2.47542,7.62994,19.7127,19.5034,5,-14.835,-10.4378,2.9555,0.504509,-0.219298,92,97,98,99,95,8,88,96,97,97,99,13
-0.0520511,10,-0.409723,-0.672641,-14.3449,27.5145,-13.1779,0.409723,-0.409723,-0.672641,-14.1431,27.5145,-13.3797,0.409723,4.26652,15.327,4.25062,5,4.95677,-9.09464,2.47546,7.62973,19.7127,19.5032,5,-14.8343,-10.4378,2.95567,0.504481,-0.219287,92,97,98,99,95,8,88,96,97,97,99,13
-0.0520267,10,-0.409702,-0.672607,-14.3449,27.5145,-13.1779,0.409702,-0.409702,-0.672607,-14.1431,27.5145,-13.3797,0.409702,4.26649,15.3272,4.25095,5,4.95653,-9.09486,2.4755,7.62952,19.7127,19.503,5,-14.8336,-10.4378,2.95585,0.504455,-0.219275,92,97,98,99,95,8,88,96,97,97,99,13
-0.0520017,10,-0.40968,-0.672576,-14.3447,27.5143,-13.1779,0.40968,-0.40968,-0.672576,-14.1429,27.5143,-13.3797,0.40968,4.26645,15.3274,4.25131,5,4.95627,-9.09507,2.47554,7.62933,19.7127,19.5027,5,-14.8328,-10.4377,2.95601,0.504432,-0.219264,92,97,98,99,95,8,88,96,97,97,99,12
-0.0519745,10,-0.409659,-0.672548,-14.3446,27.5143,-13.1779,0.409659,-0.409659,-0.672548,-14.1429,27.5143,-13.3797,0.409659,4.2664,15.3277,4.25169,5,4.95599,-9.09529,2.47556,7.62914,19.7127,19.5024,5,-14.832,-10.4377,2.95617,0.504411,-0.219252,92,97,98,99,95,8,88,96,97,97,99,12
-0.0519456,10,-0.409638,-0.672524,-14.3446,27.5143,-13.1779,0.409638,-0.409638,-0.672524,-14.1429,27.5143,-13.3797,0.409638,4.26634,15.3279,4.25209,5,4.95571,-9.0955,2.47558,7.62896,19.7127,19.502,5,-14.8313,-10.4377,2.95633,0.504393,-0.219241,92,97,98,99,95,8,88,96,97,97,99,12
-0.0519159,10,-0.409616,-0.672502,-14.3446,27.5143,-13.1779,0.409616,-0.409616,-0.672502,-14.1429,27.5143,-13.3797,0.409616,4.26628,15.3281,4.25251,5,4.95541,-9.09571,2.4756,7.62879,19.7127,19.5017,5,-14.8305,-10.4376,2.95648,0.504376,-0.219229,92,97,98,99,95,8,88,96,97,97,99,12
-0.0518856,10,-0.409595,-0.672482,-14.3446,27.5143,-13.178,0.409595,-0.409595,-0.672482,-14.1429,27.5143,-13.3797,0.409595,4.26621,15.3283,4.25292,5,4.9551,-9.09593,2.47562,7.62862,19.7127,19.5013,5,-14.8298,-10.4376,2.95663,0.504361,-0.219217,92,97,98,99,95,8,88,96,97,97,99,12
-0.0518553,10,-0.409573,-0.672464,-14.3446,27.5143,-13.178,0.409573,-0.409573,-0.672464,-14.1429,27.5143,-13.3797,0.409573,4.26614,15.3285,4.25334,5,4.95478,-9.09615,2.47565,7.62846,19.7127,19.501,5,-14.829,-10.4376,2.95678,0.504348,-0.219205,92,97,98,99,95,8,88,96,97,97,99,12
-0.0518252,10,-0.409551,-0.672448,-14.3446,27.5143,-13.178,0.409551,-0.409551,-0.672448,-14.1428,27.5143,-13.3797,0.409551,4.26607,15.3288,4.25374,5,4.95445,-9.09638,2.4757,7.62831,19.7126,19.5006,5,-14.8283,-10.4375,2.95694,0.504336,-0.219194,92,97,98,99,95,8,88,96,97,97,99,12
-0.0517955,10,-0.409529,-0.672432,-14.3446,27.5143,-13.178,0.409529,-0.409529,-0.672432,-14.1428,27.5143,-13.3797,0.409529,4.26599,15.329,4.25413,5,4.95411,-9.09662,2.47575,7.62815,19.7126,19.5003,5,-14.8275,-10.4375,2.95711,0.504324,-0.219181,92,97,98,99,95,8,88,96,97,97,99,12
-0.051768,10,-0.409506,-0.672418,-14.3446,27.5143,-13.178,0.409506,-0.409506,-0.672418,-14.1428,27.5143,-13.3797,0.409506,4.26591,15.3292,4.25447,5,4.95378,-9.09687,2.47583,7.628,19.7125,19.5,5,-14.8269,-10.4374,2.95729,0.504313,-0.219169,92,97,98,99,95,8,88,96,97,97,99,12
-0.0517418,10,-0.409483,-0.672403,-14.3446,27.5143,-13.178,0.409483,-0.409483,-0.672403,-14.1428,27.5143,-13.3797,0.409483,4.26582,15.3294,4.25478,5,4.95345,-9.09712,2.47593,7.62784,19.7125,19.4998,5,-14.8262,-10.4374,2.95749,0.504303,-0.219156,92,97,98,99,95,8,88,96,97,97,99,12
-0.0517164,10,-0.409459,-0.67239,-14.3445,27.5143,-13.178,0.409459,-0.409459,-0.67239,-14.1428,27.5143,-13.3797,0.409459,4.26574,15.3296,4.25506,5,4.95311,-9.09739,2.47604,7.62769,19.7124,19.4995,5,-14.8256,-10.4374,2.9577,0.504292,-0.219143,92,97,98,99,95,8,88,96,97,97,99,12
-0.0516908,10,-0.409435,-0.672377,-14.3445,27.5143,-13.178,0.409435,-0.409435,-0.672377,-14.1428,27.5143,-13.3797,0.409435,4.26565,15.3297,4.25532,5,4.95277,-9.09766,2.47618,7.62754,19.7124,19.4993,5,-14.8249,-10.4373,2.95793,0.504283,-0.21913,92,97,98,99,95,8,88,96,97,97,99,12
-0.0516647,10,-0.409411,-0.672365,-14.3445,27.5143,-13.178,0.409411,-0.409411,-0.672365,-14.1428,27.5143,-13.3798,0.409411,4.26556,15.3299,4.25556,5,4.95242,-9.09794,2.47633,7.62739,19.7123,19.4992,5,-14.8243,-10.4373,2.95815,0.504274,-0.219117,92,97,98,99,95,8,88,96,97,97,99,12
-0.0516373,10,-0.409387,-0.672353,-14.3445,27.5143,-13.1781,0.409387,-0.409387,-0.672353,-14.1428,27.5143,-13.3798,0.409387,4.26547,15.3301,4.25579,5,4.95206,-9.09822,2.47649,7.62724,19.7122,19.499,5,-14.8238,-10.4373,2.95839,0.504265,-0.219104,92,97,98,99,95,8,88,96,97,97,99,12
-0.0516083,10,-0.409364,-0.672343,-14.3448,27.5146,-13.1781,0.409364,-0.409364,-0.672343,-14.1431,27.5146,-13.3798,0.409364,4.26538,15.3303,4.25601,5,4.9517,-9.0985,2.47666,7.62709,19.7121,19.4989,5,-14.8232,-10.4372,2.95862,0.504257,-0.219091,92,97,98,99,95,8,88,96,97,97,99,12
-0.0515762,10,-0.40934,-0.672334,-14.3448,27.5146,-13.1781,0.40934,-0.40934,-0.672334,-14.1431,27.5146,-13.3798,0.40934,4.26528,15.3304,4.25624,5,4.95132,-9.09878,2.47684,7.62694,19.712,19.4987,5,-14.8227,-10.4372,2.95886,0.50425,-0.219078,92,97,98,99,95,8,88,96,97,97,99,12
-0.0515412,10,-0.409317,-0.672326,-14.3448,27.5146,-13.1782,0.409317,-0.409317,-0.672326,-14.1431,27.5146,-13.3799,0.409317,4.26517,15.3306,4.25648,5,4.95093,-9.09906,2.47702,7.6268,19.7119,19.4986,5,-14.8222,-10.4371,2.95909,0.504244,-0.219066,92,97,98,99,95,8,88,96,97,97,99,12
-0.0515033,10,-0.409294,-0.672319,-14.3448,27.5146,-13.1782,0.409294,-0.409294,-0.672319,-14.1431,27.5146,-13.3799,0.409294,4.26507,15.3308,4.25672,5,4.95054,-9.09933,2.47721,7.62666,19.7118,19.4985,5,-14.8217,-10.4371,2.95932,0.504239,-0.219053,92,97,98,99,95,8,88,96,97,97,99,12
-0.0514626,10,-0.409271,-0.672312,-14.3448,27.5146,-13.1782,0.409271,-0.409271,-0.672312,-14.1431,27.5146,-13.3799,0.409271,4.26496,15.3309,4.25693,5,4.95015,-9.09961,2.47741,7.62652,19.7117,19.4983,5,-14.8212,-10.437,2.95956,0.504234,-0.219041,92,97,98,99,95,8,88,96,97,97,99,12
-0.0514191,10,-0.409248,-0.672305,-14.3448,27.5146,-13.1782,0.409248,-0.409248,-0.672305,-14.1431,27.5146,-13.3799,0.409248,4.26486,15.331,4.25712,5,4.94977,-9.09989,2.47761,7.62638,19.7116,19.4983,5,-14.8207,-10.437,2.9598,0.504229,-0.219028,92,97,98,99,95,8,88,96,97,97,99,12
-0.0513728,10,-0.409225,-0.672298,-14.3447,27.5146,-13.1782,0.409225,-0.409225,-0.672298,-14.1431,27.5146,-13.3799,0.409225,4.26476,15.3312,4.25727,5,4.94941,-9.10017,2.47782,7.62625,19.7115,19.4982,5,-14.8203,-10.437,2.96005,0.504223,-0.219016,92,97,98,99,95,8,88,96,97,97,99,12
-0.0513239,10,-0.409202,-0.67229,-14.3447,27.5146,-13.1782,0.409202,-0.409202,-0.67229,-14.143,27.5146,-13.3799,0.409202,4.26467,15.3313,4.25738,5,4.94907,-9.10046,2.47804,7.62612,19.7114,19.4982,5,-14.8198,-10.4369,2.9603,0.504217,-0.219003,92,97,98,99,95,8,88,96,97,97,99,12
-0.0512739,10,-0.409179,-0.67228,-14.3447,27.5146,-13.1782,0.409179,-0.409179,-0.67228,-14.143,27.5146,-13.3799,0.409179,4.26459,15.3315,4.25744,5,4.94876,-9.10075,2.47826,7.62599,19.7113,19.4982,5,-14.8194,-10.4369,2.96056,0.50421,-0.218991,92,97,98,99,95,8,88,96,97,97,99,12
-0.051222,10,-0.409156,-0.67227,-14.3447,27.5146,-13.1782,0.409156,-0.409156,-0.67227,-14.143,27.5146,-13.3799,0.409156,4.26451,15.3316,4.25743,5,4.94849,-9.10104,2.47849,7.62586,19.7112,19.4982,5,-14.8191,-10.4369,2.96084,0.504202,-0.218978,92,97,98,99,95,8,88,96,97,97,99,12
-0.0511672,10,-0.409133,-0.672258,-14.3447,27.5146,-13.1782,0.409133,-0.409133,-0.672258,-14.143,27.5146,-13.3799,0.409133,4.26445,15.3317,4.25738,5,4.94825,-9.10134,2.47872,7.62574,19.7111,19.4983,5,-14.8187,-10.4369,2.96112,0.504194,-0.218966,92,97,98,99,95,8,88,96,97,97,99,12
-0.0511089,10,-0.409109,-0.672245,-14.3447,27.5146,-13.1782,0.409109,-0.409109,-0.672245,-14.143,27.5146,-13.3799,0.409109,4.2644,15.3319,4.25726,5,4.94804,-9.10164,2.47896,7.62562,19.7109,19.4984,5,-14.8183,-10.4369,2.9614,0.504184,-0.218953,92,97,98,99,95,8,88,96,97,97,99,12
-0.0510463,10,-0.409085,-0.672231,-14.3447,27.5146,-13.1783,0.409085,-0.409085,-0.672231,-14.143,27.5146,-13.3799,0.409085,4.26435,15.332,4.25709,5,4.94788,-9.10194,2.4792,7.62551,19.7108,19.4985,5,-14.818,-10.4369,2.9617,0.504174,-0.21894,92,97,98,99,95,8,88,96,97,97,99,12
-0.050979,10,-0.409061,-0.672217,-14.3447,27.5146,-13.1783,0.409061,-0.409061,-0.672217,-14.143,27.5146,-13.3799,0.409061,4.26431,15.3322,4.25687,5,4.94775,-9.10223,2.47944,7.62539,19.7107,19.4987,5,-14.8176,-10.4369,2.962,0.504163,-0.218926,92,97,98,99,95,8,88,96,97,97,99,12
-0.0509068,10,-0.409036,-0.672201,-14.3447,27.5146,-13.1783,0.409036,-0.409036,-0.672201,-14.143,27.5146,-13.3799,0.409036,4.26428,15.3323,4.25659,5,4.94766,-9.10252,2.47968,7.62528,19.7106,19.4989,5,-14.8173,-10.4369,2.96231,0.504151,-0.218913,92,98,98,99,95,8,88,96,97,97,99,12
-0.0508265,10,-0.40901,-0.672186,-14.3447,27.5146,-13.1783,0.40901,-0.40901,-0.672186,-14.143,27.5146,-13.3799,0.40901,4.26425,15.3325,4.25627,5,4.94761,-9.10281,2.47992,7.62518,19.7104,19.4991,5,-14.817,-10.4369,2.96262,0.504139,-0.218899,92,98,98,99,95,8,88,96,97,97,99,12
-0.0507393,10,-0.408983,-0.67217,-14.3447,27.5146,-13.1783,0.408983,-0.408983,-0.67217,-14.143,27.5146,-13.3799,0.408983,4.26423,15.3326,4.25589,5,4.9476,-9.10308,2.48016,7.62508,19.7103,19.4994,5,-14.8167,-10.4369,2.96294,0.504128,-0.218884,92,98,98,99,95,8,88,96,97,97,99,12
-0.0506465,10,-0.408956,-0.672154,-14.3447,27.5146,-13.1783,0.408956,-0.408956,-0.672154,-14.143,27.5146,-13.3799,0.408956,4.26421,15.3328,4.25546,5,4.94763,-9.10335,2.48039,7.62498,19.7102,19.4997,5,-14.8164,-10.4369,2.96326,0.504115,-0.218869,92,98,98,99,95,8,88,96,97,97,99,12
-0.0505493,10,-0.408929,-0.672136,-14.3446,27.5146,-13.1783,0.408929,-0.408929,-0.672136,-14.143,27.5146,-13.3799,0.408929,4.2642,15.333,4.25499,5,4.94771,-9.10361,2.48063,7.62488,19.71,19.5,5,-14.816,-10.4369,2.96359,0.504102,-0.218854,92,98,98,99,95,8,88,96,97,97,99,12
-0.0504484,10,-0.408901,-0.672117,-14.3446,27.5146,-13.1783,0.408901,-0.408901,-0.672117,-14.143,27.5146,-13.3799,0.408901,4.26421,15.3331,4.25447,5,4.94783,-9.10387,2.48085,7.6248,19.7099,19.5004,5,-14.8157,-10.437,2.96392,0.504088,-0.218839,92,98,98,99,95,8,88,96,97,97,99,12
-0.0503446,10,-0.408872,-0.672098,-14.3446,27.5146,-13.1783,0.408872,-0.408872,-0.672098,-14.143,27.5146,-13.3799,0.408872,4.26422,15.3333,4.2539,5,4.948,-9.10412,2.48108,7.62471,19.7098,19.5008,5,-14.8154,-10.437,2.96426,0.504073,-0.218824,92,98,98,99,95,8,88,96,97,97,99,12
-0.0502387,10,-0.408843,-0.672076,-14.3446,27.5146,-13.1783,0.408843,-0.408843,-0.672076,-14.143,27.5146,-13.3799,0.408843,4.26425,15.3335,4.25329,5,4.94821,-9.10437,2.48129,7.62464,19.7096,19.5012,5,-14.8151,-10.437,2.9646,0.504057,-0.218808,92,98,98,99,95,8,88,96,97,97,99,12
-0.0501328,10,-0.408815,-0.672053,-14.3448,27.5147,-13.1784,0.408815,-0.408815,-0.672053,-14.1431,27.5147,-13.38,0.408815,4.2643,15.3336,4.25264,5,4.94847,-9.10463,2.4815,7.62456,19.7095,19.5016,5,-14.8147,-10.4371,2.96493,0.504039,-0.218792,92,98,98,99,95,8,88,96,97,97,99,12
-0.0500264,10,-0.408785,-0.672027,-14.3448,27.5147,-13.1784,0.408785,-0.408785,-0.672027,-14.1431,27.5147,-13.38,0.408785,4.26436,15.3338,4.25194,5,4.94877,-9.10488,2.4817,7.6245,19.7093,19.5021,5,-14.8144,-10.4371,2.96527,0.50402,-0.218776,92,98,98,99,95,8,88,96,97,97,99,12
-0.0499192,10,-0.408756,-0.672,-14.3447,27.5147,-13.1784,0.408756,-0.408756,-0.672,-14.1431,27.5147,-13.38,0.408756,4.26444,15.334,4.25122,5,4.94912,-9.10513,2.48189,7.62444,19.7092,19.5025,5,-14.814,-10.4372,2.96561,0.504,-0.21876,92,98,98,99,95,8,88,96,97,97,99,12
-0.0498107,10,-0.408727,-0.671972,-14.3447,27.5147,-13.1784,0.408727,-0.408727,-0.671972,-14.1432,27.5147,-13.38,0.408727,4.26453,15.3341,4.25046,5,4.94951,-9.10538,2.48207,7.62439,19.709,19.503,5,-14.8136,-10.4372,2.96595,0.503979,-0.218744,92,98,98,99,95,8,88,96,97,97,99,12
-0.0497006,10,-0.408698,-0.671943,-14.3447,27.5147,-13.1784,0.408698,-0.408698,-0.671943,-14.1432,27.5147,-13.3799,0.408698,4.26464,15.3343,4.24967,5,4.94994,-9.10563,2.48224,7.62435,19.7089,19.5035,5,-14.8132,-10.4373,2.9663,0.503957,-0.218728,92,98,98,99,95,8,88,96,97,97,99,12
-0.0495887,10,-0.408668,-0.671913,-14.3447,27.5147,-13.1784,0.408668,-0.408668,-0.671913,-14.1432,27.5147,-13.3799,0.408668,4.26476,15.3344,4.24886,5,4.95041,-9.10587,2.4824,7.62432,19.7087,19.504,5,-14.8128,-10.4374,2.96666,0.503935,-0.218712,92,98,98,99,95,8,88,96,97,97,99,12
-0.0494746,10,-0.408639,-0.671882,-14.3452,27.515,-13.1785,0.408639,-0.408639,-0.671882,-14.1437,27.515,-13.38,0.408639,4.26488,15.3346,4.24804,5,4.95091,-9.10611,2.48254,7.62429,19.7085,19.5046,5,-14.8124,-10.4374,2.96702,0.503912,-0.218697,92,98,98,99,95,8,88,96,97,97,99,12
-0.0493579,10,-0.40861,-0.671851,-14.3452,27.515,-13.1785,0.40861,-0.40861,-0.671851,-14.1437,27.515,-13.38,0.40861,4.26502,15.3347,4.24719,5,4.95145,-9.10635,2.48267,7.62428,19.7083,19.5051,5,-14.812,-10.4375,2.9674,0.503888,-0.218681,92,98,98,99,95,8,88,96,97,97,99,12
-0.0492383,10,-0.408581,-0.671819,-14.3452,27.515,-13.1785,0.408581,-0.408581,-0.671819,-14.1437,27.515,-13.38,0.408581,4.26518,15.3349,4.24632,5,4.95203,-9.10659,2.48278,7.62427,19.7082,19.5057,5,-14.8116,-10.4376,2.96779,0.503865,-0.218665,92,98,98,99,95,8,88,96,97,97,99,12
-0.0491159,10,-0.408551,-0.671788,-14.3452,27.515,-13.1785,0.408551,-0.408551,-0.671788,-14.1437,27.515,-13.38,0.408551,4.26534,15.335,4.24545,5,4.95263,-9.10682,2.48288,7.62428,19.708,19.5062,5,-14.8112,-10.4377,2.9682,0.503841,-0.218649,92,98,98,99,95,8,88,96,97,97,99,12
-0.0489904,10,-0.408523,-0.671757,-14.3452,27.515,-13.1785,0.408523,-0.408523,-0.671757,-14.1437,27.515,-13.38,0.408523,4.26551,15.3352,4.24458,5,4.95325,-9.10705,2.48297,7.62429,19.7078,19.5068,5,-14.8108,-10.4378,2.96861,0.503817,-0.218633,92,98,98,99,95,8,88,96,97,97,99,12
-0.0488618,10,-0.408495,-0.671726,-14.3452,27.515,-13.1785,0.408495,-0.408495,-0.671726,-14.1437,27.515,-13.38,0.408495,4.26568,15.3353,4.24373,5,4.95388,-9.10727,2.48304,7.62431,19.7076,19.5073,5,-14.8103,-10.4379,2.96903,0.503794,-0.218618,92,98,98,99,95,8,88,96,97,97,99,12
-0.0487298,10,-0.408467,-0.671695,-14.3452,27.515,-13.1785,0.408467,-0.408467,-0.671695,-14.1437,27.515,-13.38,0.408467,4.26587,15.3354,4.24288,5,4.95451,-9.1075,2.4831,7.62435,19.7075,19.5078,5,-14.8099,-10.438,2.96946,0.503771,-0.218603,92,98,98,99,95,8,88,96,97,97,99,12
-0.0485945,10,-0.40844,-0.671665,-14.3448,27.5147,-13.1784,0.40844,-0.40844,-0.671665,-14.1433,27.5147,-13.3799,0.40844,4.26607,15.3355,4.24206,5,4.95514,-9.10772,2.48315,7.62439,19.7073,19.5084,5,-14.8095,-10.4381,2.9699,0.503748,-0.218588,92,98,98,99,95,8,87,96,97,97,99,12
-0.0484571,10,-0.408414,-0.671635,-14.3448,27.5147,-13.1783,0.408414,-0.408414,-0.671635,-14.1433,27.5147,-13.3798,0.408414,4.26627,15.3356,4.24128,5,4.95575,-9.10794,2.48319,7.62445,19.7071,19.5089,5,-14.809,-10.4382,2.97034,0.503726,-0.218574,92,98,98,99,95,8,87,96,97,97,99,12
-0.0483168,10,-0.40839,-0.671607,-14.3448,27.5147,-13.1783,0.40839,-0.40839,-0.671607,-14.1433,27.5147,-13.3798,0.40839,4.26648,15.3357,4.24054,5,4.95634,-9.10816,2.48323,7.62451,19.7069,19.5094,5,-14.8085,-10.4383,2.9708,0.503705,-0.218561,92,98,98,99,95,8,87,96,97,97,99,12
-0.0481729,10,-0.408366,-0.671579,-14.3448,27.5147,-13.1783,0.408366,-0.408366,-0.671579,-14.1433,27.5147,-13.3798,0.408366,4.2667,15.3358,4.23983,5,4.95692,-9.10838,2.48325,7.62459,19.7067,19.5099,5,-14.8081,-10.4383,2.97125,0.503684,-0.218548,92,98,98,99,95,8,87,96,97,97,99,12
-0.0480249,10,-0.408344,-0.671551,-14.3448,27.5147,-13.1783,0.408344,-0.408344,-0.671551,-14.1433,27.5147,-13.3798,0.408344,4.26692,15.3358,4.23915,5,4.95748,-9.10859,2.48327,7.62468,19.7066,19.5104,5,-14.8076,-10.4384,2.97171,0.503664,-0.218536,92,98,98,99,95,8,87,96,97,97,99,12
-0.0478723,10,-0.408322,-0.671525,-14.3448,27.5147,-13.1783,0.408322,-0.408322,-0.671525,-14.1434,27.5147,-13.3798,0.408322,4.26714,15.3359,4.2385,5,4.95803,-9.1088,2.48328,7.62477,19.7064,19.5108,5,-14.8071,-10.4385,2.97218,0.503644,-0.218524,92,98,98,99,95,8,87,96,97,97,99,12
-0.047715,10,-0.4083,-0.671499,-14.3448,27.5147,-13.1783,0.4083,-0.4083,-0.671499,-14.1434,27.5147,-13.3798,0.4083,4.26737,15.336,4.23787,5,4.95857,-9.10901,2.48328,7.62487,19.7062,19.5113,5,-14.8067,-10.4386,2.97264,0.503624,-0.218512,92,98,98,99,95,8,87,96,97,97,99,12
-0.0475527,10,-0.40828,-0.671474,-14.3458,27.5154,-13.1785,0.40828,-0.40828,-0.671474,-14.1444,27.5154,-13.3799,0.40828,4.2676,15.336,4.23726,5,4.95911,-9.10921,2.48327,7.62497,19.706,19.5117,5,-14.8062,-10.4386,2.9731,0.503605,-0.218501,92,98,98,99,95,8,87,96,97,97,99,13
