565950964-design/kaipule_sdk/control/csv_file/chenglong.csv
Head_1,Head_2,Joint_1,Joint_2,Joint_3,Joint_4,Joint_5,Joint_6,Joint_7,Joint_8,Joint_9,Joint_10,Joint_11,Joint_12,Joint_13,Joint_14,Joint_15,Joint_16,Joint_17,Joint_18,Joint_19,Joint_20,Joint_21,Joint_22,Joint_23,Joint_24,Joint_25,Joint_26,Joint_27,Joint_28,Finger_1,Finger_2,Finger_3,Finger_4,Finger_5,Finger_6,Finger_7,Finger_8,Finger_9,Finger_10,Finger_11,Finger_12
-1.8883,7.66104,-0.448726,-0.420655,-14.7757,27.5131,-12.7448,0.448726,-0.448726,-0.420655,-14.6495,27.5131,-12.871,0.448726,10.7781,13.29,2.98625,8.50757,5.35167,-3.76935,2.44343,12.8813,18.1019,3.33758,5,-16.4442,-3.56406,2.29117,0.315491,-0.240594,61,82,78,81,77,39,78,78,79,76,83,22
-1.8883,7.66105,-0.448725,-0.420657,-14.7757,27.5131,-12.7448,0.448725,-0.448725,-0.420657,-14.6495,27.5131,-12.871,0.448725,10.778,13.29,2.98625,8.50758,5.35167,-3.76936,2.44343,12.8813,18.1019,3.33761,5,-16.4442,-3.56407,2.29115,0.315493,-0.240593,61,82,78,81,77,39,78,78,79,76,83,22
-1.88831,7.66107,-0.448722,-0.420661,-14.7757,27.5131,-12.7448,0.448722,-0.448722,-0.420661,-14.6495,27.5131,-12.871,0.448722,10.778,13.29,2.98624,8.50761,5.35168,-3.76939,2.44343,12.8813,18.1018,3.33766,5,-16.4442,-3.56408,2.29113,0.315496,-0.240592,61,82,78,81,77,39,78,78,79,76,83,22
-1.88832,7.66109,-0.448719,-0.420666,-14.7757,27.5131,-12.7448,0.448719,-0.448719,-0.420666,-14.6495,27.5131,-12.871,0.448719,10.778,13.29,2.98622,8.50764,5.3517,-3.76942,2.44342,12.8813,18.1018,3.33773,5,-16.4442,-3.5641,2.29109,0.3155,-0.24059,61,82,78,81,77,39,78,78,79,76,83,22
-1.88833,7.66114,-0.448714,-0.420673,-14.7757,27.5131,-12.7448,0.448714,-0.448714,-0.420673,-14.6495,27.5131,-12.871,0.448714,10.7779,13.29,2.98619,8.50769,5.35172,-3.76947,2.44342,12.8813,18.1017,3.33783,5,-16.4443,-3.56412,2.29105,0.315505,-0.240587,61,82,78,81,77,39,78,78,79,76,83,22
-1.88834,7.66119,-0.448707,-0.420681,-14.7757,27.5131,-12.7448,0.448707,-0.448707,-0.420681,-14.6495,27.5131,-12.871,0.448707,10.7778,13.29,2.98616,8.50775,5.35174,-3.76953,2.44342,12.8812,18.1017,3.33795,5,-16.4443,-3.56415,2.29099,0.315511,-0.240584,61,82,78,81,77,39,78,78,79,76,83,22
-1.88835,7.66126,-0.4487,-0.42069,-14.7757,27.5131,-12.7448,0.4487,-0.4487,-0.42069,-14.6495,27.5131,-12.871,0.4487,10.7778,13.29,2.98612,8.50781,5.35177,-3.76961,2.44341,12.8812,18.1016,3.3381,5,-16.4444,-3.56419,2.29093,0.315517,-0.24058,61,82,78,81,77,39,78,78,79,76,83,22
-1.88836,7.66134,-0.448692,-0.4207,-14.7757,27.5131,-12.7448,0.448692,-0.448692,-0.4207,-14.6495,27.5131,-12.871,0.448692,10.7777,13.29,2.98608,8.50789,5.35179,-3.76969,2.4434,12.8812,18.1015,3.33827,5,-16.4445,-3.56423,2.29085,0.315525,-0.240575,61,82,78,81,77,39,78,78,79,76,83,22
-1.88837,7.66145,-0.448683,-0.42071,-14.7757,27.5131,-12.7448,0.448683,-0.448683,-0.42071,-14.6495,27.5131,-12.871,0.448683,10.7776,13.29,2.98602,8.50797,5.35183,-3.76979,2.44339,12.8811,18.1014,3.33847,5,-16.4447,-3.56429,2.29077,0.315532,-0.24057,61,82,78,81,77,39,78,78,79,76,83,22
-1.88837,7.66157,-0.448673,-0.420721,-14.7757,27.5131,-12.7448,0.448673,-0.448673,-0.420721,-14.6495,27.5131,-12.871,0.448673,10.7775,13.29,2.98596,8.50807,5.35186,-3.76991,2.44338,12.8811,18.1013,3.3387,5,-16.4448,-3.56434,2.29068,0.315541,-0.240565,61,82,78,81,77,39,78,78,79,76,83,22
-1.88838,7.6617,-0.448661,-0.420732,-14.7757,27.5131,-12.7448,0.448661,-0.448661,-0.420732,-14.6495,27.5131,-12.871,0.448661,10.7774,13.29,2.98589,8.50817,5.3519,-3.77003,2.44337,12.881,18.1012,3.33894,5,-16.445,-3.5644,2.29059,0.315549,-0.240559,61,82,78,81,77,39,78,78,79,76,83,22
-1.88839,7.66185,-0.44865,-0.420744,-14.7757,27.5131,-12.7448,0.44865,-0.44865,-0.420744,-14.6494,27.5131,-12.871,0.44865,10.7772,13.29,2.98581,8.50828,5.35194,-3.77017,2.44335,12.881,18.101,3.33921,5,-16.4452,-3.56447,2.29049,0.315558,-0.240552,61,82,78,81,77,39,78,78,79,76,83,22
-1.8884,7.66201,-0.448637,-0.420755,-14.7757,27.5131,-12.7448,0.448637,-0.448637,-0.420755,-14.6494,27.5131,-12.871,0.448637,10.7771,13.29,2.98573,8.50839,5.35199,-3.77031,2.44333,12.8809,18.1009,3.33949,5,-16.4454,-3.56454,2.29038,0.315567,-0.240545,61,82,78,81,77,39,78,78,79,76,83,22
-1.8884,7.66218,-0.448624,-0.420768,-14.7757,27.5131,-12.7448,0.448624,-0.448624,-0.420768,-14.6494,27.5131,-12.8711,0.448624,10.777,13.29,2.98564,8.50851,5.35203,-3.77047,2.44331,12.8808,18.1007,3.33978,5,-16.4456,-3.56462,2.29027,0.315576,-0.240538,61,82,78,81,77,39,78,78,79,76,83,22
-1.88841,7.66236,-0.448611,-0.42078,-14.7749,27.5125,-12.7447,0.448611,-0.448611,-0.42078,-14.6486,27.5125,-12.8709,0.448611,10.7769,13.29,2.98555,8.50863,5.35208,-3.77062,2.44329,12.8808,18.1006,3.34009,5,-16.4458,-3.5647,2.29016,0.315585,-0.240531,61,82,78,81,77,39,78,78,79,76,83,22
-1.88841,7.66255,-0.448597,-0.420791,-14.7749,27.5125,-12.7447,0.448597,-0.448597,-0.420791,-14.6486,27.5125,-12.8709,0.448597,10.7768,13.29,2.98545,8.50875,5.35212,-3.77079,2.44327,12.8807,18.1004,3.34041,5,-16.446,-3.56478,2.29004,0.315593,-0.240523,61,82,78,81,77,39,78,78,79,76,83,22
-1.88842,7.66275,-0.448582,-0.420802,-14.7749,27.5125,-12.7447,0.448582,-0.448582,-0.420802,-14.6486,27.5125,-12.8709,0.448582,10.7766,13.29,2.98534,8.50888,5.35217,-3.77097,2.44325,12.8806,18.1003,3.34075,5,-16.4463,-3.56487,2.28992,0.315602,-0.240515,61,82,78,81,77,39,78,78,79,76,83,22
-1.88842,7.66296,-0.448567,-0.420813,-14.7749,27.5125,-12.7447,0.448567,-0.448567,-0.420813,-14.6486,27.5125,-12.8709,0.448567,10.7765,13.29,2.98523,8.509,5.35222,-3.77115,2.44323,12.8806,18.1001,3.3411,5,-16.4465,-3.56495,2.28979,0.31561,-0.240507,61,82,78,81,77,39,78,78,79,76,83,22
-1.88842,7.66317,-0.448552,-0.420824,-14.7749,27.5125,-12.7447,0.448552,-0.448552,-0.420824,-14.6486,27.5125,-12.8709,0.448552,10.7764,13.29,2.98512,8.50913,5.35227,-3.77133,2.4432,12.8805,18.0999,3.34145,5,-16.4468,-3.56504,2.28967,0.315618,-0.240498,61,82,78,81,77,39,78,78,79,76,83,22
-1.88842,7.66338,-0.448537,-0.420836,-14.7748,27.5125,-12.7447,0.448537,-0.448537,-0.420836,-14.6486,27.5125,-12.8709,0.448537,10.7763,13.29,2.98501,8.50927,5.35232,-3.77151,2.44318,12.8804,18.0998,3.3418,5,-16.4471,-3.56513,2.28954,0.315627,-0.24049,61,82,78,81,77,39,78,78,79,76,83,22
-1.88843,7.66358,-0.448522,-0.420848,-14.7748,27.5125,-12.7447,0.448522,-0.448522,-0.420848,-14.6486,27.5125,-12.871,0.448522,10.7761,13.29,2.98491,8.5094,5.35236,-3.77169,2.44316,12.8804,18.0996,3.34214,5,-16.4473,-3.56522,2.28941,0.315636,-0.240482,61,82,78,81,77,39,78,78,79,76,83,22
-1.88843,7.66379,-0.448507,-0.42086,-14.7747,27.5124,-12.7447,0.448507,-0.448507,-0.42086,-14.6484,27.5124,-12.8709,0.448507,10.776,13.29,2.9848,8.50953,5.35241,-3.77187,2.44313,12.8803,18.0994,3.34249,5,-16.4476,-3.56531,2.28929,0.315645,-0.240474,61,82,78,81,77,39,78,78,79,76,83,22
-1.88844,7.66397,-0.448494,-0.420876,-14.7747,27.5124,-12.7447,0.448494,-0.448494,-0.420876,-14.6484,27.5124,-12.8709,0.448494,10.7759,13.29,2.98472,8.50967,5.35246,-3.77204,2.44311,12.8803,18.0993,3.34281,5,-16.4478,-3.56539,2.28918,0.315657,-0.240467,61,82,78,81,77,39,78,78,79,76,83,22
-1.88845,7.66415,-0.448481,-0.420893,-14.7747,27.5124,-12.7447,0.448481,-0.448481,-0.420893,-14.6484,27.5124,-12.8709,0.448481,10.7757,13.29,2.98464,8.50981,5.35252,-3.7722,2.44308,12.8802,18.0992,3.34313,5,-16.4481,-3.56547,2.28907,0.31567,-0.24046,61,82,78,81,77,39,78,78,79,76,83,22
-1.88847,7.66431,-0.448469,-0.420911,-14.7746,27.5124,-12.7447,0.448469,-0.448469,-0.420911,-14.6484,27.5124,-12.871,0.448469,10.7756,13.29,2.98456,8.50995,5.35257,-3.77237,2.44305,12.8801,18.099,3.34343,5,-16.4483,-3.56556,2.28896,0.315683,-0.240453,61,82,78,81,77,39,78,78,79,76,83,22
-1.88848,7.66448,-0.448456,-0.420928,-14.7746,27.5124,-12.7447,0.448456,-0.448456,-0.420928,-14.6484,27.5124,-12.871,0.448456,10.7755,13.29,2.98449,8.51009,5.35262,-3.77253,2.44303,12.8801,18.0989,3.34374,5,-16.4485,-3.56564,2.28885,0.315696,-0.240446,61,82,78,81,77,39,78,78,79,76,83,22
-1.88849,7.66466,-0.448444,-0.420944,-14.7746,27.5124,-12.7447,0.448444,-0.448444,-0.420944,-14.6484,27.5124,-12.871,0.448444,10.7753,13.29,2.98441,8.51023,5.35267,-3.77269,2.443,12.88,18.0987,3.34406,5,-16.4488,-3.56572,2.28874,0.315708,-0.240439,61,82,78,81,77,39,78,78,79,76,83,22
-1.8885,7.66485,-0.44843,-0.420957,-14.7746,27.5124,-12.7447,0.44843,-0.44843,-0.420957,-14.6483,27.5124,-12.871,0.44843,10.7752,13.29,2.98432,8.51036,5.35272,-3.77287,2.44298,12.88,18.0986,3.34438,5,-16.449,-3.5658,2.28863,0.315718,-0.240432,61,82,78,81,77,39,78,78,79,76,83,22
-1.8885,7.66506,-0.448416,-0.420969,-14.7744,27.5122,-12.7447,0.448416,-0.448416,-0.420969,-14.6481,27.5122,-12.8709,0.448416,10.7751,13.29,2.98421,8.51049,5.35276,-3.77304,2.44295,12.8799,18.0984,3.34473,5,-16.4493,-3.56589,2.28851,0.315726,-0.240424,61,82,78,81,77,39,78,78,79,76,83,22
-1.88849,7.66529,-0.4484,-0.420975,-14.7744,27.5122,-12.7447,0.4484,-0.4484,-0.420975,-14.6481,27.5122,-12.871,0.4484,10.775,13.2899,2.98408,8.51061,5.35281,-3.77324,2.44293,12.8798,18.0983,3.34509,5,-16.4496,-3.56598,2.28838,0.315732,-0.240415,61,82,78,81,77,39,78,78,79,76,83,22
-1.88848,7.66555,-0.448382,-0.420978,-14.7744,27.5122,-12.7447,0.448382,-0.448382,-0.420978,-14.6481,27.5122,-12.871,0.448382,10.7749,13.2899,2.98393,8.51073,5.35285,-3.77344,2.44291,12.8798,18.0981,3.34549,5,-16.4499,-3.56607,2.28824,0.315734,-0.240406,61,82,78,81,77,39,78,78,79,76,83,22
-1.88846,7.66584,-0.448364,-0.420977,-14.7744,27.5122,-12.7447,0.448364,-0.448364,-0.420977,-14.6481,27.5122,-12.871,0.448364,10.7748,13.2899,2.98376,8.51083,5.35289,-3.77366,2.44289,12.8797,18.0978,3.34591,5,-16.4502,-3.56617,2.28809,0.315733,-0.240395,61,82,78,81,77,39,78,78,79,76,83,22
-1.88843,7.66615,-0.448343,-0.420972,-14.7744,27.5122,-12.7447,0.448343,-0.448343,-0.420972,-14.6481,27.5122,-12.871,0.448343,10.7747,13.2899,2.98357,8.51093,5.35293,-3.77388,2.44287,12.8796,18.0976,3.34635,5,-16.4505,-3.56627,2.28794,0.315729,-0.240384,61,82,78,81,77,39,78,78,79,76,83,22
-1.88839,7.66649,-0.448321,-0.420962,-14.7744,27.5122,-12.7447,0.448321,-0.448321,-0.420962,-14.6481,27.5122,-12.871,0.448321,10.7747,13.2899,2.98335,8.51102,5.35297,-3.77412,2.44285,12.8795,18.0973,3.34681,5,-16.4509,-3.56638,2.28777,0.315722,-0.240372,61,82,78,81,77,39,78,78,79,76,83,22
-1.88835,7.66685,-0.448298,-0.42095,-14.7744,27.5122,-12.7447,0.448298,-0.448298,-0.42095,-14.6481,27.5122,-12.871,0.448298,10.7747,13.2899,2.98312,8.51111,5.35301,-3.77436,2.44283,12.8794,18.0971,3.34729,5,-16.4513,-3.56649,2.2876,0.315712,-0.24036,61,82,78,81,77,39,78,78,79,76,83,22
-1.8883,7.66722,-0.448274,-0.420933,-14.7745,27.5123,-12.7447,0.448274,-0.448274,-0.420933,-14.6482,27.5123,-12.871,0.448274,10.7746,13.2899,2.98286,8.51119,5.35305,-3.77461,2.44281,12.8793,18.0968,3.3478,5,-16.4517,-3.56661,2.28742,0.3157,-0.240346,61,82,78,81,77,39,78,78,79,76,83,22
-1.88824,7.66761,-0.448248,-0.420914,-14.7745,27.5123,-12.7447,0.448248,-0.448248,-0.420914,-14.6482,27.5123,-12.871,0.448248,10.7746,13.2899,2.9826,8.51126,5.35309,-3.77487,2.44279,12.8792,18.0965,3.34831,5,-16.4521,-3.56674,2.28723,0.315685,-0.240332,61,82,78,81,77,39,78,78,79,76,83,22
-1.88818,7.66803,-0.44822,-0.420891,-14.7745,27.5123,-12.7447,0.44822,-0.44822,-0.420891,-14.6482,27.5123,-12.871,0.44822,10.7746,13.2898,2.98231,8.51133,5.35314,-3.77513,2.44278,12.8791,18.0962,3.34885,5,-16.4525,-3.56687,2.28704,0.315668,-0.240317,61,82,78,81,77,39,78,78,79,76,83,22
-1.88811,7.66845,-0.448191,-0.420865,-14.7745,27.5123,-12.7448,0.448191,-0.448191,-0.420865,-14.6482,27.5123,-12.871,0.448191,10.7746,13.2898,2.98201,8.5114,5.35318,-3.77539,2.44276,12.879,18.0959,3.3494,5,-16.4529,-3.56701,2.28683,0.315649,-0.240301,61,82,78,81,77,39,78,78,79,76,83,22
-1.88803,7.6689,-0.448162,-0.420836,-14.7744,27.5123,-12.7448,0.448162,-0.448162,-0.420836,-14.6482,27.5123,-12.871,0.448162,10.7747,13.2898,2.98169,8.51146,5.35323,-3.77567,2.44274,12.8788,18.0955,3.34997,5,-16.4533,-3.56715,2.28663,0.315627,-0.240285,61,82,78,81,77,39,78,78,79,76,83,22
-1.88795,7.66936,-0.448131,-0.420803,-14.7744,27.5123,-12.7448,0.448131,-0.448131,-0.420803,-14.6482,27.5123,-12.871,0.448131,10.7747,13.2898,2.98134,8.51151,5.35328,-3.77594,2.44271,12.8787,18.0952,3.35055,5,-16.4538,-3.56729,2.28641,0.315602,-0.240268,61,82,78,81,77,39,78,78,79,76,83,22
-1.88786,7.66985,-0.4481,-0.420767,-14.7744,27.5123,-12.7448,0.4481,-0.4481,-0.420767,-14.6482,27.5123,-12.871,0.4481,10.7747,13.2898,2.98098,8.51155,5.35334,-3.77623,2.44269,12.8786,18.0948,3.35115,5,-16.4542,-3.56743,2.28619,0.315576,-0.240251,61,82,78,81,77,39,78,78,79,76,83,22
-1.88776,7.67034,-0.448069,-0.420728,-14.7744,27.5123,-12.7448,0.448069,-0.448069,-0.420728,-14.6482,27.5123,-12.871,0.448069,10.7748,13.2897,2.98058,8.51158,5.35341,-3.77652,2.44267,12.8784,18.0944,3.35177,5,-16.4547,-3.56757,2.28597,0.315546,-0.240234,61,82,78,81,77,39,78,78,79,76,83,22
-1.88766,7.67086,-0.448037,-0.420685,-14.7744,27.5123,-12.7448,0.448037,-0.448037,-0.420685,-14.6482,27.5123,-12.871,0.448037,10.7749,13.2897,2.98016,8.5116,5.35349,-3.77683,2.44264,12.8783,18.094,3.35241,5,-16.4551,-3.56771,2.28575,0.315514,-0.240217,61,82,78,81,77,39,78,78,79,76,83,22
-1.88755,7.67139,-0.448006,-0.420639,-14.7744,27.5123,-12.7448,0.448006,-0.448006,-0.420639,-14.6482,27.5123,-12.871,0.448006,10.775,13.2896,2.9797,8.51162,5.35358,-3.77714,2.44261,12.8782,18.0936,3.35306,5,-16.4556,-3.56785,2.28552,0.315479,-0.240199,61,82,78,81,77,39,78,78,79,76,83,22
-1.88743,7.67194,-0.447974,-0.42059,-14.7744,27.5123,-12.7448,0.447974,-0.447974,-0.42059,-14.6482,27.5123,-12.871,0.447974,10.7751,13.2896,2.97922,8.51162,5.35367,-3.77746,2.44258,12.878,18.0932,3.35372,5,-16.456,-3.56798,2.28529,0.315442,-0.240182,61,82,78,81,77,39,78,78,79,76,83,22
-1.88731,7.67251,-0.447942,-0.420538,-14.7744,27.5123,-12.7448,0.447942,-0.447942,-0.420538,-14.6482,27.5123,-12.871,0.447942,10.7752,13.2895,2.97872,8.51162,5.35378,-3.77779,2.44255,12.8779,18.0928,3.3544,5,-16.4564,-3.56811,2.28506,0.315403,-0.240164,61,82,78,81,77,39,78,78,79,76,83,22
-1.88719,7.67309,-0.44791,-0.420484,-14.7744,27.5123,-12.7448,0.44791,-0.44791,-0.420484,-14.6482,27.5123,-12.871,0.44791,10.7753,13.2894,2.97821,8.5116,5.35389,-3.77812,2.44252,12.8777,18.0923,3.35509,5,-16.4569,-3.56824,2.28482,0.315363,-0.240147,61,82,78,81,77,39,78,78,79,76,83,22
-1.88706,7.67368,-0.447878,-0.420429,-14.7744,27.5123,-12.7448,0.447878,-0.447878,-0.420429,-14.6482,27.5123,-12.871,0.447878,10.7754,13.2893,2.97768,8.51159,5.354,-3.77846,2.44248,12.8776,18.0919,3.35578,5,-16.4573,-3.56837,2.28459,0.315322,-0.24013,61,82,78,81,77,39,78,78,79,76,83,22
-1.88693,7.67428,-0.447847,-0.420372,-14.7749,27.5127,-12.745,0.447847,-0.447847,-0.420372,-14.6488,27.5127,-12.8711,0.447847,10.7755,13.2892,2.97713,8.51156,5.35412,-3.7788,2.44245,12.8774,18.0915,3.35647,5,-16.4578,-3.56849,2.28436,0.315279,-0.240112,61,82,78,81,77,39,78,78,79,76,83,22
-1.88679,7.67491,-0.447815,-0.420315,-14.7749,27.5127,-12.745,0.447815,-0.447815,-0.420315,-14.6488,27.5127,-12.8711,0.447815,10.7757,13.2891,2.97659,8.51153,5.35424,-3.77913,2.44242,12.8772,18.091,3.35717,5,-16.4582,-3.56861,2.28413,0.315236,-0.240095,61,82,78,81,77,39,78,78,79,76,83,22
-1.88665,7.67554,-0.447783,-0.420256,-14.7748,27.5127,-12.745,0.447783,-0.447783,-0.420256,-14.6488,27.5127,-12.8711,0.447783,10.7758,13.289,2.97603,8.5115,5.35436,-3.77947,2.44239,12.8771,18.0906,3.35786,5,-16.4587,-3.56873,2.28389,0.315192,-0.240077,61,82,78,81,77,39,78,78,79,76,83,22
-1.8865,7.67618,-0.447752,-0.420197,-14.7748,27.5127,-12.745,0.447752,-0.447752,-0.420197,-14.6488,27.5127,-12.8711,0.447752,10.7759,13.2889,2.97548,8.51146,5.35448,-3.77981,2.44236,12.8769,18.0901,3.35855,5,-16.4591,-3.56884,2.28366,0.315148,-0.24006,61,82,78,81,77,39,78,78,79,76,83,22
-1.88636,7.67683,-0.447721,-0.420137,-14.7748,27.5127,-12.745,0.447721,-0.447721,-0.420137,-14.6488,27.5127,-12.871,0.447721,10.7761,13.2888,2.97491,8.51142,5.35461,-3.78014,2.44233,12.8768,18.0897,3.35924,5,-16.4595,-3.56896,2.28343,0.315103,-0.240043,61,82,78,81,77,39,78,78,79,76,83,22
-1.88621,7.67748,-0.44769,-0.420078,-14.7748,27.5127,-12.745,0.44769,-0.44769,-0.420078,-14.6488,27.5127,-12.871,0.44769,10.7762,13.2887,2.97435,8.51138,5.35473,-3.78048,2.4423,12.8766,18.0893,3.35993,5,-16.46,-3.56906,2.28321,0.315058,-0.240027,61,82,78,81,77,39,78,78,79,76,83,22
-1.88606,7.67813,-0.447661,-0.420017,-14.7748,27.5127,-12.745,0.447661,-0.447661,-0.420017,-14.6488,27.5127,-12.871,0.447661,10.7764,13.2886,2.97378,8.51133,5.35486,-3.78081,2.44227,12.8765,18.0888,3.36061,5,-16.4604,-3.56917,2.28298,0.315013,-0.24001,61,82,78,81,77,39,78,78,79,76,83,22
-1.88591,7.67878,-0.447631,-0.419957,-14.7751,27.5129,-12.7451,0.447631,-0.447631,-0.419957,-14.6491,27.5129,-12.8711,0.447631,10.7765,13.2885,2.97321,8.51128,5.355,-3.78114,2.44223,12.8763,18.0884,3.36129,5,-16.4608,-3.56927,2.28276,0.314968,-0.239994,61,82,78,81,77,39,78,78,79,76,83,22
-1.88577,7.67942,-0.447603,-0.419897,-14.7751,27.5129,-12.7451,0.447603,-0.447603,-0.419897,-14.6491,27.5129,-12.8711,0.447603,10.7767,13.2884,2.97264,8.51124,5.35514,-3.78147,2.44219,12.8761,18.088,3.36197,5,-16.4612,-3.56937,2.28255,0.314923,-0.239979,61,82,78,81,77,39,78,78,79,76,83,22
-1.88563,7.68005,-0.447575,-0.419837,-14.7751,27.5129,-12.7451,0.447575,-0.447575,-0.419837,-14.6491,27.5129,-12.8711,0.447575,10.7768,13.2883,2.97207,8.51119,5.35528,-3.7818,2.44215,12.876,18.0875,3.36264,5,-16.4616,-3.56947,2.28234,0.314878,-0.239963,61,82,78,81,77,39,78,78,79,76,83,22
-1.88549,7.68068,-0.447548,-0.419777,-14.775,27.5129,-12.7451,0.447548,-0.447548,-0.419777,-14.6491,27.5129,-12.8711,0.447548,10.777,13.2881,2.9715,8.51114,5.35543,-3.78212,2.4421,12.8758,18.0871,3.36331,5,-16.462,-3.56956,2.28213,0.314833,-0.239949,61,82,78,81,77,39,78,78,79,76,83,22
-1.88534,7.6813,-0.447522,-0.419716,-14.775,27.5129,-12.7451,0.447522,-0.447522,-0.419716,-14.6491,27.5129,-12.871,0.447522,10.7771,13.288,2.97092,8.51109,5.35558,-3.78244,2.44205,12.8757,18.0867,3.36397,5,-16.4623,-3.56965,2.28193,0.314787,-0.239935,61,82,78,81,77,39,78,78,79,76,83,22
-1.8852,7.68192,-0.447498,-0.419654,-14.775,27.5129,-12.7451,0.447498,-0.447498,-0.419654,-14.6491,27.5129,-12.871,0.447498,10.7773,13.2878,2.97035,8.51104,5.35574,-3.78275,2.442,12.8756,18.0863,3.36461,5,-16.4627,-3.56974,2.28174,0.31474,-0.239921,61,82,78,81,77,39,78,78,79,76,83,22
-1.88506,7.68254,-0.447474,-0.41959,-14.775,27.5129,-12.7451,0.447474,-0.447474,-0.41959,-14.6491,27.5129,-12.871,0.447474,10.7775,13.2877,2.96977,8.51097,5.3559,-3.78307,2.44194,12.8754,18.0858,3.36523,5,-16.463,-3.56982,2.28155,0.314692,-0.239908,61,82,78,81,77,39,78,78,79,76,83,22
-1.88492,7.68316,-0.447452,-0.419524,-14.7752,27.513,-12.7452,0.447452,-0.447452,-0.419524,-14.6493,27.513,-12.871,0.447452,10.7776,13.2875,2.96919,8.51091,5.35608,-3.78337,2.44188,12.8752,18.0854,3.36583,5,-16.4633,-3.56989,2.28137,0.314643,-0.239896,61,82,78,81,77,39,78,77,79,76,83,22
-1.88478,7.68378,-0.447431,-0.419456,-14.7751,27.513,-12.7452,0.447431,-0.447431,-0.419456,-14.6493,27.513,-12.871,0.447431,10.7778,13.2873,2.96861,8.51083,5.35626,-3.78368,2.44181,12.8751,18.085,3.36641,5,-16.4636,-3.56997,2.2812,0.314592,-0.239885,61,82,78,81,77,39,78,77,79,76,83,22
-1.88463,7.6844,-0.447412,-0.419385,-14.7751,27.513,-12.7452,0.447412,-0.447412,-0.419385,-14.6493,27.513,-12.871,0.447412,10.778,13.2871,2.96802,8.51075,5.35645,-3.78398,2.44175,12.8749,18.0846,3.36696,5,-16.4639,-3.57004,2.28103,0.314538,-0.239874,61,82,78,81,77,39,78,77,79,76,83,22
-1.88449,7.68502,-0.447394,-0.419311,-14.7751,27.513,-12.7452,0.447394,-0.447394,-0.419311,-14.6493,27.513,-12.871,0.447394,10.7782,13.2869,2.96743,8.51066,5.35664,-3.78427,2.44167,12.8748,18.0842,3.36749,5,-16.4641,-3.5701,2.28087,0.314483,-0.239864,61,82,78,81,77,39,78,77,79,76,83,22
-1.88434,7.68564,-0.447377,-0.419234,-14.7751,27.513,-12.7452,0.447377,-0.447377,-0.419234,-14.6493,27.513,-12.871,0.447377,10.7784,13.2867,2.96684,8.51056,5.35685,-3.78456,2.4416,12.8746,18.0838,3.36798,5,-16.4643,-3.57016,2.28072,0.314426,-0.239855,61,82,78,81,77,39,78,77,79,76,83,22
-1.88419,7.68627,-0.447362,-0.419155,-14.7751,27.513,-12.7452,0.447362,-0.447362,-0.419155,-14.6494,27.513,-12.871,0.447362,10.7787,13.2864,2.96625,8.51045,5.35707,-3.78484,2.44153,12.8744,18.0833,3.36845,5,-16.4645,-3.57022,2.28057,0.314366,-0.239847,61,82,78,81,77,39,78,77,79,76,83,22
-1.88404,7.68689,-0.447348,-0.419073,-14.7751,27.513,-12.7452,0.447348,-0.447348,-0.419073,-14.6494,27.513,-12.871,0.447348,10.7789,13.2861,2.96566,8.51033,5.35729,-3.78512,2.44145,12.8742,18.0829,3.36889,5,-16.4647,-3.57027,2.28043,0.314305,-0.239839,61,82,78,81,77,39,78,77,79,76,83,22
-1.88389,7.68752,-0.447335,-0.418988,-14.7753,27.5132,-12.7453,0.447335,-0.447335,-0.418988,-14.6496,27.5132,-12.871,0.447335,10.7791,13.2859,2.96508,8.51021,5.35752,-3.78538,2.44138,12.8741,18.0825,3.36929,5,-16.4648,-3.57032,2.28029,0.314241,-0.239832,61,82,78,81,77,39,78,78,79,76,83,22
-1.88374,7.68814,-0.447324,-0.418901,-14.7753,27.5132,-12.7453,0.447324,-0.447324,-0.418901,-14.6496,27.5132,-12.871,0.447324,10.7794,13.2856,2.96449,8.51009,5.35776,-3.78565,2.4413,12.8739,18.0821,3.36966,5,-16.4649,-3.57036,2.28016,0.314176,-0.239826,61,82,78,81,77,39,78,78,79,76,83,22
-1.88359,7.68876,-0.447313,-0.41881,-14.7753,27.5132,-12.7453,0.447313,-0.447313,-0.41881,-14.6497,27.5132,-12.871,0.447313,10.7796,13.2853,2.96391,8.50995,5.35801,-3.7859,2.44123,12.8737,18.0817,3.36999,5,-16.4649,-3.5704,2.28003,0.314108,-0.23982,61,82,78,81,77,39,78,78,79,76,83,22
-1.88344,7.68938,-0.447304,-0.418717,-14.7753,27.5132,-12.7453,0.447304,-0.447304,-0.418717,-14.6497,27.5132,-12.871,0.447304,10.7799,13.285,2.96333,8.50981,5.35827,-3.78615,2.44116,12.8735,18.0813,3.37029,5,-16.465,-3.57044,2.2799,0.314037,-0.239815,61,82,78,81,77,39,78,78,79,76,83,22
-1.88329,7.69,-0.447296,-0.41862,-14.7753,27.5132,-12.7453,0.447296,-0.447296,-0.41862,-14.6497,27.5132,-12.8709,0.447296,10.7802,13.2847,2.96276,8.50966,5.35854,-3.78638,2.44108,12.8733,18.0809,3.37055,5,-16.465,-3.57047,2.27978,0.313965,-0.23981,61,82,78,81,77,39,78,78,79,76,83,22
-1.88314,7.69062,-0.447289,-0.418522,-14.7753,27.5132,-12.7454,0.447289,-0.447289,-0.418522,-14.6497,27.5132,-12.8709,0.447289,10.7804,13.2843,2.96219,8.50952,5.35881,-3.78661,2.44101,12.8731,18.0805,3.37079,5,-16.4649,-3.5705,2.27966,0.313891,-0.239807,61,82,78,81,77,39,78,78,79,76,83,22
-1.88299,7.69124,-0.447283,-0.41842,-14.7753,27.5132,-12.7454,0.447283,-0.447283,-0.41842,-14.6497,27.5132,-12.8709,0.447283,10.7807,13.284,2.96163,8.50936,5.35909,-3.78683,2.44094,12.8728,18.08,3.37099,5,-16.4649,-3.57052,2.27954,0.313815,-0.239803,61,82,78,81,77,39,78,78,79,76,83,22
-1.88284,7.69185,-0.447278,-0.418316,-14.7752,27.5132,-12.7454,0.447278,-0.447278,-0.418316,-14.6497,27.5132,-12.8709,0.447278,10.781,13.2836,2.96107,8.50921,5.35938,-3.78704,2.44087,12.8726,18.0796,3.37116,5,-16.4648,-3.57053,2.27942,0.313737,-0.239801,61,82,78,81,77,39,78,78,79,76,83,22
-1.88269,7.69247,-0.447274,-0.418211,-14.7752,27.5132,-12.7454,0.447274,-0.447274,-0.418211,-14.6497,27.5132,-12.8709,0.447274,10.7813,13.2833,2.96052,8.50905,5.35967,-3.78724,2.44079,12.8724,18.0792,3.3713,5,-16.4647,-3.57054,2.27931,0.313658,-0.239798,61,82,78,81,77,39,78,78,79,76,83,22
-1.88253,7.69308,-0.447271,-0.418102,-14.7752,27.5132,-12.7454,0.447271,-0.447271,-0.418102,-14.6498,27.5132,-12.8708,0.447271,10.7816,13.2829,2.95997,8.50889,5.35996,-3.78743,2.44071,12.8721,18.0788,3.37141,5,-16.4646,-3.57055,2.27921,0.313577,-0.239797,61,82,78,81,77,39,78,78,79,76,83,22
-1.88238,7.69369,-0.447269,-0.417992,-14.7752,27.5132,-12.7454,0.447269,-0.447269,-0.417992,-14.6498,27.5132,-12.8708,0.447269,10.7819,13.2825,2.95943,8.50873,5.36026,-3.78762,2.44064,12.8719,18.0784,3.37149,5,-16.4644,-3.57055,2.2791,0.313494,-0.239796,61,82,78,81,77,39,78,78,79,76,83,22
-1.88222,7.6943,-0.447268,-0.417878,-14.7752,27.5132,-12.7454,0.447268,-0.447268,-0.417878,-14.6498,27.5132,-12.8708,0.447268,10.7823,13.2821,2.9589,8.50857,5.36055,-3.78779,2.44056,12.8716,18.078,3.37155,5,-16.4642,-3.57055,2.279,0.313409,-0.239795,61,82,78,81,77,39,78,78,79,76,83,22
-1.88207,7.69491,-0.447267,-0.417762,-14.7751,27.5132,-12.7455,0.447267,-0.447267,-0.417762,-14.6498,27.5132,-12.8708,0.447267,10.7826,13.2817,2.95838,8.50841,5.36085,-3.78796,2.44049,12.8714,18.0776,3.37158,5,-16.464,-3.57053,2.27889,0.313321,-0.239795,61,82,78,81,77,39,78,78,79,76,83,22
-1.88191,7.69551,-0.447266,-0.417642,-14.7751,27.5132,-12.7455,0.447266,-0.447266,-0.417642,-14.6498,27.5132,-12.8708,0.447266,10.7829,13.2813,2.95788,8.50824,5.36115,-3.78812,2.44042,12.8711,18.0772,3.3716,5,-16.4638,-3.57051,2.27878,0.313232,-0.239794,61,82,78,81,77,39,78,78,79,76,83,22
-1.88176,7.69611,-0.447266,-0.417519,-14.7751,27.5132,-12.7455,0.447266,-0.447266,-0.417519,-14.6499,27.5132,-12.8707,0.447266,10.7832,13.2809,2.9574,8.50807,5.36145,-3.78827,2.44036,12.8708,18.0768,3.37159,5,-16.4636,-3.57048,2.27867,0.313139,-0.239794,61,82,78,81,77,39,78,78,79,76,83,22
-1.8816,7.69671,-0.447265,-0.417393,-14.7751,27.5132,-12.7455,0.447265,-0.447265,-0.417393,-14.6499,27.5132,-12.8707,0.447265,10.7836,13.2805,2.95695,8.5079,5.36176,-3.78841,2.4403,12.8705,18.0763,3.37157,5,-16.4633,-3.57044,2.27855,0.313045,-0.239794,61,82,78,81,77,39,78,78,79,76,83,22
-1.88144,7.6973,-0.447264,-0.417265,-14.7751,27.5132,-12.7455,0.447264,-0.447264,-0.417265,-14.6499,27.5132,-12.8707,0.447264,10.7839,13.28,2.95652,8.50773,5.36205,-3.78854,2.44025,12.8702,18.0759,3.37154,5,-16.4631,-3.57039,2.27843,0.312948,-0.239793,61,82,78,81,77,39,78,78,79,76,83,22
-1.88128,7.69789,-0.447263,-0.417132,-14.7751,27.5132,-12.7455,0.447263,-0.447263,-0.417132,-14.6499,27.5132,-12.8707,0.447263,10.7842,13.2796,2.95612,8.50756,5.36235,-3.78867,2.4402,12.8699,18.0754,3.37149,5,-16.4628,-3.57033,2.27829,0.312849,-0.239792,61,82,78,81,77,39,78,78,79,76,83,22
-1.88112,7.69847,-0.447261,-0.416996,-14.775,27.5132,-12.7456,0.447261,-0.447261,-0.416996,-14.6499,27.5132,-12.8707,0.447261,10.7846,13.2791,2.95573,8.50738,5.36264,-3.78879,2.44016,12.8696,18.0749,3.37143,5,-16.4625,-3.57026,2.27816,0.312747,-0.239792,61,82,78,81,77,39,78,78,79,76,83,22
-1.88096,7.69905,-0.447259,-0.416856,-14.775,27.5132,-12.7456,0.447259,-0.447259,-0.416856,-14.65,27.5132,-12.8706,0.447259,10.785,13.2786,2.95536,8.5072,5.36293,-3.78892,2.44013,12.8692,18.0744,3.37135,5,-16.4622,-3.57019,2.27802,0.312642,-0.23979,61,82,78,81,77,39,78,78,79,76,83,22
-1.8808,7.69962,-0.447257,-0.416711,-14.775,27.5132,-12.7456,0.447257,-0.447257,-0.416711,-14.65,27.5132,-12.8706,0.447257,10.7853,13.2782,2.955,8.50703,5.36321,-3.78904,2.4401,12.8689,18.0739,3.37125,5,-16.4619,-3.5701,2.27788,0.312533,-0.239789,61,82,78,81,77,39,78,78,79,76,83,22
-1.88065,7.70019,-0.447254,-0.416563,-14.7743,27.5126,-12.7455,0.447254,-0.447254,-0.416563,-14.6493,27.5126,-12.8704,0.447254,10.7857,13.2777,2.95466,8.50685,5.36349,-3.78917,2.44007,12.8685,18.0734,3.37113,5,-16.4616,-3.57001,2.27774,0.312422,-0.239787,61,82,78,81,77,39,78,78,79,76,83,22
-1.8805,7.70076,-0.44725,-0.416408,-14.7742,27.5126,-12.7455,0.44725,-0.44725,-0.416408,-14.6493,27.5126,-12.8704,0.44725,10.7861,13.2772,2.95432,8.50667,5.36375,-3.78931,2.44005,12.8682,18.0729,3.371,5,-16.4613,-3.5699,2.2776,0.312306,-0.239785,61,82,78,81,77,39,78,78,79,76,83,22
-1.88035,7.70132,-0.447245,-0.416248,-14.7742,27.5126,-12.7455,0.447245,-0.447245,-0.416248,-14.6493,27.5126,-12.8704,0.447245,10.7866,13.2767,2.954,8.5065,5.36401,-3.78946,2.44003,12.8678,18.0723,3.37085,5,-16.461,-3.56979,2.27746,0.312186,-0.239782,61,82,78,81,77,39,78,78,79,76,83,22
-1.8802,7.70188,-0.447239,-0.416085,-14.7742,27.5126,-12.7455,0.447239,-0.447239,-0.416085,-14.6494,27.5126,-12.8704,0.447239,10.787,13.2762,2.95368,8.50632,5.36425,-3.78961,2.44001,12.8674,18.0717,3.37068,5,-16.4608,-3.56967,2.27732,0.312064,-0.239779,61,82,78,81,77,39,78,78,79,76,83,22
-1.88005,7.70243,-0.447233,-0.415918,-14.7742,27.5126,-12.7456,0.447233,-0.447233,-0.415918,-14.6494,27.5126,-12.8703,0.447233,10.7874,13.2756,2.95336,8.50615,5.36449,-3.78977,2.44,12.867,18.0712,3.3705,5,-16.4605,-3.56954,2.27718,0.311939,-0.239776,61,82,78,81,77,39,78,78,79,76,83,22
-1.87991,7.70297,-0.447226,-0.41575,-14.7741,27.5126,-12.7456,0.447226,-0.447226,-0.41575,-14.6494,27.5126,-12.8703,0.447226,10.7879,13.2751,2.95305,8.50598,5.36472,-3.78993,2.43999,12.8667,18.0706,3.3703,5,-16.4602,-3.56941,2.27705,0.311812,-0.239772,61,82,78,81,77,39,78,78,79,76,83,22
-1.87977,7.70351,-0.44722,-0.41558,-14.7741,27.5126,-12.7456,0.44722,-0.44722,-0.41558,-14.6494,27.5126,-12.8703,0.44722,10.7884,13.2746,2.95275,8.50581,5.36494,-3.79009,2.43998,12.8663,18.07,3.37009,5,-16.46,-3.56927,2.27692,0.311685,-0.239769,61,82,78,81,77,39,78,78,79,76,83,22
-1.87964,7.70404,-0.447213,-0.41541,-14.7736,27.5123,-12.7455,0.447213,-0.447213,-0.41541,-14.649,27.5123,-12.8701,0.447213,10.7888,13.2741,2.95245,8.50564,5.36516,-3.79025,2.43997,12.8659,18.0694,3.36987,5,-16.4597,-3.56914,2.27679,0.311557,-0.239765,61,82,78,81,77,39,78,78,79,76,83,22
-1.87951,7.70456,-0.447206,-0.415241,-14.7736,27.5123,-12.7455,0.447206,-0.447206,-0.415241,-14.649,27.5123,-12.8701,0.447206,10.7893,13.2736,2.95215,8.50547,5.36537,-3.79041,2.43996,12.8655,18.0688,3.36963,5,-16.4594,-3.569,2.27667,0.311431,-0.239761,61,82,78,81,77,39,78,78,79,76,83,22
-1.87939,7.70507,-0.4472,-0.415074,-14.7736,27.5123,-12.7456,0.4472,-0.4472,-0.415074,-14.6491,27.5123,-12.8701,0.4472,10.7898,13.273,2.95186,8.5053,5.36558,-3.79056,2.43995,12.8651,18.0682,3.36938,5,-16.4591,-3.56886,2.27656,0.311306,-0.239758,61,82,78,81,77,39,78,78,79,76,83,22
-1.87927,7.70557,-0.447193,-0.414908,-14.7736,27.5123,-12.7456,0.447193,-0.447193,-0.414908,-14.6491,27.5123,-12.8701,0.447193,10.7902,13.2725,2.95157,8.50514,5.36579,-3.79072,2.43995,12.8648,18.0676,3.36913,5,-16.4589,-3.56872,2.27644,0.311181,-0.239754,61,82,78,81,77,39,78,78,79,76,83,22
-1.87915,7.70606,-0.447186,-0.414741,-14.7735,27.5123,-12.7456,0.447186,-0.447186,-0.414741,-14.6491,27.5123,-12.87,0.447186,10.7907,13.272,2.95128,8.50498,5.36599,-3.79087,2.43994,12.8644,18.067,3.36887,5,-16.4586,-3.56858,2.27633,0.311056,-0.239751,61,82,78,81,77,39,78,78,79,76,83,22
-1.87904,7.70655,-0.447179,-0.414575,-14.7735,27.5123,-12.7456,0.447179,-0.447179,-0.414575,-14.6491,27.5123,-12.87,0.447179,10.7912,13.2715,2.95101,8.50482,5.36618,-3.79103,2.43994,12.864,18.0664,3.36861,5,-16.4583,-3.56843,2.27622,0.310931,-0.239747,61,82,78,81,77,39,78,78,79,76,83,22
-1.87893,7.70702,-0.447171,-0.414408,-14.7735,27.5123,-12.7456,0.447171,-0.447171,-0.414408,-14.6492,27.5123,-12.87,0.447171,10.7916,13.271,2.95075,8.50467,5.36636,-3.79119,2.43994,12.8637,18.0659,3.36835,5,-16.4581,-3.56829,2.27611,0.310806,-0.239742,61,82,78,81,77,39,78,78,79,76,83,22
-1.87882,7.70749,-0.447163,-0.41424,-14.7733,27.5121,-12.7456,0.447163,-0.447163,-0.41424,-14.649,27.5121,-12.8699,0.447163,10.7921,13.2705,2.9505,8.50451,5.36653,-3.79136,2.43994,12.8633,18.0653,3.36809,5,-16.4579,-3.56814,2.276,0.31068,-0.239738,61,82,78,81,77,39,78,78,79,76,83,22
-1.87871,7.70794,-0.447154,-0.41407,-14.7733,27.5121,-12.7456,0.447154,-0.447154,-0.41407,-14.649,27.5121,-12.8699,0.447154,10.7926,13.27,2.95027,8.50436,5.36669,-3.79154,2.43994,12.8629,18.0647,3.36785,5,-16.4577,-3.56798,2.27589,0.310553,-0.239733,61,82,78,81,77,39,78,78,79,76,83,22
-1.87861,7.70839,-0.447143,-0.413899,-14.7732,27.5121,-12.7457,0.447143,-0.447143,-0.413899,-14.6491,27.5121,-12.8698,0.447143,10.793,13.2695,2.95005,8.50422,5.36683,-3.79172,2.43995,12.8625,18.064,3.36761,5,-16.4575,-3.56783,2.27577,0.310424,-0.239727,61,82,78,81,77,39,78,78,79,76,83,22
-1.8785,7.70883,-0.447132,-0.413727,-14.7732,27.5121,-12.7457,0.447132,-0.447132,-0.413727,-14.6491,27.5121,-12.8698,0.447132,10.7935,13.269,2.94985,8.50408,5.36696,-3.79192,2.43996,12.8622,18.0634,3.36739,5,-16.4574,-3.56767,2.27565,0.310295,-0.239721,61,82,78,81,77,39,78,78,79,76,83,22
-1.8784,7.70925,-0.44712,-0.413552,-14.7732,27.5121,-12.7457,0.44712,-0.44712,-0.413552,-14.6491,27.5121,-12.8698,0.44712,10.794,13.2685,2.94967,8.50395,5.36709,-3.79211,2.43997,12.8618,18.0628,3.36718,5,-16.4572,-3.5675,2.27553,0.310164,-0.239714,61,82,78,81,77,39,78,78,79,76,83,22
-1.87831,7.70967,-0.447106,-0.413377,-14.7732,27.5121,-12.7457,0.447106,-0.447106,-0.413377,-14.6492,27.5121,-12.8697,0.447106,10.7945,13.268,2.94951,8.50382,5.36719,-3.79232,2.43999,12.8614,18.0622,3.36698,5,-16.4571,-3.56734,2.2754,0.310033,-0.239707,61,82,78,81,77,39,78,78,79,76,83,22
-1.87821,7.71008,-0.447092,-0.4132,-14.7732,27.5121,-12.7458,0.447092,-0.447092,-0.4132,-14.6492,27.5121,-12.8697,0.447092,10.795,13.2675,2.94936,8.5037,5.36729,-3.79253,2.44,12.861,18.0615,3.3668,5,-16.457,-3.56717,2.27527,0.3099,-0.239699,61,82,78,81,77,39,78,78,79,76,83,22
-1.87812,7.71048,-0.447077,-0.413022,-14.7731,27.5121,-12.7458,0.447077,-0.447077,-0.413022,-14.6492,27.5121,-12.8697,0.447077,10.7955,13.2671,2.94922,8.50359,5.36737,-3.79275,2.44002,12.8607,18.0609,3.36664,5,-16.457,-3.567,2.27514,0.309767,-0.239691,61,82,78,81,77,39,78,78,79,76,83,22
-1.87803,7.71087,-0.44706,-0.412844,-14.7731,27.5121,-12.7458,0.44706,-0.44706,-0.412844,-14.6493,27.5121,-12.8696,0.44706,10.7961,13.2666,2.94911,8.50349,5.36745,-3.79297,2.44003,12.8603,18.0602,3.36649,5,-16.457,-3.56683,2.275,0.309633,-0.239682,61,82,78,81,77,39,78,78,79,76,83,22
-1.87795,7.71125,-0.447043,-0.412664,-14.7731,27.5121,-12.7458,0.447043,-0.447043,-0.412664,-14.6493,27.5121,-12.8696,0.447043,10.7966,13.2661,2.949,8.50339,5.36752,-3.7932,2.44005,12.8599,18.0596,3.36636,5,-16.457,-3.56666,2.27486,0.309498,-0.239672,61,82,78,81,77,39,78,78,79,76,83,22
-1.87786,7.71163,-0.447024,-0.412484,-14.7731,27.5121,-12.7458,0.447024,-0.447024,-0.412484,-14.6493,27.5121,-12.8696,0.447024,10.7971,13.2657,2.94892,8.50331,5.36757,-3.79343,2.44007,12.8595,18.0589,3.36625,5,-16.457,-3.56649,2.27472,0.309363,-0.239662,61,82,78,81,77,39,78,78,79,76,83,22
-1.87779,7.71199,-0.447005,-0.412303,-14.773,27.5121,-12.7459,0.447005,-0.447005,-0.412303,-14.6494,27.5121,-12.8696,0.447005,10.7976,13.2652,2.94885,8.50324,5.36761,-3.79367,2.44009,12.8591,18.0582,3.36615,5,-16.457,-3.56632,2.27458,0.309227,-0.239651,61,82,78,81,77,39,78,78,79,76,83,22
-1.87771,7.71234,-0.446985,-0.412121,-14.773,27.5121,-12.7459,0.446985,-0.446985,-0.412121,-14.6494,27.5121,-12.8695,0.446985,10.7981,13.2648,2.94879,8.50318,5.36764,-3.79391,2.4401,12.8587,18.0576,3.36608,5,-16.4571,-3.56615,2.27443,0.309091,-0.23964,61,82,78,81,77,39,78,78,79,76,83,22
-1.87764,7.71268,-0.446964,-0.411939,-14.773,27.5121,-12.7459,0.446964,-0.446964,-0.411939,-14.6494,27.5121,-12.8695,0.446964,10.7987,13.2643,2.94874,8.50313,5.36766,-3.79415,2.44012,12.8584,18.0569,3.36603,5,-16.4572,-3.56599,2.27428,0.308954,-0.239629,61,82,78,81,77,39,78,78,79,76,83,22
-1.87757,7.71301,-0.446943,-0.411755,-14.7722,27.5116,-12.7458,0.446943,-0.446943,-0.411755,-14.6487,27.5116,-12.8693,0.446943,10.7992,13.2639,2.94871,8.5031,5.36766,-3.79439,2.44013,12.858,18.0562,3.366,5,-16.4573,-3.56583,2.27413,0.308816,-0.239617,61,82,78,81,77,39,78,78,79,76,83,22
-1.87751,7.71334,-0.446921,-0.41157,-14.7722,27.5116,-12.7458,0.446921,-0.446921,-0.41157,-14.6487,27.5116,-12.8693,0.446921,10.7997,13.2634,2.94869,8.50309,5.36765,-3.79463,2.44015,12.8576,18.0555,3.366,5,-16.4575,-3.56568,2.27397,0.308677,-0.239605,61,82,78,81,77,39,78,78,79,76,83,22
-1.87745,7.71364,-0.446898,-0.411383,-14.7722,27.5116,-12.7458,0.446898,-0.446898,-0.411383,-14.6488,27.5116,-12.8692,0.446898,10.8003,13.263,2.94868,8.50311,5.36762,-3.79487,2.44016,12.8572,18.0548,3.36603,5,-16.4577,-3.56554,2.27382,0.308537,-0.239593,61,82,78,81,77,39,78,78,79,76,83,22
-1.87739,7.71394,-0.446876,-0.411195,-14.7722,27.5116,-12.7458,0.446876,-0.446876,-0.411195,-14.6488,27.5116,-12.8692,0.446876,10.8008,13.2626,2.94868,8.50314,5.36757,-3.79511,2.44017,12.8568,18.0542,3.36609,5,-16.4579,-3.5654,2.27366,0.308397,-0.23958,61,82,78,81,77,39,78,78,79,76,83,22
-1.87734,7.71423,-0.446853,-0.411008,-14.7721,27.5116,-12.7459,0.446853,-0.446853,-0.411008,-14.6488,27.5116,-12.8692,0.446853,10.8014,13.2621,2.94869,8.50318,5.36752,-3.79535,2.44018,12.8564,18.0535,3.36616,5,-16.4581,-3.56527,2.2735,0.308256,-0.239568,61,82,78,81,77,39,78,78,79,76,83,22
-1.87728,7.71451,-0.44683,-0.410822,-14.7721,27.5116,-12.7459,0.44683,-0.44683,-0.410822,-14.6489,27.5116,-12.8691,0.44683,10.8019,13.2617,2.94871,8.50323,5.36746,-3.79559,2.44018,12.856,18.0528,3.36625,5,-16.4583,-3.56514,2.27335,0.308117,-0.239555,61,82,78,81,77,39,78,78,79,76,83,22
-1.87724,7.71478,-0.446806,-0.410637,-14.7721,27.5116,-12.7459,0.446806,-0.446806,-0.410637,-14.6489,27.5116,-12.8691,0.446806,10.8024,13.2613,2.94874,8.50329,5.36739,-3.79583,2.44019,12.8556,18.0521,3.36635,5,-16.4586,-3.56501,2.27319,0.307978,-0.239542,61,82,78,81,77,39,78,78,79,76,83,22
-1.87719,7.71505,-0.446783,-0.410454,-14.7721,27.5116,-12.7459,0.446783,-0.446783,-0.410454,-14.6489,27.5116,-12.8691,0.446783,10.8029,13.2609,2.94878,8.50336,5.36731,-3.79607,2.44019,12.8552,18.0515,3.36647,5,-16.4588,-3.56489,2.27304,0.307841,-0.23953,61,82,78,81,77,39,78,78,79,76,83,22
-1.87714,7.7153,-0.44676,-0.410275,-14.7721,27.5116,-12.7459,0.44676,-0.44676,-0.410275,-14.649,27.5116,-12.869,0.44676,10.8035,13.2605,2.94884,8.50341,5.36725,-3.7963,2.44019,12.8548,18.0508,3.36658,5,-16.4591,-3.56475,2.27289,0.307707,-0.239517,61,82,78,81,77,39,78,78,79,76,83,22
-1.87709,7.71555,-0.446738,-0.4101,-14.772,27.5116,-12.746,0.446738,-0.446738,-0.4101,-14.649,27.5116,-12.869,0.446738,10.804,13.2601,2.94892,8.50347,5.36718,-3.79654,2.44019,12.8545,18.0502,3.36671,5,-16.4594,-3.5646,2.27274,0.307575,-0.239505,61,82,78,81,77,39,78,78,79,76,83,22
-1.87705,7.71579,-0.446715,-0.409927,-14.772,27.5116,-12.746,0.446715,-0.446715,-0.409927,-14.649,27.5116,-12.869,0.446715,10.8045,13.2597,2.949,8.50352,5.36711,-3.79677,2.44019,12.8541,18.0496,3.36683,5,-16.4596,-3.56445,2.27259,0.307445,-0.239493,61,82,78,81,77,39,78,78,79,76,83,22
-1.87701,7.71602,-0.446693,-0.409756,-14.772,27.5116,-12.746,0.446693,-0.446693,-0.409756,-14.6491,27.5116,-12.8689,0.446693,10.8049,13.2594,2.94908,8.50358,5.36703,-3.797,2.44018,12.8537,18.049,3.36697,5,-16.4599,-3.5643,2.27245,0.307317,-0.23948,61,82,78,81,77,39,78,78,79,76,83,22
-1.87697,7.71624,-0.446671,-0.409586,-14.772,27.5116,-12.746,0.446671,-0.446671,-0.409586,-14.6491,27.5116,-12.8689,0.446671,10.8054,13.259,2.94916,8.50366,5.36695,-3.79722,2.44018,12.8534,18.0484,3.36712,5,-16.4602,-3.56417,2.27231,0.30719,-0.239468,61,82,78,81,77,39,78,78,79,76,83,22
-1.87693,7.71645,-0.446649,-0.409417,-14.7719,27.5116,-12.746,0.446649,-0.446649,-0.409417,-14.6491,27.5116,-12.8689,0.446649,10.8059,13.2586,2.94924,8.50375,5.36685,-3.79744,2.44018,12.853,18.0477,3.36728,5,-16.4605,-3.56406,2.27216,0.307063,-0.239456,61,82,78,81,77,39,78,78,79,76,83,22
-1.8769,7.71666,-0.446626,-0.409248,-14.772,27.5117,-12.7461,0.446626,-0.446626,-0.409248,-14.6492,27.5117,-12.8689,0.446626,10.8064,13.2583,2.94931,8.50386,5.36674,-3.79765,2.44018,12.8526,18.0471,3.36746,5,-16.4608,-3.56396,2.27202,0.306936,-0.239444,61,82,78,81,77,39,78,78,79,76,83,22
-1.87688,7.71686,-0.446604,-0.409077,-14.772,27.5117,-12.7461,0.446604,-0.446604,-0.409077,-14.6493,27.5117,-12.8688,0.446604,10.8069,13.2579,2.94936,8.50401,5.36661,-3.79786,2.44018,12.8523,18.0465,3.36766,5,-16.4611,-3.5639,2.27187,0.306807,-0.239432,61,82,78,81,77,39,78,78,79,76,83,22
-1.87686,7.71705,-0.446581,-0.408904,-14.772,27.5117,-12.7461,0.446581,-0.446581,-0.408904,-14.6493,27.5117,-12.8688,0.446581,10.8074,13.2575,2.94939,8.50419,5.36646,-3.79806,2.44019,12.8519,18.0459,3.36787,5,-16.4614,-3.56388,2.27172,0.306678,-0.239419,61,82,78,81,77,39,78,78,79,76,83,22
-1.87685,7.71723,-0.446559,-0.40873,-14.772,27.5117,-12.7461,0.446559,-0.446559,-0.40873,-14.6493,27.5117,-12.8688,0.446559,10.8079,13.2571,2.9494,8.50439,5.3663,-3.79826,2.4402,12.8515,18.0453,3.3681,5,-16.4617,-3.56388,2.27157,0.306548,-0.239407,61,82,78,81,77,39,78,78,79,76,83,22
-1.87684,7.7174,-0.446536,-0.408557,-14.7719,27.5117,-12.7462,0.446536,-0.446536,-0.408557,-14.6494,27.5117,-12.8687,0.446536,10.8084,13.2567,2.94941,8.50462,5.36612,-3.79845,2.44021,12.8512,18.0446,3.36835,5,-16.462,-3.5639,2.27142,0.306417,-0.239394,61,82,78,81,77,39,78,78,79,76,83,22
-1.87684,7.71757,-0.446514,-0.408383,-14.7719,27.5117,-12.7462,0.446514,-0.446514,-0.408383,-14.6494,27.5117,-12.8687,0.446514,10.8089,13.2564,2.9494,8.50486,5.36593,-3.79863,2.44022,12.8508,18.044,3.3686,5,-16.4623,-3.56394,2.27126,0.306288,-0.239382,61,82,78,81,77,39,78,78,79,76,83,22
-1.87684,7.71773,-0.446491,-0.408211,-14.7719,27.5117,-12.7462,0.446491,-0.446491,-0.408211,-14.6494,27.5117,-12.8687,0.446491,10.8094,13.256,2.94939,8.50512,5.36572,-3.79881,2.44024,12.8504,18.0434,3.36887,5,-16.4626,-3.564,2.27111,0.306158,-0.23937,61,82,78,81,77,39,78,78,79,76,83,22
-1.87685,7.71788,-0.446469,-0.40804,-14.7717,27.5115,-12.7462,0.446469,-0.446469,-0.40804,-14.6493,27.5115,-12.8686,0.446469,10.8099,13.2556,2.94937,8.5054,5.3655,-3.79898,2.44026,12.8501,18.0428,3.36915,5,-16.4629,-3.56408,2.27095,0.30603,-0.239357,61,82,78,81,77,39,78,78,79,76,83,22
-1.87686,7.71803,-0.446446,-0.407872,-14.7717,27.5115,-12.7462,0.446446,-0.446446,-0.407872,-14.6493,27.5115,-12.8686,0.446446,10.8103,13.2552,2.94936,8.50567,5.36528,-3.79915,2.44028,12.8497,18.0421,3.36943,5,-16.4632,-3.56416,2.2708,0.305904,-0.239345,61,82,78,81,77,39,78,78,79,76,83,22
-1.87687,7.71817,-0.446424,-0.407707,-14.7717,27.5115,-12.7462,0.446424,-0.446424,-0.407707,-14.6494,27.5115,-12.8686,0.446424,10.8108,13.2549,2.94934,8.50595,5.36505,-3.79931,2.4403,12.8493,18.0415,3.36972,5,-16.4635,-3.56424,2.27065,0.30578,-0.239333,61,82,78,81,77,39,78,78,79,76,83,22
-1.87688,7.7183,-0.446403,-0.407543,-14.7717,27.5115,-12.7463,0.446403,-0.446403,-0.407543,-14.6494,27.5115,-12.8685,0.446403,10.8113,13.2545,2.94932,8.50624,5.36481,-3.79947,2.44033,12.849,18.0409,3.37002,5,-16.4638,-3.56434,2.2705,0.305657,-0.239321,61,82,78,81,77,39,78,78,79,76,83,22
-1.8769,7.71843,-0.446381,-0.407381,-14.7716,27.5115,-12.7463,0.446381,-0.446381,-0.407381,-14.6494,27.5115,-12.8685,0.446381,10.8117,13.2542,2.9493,8.50654,5.36457,-3.79962,2.44035,12.8486,18.0403,3.37032,5,-16.4641,-3.56444,2.27034,0.305536,-0.23931,61,82,78,81,77,39,78,78,79,76,83,22
-1.87692,7.71856,-0.44636,-0.407221,-14.7716,27.5115,-12.7463,0.44636,-0.44636,-0.407221,-14.6494,27.5115,-12.8685,0.44636,10.8122,13.2538,2.94926,8.50684,5.36432,-3.79977,2.44037,12.8483,18.0398,3.37062,5,-16.4644,-3.56456,2.2702,0.305415,-0.239298,61,82,78,81,77,39,78,78,79,76,83,22
-1.87695,7.71868,-0.446339,-0.407061,-14.7716,27.5115,-12.7463,0.446339,-0.446339,-0.407061,-14.6495,27.5115,-12.8684,0.446339,10.8126,13.2534,2.94922,8.50716,5.36407,-3.79991,2.4404,12.8479,18.0392,3.37093,5,-16.4647,-3.5647,2.27005,0.305296,-0.239286,61,82,78,81,77,39,78,78,79,76,83,22
-1.87698,7.71879,-0.446318,-0.406903,-14.7711,27.5112,-12.7462,0.446318,-0.446318,-0.406903,-14.649,27.5112,-12.8683,0.446318,10.8131,13.2531,2.94915,8.50749,5.36382,-3.80005,2.44043,12.8476,18.0386,3.37123,5,-16.465,-3.56485,2.2699,0.305177,-0.239275,61,82,78,81,77,39,78,78,79,76,83,22
-1.87701,7.7189,-0.446298,-0.406744,-14.771,27.5112,-12.7462,0.446298,-0.446298,-0.406744,-14.649,27.5112,-12.8683,0.446298,10.8135,13.2527,2.94907,8.50784,5.36358,-3.80019,2.44046,12.8473,18.038,3.37153,5,-16.4652,-3.56503,2.26975,0.305058,-0.239264,61,82,78,81,77,39,78,78,79,76,83,22
-1.87705,7.719,-0.446277,-0.406586,-14.771,27.5112,-12.7463,0.446277,-0.446277,-0.406586,-14.649,27.5112,-12.8682,0.446277,10.814,13.2524,2.94897,8.5082,5.36333,-3.80032,2.44049,12.8469,18.0374,3.37183,5,-16.4655,-3.56522,2.26961,0.30494,-0.239253,61,82,78,81,77,39,78,78,79,76,83,22
-1.87709,7.71909,-0.446258,-0.406429,-14.771,27.5112,-12.7463,0.446258,-0.446258,-0.406429,-14.6491,27.5112,-12.8682,0.446258,10.8145,13.252,2.94886,8.50857,5.36308,-3.80045,2.44052,12.8466,18.0368,3.37212,5,-16.4657,-3.56544,2.26946,0.304821,-0.239242,61,82,78,81,77,39,78,78,79,76,83,22
-1.87713,7.71918,-0.446238,-0.406271,-14.771,27.5112,-12.7463,0.446238,-0.446238,-0.406271,-14.6491,27.5112,-12.8682,0.446238,10.8149,13.2516,2.94872,8.50895,5.36284,-3.80057,2.44055,12.8463,18.0363,3.37241,5,-16.466,-3.56567,2.26932,0.304703,-0.239231,61,82,78,81,77,39,78,78,79,76,83,22
-1.87717,7.71926,-0.446219,-0.406114,-14.771,27.5112,-12.7463,0.446219,-0.446219,-0.406114,-14.6491,27.5112,-12.8682,0.446219,10.8154,13.2513,2.94856,8.50935,5.36261,-3.8007,2.44058,12.846,18.0357,3.37269,5,-16.4662,-3.56592,2.26918,0.304586,-0.239221,61,82,78,81,77,39,78,78,79,76,83,22
-1.87722,7.71934,-0.446201,-0.405958,-14.771,27.5112,-12.7463,0.446201,-0.446201,-0.405958,-14.6492,27.5112,-12.8681,0.446201,10.8159,13.2509,2.94838,8.50976,5.36238,-3.80082,2.44062,12.8457,18.0351,3.37296,5,-16.4664,-3.56619,2.26904,0.304468,-0.239211,61,82,78,81,77,39,78,78,79,76,83,22
-1.87726,7.71942,-0.446183,-0.405802,-14.7709,27.5112,-12.7464,0.446183,-0.446183,-0.405802,-14.6492,27.5112,-12.8681,0.446183,10.8163,13.2505,2.94818,8.51017,5.36217,-3.80093,2.44065,12.8453,18.0345,3.37322,5,-16.4666,-3.56647,2.26891,0.304351,-0.239201,61,82,78,81,77,39,78,78,79,76,83,22
-1.87731,7.71949,-0.446166,-0.405646,-14.7709,27.5112,-12.7464,0.446166,-0.446166,-0.405646,-14.6492,27.5112,-12.8681,0.446166,10.8168,13.2502,2.94795,8.5106,5.36196,-3.80105,2.44069,12.845,18.034,3.37348,5,-16.4668,-3.56677,2.26878,0.304234,-0.239192,61,82,78,81,77,39,78,78,79,76,83,22
-1.87735,7.71955,-0.446149,-0.40549,-14.7709,27.5112,-12.7464,0.446149,-0.446149,-0.40549,-14.6492,27.5112,-12.868,0.446149,10.8173,13.2498,2.94771,8.51103,5.36177,-3.80116,2.44073,12.8447,18.0334,3.37372,5,-16.467,-3.56709,2.26865,0.304118,-0.239183,61,82,78,81,77,39,78,78,79,76,83,22
-1.8774,7.71962,-0.446134,-0.405335,-14.7709,27.5112,-12.7464,0.446134,-0.446134,-0.405335,-14.6493,27.5112,-12.868,0.446134,10.8178,13.2494,2.94744,8.51147,5.36159,-3.80127,2.44077,12.8445,18.0329,3.37394,5,-16.4672,-3.56741,2.26853,0.304002,-0.239174,61,82,78,81,77,39,78,78,79,76,83,22
-1.87744,7.71967,-0.446119,-0.405181,-14.7709,27.5112,-12.7464,0.446119,-0.446119,-0.405181,-14.6493,27.5112,-12.868,0.446119,10.8183,13.249,2.94715,8.51191,5.36143,-3.80137,2.44081,12.8442,18.0323,3.37416,5,-16.4674,-3.56775,2.26841,0.303886,-0.239166,61,82,78,81,77,39,78,78,79,76,83,22
-1.87749,7.71973,-0.446105,-0.405027,-14.7708,27.5112,-12.7464,0.446105,-0.446105,-0.405027,-14.6493,27.5112,-12.8679,0.446105,10.8188,13.2486,2.94684,8.51236,5.36128,-3.80147,2.44086,12.8439,18.0318,3.37437,5,-16.4676,-3.5681,2.26829,0.30377,-0.239158,61,82,78,81,77,39,78,78,79,76,83,22
-1.87753,7.71978,-0.446092,-0.404874,-14.7708,27.5112,-12.7464,0.446092,-0.446092,-0.404874,-14.6494,27.5112,-12.8679,0.446092,10.8192,13.2482,2.94652,8.51281,5.36114,-3.80158,2.4409,12.8436,18.0313,3.37456,5,-16.4677,-3.56846,2.26818,0.303655,-0.239151,61,82,78,81,77,39,78,78,79,76,83,22
-1.87758,7.71983,-0.446079,-0.404721,-14.7708,27.5112,-12.7465,0.446079,-0.446079,-0.404721,-14.6494,27.5112,-12.8679,0.446079,10.8197,13.2479,2.94617,8.51327,5.36102,-3.80168,2.44095,12.8434,18.0307,3.37474,5,-16.4679,-3.56883,2.26808,0.303541,-0.239144,61,82,78,81,77,39,78,78,79,76,83,22
-1.87762,7.71987,-0.446068,-0.40457,-14.7708,27.5112,-12.7465,0.446068,-0.446068,-0.40457,-14.6494,27.5112,-12.8678,0.446068,10.8202,13.2475,2.94582,8.51372,5.3609,-3.80177,2.441,12.8431,18.0302,3.37492,5,-16.4681,-3.56921,2.26797,0.303428,-0.239138,61,82,78,81,77,39,78,78,79,76,83,22
-1.87766,7.71991,-0.446057,-0.404421,-14.7708,27.5112,-12.7465,0.446057,-0.446057,-0.404421,-14.6495,27.5112,-12.8678,0.446057,10.8207,13.2471,2.94546,8.51418,5.36079,-3.80187,2.44105,12.8428,18.0297,3.37509,5,-16.4682,-3.5696,2.26787,0.303316,-0.239132,61,82,78,81,77,39,78,78,79,76,83,22
-1.87771,7.71995,-0.446047,-0.404272,-14.7708,27.5112,-12.7465,0.446047,-0.446047,-0.404272,-14.6495,27.5112,-12.8678,0.446047,10.8212,13.2467,2.94508,8.51463,5.36069,-3.80197,2.44111,12.8426,18.0292,3.37524,5,-16.4684,-3.56999,2.26778,0.303204,-0.239127,61,82,78,81,77,39,78,78,79,76,83,22
-1.87775,7.71998,-0.446038,-0.404124,-14.7708,27.5112,-12.7465,0.446038,-0.446038,-0.404124,-14.6495,27.5112,-12.8677,0.446038,10.8217,13.2463,2.94469,8.51509,5.36062,-3.80207,2.44116,12.8423,18.0287,3.37538,5,-16.4685,-3.57039,2.26769,0.303093,-0.239122,61,82,78,81,77,39,78,78,79,76,83,22
-1.8778,7.72001,-0.446031,-0.403975,-14.7708,27.5112,-12.7465,0.446031,-0.446031,-0.403975,-14.6496,27.5112,-12.8677,0.446031,10.8222,13.2459,2.94427,8.51554,5.36057,-3.80216,2.44122,12.8421,18.0282,3.3755,5,-16.4687,-3.5708,2.26762,0.302981,-0.239118,61,82,78,81,77,39,78,78,79,76,83,22
-1.87784,7.72003,-0.446024,-0.403825,-14.7707,27.5112,-12.7465,0.446024,-0.446024,-0.403825,-14.6496,27.5112,-12.8677,0.446024,10.8227,13.2455,2.94382,8.51599,5.36055,-3.80226,2.44128,12.8419,18.0277,3.37561,5,-16.4688,-3.5712,2.26755,0.302869,-0.239114,61,82,78,81,77,39,78,78,79,76,83,22
-1.87788,7.72005,-0.446018,-0.403675,-14.7714,27.5117,-12.7467,0.446018,-0.446018,-0.403675,-14.6503,27.5117,-12.8678,0.446018,10.8233,13.245,2.94335,8.51645,5.36055,-3.80235,2.44134,12.8416,18.0273,3.37569,5,-16.469,-3.57161,2.26749,0.302757,-0.239111,61,82,78,81,77,39,78,78,79,76,83,22
-1.87792,7.72006,-0.446014,-0.403523,-14.7714,27.5117,-12.7467,0.446014,-0.446014,-0.403523,-14.6504,27.5117,-12.8678,0.446014,10.8238,13.2446,2.94285,8.5169,5.36059,-3.80243,2.44141,12.8414,18.0268,3.37574,5,-16.4692,-3.57203,2.26744,0.302642,-0.239108,61,82,78,81,77,39,78,78,79,76,83,22
-1.87797,7.72006,-0.446011,-0.403369,-14.7714,27.5117,-12.7467,0.446011,-0.446011,-0.403369,-14.6504,27.5117,-12.8677,0.446011,10.8244,13.2441,2.94231,8.51735,5.36067,-3.80252,2.44149,12.8412,18.0263,3.37577,5,-16.4693,-3.57244,2.26741,0.302526,-0.239107,61,82,78,81,77,39,78,78,79,76,83,22
-1.87801,7.72006,-0.446009,-0.403213,-14.7714,27.5117,-12.7467,0.446009,-0.446009,-0.403213,-14.6505,27.5117,-12.8677,0.446009,10.825,13.2437,2.94174,8.51779,5.36079,-3.8026,2.44157,12.841,18.0258,3.37577,5,-16.4695,-3.57286,2.26739,0.30241,-0.239106,61,82,78,81,77,39,78,78,79,76,83,22
-1.87805,7.72005,-0.446008,-0.403057,-14.7714,27.5117,-12.7467,0.446008,-0.446008,-0.403057,-14.6505,27.5117,-12.8676,0.446008,10.8256,13.2432,2.94115,8.51823,5.36093,-3.80267,2.44165,12.8408,18.0253,3.37575,5,-16.4697,-3.57328,2.26738,0.302293,-0.239105,61,82,78,81,77,39,78,78,79,76,83,22
-1.87809,7.72003,-0.446008,-0.402901,-14.7714,27.5117,-12.7467,0.446008,-0.446008,-0.402901,-14.6505,27.5117,-12.8676,0.446008,10.8262,13.2427,2.94054,8.51867,5.36109,-3.80275,2.44173,12.8407,18.0248,3.37571,5,-16.4699,-3.57369,2.26738,0.302176,-0.239105,61,82,78,81,77,39,78,78,79,76,83,22
-1.87813,7.72001,-0.446008,-0.402745,-14.7714,27.5117,-12.7467,0.446008,-0.446008,-0.402745,-14.6506,27.5117,-12.8676,0.446008,10.8268,13.2422,2.93992,8.51911,5.36127,-3.80282,2.44181,12.8405,18.0243,3.37566,5,-16.4701,-3.5741,2.26739,0.302059,-0.239105,61,82,78,81,77,39,78,78,79,76,83,22
-1.87817,7.71999,-0.44601,-0.40259,-14.7722,27.5122,-12.7469,0.44601,-0.44601,-0.40259,-14.6514,27.5122,-12.8677,0.44601,10.8274,13.2418,2.93929,8.51954,5.36147,-3.80289,2.4419,12.8403,18.0239,3.37559,5,-16.4703,-3.57451,2.2674,0.301943,-0.239106,61,82,78,81,77,39,78,78,79,76,83,22
-1.87821,7.71997,-0.446011,-0.402437,-14.7722,27.5122,-12.7469,0.446011,-0.446011,-0.402437,-14.6514,27.5122,-12.8676,0.446011,10.828,13.2413,2.93865,8.51996,5.36168,-3.80296,2.44198,12.8402,18.0234,3.37552,5,-16.4705,-3.57492,2.26742,0.301827,-0.239107,61,82,78,81,77,39,78,78,79,76,83,22
-1.87825,7.71994,-0.446014,-0.402285,-14.7721,27.5122,-12.7469,0.446014,-0.446014,-0.402285,-14.6515,27.5122,-12.8676,0.446014,10.8286,13.2408,2.93801,8.52037,5.3619,-3.80303,2.44206,12.84,18.023,3.37544,5,-16.4706,-3.57532,2.26744,0.301713,-0.239108,61,82,78,81,77,39,78,78,79,76,83,22
-1.87829,7.71991,-0.446016,-0.402134,-14.7721,27.5122,-12.7469,0.446016,-0.446016,-0.402134,-14.6515,27.5122,-12.8676,0.446016,10.8292,13.2403,2.93737,8.52078,5.36213,-3.8031,2.44214,12.8399,18.0225,3.37535,5,-16.4708,-3.57571,2.26747,0.301601,-0.23911,61,82,78,81,77,39,78,78,79,76,83,22
-1.87832,7.71988,-0.44602,-0.401985,-14.7721,27.5122,-12.7469,0.44602,-0.44602,-0.401985,-14.6515,27.5122,-12.8675,0.44602,10.8298,13.2398,2.93672,8.52118,5.36237,-3.80317,2.44222,12.8397,18.0221,3.37525,5,-16.471,-3.5761,2.2675,0.301489,-0.239112,61,82,78,81,77,39,78,78,79,76,83,22
-1.87836,7.71984,-0.446023,-0.401837,-14.7721,27.5122,-12.7469,0.446023,-0.446023,-0.401837,-14.6516,27.5122,-12.8675,0.446023,10.8304,13.2394,2.93607,8.52157,5.36263,-3.80323,2.44231,12.8396,18.0216,3.37514,5,-16.4712,-3.57649,2.26753,0.301378,-0.239114,61,82,78,81,77,39,78,78,79,76,83,22
-1.8784,7.71981,-0.446027,-0.40169,-14.7721,27.5122,-12.7469,0.446027,-0.446027,-0.40169,-14.6516,27.5122,-12.8674,0.446027,10.831,13.2389,2.93541,8.52196,5.3629,-3.80329,2.44239,12.8395,18.0212,3.37502,5,-16.4714,-3.57687,2.26757,0.301268,-0.239116,61,82,78,81,77,39,78,78,79,76,83,22
-1.87843,7.71977,-0.446032,-0.401545,-14.7728,27.5127,-12.7471,0.446032,-0.446032,-0.401545,-14.6523,27.5127,-12.8675,0.446032,10.8316,13.2384,2.93475,8.52234,5.36318,-3.80334,2.44248,12.8394,18.0208,3.37489,5,-16.4716,-3.57724,2.26762,0.301159,-0.239118,61,82,78,81,77,39,78,78,79,76,83,22
-1.87847,7.71974,-0.446037,-0.401401,-14.7728,27.5127,-12.7471,0.446037,-0.446037,-0.401401,-14.6523,27.5127,-12.8675,0.446037,10.8322,13.2379,2.93408,8.52272,5.36347,-3.8034,2.44257,12.8392,18.0203,3.37475,5,-16.4718,-3.57762,2.26767,0.301051,-0.239121,61,82,78,81,77,39,78,78,79,76,83,22
-1.87851,7.7197,-0.446042,-0.401258,-14.7728,27.5127,-12.7471,0.446042,-0.446042,-0.401258,-14.6524,27.5127,-12.8674,0.446042,10.8328,13.2375,2.93341,8.5231,5.36379,-3.80345,2.44266,12.8391,18.0199,3.3746,5,-16.472,-3.57799,2.26773,0.300944,-0.239124,61,82,78,81,77,39,78,78,79,76,83,22
-1.87854,7.71966,-0.446047,-0.401116,-14.7728,27.5127,-12.7471,0.446047,-0.446047,-0.401116,-14.6524,27.5127,-12.8674,0.446047,10.8334,13.237,2.93273,8.52346,5.36411,-3.8035,2.44276,12.839,18.0195,3.37443,5,-16.4722,-3.57835,2.26779,0.300837,-0.239127,61,82,78,81,77,39,78,78,79,76,83,22
-1.87857,7.71962,-0.446053,-0.400976,-14.7728,27.5127,-12.7471,0.446053,-0.446053,-0.400976,-14.6525,27.5127,-12.8674,0.446053,10.8341,13.2365,2.93205,8.52383,5.36445,-3.80354,2.44286,12.8389,18.0191,3.37425,5,-16.4724,-3.57871,2.26785,0.300732,-0.23913,61,82,78,81,77,39,78,78,79,76,83,22
-1.8786,7.71956,-0.44606,-0.400836,-14.7728,27.5127,-12.7471,0.44606,-0.44606,-0.400836,-14.6525,27.5127,-12.8673,0.44606,10.8347,13.236,2.93136,8.52418,5.3648,-3.80358,2.44296,12.8388,18.0187,3.37406,5,-16.4726,-3.57907,2.26793,0.300627,-0.239134,61,82,78,81,77,39,78,78,79,76,83,22
-1.87863,7.7195,-0.446067,-0.400698,-14.7728,27.5127,-12.7471,0.446067,-0.446067,-0.400698,-14.6526,27.5127,-12.8673,0.446067,10.8353,13.2355,2.93067,8.52453,5.36516,-3.80361,2.44307,12.8388,18.0183,3.37385,5,-16.4728,-3.57941,2.26801,0.300523,-0.239138,61,82,78,81,77,39,78,78,79,76,83,22
-1.87865,7.71943,-0.446075,-0.40056,-14.7734,27.5131,-12.7472,0.446075,-0.446075,-0.40056,-14.6532,27.5131,-12.8674,0.446075,10.8359,13.235,2.92997,8.52488,5.36553,-3.80364,2.44318,12.8387,18.0179,3.37363,5,-16.4729,-3.57976,2.2681,0.30042,-0.239142,61,82,78,81,77,39,78,78,79,76,83,22
-1.87867,7.71934,-0.446083,-0.400423,-14.7734,27.5131,-12.7472,0.446083,-0.446083,-0.400423,-14.6532,27.5131,-12.8673,0.446083,10.8365,13.2345,2.92927,8.52521,5.36591,-3.80366,2.4433,12.8386,18.0175,3.37339,5,-16.4731,-3.58009,2.26821,0.300318,-0.239147,61,82,78,81,77,39,78,78,79,76,83,22
-1.87869,7.71924,-0.446093,-0.400288,-14.7734,27.5131,-12.7472,0.446093,-0.446093,-0.400288,-14.6533,27.5131,-12.8673,0.446093,10.8371,13.234,2.92856,8.52554,5.3663,-3.80368,2.44342,12.8386,18.0171,3.37313,5,-16.4733,-3.58042,2.26832,0.300216,-0.239152,61,82,78,81,77,39,78,78,79,76,83,22
-1.8787,7.71913,-0.446103,-0.400153,-14.7734,27.5131,-12.7472,0.446103,-0.446103,-0.400153,-14.6533,27.5131,-12.8672,0.446103,10.8378,13.2335,2.92785,8.52586,5.3667,-3.80369,2.44355,12.8385,18.0167,3.37286,5,-16.4734,-3.58074,2.26844,0.300115,-0.239157,61,82,78,81,77,39,78,78,79,76,83,22
-1.8787,7.719,-0.446113,-0.400019,-14.7734,27.5131,-12.7472,0.446113,-0.446113,-0.400019,-14.6534,27.5131,-12.8672,0.446113,10.8384,13.233,2.92713,8.52617,5.3671,-3.80369,2.44369,12.8385,18.0162,3.37256,5,-16.4736,-3.58105,2.26856,0.300014,-0.239163,61,82,78,81,77,39,78,78,79,76,83,22
-1.87871,7.71886,-0.446124,-0.399887,-14.7734,27.5131,-12.7472,0.446124,-0.446124,-0.399887,-14.6534,27.5131,-12.8671,0.446124,10.8391,13.2325,2.92642,8.52648,5.36751,-3.8037,2.44383,12.8385,18.0158,3.37226,5,-16.4737,-3.58135,2.2687,0.299915,-0.239169,61,82,78,81,77,39,78,78,79,76,83,22
-1.8787,7.71871,-0.446136,-0.399756,-14.7734,27.5131,-12.7472,0.446136,-0.446136,-0.399756,-14.6535,27.5131,-12.8671,0.446136,10.8397,13.2319,2.92571,8.52677,5.36793,-3.80369,2.44397,12.8385,18.0154,3.37193,5,-16.4739,-3.58165,2.26884,0.299817,-0.239175,61,82,78,81,77,39,78,78,79,76,83,22
-1.8787,7.71855,-0.446147,-0.399627,-14.7733,27.513,-12.7471,0.446147,-0.446147,-0.399627,-14.6534,27.513,-12.867,0.446147,10.8403,13.2314,2.925,8.52706,5.36835,-3.80369,2.44412,12.8385,18.015,3.37159,5,-16.474,-3.58194,2.26899,0.29972,-0.239181,61,82,78,81,77,39,78,78,79,76,83,22
-1.87869,7.71837,-0.446158,-0.399499,-14.7733,27.513,-12.7471,0.446158,-0.446158,-0.399499,-14.6534,27.513,-12.867,0.446158,10.841,13.2308,2.92429,8.52734,5.36877,-3.80368,2.44428,12.8385,18.0146,3.37124,5,-16.4741,-3.58221,2.26914,0.299624,-0.239188,61,82,78,81,77,39,78,78,79,76,83,22
-1.87867,7.71818,-0.44617,-0.399373,-14.7733,27.513,-12.7471,0.44617,-0.44617,-0.399373,-14.6535,27.513,-12.8669,0.44617,10.8416,13.2303,2.92359,8.52761,5.36919,-3.80367,2.44444,12.8385,18.0142,3.37087,5,-16.4741,-3.58248,2.26929,0.29953,-0.239194,61,82,78,81,77,39,78,78,79,76,83,22
-1.87866,7.71798,-0.446181,-0.399249,-14.7733,27.513,-12.7471,0.446181,-0.446181,-0.399249,-14.6535,27.513,-12.8669,0.446181,10.8423,13.2298,2.92289,8.52787,5.3696,-3.80366,2.4446,12.8385,18.0138,3.37049,5,-16.4742,-3.58274,2.26945,0.299437,-0.2392,61,82,78,81,77,39,78,78,79,76,83,22
-1.87863,7.71777,-0.446192,-0.399127,-14.7733,27.513,-12.7471,0.446192,-0.446192,-0.399127,-14.6535,27.513,-12.8668,0.446192,10.843,13.2292,2.92219,8.52813,5.37002,-3.80364,2.44477,12.8386,18.0133,3.3701,5,-16.4742,-3.58299,2.26961,0.299345,-0.239206,61,82,78,81,77,39,78,78,79,76,83,22
-1.87861,7.71755,-0.446204,-0.399006,-14.7733,27.513,-12.7471,0.446204,-0.446204,-0.399006,-14.6536,27.513,-12.8668,0.446204,10.8436,13.2287,2.92151,8.52837,5.37043,-3.80363,2.44495,12.8386,18.0129,3.36969,5,-16.4743,-3.58323,2.26977,0.299254,-0.239213,61,82,78,81,77,39,78,78,79,76,83,22
-1.87858,7.71731,-0.446215,-0.398887,-14.7733,27.513,-12.7471,0.446215,-0.446215,-0.398887,-14.6536,27.513,-12.8668,0.446215,10.8443,13.2281,2.92083,8.52861,5.37084,-3.80362,2.44512,12.8387,18.0125,3.36928,5,-16.4743,-3.58346,2.26994,0.299165,-0.239219,61,82,78,81,77,39,78,78,79,76,83,22
-1.87854,7.71707,-0.446227,-0.39877,-14.7728,27.5127,-12.747,0.446227,-0.446227,-0.39877,-14.6532,27.5127,-12.8666,0.446227,10.8449,13.2276,2.92016,8.52883,5.37125,-3.8036,2.4453,12.8388,18.0121,3.36886,5,-16.4742,-3.58369,2.27012,0.299077,-0.239225,61,82,78,81,77,39,78,78,79,76,83,22
-1.87851,7.71682,-0.446239,-0.398654,-14.7728,27.5127,-12.747,0.446239,-0.446239,-0.398654,-14.6532,27.5127,-12.8665,0.446239,10.8456,13.227,2.9195,8.52905,5.37164,-3.80359,2.44549,12.8388,18.0116,3.36843,5,-16.4742,-3.58392,2.2703,0.298991,-0.239232,61,82,78,81,77,39,78,78,79,76,83,22
-1.87847,7.71656,-0.446251,-0.39854,-14.7728,27.5127,-12.7469,0.446251,-0.446251,-0.39854,-14.6533,27.5127,-12.8665,0.446251,10.8462,13.2265,2.91886,8.52925,5.37203,-3.80358,2.44568,12.8389,18.0112,3.36799,5,-16.4741,-3.58414,2.27048,0.298905,-0.239238,61,82,78,81,77,39,78,78,79,76,83,22
-1.87843,7.71629,-0.446263,-0.398428,-14.7728,27.5127,-12.7469,0.446263,-0.446263,-0.398428,-14.6533,27.5127,-12.8665,0.446263,10.8468,13.2259,2.91822,8.52944,5.37241,-3.80357,2.44587,12.839,18.0108,3.36755,5,-16.4741,-3.58435,2.27067,0.298821,-0.239245,61,82,78,81,77,39,78,78,79,76,83,22
-1.87838,7.71601,-0.446275,-0.398317,-14.7728,27.5127,-12.7469,0.446275,-0.446275,-0.398317,-14.6533,27.5127,-12.8664,0.446275,10.8475,13.2254,2.9176,8.52963,5.37278,-3.80357,2.44606,12.8391,18.0104,3.3671,5,-16.474,-3.58456,2.27085,0.298738,-0.239251,61,82,78,81,77,39,78,78,79,76,83,22
-1.87832,7.71571,-0.446287,-0.398209,-14.7729,27.5127,-12.7469,0.446287,-0.446287,-0.398209,-14.6534,27.5127,-12.8664,0.446287,10.8481,13.2248,2.91699,8.5298,5.37313,-3.80356,2.44625,12.8391,18.01,3.36665,5,-16.4738,-3.58476,2.27104,0.298656,-0.239258,61,82,78,81,77,39,78,78,79,76,83,22
-1.87827,7.7154,-0.446299,-0.398102,-14.7729,27.5127,-12.7469,0.446299,-0.446299,-0.398102,-14.6534,27.5127,-12.8663,0.446299,10.8487,13.2243,2.91639,8.52997,5.37348,-3.80355,2.44645,12.8392,18.0096,3.36621,5,-16.4737,-3.58495,2.27123,0.298576,-0.239265,61,82,78,81,77,39,78,78,79,76,83,22
-1.8782,7.71508,-0.446311,-0.397997,-14.7729,27.5127,-12.7469,0.446311,-0.446311,-0.397997,-14.6535,27.5127,-12.8663,0.446311,10.8493,13.2238,2.91581,8.53013,5.3738,-3.80354,2.44664,12.8393,18.0092,3.36576,5,-16.4736,-3.58514,2.27142,0.298498,-0.239271,61,82,78,81,77,39,78,78,79,76,83,22
-1.87813,7.71474,-0.446324,-0.397894,-14.7729,27.5127,-12.7469,0.446324,-0.446324,-0.397894,-14.6535,27.5127,-12.8662,0.446324,10.85,13.2232,2.91524,8.53027,5.37411,-3.80353,2.44683,12.8394,18.0088,3.36531,5,-16.4734,-3.58533,2.2716,0.298421,-0.239278,61,82,78,81,77,39,78,78,79,76,83,22
-1.87805,7.71438,-0.446336,-0.397793,-14.7729,27.5127,-12.7469,0.446336,-0.446336,-0.397793,-14.6536,27.5127,-12.8662,0.446336,10.8506,13.2227,2.91468,8.53042,5.37441,-3.80351,2.44703,12.8395,18.0084,3.36487,5,-16.4732,-3.58551,2.27178,0.298345,-0.239285,61,82,78,81,77,39,78,78,79,76,83,22
-1.87797,7.71401,-0.446348,-0.397695,-14.7729,27.5127,-12.7468,0.446348,-0.446348,-0.397695,-14.6536,27.5127,-12.8661,0.446348,10.8512,13.2221,2.91414,8.53055,5.37468,-3.8035,2.44722,12.8396,18.008,3.36443,5,-16.473,-3.58568,2.27196,0.298271,-0.239291,61,82,78,81,77,39,78,78,79,76,83,22
-1.87787,7.71362,-0.44636,-0.397597,-14.7729,27.5127,-12.7468,0.44636,-0.44636,-0.397597,-14.6537,27.5127,-12.8661,0.44636,10.8518,13.2216,2.91361,8.53067,5.37494,-3.80348,2.4474,12.8398,18.0075,3.364,5,-16.4727,-3.58584,2.27213,0.298198,-0.239298,61,82,78,81,77,39,78,78,79,76,83,22
-1.87778,7.71322,-0.446371,-0.397501,-14.773,27.5127,-12.7468,0.446371,-0.446371,-0.397501,-14.6537,27.5127,-12.8661,0.446371,10.8524,13.2211,2.9131,8.53079,5.37519,-3.80346,2.44759,12.8399,18.0071,3.36357,5,-16.4725,-3.586,2.2723,0.298126,-0.239304,61,82,78,81,77,39,78,78,79,76,83,22
-1.87767,7.7128,-0.446383,-0.397407,-14.773,27.5127,-12.7468,0.446383,-0.446383,-0.397407,-14.6537,27.5127,-12.866,0.446383,10.853,13.2205,2.9126,8.5309,5.37541,-3.80345,2.44777,12.84,18.0067,3.36316,5,-16.4723,-3.58615,2.27246,0.298055,-0.239311,61,82,78,81,77,39,78,78,79,76,83,22
-1.87756,7.71237,-0.446395,-0.397313,-14.7725,27.5123,-12.7467,0.446395,-0.446395,-0.397313,-14.6533,27.5123,-12.8659,0.446395,10.8536,13.22,2.91211,8.531,5.37561,-3.80343,2.44795,12.8401,18.0063,3.36275,5,-16.472,-3.58629,2.27262,0.297985,-0.239317,61,82,78,81,77,39,78,78,79,76,83,22
-1.87744,7.71192,-0.446406,-0.39722,-14.7725,27.5123,-12.7467,0.446406,-0.446406,-0.39722,-14.6533,27.5123,-12.8658,0.446406,10.8542,13.2194,2.91164,8.53109,5.3758,-3.80342,2.44813,12.8403,18.0059,3.36236,5,-16.4718,-3.58643,2.27278,0.297915,-0.239323,61,82,78,81,77,39,78,78,79,76,83,22
-1.87731,7.71145,-0.446418,-0.397127,-14.7725,27.5123,-12.7466,0.446418,-0.446418,-0.397127,-14.6534,27.5123,-12.8658,0.446418,10.8548,13.2189,2.91118,8.53118,5.37596,-3.80341,2.4483,12.8404,18.0055,3.36199,5,-16.4715,-3.58655,2.27293,0.297845,-0.23933,61,82,78,81,77,39,78,78,79,76,83,22
-1.87718,7.71097,-0.446429,-0.397034,-14.7725,27.5123,-12.7466,0.446429,-0.446429,-0.397034,-14.6534,27.5123,-12.8657,0.446429,10.8553,13.2183,2.91074,8.53126,5.37611,-3.8034,2.44847,12.8405,18.0051,3.36162,5,-16.4713,-3.58667,2.27308,0.297776,-0.239336,61,82,78,81,77,39,78,78,79,76,83,22
-1.87704,7.71049,-0.44644,-0.396943,-14.7725,27.5123,-12.7466,0.44644,-0.44644,-0.396943,-14.6535,27.5123,-12.8657,0.44644,10.8559,13.2178,2.9103,8.53133,5.37624,-3.80339,2.44863,12.8406,18.0046,3.36127,5,-16.471,-3.58678,2.27322,0.297708,-0.239342,61,82,78,81,77,39,78,78,79,76,83,22
-1.8769,7.70999,-0.446451,-0.396853,-14.7726,27.5123,-12.7466,0.446451,-0.446451,-0.396853,-14.6535,27.5123,-12.8657,0.446451,10.8565,13.2173,2.90988,8.5314,5.37635,-3.80339,2.4488,12.8408,18.0042,3.36093,5,-16.4707,-3.58689,2.27336,0.29764,-0.239348,61,82,78,81,77,39,78,78,79,76,83,22
-1.87676,7.70949,-0.446462,-0.396765,-14.7726,27.5123,-12.7466,0.446462,-0.446462,-0.396765,-14.6535,27.5123,-12.8656,0.446462,10.8571,13.2167,2.90947,8.53146,5.37646,-3.80338,2.44895,12.8409,18.0038,3.3606,5,-16.4705,-3.58699,2.27349,0.297574,-0.239354,61,82,78,81,77,39,78,78,79,76,83,22
-1.87661,7.70899,-0.446473,-0.396678,-14.7728,27.5125,-12.7466,0.446473,-0.446473,-0.396678,-14.6538,27.5125,-12.8656,0.446473,10.8576,13.2162,2.90908,8.53152,5.37655,-3.80338,2.44911,12.841,18.0034,3.36028,5,-16.4702,-3.58708,2.27362,0.297509,-0.23936,61,82,78,81,77,39,78,78,79,76,83,22
-1.87647,7.7085,-0.446484,-0.396593,-14.7728,27.5125,-12.7466,0.446484,-0.446484,-0.396593,-14.6539,27.5125,-12.8656,0.446484,10.8582,13.2157,2.90869,8.53157,5.37664,-3.80337,2.44926,12.8412,18.003,3.35996,5,-16.47,-3.58716,2.27374,0.297445,-0.239366,61,82,78,81,77,39,78,78,79,76,83,22
-1.87632,7.70801,-0.446495,-0.396511,-14.7729,27.5125,-12.7466,0.446495,-0.446495,-0.396511,-14.6539,27.5125,-12.8655,0.446495,10.8588,13.2152,2.90832,8.53162,5.37671,-3.80336,2.4494,12.8413,18.0026,3.35965,5,-16.4697,-3.58725,2.27385,0.297383,-0.239372,61,82,78,81,77,39,78,78,79,76,83,22
-1.87618,7.70753,-0.446506,-0.39643,-14.7729,27.5125,-12.7466,0.446506,-0.446506,-0.39643,-14.6539,27.5125,-12.8655,0.446506,10.8593,13.2147,2.90796,8.53166,5.37678,-3.80335,2.44954,12.8414,18.0022,3.35935,5,-16.4694,-3.58732,2.27396,0.297322,-0.239378,61,82,78,81,77,39,78,78,79,76,83,22
-1.87603,7.70704,-0.446517,-0.39635,-14.7729,27.5125,-12.7466,0.446517,-0.446517,-0.39635,-14.654,27.5125,-12.8655,0.446517,10.8598,13.2142,2.90761,8.5317,5.37684,-3.80334,2.44968,12.8416,18.0019,3.35905,5,-16.4691,-3.5874,2.27407,0.297262,-0.239384,61,82,78,81,77,39,78,78,79,76,83,22
-1.87588,7.70656,-0.446527,-0.396271,-14.7729,27.5125,-12.7465,0.446527,-0.446527,-0.396271,-14.654,27.5125,-12.8654,0.446527,10.8603,13.2137,2.90727,8.53173,5.3769,-3.80334,2.44982,12.8417,18.0015,3.35877,5,-16.4689,-3.58746,2.27417,0.297203,-0.23939,61,82,78,81,77,39,78,78,79,76,83,22
-1.87574,7.70607,-0.446537,-0.396194,-14.7729,27.5125,-12.7465,0.446537,-0.446537,-0.396194,-14.654,27.5125,-12.8654,0.446537,10.8609,13.2132,2.90693,8.53176,5.37694,-3.80333,2.44995,12.8418,18.0011,3.3585,5,-16.4686,-3.58753,2.27428,0.297145,-0.239395,61,82,78,81,77,39,78,78,79,76,83,22
-1.87559,7.70558,-0.446547,-0.396116,-14.7731,27.5126,-12.7466,0.446547,-0.446547,-0.396116,-14.6543,27.5126,-12.8654,0.446547,10.8614,13.2127,2.90661,8.5318,5.37697,-3.80333,2.45008,12.842,18.0007,3.35825,5,-16.4684,-3.58759,2.27438,0.297087,-0.2394,61,82,78,81,77,39,78,78,79,76,83,22
-1.87543,7.70508,-0.446556,-0.39604,-14.7732,27.5126,-12.7466,0.446556,-0.446556,-0.39604,-14.6543,27.5126,-12.8654,0.446556,10.8619,13.2123,2.9063,8.53183,5.37698,-3.80334,2.45021,12.8421,18.0004,3.35801,5,-16.4682,-3.58765,2.27448,0.29703,-0.239405,61,82,78,81,77,39,78,78,79,76,83,22
-1.87527,7.70458,-0.446564,-0.395963,-14.7732,27.5126,-12.7465,0.446564,-0.446564,-0.395963,-14.6544,27.5126,-12.8653,0.446564,10.8624,13.2118,2.90599,8.53186,5.37699,-3.80336,2.45033,12.8422,18,3.35779,5,-16.468,-3.5877,2.27458,0.296972,-0.23941,61,82,78,81,77,39,78,78,79,76,83,22
-1.87512,7.70407,-0.446572,-0.395887,-14.7732,27.5126,-12.7465,0.446572,-0.446572,-0.395887,-14.6544,27.5126,-12.8653,0.446572,10.8629,13.2113,2.90569,8.53189,5.37699,-3.80337,2.45045,12.8423,17.9996,3.35758,5,-16.4678,-3.58776,2.27468,0.296915,-0.239414,61,82,78,81,77,39,78,78,79,76,83,22
-1.87495,7.70355,-0.446579,-0.395811,-14.7732,27.5126,-12.7465,0.446579,-0.446579,-0.395811,-14.6544,27.5126,-12.8653,0.446579,10.8633,13.2109,2.9054,8.53192,5.37697,-3.8034,2.45058,12.8424,17.9992,3.35739,5,-16.4676,-3.58781,2.27479,0.296858,-0.239418,61,82,78,81,77,39,78,78,79,76,83,22
-1.87479,7.70303,-0.446586,-0.395734,-14.7732,27.5126,-12.7465,0.446586,-0.446586,-0.395734,-14.6545,27.5126,-12.8652,0.446586,10.8638,13.2104,2.90512,8.53194,5.37695,-3.80343,2.4507,12.8425,17.9988,3.35722,5,-16.4674,-3.58785,2.2749,0.296801,-0.239422,61,82,78,81,77,39,78,78,79,76,83,22
-1.87463,7.7025,-0.446591,-0.395658,-14.7732,27.5126,-12.7465,0.446591,-0.446591,-0.395658,-14.6545,27.5126,-12.8652,0.446591,10.8643,13.21,2.90484,8.53197,5.37692,-3.80346,2.45082,12.8426,17.9985,3.35707,5,-16.4673,-3.5879,2.275,0.296743,-0.239425,61,82,78,81,77,39,78,78,79,76,83,22
-1.87447,7.70197,-0.446596,-0.395581,-14.7736,27.5129,-12.7466,0.446596,-0.446596,-0.395581,-14.6549,27.5129,-12.8652,0.446596,10.8647,13.2095,2.90458,8.532,5.37688,-3.8035,2.45094,12.8426,17.9981,3.35694,5,-16.4672,-3.58794,2.27511,0.296686,-0.239427,61,82,78,81,77,39,78,78,79,76,83,22
-1.8743,7.70143,-0.4466,-0.395504,-14.7736,27.5129,-12.7466,0.4466,-0.4466,-0.395504,-14.6549,27.5129,-12.8652,0.4466,10.8652,13.2091,2.90432,8.53202,5.37684,-3.80355,2.45106,12.8427,17.9977,3.35682,5,-16.4671,-3.58798,2.27523,0.296628,-0.239429,61,82,78,81,77,39,78,78,79,76,83,22
-1.87414,7.70088,-0.446602,-0.395427,-14.7736,27.5129,-12.7465,0.446602,-0.446602,-0.395427,-14.655,27.5129,-12.8652,0.446602,10.8656,13.2086,2.90406,8.53205,5.37679,-3.8036,2.45118,12.8428,17.9973,3.35672,5,-16.467,-3.58801,2.27534,0.29657,-0.239431,61,82,78,81,77,39,78,78,79,76,83,22
-1.87398,7.70033,-0.446604,-0.395349,-14.7736,27.5129,-12.7465,0.446604,-0.446604,-0.395349,-14.655,27.5129,-12.8651,0.446604,10.8661,13.2082,2.90382,8.53207,5.37673,-3.80365,2.4513,12.8428,17.9968,3.35664,5,-16.467,-3.58804,2.27546,0.296512,-0.239432,61,82,78,81,77,39,78,78,79,76,83,22
-1.87382,7.69978,-0.446605,-0.395271,-14.7736,27.5129,-12.7465,0.446605,-0.446605,-0.395271,-14.655,27.5129,-12.8651,0.446605,10.8665,13.2078,2.90358,8.5321,5.37667,-3.80371,2.45142,12.8429,17.9964,3.35658,5,-16.4669,-3.58807,2.27558,0.296453,-0.239432,61,82,78,81,77,39,78,78,79,76,83,22
-1.87366,7.69922,-0.446605,-0.395193,-14.7736,27.5129,-12.7465,0.446605,-0.446605,-0.395193,-14.6551,27.5129,-12.8651,0.446605,10.8669,13.2074,2.90335,8.53212,5.37661,-3.80377,2.45155,12.8429,17.996,3.35653,5,-16.4669,-3.5881,2.2757,0.296395,-0.239432,61,82,78,81,77,39,78,78,79,76,83,22
-1.8735,7.69866,-0.446604,-0.395115,-14.7736,27.5129,-12.7465,0.446604,-0.446604,-0.395115,-14.6551,27.5129,-12.865,0.446604,10.8674,13.207,2.90312,8.53215,5.37654,-3.80384,2.45168,12.8429,17.9956,3.3565,5,-16.4669,-3.58812,2.27582,0.296336,-0.239431,61,82,78,81,77,39,78,78,79,76,83,22
-1.87334,7.69809,-0.446602,-0.395037,-14.7735,27.5128,-12.7465,0.446602,-0.446602,-0.395037,-14.655,27.5128,-12.865,0.446602,10.8678,13.2065,2.90291,8.53218,5.37648,-3.80391,2.4518,12.843,17.9952,3.35648,5,-16.467,-3.58814,2.27595,0.296278,-0.23943,61,82,78,81,77,39,78,78,79,76,83,22
-1.87318,7.69753,-0.4466,-0.394959,-14.7735,27.5128,-12.7465,0.4466,-0.4466,-0.394959,-14.655,27.5128,-12.865,0.4466,10.8682,13.2061,2.9027,8.53221,5.37641,-3.80399,2.45194,12.843,17.9947,3.35648,5,-16.467,-3.58815,2.27607,0.296219,-0.239429,61,82,78,81,77,39,78,78,79,76,83,22
-1.87303,7.69697,-0.446597,-0.394881,-14.7735,27.5128,-12.7465,0.446597,-0.446597,-0.394881,-14.6551,27.5128,-12.8649,0.446597,10.8686,13.2057,2.9025,8.53224,5.37634,-3.80407,2.45207,12.843,17.9943,3.35648,5,-16.4671,-3.58817,2.2762,0.296161,-0.239428,61,82,78,81,77,39,78,78,79,76,83,22
-1.87288,7.6964,-0.446593,-0.394803,-14.7735,27.5128,-12.7465,0.446593,-0.446593,-0.394803,-14.6551,27.5128,-12.8649,0.446593,10.869,13.2053,2.90231,8.53228,5.37627,-3.80416,2.45221,12.843,17.9938,3.3565,5,-16.4671,-3.58818,2.27633,0.296102,-0.239426,61,82,78,81,77,39,78,78,79,76,83,22
-1.87273,7.69583,-0.446589,-0.394725,-14.7735,27.5128,-12.7465,0.446589,-0.446589,-0.394725,-14.6551,27.5128,-12.8649,0.446589,10.8693,13.2049,2.90212,8.53232,5.3762,-3.80425,2.45236,12.843,17.9934,3.35652,5,-16.4672,-3.58819,2.27646,0.296044,-0.239424,61,82,78,81,77,39,78,78,79,76,83,22
-1.87258,7.69526,-0.446584,-0.394648,-14.7735,27.5128,-12.7465,0.446584,-0.446584,-0.394648,-14.6552,27.5128,-12.8649,0.446584,10.8697,13.2045,2.90194,8.53236,5.37614,-3.80435,2.4525,12.843,17.993,3.35655,5,-16.4673,-3.5882,2.27659,0.295986,-0.239421,61,82,78,81,77,39,78,78,79,76,83,22
-1.87243,7.69469,-0.446578,-0.39457,-14.7735,27.5128,-12.7465,0.446578,-0.446578,-0.39457,-14.6552,27.5128,-12.8648,0.446578,10.8701,13.2042,2.90176,8.53241,5.37607,-3.80445,2.45265,12.8429,17.9925,3.35659,5,-16.4675,-3.5882,2.27671,0.295928,-0.239417,61,82,78,81,77,39,78,78,79,76,83,22
-1.87229,7.69411,-0.446571,-0.394493,-14.7735,27.5128,-12.7465,0.446571,-0.446571,-0.394493,-14.6552,27.5128,-12.8648,0.446571,10.8704,13.2038,2.90159,8.53246,5.37602,-3.80455,2.4528,12.8429,17.9921,3.35664,5,-16.4676,-3.58821,2.27684,0.29587,-0.239413,61,82,78,81,77,39,78,78,79,76,83,22
-1.87214,7.69353,-0.446563,-0.394415,-14.7735,27.5128,-12.7465,0.446563,-0.446563,-0.394415,-14.6552,27.5128,-12.8648,0.446563,10.8708,13.2034,2.90141,8.53252,5.37597,-3.80466,2.45295,12.8428,17.9916,3.3567,5,-16.4677,-3.58822,2.27696,0.295811,-0.239409,61,82,78,81,77,39,78,78,79,76,83,22
-1.872,7.69294,-0.446553,-0.394338,-14.7735,27.5128,-12.7465,0.446553,-0.446553,-0.394338,-14.6552,27.5128,-12.8648,0.446553,10.8711,13.203,2.90124,8.53258,5.37593,-3.80477,2.45311,12.8428,17.9911,3.35676,5,-16.4679,-3.58823,2.27708,0.295754,-0.239404,61,82,78,81,77,39,78,78,79,76,83,22
-1.87186,7.69235,-0.446543,-0.394261,-14.7735,27.5128,-12.7465,0.446543,-0.446543,-0.394261,-14.6553,27.5128,-12.8647,0.446543,10.8714,13.2027,2.90106,8.53265,5.37589,-3.80488,2.45326,12.8427,17.9906,3.35682,5,-16.4681,-3.58823,2.2772,0.295696,-0.239398,61,82,78,81,77,39,78,78,79,76,83,22
-1.87172,7.69176,-0.446531,-0.394184,-14.7735,27.5128,-12.7465,0.446531,-0.446531,-0.394184,-14.6553,27.5128,-12.8647,0.446531,10.8717,13.2023,2.90089,8.53272,5.37586,-3.80499,2.45342,12.8426,17.9902,3.35689,5,-16.4682,-3.58824,2.27731,0.295638,-0.239392,61,82,78,81,77,39,78,78,79,76,83,22
-1.87158,7.69116,-0.446519,-0.394108,-14.7735,27.5128,-12.7465,0.446519,-0.446519,-0.394108,-14.6553,27.5128,-12.8647,0.446519,10.872,13.202,2.90072,8.5328,5.37583,-3.8051,2.45358,12.8425,17.9897,3.35695,5,-16.4684,-3.58824,2.27742,0.295581,-0.239385,61,82,78,81,77,39,78,78,79,76,83,22
-1.87145,7.69056,-0.446505,-0.394032,-14.7735,27.5128,-12.7465,0.446505,-0.446505,-0.394032,-14.6553,27.5128,-12.8647,0.446505,10.8723,13.2017,2.90056,8.53289,5.37581,-3.80522,2.45374,12.8424,17.9892,3.35702,5,-16.4686,-3.58825,2.27753,0.295524,-0.239378,61,82,78,81,77,39,78,78,79,76,83,22
-1.87132,7.68996,-0.446491,-0.393957,-14.7734,27.5127,-12.7464,0.446491,-0.446491,-0.393957,-14.6552,27.5127,-12.8646,0.446491,10.8725,13.2013,2.9004,8.53298,5.37579,-3.80532,2.4539,12.8423,17.9887,3.35708,5,-16.4688,-3.58825,2.27764,0.295468,-0.23937,61,82,78,81,77,39,78,78,79,76,83,22
-1.87121,7.68935,-0.446475,-0.393882,-14.7733,27.5127,-12.7465,0.446475,-0.446475,-0.393882,-14.6552,27.5127,-12.8646,0.446475,10.8728,13.201,2.90024,8.53308,5.37577,-3.80543,2.45407,12.8422,17.9882,3.35712,5,-16.469,-3.58825,2.27774,0.295412,-0.239361,61,82,78,81,77,39,78,78,79,76,83,22
-1.87109,7.68874,-0.446458,-0.393808,-14.7733,27.5127,-12.7465,0.446458,-0.446458,-0.393808,-14.6552,27.5127,-12.8646,0.446458,10.873,13.2007,2.90009,8.53319,5.37576,-3.80553,2.45424,12.8421,17.9877,3.35716,5,-16.4692,-3.58825,2.27785,0.295356,-0.239352,61,82,78,81,77,39,78,78,79,76,83,22
-1.87099,7.68812,-0.446441,-0.393735,-14.7733,27.5127,-12.7465,0.446441,-0.446441,-0.393735,-14.6552,27.5127,-12.8646,0.446441,10.8733,13.2004,2.89994,8.53331,5.37574,-3.80563,2.4544,12.8419,17.9872,3.35719,5,-16.4694,-3.58825,2.27795,0.295301,-0.239342,61,82,78,81,77,39,78,78,79,76,83,22
-1.87089,7.68751,-0.446423,-0.393663,-14.7733,27.5127,-12.7465,0.446423,-0.446423,-0.393663,-14.6552,27.5127,-12.8646,0.446423,10.8735,13.2001,2.8998,8.53344,5.37573,-3.80572,2.45457,12.8418,17.9867,3.35721,5,-16.4695,-3.58825,2.27805,0.295247,-0.239332,61,82,78,81,77,39,78,78,79,76,83,22
-1.87079,7.6869,-0.446404,-0.393591,-14.7733,27.5127,-12.7465,0.446404,-0.446404,-0.393591,-14.6552,27.5127,-12.8646,0.446404,10.8737,13.1998,2.89966,8.53356,5.37572,-3.80581,2.45474,12.8416,17.9862,3.35724,5,-16.4697,-3.58824,2.27814,0.295193,-0.239322,61,82,78,81,77,39,78,78,79,76,83,22
-1.8707,7.68629,-0.446385,-0.393521,-14.7733,27.5127,-12.7465,0.446385,-0.446385,-0.393521,-14.6553,27.5127,-12.8645,0.446385,10.8739,13.1995,2.89953,8.5337,5.37571,-3.8059,2.45491,12.8415,17.9857,3.35726,5,-16.4699,-3.58824,2.27823,0.295141,-0.239311,61,82,78,81,77,39,78,78,79,76,83,22
-1.87061,7.68568,-0.446365,-0.393452,-14.7731,27.5125,-12.7464,0.446365,-0.446365,-0.393452,-14.655,27.5125,-12.8645,0.446365,10.8741,13.1992,2.89941,8.53383,5.37571,-3.80598,2.45507,12.8413,17.9852,3.35728,5,-16.4701,-3.58823,2.27832,0.295089,-0.239301,61,82,78,81,77,39,78,78,79,76,83,22
-1.87051,7.68509,-0.446346,-0.393384,-14.7731,27.5125,-12.7465,0.446346,-0.446346,-0.393384,-14.655,27.5125,-12.8645,0.446346,10.8742,13.1989,2.89929,8.53396,5.37571,-3.80606,2.45524,12.8412,17.9847,3.35733,5,-16.4703,-3.58822,2.2784,0.295038,-0.23929,61,82,78,81,77,39,78,78,79,76,83,22
-1.87042,7.6845,-0.446327,-0.393317,-14.7731,27.5125,-12.7465,0.446327,-0.446327,-0.393317,-14.6551,27.5125,-12.8645,0.446327,10.8744,13.1987,2.89919,8.53409,5.37571,-3.80613,2.4554,12.841,17.9843,3.35738,5,-16.4705,-3.58821,2.27847,0.294988,-0.23928,61,82,78,81,77,39,78,78,79,76,83,22
-1.87033,7.68392,-0.446307,-0.393251,-14.773,27.5125,-12.7465,0.446307,-0.446307,-0.393251,-14.6551,27.5125,-12.8645,0.446307,10.8746,13.1984,2.89908,8.53422,5.37572,-3.8062,2.45557,12.8408,17.9838,3.35743,5,-16.4707,-3.58819,2.27855,0.294939,-0.239269,61,82,78,81,77,39,78,78,79,76,83,22
-1.87024,7.68334,-0.446288,-0.393187,-14.773,27.5125,-12.7465,0.446288,-0.446288,-0.393187,-14.6551,27.5125,-12.8644,0.446288,10.8747,13.1981,2.89899,8.53436,5.37572,-3.80627,2.45573,12.8407,17.9833,3.35748,5,-16.4708,-3.58818,2.27862,0.29489,-0.239258,61,82,78,81,77,39,78,78,79,76,83,22
-1.87016,7.68277,-0.446268,-0.393124,-14.773,27.5125,-12.7465,0.446268,-0.446268,-0.393124,-14.6551,27.5125,-12.8644,0.446268,10.8749,13.1979,2.89889,8.53449,5.37573,-3.80633,2.45589,12.8405,17.9828,3.35751,5,-16.471,-3.58817,2.27869,0.294843,-0.239248,61,82,78,81,77,39,78,78,79,76,83,22
-1.87009,7.68221,-0.446248,-0.393062,-14.773,27.5125,-12.7465,0.446248,-0.446248,-0.393062,-14.6551,27.5125,-12.8644,0.446248,10.875,13.1977,2.89879,8.53463,5.37573,-3.8064,2.45605,12.8403,17.9824,3.35753,5,-16.4712,-3.58815,2.27876,0.294796,-0.239237,61,82,78,81,77,39,78,78,79,76,83,22
-1.87003,7.68166,-0.446228,-0.393001,-14.7728,27.5124,-12.7465,0.446228,-0.446228,-0.393001,-14.6549,27.5124,-12.8644,0.446228,10.8752,13.1974,2.89869,8.53478,5.37573,-3.80646,2.4562,12.8402,17.9819,3.35753,5,-16.4714,-3.58814,2.27883,0.294751,-0.239225,61,82,78,81,77,39,78,78,79,76,83,22
-1.86997,7.6811,-0.446207,-0.392941,-14.7728,27.5124,-12.7465,0.446207,-0.446207,-0.392941,-14.6549,27.5124,-12.8644,0.446207,10.8753,13.1972,2.89858,8.53492,5.37573,-3.80652,2.45635,12.84,17.9815,3.3575,5,-16.4715,-3.58813,2.27891,0.294706,-0.239214,61,82,78,81,77,39,78,78,79,76,83,22
-1.86993,7.68056,-0.446185,-0.392883,-14.7728,27.5124,-12.7465,0.446185,-0.446185,-0.392883,-14.6549,27.5124,-12.8644,0.446185,10.8754,13.197,2.89846,8.53508,5.37572,-3.80659,2.4565,12.8398,17.981,3.35743,5,-16.4716,-3.58813,2.27899,0.294662,-0.239202,61,82,78,81,77,39,78,78,79,76,83,22
-1.8699,7.68002,-0.446163,-0.392826,-14.7728,27.5124,-12.7465,0.446163,-0.446163,-0.392826,-14.6549,27.5124,-12.8644,0.446163,10.8756,13.1967,2.89834,8.53524,5.37571,-3.80665,2.45664,12.8397,17.9805,3.35734,5,-16.4718,-3.58812,2.27907,0.294619,-0.23919,61,82,78,81,77,39,78,78,79,76,83,22
-1.86988,7.67948,-0.446141,-0.39277,-14.7728,27.5124,-12.7465,0.446141,-0.446141,-0.39277,-14.6549,27.5124,-12.8643,0.446141,10.8757,13.1965,2.89822,8.5354,5.3757,-3.80672,2.45678,12.8395,17.9801,3.35721,5,-16.4718,-3.58812,2.27915,0.294577,-0.239178,61,82,78,81,77,39,78,78,79,76,83,22
-1.86987,7.67895,-0.446119,-0.392715,-14.7728,27.5124,-12.7465,0.446119,-0.446119,-0.392715,-14.6549,27.5124,-12.8643,0.446119,10.8758,13.1963,2.89809,8.53557,5.37568,-3.80678,2.45692,12.8394,17.9796,3.35706,5,-16.4719,-3.58812,2.27924,0.294536,-0.239166,61,82,78,81,77,39,78,78,79,76,83,22
-1.86987,7.67842,-0.446095,-0.392661,-14.7727,27.5124,-12.7465,0.446095,-0.446095,-0.392661,-14.6549,27.5124,-12.8643,0.446095,10.8759,13.1961,2.89797,8.53575,5.37566,-3.80684,2.45706,12.8392,17.9792,3.35688,5,-16.472,-3.58811,2.27933,0.294496,-0.239153,61,82,78,81,77,39,78,78,79,76,83,22
-1.86988,7.6779,-0.446072,-0.392608,-14.7729,27.5125,-12.7466,0.446072,-0.446072,-0.392608,-14.6551,27.5125,-12.8644,0.446072,10.8761,13.1959,2.89784,8.53593,5.37564,-3.80691,2.4572,12.8391,17.9787,3.35668,5,-16.472,-3.58811,2.27942,0.294456,-0.23914,61,82,78,81,77,39,78,78,79,76,83,22
-1.86991,7.67738,-0.446048,-0.392556,-14.7729,27.5125,-12.7466,0.446048,-0.446048,-0.392556,-14.6551,27.5125,-12.8643,0.446048,10.8762,13.1957,2.89771,8.53611,5.37561,-3.80697,2.45734,12.839,17.9782,3.35645,5,-16.4721,-3.58809,2.27952,0.294417,-0.239127,61,82,78,81,77,39,78,78,79,76,83,22
-1.86994,7.67688,-0.446024,-0.392506,-14.7729,27.5125,-12.7466,0.446024,-0.446024,-0.392506,-14.6551,27.5125,-12.8643,0.446024,10.8763,13.1955,2.89759,8.5363,5.37558,-3.80703,2.45747,12.8388,17.9778,3.35621,5,-16.4721,-3.58808,2.27961,0.294379,-0.239114,61,82,78,81,77,39,78,78,79,76,83,22
-1.86998,7.67637,-0.446,-0.392456,-14.7729,27.5125,-12.7466,0.446,-0.446,-0.392456,-14.6551,27.5125,-12.8643,0.446,10.8764,13.1953,2.89747,8.53649,5.37556,-3.80709,2.45761,12.8387,17.9773,3.35594,5,-16.472,-3.58806,2.27971,0.294342,-0.239101,61,82,78,81,77,39,78,78,79,76,83,22
-1.87003,7.67587,-0.445976,-0.392408,-14.7728,27.5125,-12.7466,0.445976,-0.445976,-0.392408,-14.6551,27.5125,-12.8643,0.445976,10.8765,13.1952,2.89735,8.53668,5.37553,-3.80714,2.45775,12.8385,17.9769,3.35565,5,-16.472,-3.58804,2.2798,0.294306,-0.239088,61,82,78,81,77,39,78,78,79,76,83,22
-1.87009,7.67538,-0.445951,-0.392361,-14.7728,27.5125,-12.7466,0.445951,-0.445951,-0.392361,-14.6551,27.5125,-12.8643,0.445951,10.8766,13.195,2.89724,8.53688,5.3755,-3.8072,2.45789,12.8384,17.9765,3.35534,5,-16.472,-3.58801,2.27991,0.294271,-0.239074,61,82,78,81,77,39,78,78,79,76,83,22
-1.87016,7.67489,-0.445926,-0.392316,-14.7728,27.5125,-12.7466,0.445926,-0.445926,-0.392316,-14.6551,27.5125,-12.8643,0.445926,10.8767,13.1948,2.89713,8.53708,5.37546,-3.80726,2.45803,12.8382,17.976,3.35501,5,-16.4719,-3.58798,2.28001,0.294237,-0.23906,61,82,78,81,77,39,78,78,79,76,83,22
-1.87024,7.6744,-0.445901,-0.392273,-14.7728,27.5124,-12.7466,0.445901,-0.445901,-0.392273,-14.6551,27.5124,-12.8643,0.445901,10.8767,13.1947,2.89702,8.53728,5.37543,-3.80732,2.45817,12.8381,17.9756,3.35466,5,-16.4718,-3.58794,2.28012,0.294205,-0.239047,61,82,78,81,77,39,78,78,79,76,83,22
-1.87033,7.67392,-0.445876,-0.392232,-14.7728,27.5124,-12.7466,0.445876,-0.445876,-0.392232,-14.6551,27.5124,-12.8643,0.445876,10.8768,13.1945,2.89692,8.53749,5.3754,-3.80737,2.45832,12.838,17.9752,3.3543,5,-16.4718,-3.58791,2.28023,0.294174,-0.239033,61,82,78,81,77,39,78,78,79,76,83,22
-1.87042,7.67345,-0.44585,-0.392194,-14.7728,27.5124,-12.7466,0.44585,-0.44585,-0.392194,-14.6551,27.5124,-12.8643,0.44585,10.8769,13.1944,2.89682,8.5377,5.37538,-3.80743,2.45846,12.8378,17.9748,3.35393,5,-16.4717,-3.58787,2.28035,0.294145,-0.239019,61,82,78,81,77,39,78,78,79,76,83,22
-1.87052,7.67298,-0.445825,-0.392157,-14.7728,27.5124,-12.7467,0.445825,-0.445825,-0.392157,-14.6551,27.5124,-12.8643,0.445825,10.8769,13.1942,2.89673,8.53791,5.37535,-3.80749,2.4586,12.8377,17.9743,3.35354,5,-16.4715,-3.58782,2.28047,0.294118,-0.239005,61,82,78,81,77,39,78,78,79,76,83,22
-1.87063,7.67251,-0.445799,-0.392122,-14.7727,27.5124,-12.7467,0.445799,-0.445799,-0.392122,-14.6551,27.5124,-12.8643,0.445799,10.8769,13.1941,2.89664,8.53812,5.37532,-3.80754,2.45874,12.8376,17.9739,3.35314,5,-16.4714,-3.58777,2.2806,0.294092,-0.238991,61,82,78,81,77,39,78,78,79,76,83,22
-1.87075,7.67205,-0.445773,-0.39209,-14.7727,27.5124,-12.7467,0.445773,-0.445773,-0.39209,-14.6551,27.5124,-12.8643,0.445773,10.877,13.194,2.89656,8.53833,5.3753,-3.8076,2.45888,12.8374,17.9735,3.35272,5,-16.4713,-3.58772,2.28073,0.294067,-0.238976,61,82,78,81,77,39,78,78,79,76,83,22
-1.87087,7.6716,-0.445747,-0.392059,-14.7727,27.5124,-12.7467,0.445747,-0.445747,-0.392059,-14.6551,27.5124,-12.8643,0.445747,10.877,13.1939,2.89648,8.53854,5.37527,-3.80765,2.45902,12.8373,17.9731,3.3523,5,-16.4711,-3.58765,2.28086,0.294044,-0.238962,61,82,78,81,77,39,78,78,79,76,83,22
-1.871,7.67115,-0.445721,-0.392031,-14.7727,27.5124,-12.7467,0.445721,-0.445721,-0.392031,-14.6551,27.5124,-12.8643,0.445721,10.877,13.1938,2.89641,8.53876,5.37525,-3.80771,2.45917,12.8372,17.9727,3.35186,5,-16.4709,-3.58758,2.281,0.294023,-0.238948,61,82,78,81,77,39,78,78,79,76,83,22
-1.87113,7.6707,-0.445695,-0.392005,-14.7727,27.5124,-12.7467,0.445695,-0.445695,-0.392005,-14.6551,27.5124,-12.8643,0.445695,10.877,13.1937,2.89635,8.53898,5.37523,-3.80776,2.45931,12.837,17.9723,3.35141,5,-16.4707,-3.5875,2.28113,0.294004,-0.238934,61,82,78,81,77,39,78,78,79,76,83,22
-1.87127,7.67026,-0.445669,-0.391981,-14.7727,27.5124,-12.7467,0.445669,-0.445669,-0.391981,-14.6551,27.5124,-12.8643,0.445669,10.877,13.1936,2.89629,8.5392,5.37521,-3.80782,2.45946,12.8369,17.9719,3.35094,5,-16.4704,-3.5874,2.28127,0.293986,-0.23892,61,82,78,81,77,39,78,78,79,76,83,22
-1.87142,7.66982,-0.445643,-0.391959,-14.7727,27.5124,-12.7467,0.445643,-0.445643,-0.391959,-14.6551,27.5124,-12.8643,0.445643,10.877,13.1935,2.89624,8.53942,5.3752,-3.80787,2.4596,12.8368,17.9716,3.35047,5,-16.4702,-3.5873,2.2814,0.293969,-0.238905,61,82,78,81,77,39,78,78,79,76,83,22
-1.87157,7.66939,-0.445617,-0.391939,-14.7727,27.5124,-12.7467,0.445617,-0.445617,-0.391939,-14.6551,27.5124,-12.8643,0.445617,10.8769,13.1934,2.8962,8.53964,5.37518,-3.80792,2.45974,12.8366,17.9712,3.34999,5,-16.4699,-3.58719,2.28154,0.293954,-0.238891,61,82,78,81,77,39,78,78,79,76,83,22
-1.87172,7.66897,-0.445591,-0.391922,-14.7727,27.5124,-12.7467,0.445591,-0.445591,-0.391922,-14.6551,27.5124,-12.8643,0.445591,10.8769,13.1933,2.89616,8.53985,5.37517,-3.80798,2.45989,12.8365,17.9708,3.34951,5,-16.4696,-3.58707,2.28168,0.293941,-0.238877,61,82,78,81,77,39,78,78,79,76,83,22
-1.87188,7.66855,-0.445565,-0.391906,-14.7727,27.5124,-12.7468,0.445565,-0.445565,-0.391906,-14.6551,27.5124,-12.8643,0.445565,10.8768,13.1932,2.89614,8.54007,5.37517,-3.80803,2.46003,12.8364,17.9705,3.34903,5,-16.4692,-3.58693,2.28182,0.29393,-0.238863,61,82,78,81,77,39,78,78,79,76,83,22
-1.87205,7.66814,-0.445538,-0.391893,-14.7724,27.5123,-12.7467,0.445538,-0.445538,-0.391893,-14.6549,27.5123,-12.8643,0.445538,10.8768,13.1931,2.89611,8.54028,5.37517,-3.80809,2.46016,12.8362,17.9701,3.34854,5,-16.4689,-3.58679,2.28195,0.29392,-0.238848,61,82,78,81,77,39,78,78,79,76,83,22
-1.87221,7.66773,-0.445512,-0.391883,-14.7724,27.5123,-12.7467,0.445512,-0.445512,-0.391883,-14.6549,27.5123,-12.8643,0.445512,10.8767,13.1931,2.8961,8.54048,5.37517,-3.80815,2.4603,12.8361,17.9697,3.34807,5,-16.4685,-3.58664,2.28209,0.293912,-0.238833,61,82,78,81,77,39,78,78,79,76,83,22
-1.87238,7.66734,-0.445485,-0.391875,-14.7724,27.5123,-12.7467,0.445485,-0.445485,-0.391875,-14.6549,27.5123,-12.8643,0.445485,10.8766,13.193,2.8961,8.54069,5.37518,-3.8082,2.46043,12.836,17.9694,3.3476,5,-16.4681,-3.58647,2.28223,0.293906,-0.238819,61,82,78,81,77,39,78,78,79,76,83,22
-1.87256,7.66695,-0.445458,-0.391869,-14.7724,27.5123,-12.7467,0.445458,-0.445458,-0.391869,-14.6548,27.5123,-12.8643,0.445458,10.8765,13.193,2.8961,8.54088,5.3752,-3.80826,2.46056,12.8358,17.969,3.34713,5,-16.4677,-3.5863,2.28237,0.293902,-0.238804,61,82,78,81,77,39,78,78,79,76,83,22
-1.87273,7.66658,-0.445431,-0.391864,-14.7724,27.5123,-12.7468,0.445431,-0.445431,-0.391864,-14.6548,27.5123,-12.8643,0.445431,10.8764,13.1929,2.89611,8.54107,5.37522,-3.80833,2.46069,12.8357,17.9687,3.34667,5,-16.4673,-3.58612,2.28251,0.293898,-0.238789,61,82,78,81,77,39,78,78,79,76,83,22
-1.87291,7.66621,-0.445404,-0.391862,-14.7724,27.5123,-12.7468,0.445404,-0.445404,-0.391862,-14.6548,27.5123,-12.8643,0.445404,10.8763,13.1929,2.89612,8.54126,5.37525,-3.80839,2.46081,12.8356,17.9683,3.34621,5,-16.4668,-3.58593,2.28265,0.293896,-0.238774,61,82,78,81,77,39,78,78,79,76,83,22
-1.87309,7.66584,-0.445377,-0.39186,-14.7724,27.5123,-12.7468,0.445377,-0.445377,-0.39186,-14.6548,27.5123,-12.8643,0.445377,10.8762,13.1928,2.89613,8.54145,5.37528,-3.80845,2.46093,12.8355,17.968,3.34576,5,-16.4664,-3.58573,2.28278,0.293895,-0.23876,61,82,78,81,77,39,78,78,79,76,83,22
-1.87327,7.66549,-0.44535,-0.39186,-14.7723,27.5122,-12.7468,0.44535,-0.44535,-0.39186,-14.6547,27.5122,-12.8643,0.44535,10.8761,13.1928,2.89615,8.54163,5.37531,-3.80851,2.46105,12.8354,17.9677,3.3453,5,-16.4659,-3.58554,2.28292,0.293895,-0.238745,61,82,78,81,77,39,78,78,79,76,83,22
-1.87344,7.66514,-0.445323,-0.391859,-14.7723,27.5122,-12.7468,0.445323,-0.445323,-0.391859,-14.6547,27.5122,-12.8643,0.445323,10.8759,13.1927,2.89617,8.5418,5.37534,-3.80857,2.46117,12.8352,17.9673,3.34485,5,-16.4655,-3.58533,2.28304,0.293894,-0.23873,61,82,78,81,77,39,78,78,79,76,83,22
-1.87361,7.66481,-0.445297,-0.391859,-14.7723,27.5122,-12.7468,0.445297,-0.445297,-0.391859,-14.6547,27.5122,-12.8643,0.445297,10.8758,13.1927,2.89619,8.54197,5.37537,-3.80864,2.46128,12.8351,17.967,3.3444,5,-16.465,-3.58513,2.28317,0.293894,-0.238716,61,82,78,81,77,39,78,78,79,76,83,22
-1.87379,7.66448,-0.445271,-0.39186,-14.7723,27.5122,-12.7468,0.445271,-0.445271,-0.39186,-14.6547,27.5122,-12.8644,0.445271,10.8757,13.1927,2.89621,8.54214,5.3754,-3.8087,2.4614,12.835,17.9667,3.34396,5,-16.4646,-3.58492,2.28329,0.293895,-0.238702,61,82,78,81,77,39,78,78,79,76,83,22
-1.87396,7.66416,-0.445246,-0.391861,-14.7722,27.5122,-12.7468,0.445246,-0.445246,-0.391861,-14.6547,27.5122,-12.8644,0.445246,10.8756,13.1927,2.89623,8.54231,5.37544,-3.80876,2.46151,12.8349,17.9664,3.34352,5,-16.4641,-3.58472,2.28342,0.293896,-0.238688,61,82,78,81,77,39,78,78,79,76,83,22
-1.87413,7.66384,-0.44522,-0.391864,-14.7722,27.5122,-12.7468,0.44522,-0.44522,-0.391864,-14.6547,27.5122,-12.8644,0.44522,10.8755,13.1926,2.89625,8.54247,5.37548,-3.80882,2.46161,12.8348,17.9661,3.3431,5,-16.4636,-3.58451,2.28354,0.293898,-0.238674,61,82,78,81,77,39,78,78,79,76,83,22
-1.8743,7.66354,-0.445195,-0.391869,-14.7722,27.5122,-12.7468,0.445195,-0.445195,-0.391869,-14.6547,27.5122,-12.8644,0.445195,10.8753,13.1926,2.89629,8.54262,5.37552,-3.80889,2.46172,12.8347,17.9658,3.34269,5,-16.4632,-3.5843,2.28366,0.293902,-0.23866,61,82,78,81,77,39,78,78,79,76,83,22
-1.87447,7.66324,-0.44517,-0.391875,-14.7724,27.5124,-12.7469,0.44517,-0.44517,-0.391875,-14.6548,27.5124,-12.8644,0.44517,10.8752,13.1926,2.89632,8.54277,5.37557,-3.80895,2.46182,12.8346,17.9655,3.34229,5,-16.4627,-3.58409,2.28378,0.293906,-0.238647,61,82,78,81,77,39,78,78,79,76,83,22
-1.87464,7.66295,-0.445146,-0.391883,-14.7724,27.5124,-12.7469,0.445146,-0.445146,-0.391883,-14.6548,27.5124,-12.8644,0.445146,10.8751,13.1926,2.89636,8.54292,5.37562,-3.80901,2.46191,12.8345,17.9652,3.34191,5,-16.4622,-3.58388,2.2839,0.293912,-0.238633,61,82,78,81,77,39,78,78,79,76,83,22
-1.87481,7.66267,-0.445122,-0.391894,-14.7724,27.5124,-12.7469,0.445122,-0.445122,-0.391894,-14.6548,27.5124,-12.8645,0.445122,10.8749,13.1926,2.89641,8.54306,5.37568,-3.80906,2.462,12.8344,17.965,3.34155,5,-16.4617,-3.58367,2.28403,0.29392,-0.23862,61,82,78,81,77,39,78,78,79,76,83,22
-1.87498,7.6624,-0.445098,-0.391906,-14.7724,27.5124,-12.7469,0.445098,-0.445098,-0.391906,-14.6548,27.5124,-12.8645,0.445098,10.8748,13.1925,2.89647,8.54319,5.37574,-3.80912,2.46208,12.8343,17.9647,3.34121,5,-16.4613,-3.58346,2.28416,0.29393,-0.238607,61,82,78,81,77,39,78,78,79,76,83,22
-1.87515,7.66213,-0.445074,-0.39192,-14.7724,27.5124,-12.7469,0.445074,-0.445074,-0.39192,-14.6548,27.5124,-12.8645,0.445074,10.8746,13.1925,2.89653,8.54332,5.3758,-3.80918,2.46215,12.8342,17.9644,3.34089,5,-16.4608,-3.58326,2.28428,0.29394,-0.238594,61,82,78,81,77,39,78,78,79,76,83,22
-1.87531,7.66187,-0.445051,-0.391936,-14.7724,27.5124,-12.7469,0.445051,-0.445051,-0.391936,-14.6548,27.5124,-12.8645,0.445051,10.8744,13.1925,2.8966,8.54344,5.37587,-3.80924,2.46222,12.8341,17.9641,3.3406,5,-16.4603,-3.58305,2.28441,0.293952,-0.238581,61,82,78,81,77,39,78,78,79,76,83,22
-1.87548,7.66162,-0.445027,-0.391953,-14.7724,27.5124,-12.7469,0.445027,-0.445027,-0.391953,-14.6548,27.5124,-12.8645,0.445027,10.8742,13.1925,2.89668,8.54355,5.37594,-3.80929,2.46229,12.834,17.9639,3.34033,5,-16.4598,-3.58285,2.28454,0.293965,-0.238568,61,82,78,81,77,39,78,78,79,76,83,22
-1.87564,7.66137,-0.445003,-0.391972,-14.7724,27.5124,-12.7469,0.445003,-0.445003,-0.391972,-14.6548,27.5124,-12.8645,0.445003,10.874,13.1925,2.89677,8.54365,5.376,-3.80935,2.46235,12.8339,17.9636,3.34008,5,-16.4594,-3.58266,2.28467,0.293979,-0.238555,61,82,78,81,77,39,78,78,79,76,83,22
-1.8758,7.66114,-0.444979,-0.391991,-14.7723,27.5124,-12.7469,0.444979,-0.444979,-0.391991,-14.6547,27.5124,-12.8645,0.444979,10.8738,13.1925,2.89686,8.54374,5.37607,-3.80941,2.46241,12.8338,17.9633,3.33985,5,-16.4589,-3.58247,2.28479,0.293993,-0.238542,61,82,78,81,77,39,78,78,79,76,83,22
-1.87596,7.6609,-0.444954,-0.392012,-14.7723,27.5124,-12.7469,0.444954,-0.444954,-0.392012,-14.6547,27.5124,-12.8645,0.444954,10.8736,13.1925,2.89696,8.54382,5.37613,-3.80947,2.46247,12.8337,17.9631,3.33965,5,-16.4584,-3.58228,2.28492,0.294009,-0.238528,61,82,78,81,77,39,78,78,79,76,83,22
-1.87611,7.66068,-0.44493,-0.392033,-14.7723,27.5124,-12.747,0.44493,-0.44493,-0.392033,-14.6547,27.5124,-12.8646,0.44493,10.8734,13.1925,2.89707,8.5439,5.37619,-3.80952,2.46252,12.8336,17.9628,3.33947,5,-16.458,-3.5821,2.28504,0.294025,-0.238515,61,82,78,81,77,39,78,78,79,76,83,22
-1.87626,7.66046,-0.444905,-0.392055,-14.7723,27.5124,-12.747,0.444905,-0.444905,-0.392055,-14.6547,27.5124,-12.8646,0.444905,10.8732,13.1925,2.89719,8.54396,5.37625,-3.80958,2.46257,12.8335,17.9626,3.33932,5,-16.4576,-3.58192,2.28516,0.294041,-0.238501,61,82,78,81,77,39,78,78,79,76,83,22
-1.87641,7.66024,-0.44488,-0.392079,-14.7723,27.5124,-12.747,0.44488,-0.44488,-0.392079,-14.6547,27.5124,-12.8646,0.44488,10.873,13.1926,2.89731,8.54402,5.3763,-3.80964,2.46261,12.8334,17.9623,3.33919,5,-16.4571,-3.58175,2.28528,0.294059,-0.238488,61,82,78,81,77,39,78,78,79,76,83,22
-1.87656,7.66003,-0.444855,-0.392103,-14.7723,27.5124,-12.747,0.444855,-0.444855,-0.392103,-14.6547,27.5124,-12.8646,0.444855,10.8728,13.1926,2.89744,8.54406,5.37636,-3.8097,2.46265,12.8333,17.9621,3.33909,5,-16.4567,-3.58158,2.2854,0.294077,-0.238474,61,82,78,81,77,39,78,78,79,76,83,22
-1.8767,7.65983,-0.44483,-0.392128,-14.7726,27.5126,-12.7471,0.44483,-0.44483,-0.392128,-14.655,27.5126,-12.8647,0.44483,10.8726,13.1926,2.89757,8.54408,5.37641,-3.80976,2.46269,12.8332,17.9618,3.33901,5,-16.4563,-3.58142,2.28552,0.294096,-0.23846,61,82,78,81,77,39,78,78,79,76,83,22
-1.87684,7.65962,-0.444804,-0.392155,-14.7726,27.5126,-12.7471,0.444804,-0.444804,-0.392155,-14.655,27.5126,-12.8647,0.444804,10.8723,13.1927,2.89771,8.54409,5.37645,-3.80982,2.46272,12.8331,17.9616,3.33897,5,-16.4559,-3.58127,2.28564,0.294116,-0.238446,61,82,78,81,77,39,78,78,79,76,83,22
-1.87697,7.65942,-0.444777,-0.392183,-14.7726,27.5126,-12.7471,0.444777,-0.444777,-0.392183,-14.655,27.5126,-12.8647,0.444777,10.8721,13.1927,2.89786,8.54408,5.3765,-3.80988,2.46274,12.833,17.9613,3.33896,5,-16.4556,-3.58112,2.28576,0.294137,-0.238431,61,82,78,81,77,39,78,78,79,76,83,22
-1.8771,7.65922,-0.444751,-0.392212,-14.7726,27.5126,-12.7471,0.444751,-0.444751,-0.392212,-14.6549,27.5126,-12.8648,0.444751,10.8719,13.1927,2.89801,8.54406,5.37654,-3.80994,2.46277,12.8329,17.9611,3.33897,5,-16.4552,-3.58098,2.28588,0.294159,-0.238417,61,82,78,81,77,39,78,78,79,76,83,22
-1.87723,7.65902,-0.444724,-0.392242,-14.7726,27.5126,-12.7471,0.444724,-0.444724,-0.392242,-14.6549,27.5126,-12.8648,0.444724,10.8716,13.1928,2.89817,8.54402,5.37658,-3.81,2.46278,12.8328,17.9608,3.339,5,-16.4549,-3.58085,2.28599,0.294181,-0.238402,61,82,78,81,77,39,78,78,79,76,83,22
-1.87736,7.65883,-0.444698,-0.392272,-14.7726,27.5126,-12.7471,0.444698,-0.444698,-0.392272,-14.6549,27.5126,-12.8648,0.444698,10.8714,13.1928,2.89832,8.54398,5.37661,-3.81006,2.4628,12.8327,17.9606,3.33905,5,-16.4545,-3.58072,2.28611,0.294204,-0.238388,61,82,78,81,77,39,78,78,79,76,83,22
-1.87748,7.65864,-0.444672,-0.392303,-14.7726,27.5126,-12.7471,0.444672,-0.444672,-0.392303,-14.6549,27.5126,-12.8648,0.444672,10.8711,13.1929,2.89848,8.54394,5.37665,-3.81012,2.46281,12.8326,17.9603,3.33911,5,-16.4542,-3.58059,2.28622,0.294227,-0.238374,61,82,78,81,77,39,78,78,79,76,83,22
-1.8776,7.65846,-0.444646,-0.392334,-14.7726,27.5126,-12.7471,0.444646,-0.444646,-0.392334,-14.6549,27.5126,-12.8648,0.444646,10.8709,13.1929,2.89864,8.54388,5.37668,-3.81017,2.46282,12.8326,17.9601,3.33919,5,-16.4539,-3.58048,2.28633,0.29425,-0.23836,61,82,78,81,77,39,78,78,79,76,83,22
-1.87772,7.65829,-0.444622,-0.392364,-14.7726,27.5126,-12.7471,0.444622,-0.444622,-0.392364,-14.6549,27.5126,-12.8648,0.444622,10.8707,13.1929,2.89881,8.54384,5.3767,-3.81022,2.46282,12.8325,17.9599,3.33926,5,-16.4536,-3.58036,2.28644,0.294273,-0.238346,61,82,78,81,77,39,78,78,79,76,83,22
-1.87784,7.65813,-0.444599,-0.392395,-14.7726,27.5126,-12.7471,0.444599,-0.444599,-0.392395,-14.6548,27.5126,-12.8649,0.444599,10.8704,13.193,2.89897,8.5438,5.37672,-3.81026,2.46283,12.8324,17.9596,3.33934,5,-16.4533,-3.58025,2.28654,0.294296,-0.238334,61,82,78,81,77,39,78,78,79,76,83,22
-1.87795,7.65797,-0.444576,-0.392426,-14.7725,27.5126,-12.7471,0.444576,-0.444576,-0.392426,-14.6548,27.5126,-12.8649,0.444576,10.8702,13.193,2.89913,8.54376,5.37674,-3.81031,2.46283,12.8323,17.9594,3.33942,5,-16.453,-3.58014,2.28665,0.294319,-0.238321,61,82,78,81,77,39,78,78,79,76,83,22
-1.87807,7.65781,-0.444553,-0.392457,-14.7725,27.5126,-12.7472,0.444553,-0.444553,-0.392457,-14.6548,27.5126,-12.8649,0.444553,10.87,13.1931,2.89929,8.54371,5.37676,-3.81035,2.46283,12.8323,17.9592,3.33952,5,-16.4527,-3.58004,2.28675,0.294343,-0.238309,61,82,78,81,77,39,78,78,79,76,83,22
-1.87818,7.65766,-0.44453,-0.392488,-14.7725,27.5126,-12.7472,0.44453,-0.44453,-0.392488,-14.6548,27.5126,-12.8649,0.44453,10.8698,13.1931,2.89945,8.54365,5.37678,-3.81039,2.46282,12.8322,17.959,3.33963,5,-16.4524,-3.57994,2.28685,0.294366,-0.238296,61,82,78,81,77,39,78,78,79,76,83,22
-1.87828,7.65751,-0.444507,-0.392519,-14.7725,27.5126,-12.7472,0.444507,-0.444507,-0.392519,-14.6548,27.5126,-12.8649,0.444507,10.8695,13.1931,2.89961,8.54358,5.3768,-3.81044,2.46282,12.8321,17.9588,3.33976,5,-16.4522,-3.57985,2.28695,0.294389,-0.238283,61,82,78,81,77,39,78,78,79,76,83,22
-1.87838,7.65735,-0.444483,-0.39255,-14.7727,27.5127,-12.7472,0.444483,-0.444483,-0.39255,-14.6549,27.5127,-12.865,0.444483,10.8693,13.1932,2.89977,8.54349,5.37682,-3.81049,2.46281,12.832,17.9586,3.33991,5,-16.452,-3.57976,2.28705,0.294413,-0.23827,61,82,78,81,77,39,78,78,79,76,83,22
-1.87847,7.65719,-0.444457,-0.392582,-14.7727,27.5127,-12.7472,0.444457,-0.444457,-0.392582,-14.6549,27.5127,-12.865,0.444457,10.869,13.1933,2.89993,8.54337,5.37684,-3.81055,2.46281,12.832,17.9584,3.34008,5,-16.4518,-3.57967,2.28715,0.294437,-0.238256,61,82,78,81,77,39,78,78,79,76,83,22
-1.87855,7.65702,-0.44443,-0.392615,-14.7726,27.5127,-12.7472,0.44443,-0.44443,-0.392615,-14.6549,27.5127,-12.865,0.44443,10.8688,13.1933,2.90009,8.54322,5.37688,-3.81061,2.4628,12.8319,17.9581,3.34028,5,-16.4516,-3.57959,2.28725,0.294461,-0.238241,61,82,78,81,77,39,78,78,79,76,83,22
