565950964-design/kaipule_sdk/control/csv_file/huishou.csv
Head_1,Head_2,Joint_1,Joint_2,Joint_3,Joint_4,Joint_5,Joint_6,Joint_7,Joint_8,Joint_9,Joint_10,Joint_11,Joint_12,Joint_13,Joint_14,Joint_15,Joint_16,Joint_17,Joint_18,Joint_19,Joint_20,Joint_21,Joint_22,Joint_23,Joint_24,Joint_25,Joint_26,Joint_27,Joint_28,Finger_1,Finger_2,Finger_3,Finger_4,Finger_5,Finger_6,Finger_7,Finger_8,Finger_9,Finger_10,Finger_11,Finger_12
0.884418,10,-0.189081,-1.28539,-14.4553,27.5042,-13.0504,0.189081,-0.189081,-1.28539,-14.0697,27.5042,-13.436,0.189081,3.14229,12.3226,3.59741,8.12016,10.7064,-3.66999,-0.578331,9.56922,14.3326,-5.01621,5,-7.57577,-3.72809,0.742538,0.96404,-0.100496,64,80,76,78,74,36,77,81,79,77,83,23
0.884428,10,-0.18908,-1.28538,-14.4553,27.5042,-13.0504,0.18908,-0.18908,-1.28538,-14.0697,27.5042,-13.436,0.18908,3.14234,12.3226,3.59738,8.12018,10.7064,-3.67001,-0.578324,9.56923,14.3326,-5.01623,5,-7.57574,-3.7281,0.742514,0.964034,-0.100496,64,80,76,78,74,36,77,81,79,77,83,23
0.884448,10,-0.189078,-1.28537,-14.4553,27.5042,-13.0504,0.189078,-0.189078,-1.28537,-14.0697,27.5042,-13.436,0.189078,3.14242,12.3226,3.59734,8.12022,10.7064,-3.67004,-0.578311,9.56925,14.3325,-5.01626,5,-7.57569,-3.72811,0.742471,0.964025,-0.100495,64,80,76,78,74,36,77,81,79,77,83,23
0.88448,10,-0.189076,-1.28535,-14.4553,27.5042,-13.0504,0.189076,-0.189076,-1.28535,-14.0697,27.5042,-13.436,0.189076,3.14253,12.3226,3.59728,8.12028,10.7064,-3.67009,-0.578291,9.56927,14.3325,-5.01631,5,-7.57562,-3.72813,0.742411,0.964011,-0.100493,64,80,76,78,74,36,77,81,79,77,83,23
0.884523,10,-0.189072,-1.28533,-14.4553,27.5042,-13.0504,0.189072,-0.189072,-1.28533,-14.0697,27.5042,-13.436,0.189072,3.14267,12.3227,3.59721,8.12036,10.7064,-3.67014,-0.578265,9.5693,14.3325,-5.01637,5,-7.57553,-3.72816,0.742338,0.963995,-0.100491,64,80,76,78,74,36,77,81,79,77,83,23
0.884578,10,-0.189068,-1.2853,-14.4553,27.5042,-13.0504,0.189068,-0.189068,-1.2853,-14.0697,27.5042,-13.436,0.189068,3.14282,12.3227,3.59713,8.12044,10.7064,-3.6702,-0.578233,9.56933,14.3325,-5.01644,5,-7.57543,-3.72818,0.742255,0.963977,-0.100489,64,80,76,78,74,36,77,81,79,77,83,23
0.884644,10,-0.189063,-1.28527,-14.4553,27.5042,-13.0504,0.189063,-0.189063,-1.28527,-14.0697,27.5042,-13.4359,0.189063,3.143,12.3227,3.59704,8.12055,10.7064,-3.67027,-0.578196,9.56937,14.3324,-5.01653,5,-7.57531,-3.72821,0.742163,0.963956,-0.100487,64,80,76,78,74,36,77,81,79,77,83,23
0.884722,10,-0.189058,-1.28525,-14.4553,27.5042,-13.0504,0.189058,-0.189058,-1.28525,-14.0697,27.5042,-13.4359,0.189058,3.14318,12.3227,3.59694,8.12066,10.7065,-3.67034,-0.578154,9.56941,14.3324,-5.01662,5,-7.57518,-3.72824,0.742064,0.963934,-0.100484,64,80,76,78,74,36,77,81,79,77,83,23
0.884817,10,-0.189053,-1.28522,-14.4553,27.5042,-13.0504,0.189053,-0.189053,-1.28522,-14.0698,27.5042,-13.4359,0.189053,3.14335,12.3227,3.59684,8.12079,10.7065,-3.6704,-0.578106,9.56944,14.3323,-5.01672,5,-7.57504,-3.72826,0.741968,0.963913,-0.100481,64,80,76,78,74,36,77,81,79,77,83,23
0.884927,10,-0.189047,-1.28519,-14.4553,27.5042,-13.0503,0.189047,-0.189047,-1.28519,-14.0698,27.5042,-13.4359,0.189047,3.14352,12.3228,3.59674,8.12093,10.7066,-3.67046,-0.578054,9.56947,14.3323,-5.01682,5,-7.5749,-3.72829,0.74187,0.963893,-0.100478,64,80,76,78,74,36,77,81,79,77,83,23
0.885049,10,-0.189041,-1.28516,-14.4553,27.5042,-13.0503,0.189041,-0.189041,-1.28516,-14.0698,27.5042,-13.4359,0.189041,3.14369,12.3228,3.59663,8.12108,10.7066,-3.67051,-0.577998,9.5695,14.3323,-5.01693,5,-7.57475,-3.72831,0.741768,0.963871,-0.100475,64,80,76,78,74,36,77,81,79,77,83,23
0.885179,10,-0.189034,-1.28513,-14.4553,27.5042,-13.0503,0.189034,-0.189034,-1.28513,-14.0698,27.5042,-13.4359,0.189034,3.14388,12.3228,3.59652,8.12123,10.7067,-3.67058,-0.57794,9.56954,14.3322,-5.01705,5,-7.57459,-3.72833,0.74166,0.963848,-0.100471,64,80,76,78,74,36,77,81,79,77,83,23
0.885316,10,-0.189028,-1.2851,-14.4553,27.5042,-13.0503,0.189028,-0.189028,-1.2851,-14.0698,27.5042,-13.4359,0.189028,3.14409,12.3228,3.5964,8.12139,10.7067,-3.67065,-0.577882,9.56958,14.3322,-5.01717,5,-7.57443,-3.72836,0.741543,0.963823,-0.100468,64,80,76,78,74,36,77,81,79,77,83,23
0.885459,10,-0.189021,-1.28506,-14.4553,27.5042,-13.0503,0.189021,-0.189021,-1.28506,-14.0698,27.5042,-13.4358,0.189021,3.14432,12.3229,3.59627,8.12154,10.7068,-3.67074,-0.577823,9.56962,14.3321,-5.01729,5,-7.57425,-3.7284,0.741414,0.963795,-0.100464,64,80,76,78,74,36,77,81,79,77,83,23
0.885606,10,-0.189014,-1.28502,-14.4552,27.5041,-13.0503,0.189014,-0.189014,-1.28502,-14.0696,27.5041,-13.4358,0.189014,3.14459,12.3229,3.59613,8.1217,10.7068,-3.67084,-0.577766,9.56968,14.3321,-5.01742,5,-7.57407,-3.72844,0.741273,0.963763,-0.10046,64,80,76,78,74,36,77,81,79,77,83,23
0.885747,10,-0.189006,-1.28497,-14.4552,27.5041,-13.0503,0.189006,-0.189006,-1.28497,-14.0697,27.5041,-13.4358,0.189006,3.14489,12.3229,3.59598,8.12186,10.7068,-3.67096,-0.57771,9.56974,14.332,-5.01755,5,-7.57388,-3.72849,0.741119,0.963728,-0.100456,64,80,76,78,74,36,77,81,79,77,83,23
0.885886,10,-0.188999,-1.28492,-14.4552,27.5041,-13.0503,0.188999,-0.188999,-1.28492,-14.0697,27.5041,-13.4357,0.188999,3.14524,12.3229,3.59581,8.12202,10.7068,-3.6711,-0.577656,9.56982,14.332,-5.01768,5,-7.57368,-3.72856,0.740949,0.963687,-0.100452,64,80,76,78,74,36,77,81,79,77,83,23
0.886027,10,-0.188991,-1.28486,-14.4552,27.5041,-13.0503,0.188991,-0.188991,-1.28486,-14.0697,27.5041,-13.4357,0.188991,3.14562,12.3229,3.59564,8.12217,10.7068,-3.67126,-0.577606,9.56991,14.3319,-5.01782,5,-7.57347,-3.72863,0.740763,0.963643,-0.100448,64,80,76,78,74,36,77,81,79,77,83,23
0.886174,10,-0.188983,-1.28479,-14.4552,27.5041,-13.0502,0.188983,-0.188983,-1.28479,-14.0698,27.5041,-13.4357,0.188983,3.14604,12.3229,3.59545,8.12232,10.7067,-3.67144,-0.57756,9.57,14.3318,-5.01795,5,-7.57326,-3.72871,0.74056,0.963595,-0.100444,64,80,76,78,74,36,77,81,79,77,83,23
0.886329,10,-0.188976,-1.28472,-14.4552,27.5041,-13.0502,0.188976,-0.188976,-1.28472,-14.0698,27.5041,-13.4356,0.188976,3.14649,12.3229,3.59524,8.12246,10.7067,-3.67164,-0.577518,9.57011,14.3317,-5.01808,5,-7.57304,-3.72881,0.740338,0.963543,-0.10044,64,80,76,78,74,36,77,81,79,77,83,23
0.886494,10,-0.188968,-1.28465,-14.4552,27.5041,-13.0502,0.188968,-0.188968,-1.28465,-14.0698,27.5041,-13.4356,0.188968,3.14697,12.3229,3.59502,8.12261,10.7066,-3.67185,-0.577482,9.57022,14.3316,-5.01822,5,-7.57281,-3.72891,0.740098,0.963487,-0.100436,64,80,76,78,74,36,77,81,79,77,83,23
0.886671,10,-0.18896,-1.28457,-14.4557,27.5044,-13.0503,0.18896,-0.18896,-1.28457,-14.0704,27.5044,-13.4357,0.18896,3.14749,12.3229,3.59479,8.12275,10.7065,-3.67209,-0.57745,9.57034,14.3315,-5.01836,5,-7.57258,-3.72903,0.73984,0.963428,-0.100431,64,80,76,78,74,36,77,81,79,77,83,23
0.886868,10,-0.188952,-1.28449,-14.4558,27.5044,-13.0503,0.188952,-0.188952,-1.28449,-14.0704,27.5044,-13.4356,0.188952,3.14803,12.3229,3.59454,8.12288,10.7063,-3.67234,-0.577428,9.57046,14.3314,-5.01849,5,-7.57234,-3.72915,0.739555,0.963364,-0.100427,64,80,76,78,74,36,77,81,79,77,83,23
0.887083,10,-0.188943,-1.2844,-14.4558,27.5044,-13.0503,0.188943,-0.188943,-1.2844,-14.0705,27.5044,-13.4356,0.188943,3.14861,12.3228,3.59427,8.12302,10.7062,-3.67262,-0.577414,9.57059,14.3313,-5.01863,5,-7.5721,-3.72929,0.739247,0.963297,-0.100423,64,80,76,78,74,36,77,81,79,77,83,23
0.887315,10,-0.188935,-1.2843,-14.4558,27.5044,-13.0503,0.188935,-0.188935,-1.2843,-14.0705,27.5044,-13.4356,0.188935,3.14921,12.3228,3.59399,8.12315,10.706,-3.67291,-0.577406,9.57072,14.3312,-5.01877,5,-7.57185,-3.72943,0.73892,0.963227,-0.100418,64,80,76,78,74,36,77,81,79,77,83,23
0.887561,10,-0.188927,-1.28421,-14.4558,27.5044,-13.0503,0.188927,-0.188927,-1.28421,-14.0705,27.5044,-13.4355,0.188927,3.14982,12.3228,3.5937,8.12327,10.7059,-3.67321,-0.577403,9.57086,14.331,-5.0189,5,-7.5716,-3.72958,0.73858,0.963155,-0.100414,64,80,76,78,74,36,77,81,79,77,83,23
0.887822,10,-0.188919,-1.28411,-14.4558,27.5044,-13.0502,0.188919,-0.188919,-1.28411,-14.0706,27.5044,-13.4355,0.188919,3.15045,12.3227,3.59341,8.1234,10.7057,-3.67352,-0.577404,9.571,14.3309,-5.01903,5,-7.57135,-3.72974,0.738228,0.963082,-0.100409,64,80,76,78,74,36,77,81,79,77,83,23
0.888097,10,-0.18891,-1.28401,-14.4558,27.5044,-13.0502,0.18891,-0.18891,-1.28401,-14.0706,27.5044,-13.4354,0.18891,3.1511,12.3226,3.59311,8.12352,10.7055,-3.67385,-0.577407,9.57114,14.3307,-5.01917,5,-7.57109,-3.7299,0.737868,0.963007,-0.100405,64,80,76,78,74,36,77,81,79,77,83,23
0.888383,10,-0.188902,-1.28391,-14.4559,27.5044,-13.0502,0.188902,-0.188902,-1.28391,-14.0707,27.5044,-13.4354,0.188902,3.15175,12.3226,3.59281,8.12364,10.7053,-3.67417,-0.577413,9.57129,14.3306,-5.0193,5,-7.57084,-3.73006,0.737502,0.962931,-0.100401,64,80,76,78,74,36,77,81,79,77,83,23
0.888677,10,-0.188894,-1.28381,-14.4559,27.5044,-13.0502,0.188894,-0.188894,-1.28381,-14.0707,27.5044,-13.4353,0.188894,3.1524,12.3225,3.59251,8.12375,10.7051,-3.67451,-0.577417,9.57144,14.3305,-5.01942,5,-7.57059,-3.73023,0.737141,0.962856,-0.100396,64,80,76,78,74,36,77,81,79,77,83,23
0.88898,10,-0.188886,-1.28371,-14.4559,27.5044,-13.0502,0.188886,-0.188886,-1.28371,-14.0708,27.5044,-13.4353,0.188886,3.15305,12.3225,3.59223,8.12387,10.7049,-3.67484,-0.577421,9.57159,14.3303,-5.01955,5,-7.57034,-3.73039,0.736781,0.962781,-0.100392,64,80,76,78,74,36,77,81,79,77,83,23
0.889293,10,-0.188879,-1.28361,-14.4559,27.5044,-13.0502,0.188879,-0.188879,-1.28361,-14.0708,27.5044,-13.4352,0.188879,3.1537,12.3224,3.59194,8.12398,10.7046,-3.67518,-0.577427,9.57174,14.3302,-5.01967,5,-7.57009,-3.73056,0.73642,0.962706,-0.100388,64,80,76,78,74,36,77,81,79,77,83,23
0.889616,10,-0.188871,-1.28351,-14.4559,27.5044,-13.0501,0.188871,-0.188871,-1.28351,-14.0709,27.5044,-13.4352,0.188871,3.15435,12.3224,3.59165,8.12408,10.7044,-3.67552,-0.577435,9.57189,14.33,-5.0198,5,-7.56985,-3.73073,0.736054,0.96263,-0.100384,64,80,76,78,74,36,77,81,79,77,83,23
0.889952,10,-0.188864,-1.28341,-14.4559,27.5044,-13.0501,0.188864,-0.188864,-1.28341,-14.0709,27.5044,-13.4351,0.188864,3.15501,12.3223,3.59135,8.12419,10.7042,-3.67586,-0.577448,9.57204,14.3299,-5.01992,5,-7.5696,-3.7309,0.735682,0.962554,-0.10038,64,80,76,78,74,36,77,81,79,77,83,23
0.890299,10,-0.188856,-1.2833,-14.456,27.5044,-13.0501,0.188856,-0.188856,-1.2833,-14.071,27.5044,-13.4351,0.188856,3.15567,12.3222,3.59105,8.12429,10.7039,-3.6762,-0.577467,9.57218,14.3298,-5.02003,5,-7.56936,-3.73107,0.735301,0.962477,-0.100376,64,80,76,78,74,36,77,81,79,77,83,23
0.890658,10,-0.188849,-1.2832,-14.4561,27.5045,-13.0501,0.188849,-0.188849,-1.2832,-14.0711,27.5045,-13.4351,0.188849,3.15634,12.3222,3.59074,8.12439,10.7037,-3.67655,-0.577492,9.57233,14.3296,-5.02015,5,-7.56911,-3.73125,0.73491,0.962398,-0.100372,64,80,75,78,74,36,77,81,79,77,83,23
0.891035,10,-0.188841,-1.28309,-14.4561,27.5045,-13.0501,0.188841,-0.188841,-1.28309,-14.0712,27.5045,-13.435,0.188841,3.15701,12.3221,3.59041,8.12448,10.7034,-3.6769,-0.577525,9.57247,14.3294,-5.02027,5,-7.56888,-3.73143,0.734505,0.962319,-0.100368,64,80,75,78,74,36,77,81,79,77,83,23
0.891427,10,-0.188833,-1.28298,-14.4561,27.5045,-13.0501,0.188833,-0.188833,-1.28298,-14.0712,27.5045,-13.435,0.188833,3.15769,12.322,3.59007,8.12457,10.7032,-3.67725,-0.577566,9.5726,14.3293,-5.02038,5,-7.56864,-3.73161,0.734088,0.962237,-0.100364,64,80,75,78,74,36,77,81,79,77,83,23
0.891831,10,-0.188826,-1.28287,-14.4561,27.5045,-13.0501,0.188826,-0.188826,-1.28287,-14.0713,27.5045,-13.4349,0.188826,3.15837,12.3219,3.58972,8.12465,10.703,-3.67761,-0.577616,9.57274,14.3291,-5.02049,5,-7.56841,-3.73179,0.733657,0.962154,-0.10036,64,80,75,78,74,36,77,81,79,77,83,23
0.892244,10,-0.188818,-1.28276,-14.4562,27.5045,-13.05,0.188818,-0.188818,-1.28276,-14.0713,27.5045,-13.4349,0.188818,3.15906,12.3218,3.58935,8.12473,10.7028,-3.67796,-0.577675,9.57287,14.3289,-5.0206,5,-7.56817,-3.73198,0.733212,0.962071,-0.100356,64,80,75,78,74,36,77,81,79,77,83,23
0.892665,10,-0.18881,-1.28265,-14.4562,27.5045,-13.05,0.18881,-0.18881,-1.28265,-14.0714,27.5045,-13.4348,0.18881,3.15976,12.3217,3.58895,8.12482,10.7025,-3.67832,-0.577743,9.57299,14.3287,-5.02071,5,-7.56794,-3.73216,0.732754,0.961986,-0.100352,64,80,75,78,74,36,77,81,79,77,83,23
0.89309,10,-0.188802,-1.28253,-14.4562,27.5045,-13.05,0.188802,-0.188802,-1.28253,-14.0714,27.5045,-13.4348,0.188802,3.16046,12.3216,3.58853,8.1249,10.7023,-3.67868,-0.577821,9.57312,14.3285,-5.02083,5,-7.56771,-3.73234,0.732282,0.9619,-0.100347,64,80,75,78,74,36,77,81,79,77,83,23
0.893519,10,-0.188795,-1.28242,-14.4563,27.5046,-13.05,0.188795,-0.188795,-1.28242,-14.0716,27.5046,-13.4347,0.188795,3.16116,12.3215,3.58809,8.12498,10.7021,-3.67904,-0.577908,9.57325,14.3283,-5.02095,5,-7.56748,-3.73252,0.731797,0.961813,-0.100343,64,80,76,78,74,36,77,81,79,77,83,23
0.893948,10,-0.188786,-1.2823,-14.4563,27.5046,-13.05,0.188786,-0.188786,-1.2823,-14.0716,27.5046,-13.4347,0.188786,3.16187,12.3213,3.58761,8.12506,10.7019,-3.6794,-0.578007,9.57337,14.3281,-5.02109,5,-7.56724,-3.7327,0.731294,0.961725,-0.100339,64,80,76,78,74,36,77,81,79,77,83,23
0.894376,10,-0.188778,-1.28218,-14.4563,27.5046,-13.05,0.188778,-0.188778,-1.28218,-14.0717,27.5046,-13.4346,0.188778,3.16258,12.3212,3.5871,8.12515,10.7018,-3.67976,-0.578116,9.57349,14.3278,-5.02123,5,-7.56701,-3.73287,0.730776,0.961637,-0.100334,64,80,76,78,74,36,77,81,79,77,83,23
0.894805,10,-0.188769,-1.28206,-14.4563,27.5046,-13.05,0.188769,-0.188769,-1.28206,-14.0717,27.5046,-13.4346,0.188769,3.1633,12.321,3.58656,8.12523,10.7016,-3.68012,-0.578234,9.57362,14.3276,-5.02138,5,-7.56677,-3.73304,0.730247,0.961548,-0.10033,64,80,76,78,74,36,77,81,79,77,83,23
0.895234,10,-0.18876,-1.28195,-14.4563,27.5046,-13.05,0.18876,-0.18876,-1.28195,-14.0718,27.5046,-13.4345,0.18876,3.16401,12.3208,3.586,8.12532,10.7015,-3.68047,-0.57836,9.57374,14.3273,-5.02154,5,-7.56654,-3.7332,0.729709,0.961459,-0.100325,64,80,76,78,74,36,77,81,79,77,83,23
0.895663,10,-0.188752,-1.28183,-14.4564,27.5046,-13.0499,0.188752,-0.188752,-1.28183,-14.0718,27.5046,-13.4345,0.188752,3.16473,12.3207,3.58543,8.12541,10.7014,-3.68083,-0.578492,9.57386,14.3271,-5.0217,5,-7.56631,-3.73336,0.729166,0.961371,-0.10032,64,80,76,78,74,36,77,81,79,77,83,23
0.896092,10,-0.188743,-1.28171,-14.4564,27.5046,-13.0499,0.188743,-0.188743,-1.28171,-14.0719,27.5046,-13.4344,0.188743,3.16543,12.3205,3.58485,8.1255,10.7013,-3.68118,-0.57863,9.57398,14.3268,-5.02186,5,-7.56608,-3.73352,0.728619,0.961283,-0.100316,64,80,76,78,74,36,77,81,79,77,83,23
0.896522,10,-0.188735,-1.28159,-14.456,27.5043,-13.0498,0.188735,-0.188735,-1.28159,-14.0715,27.5043,-13.4343,0.188735,3.16614,12.3203,3.58426,8.12559,10.7012,-3.68153,-0.578772,9.57411,14.3265,-5.02203,5,-7.56585,-3.73367,0.728071,0.961195,-0.100312,64,80,76,78,74,36,78,81,79,77,83,23
0.896948,10,-0.188727,-1.28148,-14.456,27.5043,-13.0498,0.188727,-0.188727,-1.28148,-14.0715,27.5043,-13.4342,0.188727,3.16683,12.3201,3.58367,8.12568,10.7011,-3.68187,-0.578914,9.57423,14.3263,-5.02219,5,-7.56562,-3.73382,0.727528,0.96111,-0.100307,64,80,76,78,74,36,78,81,79,77,83,23
0.897373,10,-0.18872,-1.28137,-14.456,27.5043,-13.0498,0.18872,-0.18872,-1.28137,-14.0716,27.5043,-13.4342,0.18872,3.16751,12.32,3.5831,8.12576,10.701,-3.68221,-0.579059,9.57435,14.326,-5.02235,5,-7.5654,-3.73396,0.726987,0.961026,-0.100303,64,80,76,78,74,36,78,81,79,77,83,23
0.8978,10,-0.188712,-1.28126,-14.456,27.5043,-13.0498,0.188712,-0.188712,-1.28126,-14.0716,27.5043,-13.4341,0.188712,3.16818,12.3198,3.58252,8.12585,10.7009,-3.68255,-0.579205,9.57446,14.3258,-5.02251,5,-7.56518,-3.7341,0.726449,0.960943,-0.100299,64,80,76,78,74,36,78,81,79,77,83,23
0.89823,10,-0.188705,-1.28115,-14.456,27.5043,-13.0498,0.188705,-0.188705,-1.28115,-14.0717,27.5043,-13.4341,0.188705,3.16885,12.3196,3.58193,8.12594,10.7008,-3.68288,-0.579354,9.57458,14.3255,-5.02268,5,-7.56497,-3.73424,0.725912,0.96086,-0.100295,64,80,76,78,74,36,78,81,79,77,83,23
0.898664,10,-0.188697,-1.28104,-14.456,27.5043,-13.0497,0.188697,-0.188697,-1.28104,-14.0717,27.5043,-13.4341,0.188697,3.1695,12.3194,3.58134,8.12602,10.7007,-3.68321,-0.579506,9.5747,14.3252,-5.02284,5,-7.56476,-3.73437,0.725377,0.960779,-0.100291,64,80,76,78,74,36,78,81,79,77,83,23
0.899104,10,-0.18869,-1.28093,-14.456,27.5043,-13.0497,0.18869,-0.18869,-1.28093,-14.0718,27.5043,-13.434,0.18869,3.17016,12.3192,3.58073,8.12611,10.7006,-3.68353,-0.57966,9.57481,14.325,-5.02301,5,-7.56455,-3.7345,0.724841,0.960698,-0.100287,64,80,76,78,74,36,78,81,79,77,83,23
0.89955,10,-0.188682,-1.28082,-14.4561,27.5043,-13.0497,0.188682,-0.188682,-1.28082,-14.0719,27.5043,-13.434,0.188682,3.1708,12.319,3.58011,8.12619,10.7006,-3.68385,-0.579817,9.57492,14.3247,-5.02318,5,-7.56434,-3.73463,0.724305,0.960617,-0.100283,64,80,76,78,74,36,78,81,79,77,83,22
0.900012,10,-0.188674,-1.28071,-14.4562,27.5043,-13.0497,0.188674,-0.188674,-1.28071,-14.0719,27.5043,-13.4339,0.188674,3.17145,12.3188,3.57947,8.12627,10.7006,-3.68416,-0.579981,9.57502,14.3244,-5.02335,5,-7.56415,-3.73476,0.723771,0.960535,-0.100279,64,80,76,78,74,36,78,81,79,77,83,22
0.900484,10,-0.188666,-1.28061,-14.4562,27.5043,-13.0497,0.188666,-0.188666,-1.28061,-14.072,27.5043,-13.4339,0.188666,3.17209,12.3186,3.57882,8.12635,10.7005,-3.68446,-0.580149,9.57512,14.3241,-5.02352,5,-7.56397,-3.73488,0.723237,0.960454,-0.100274,64,80,76,78,74,36,78,81,79,77,83,22
0.900965,10,-0.188657,-1.2805,-14.4562,27.5043,-13.0497,0.188657,-0.188657,-1.2805,-14.072,27.5043,-13.4338,0.188657,3.17273,12.3184,3.57814,8.12643,10.7005,-3.68477,-0.580319,9.57521,14.3238,-5.0237,5,-7.56378,-3.735,0.722701,0.960372,-0.10027,64,80,76,78,74,36,78,81,79,77,83,22
0.901451,10,-0.188648,-1.28039,-14.4562,27.5043,-13.0497,0.188648,-0.188648,-1.28039,-14.0721,27.5043,-13.4338,0.188648,3.17337,12.3182,3.57745,8.12651,10.7006,-3.68506,-0.58049,9.57531,14.3235,-5.02389,5,-7.56359,-3.73512,0.722161,0.960291,-0.100265,64,80,76,78,74,36,78,81,79,77,83,22
0.90194,10,-0.188638,-1.28028,-14.4562,27.5043,-13.0497,0.188638,-0.188638,-1.28028,-14.0721,27.5043,-13.4337,0.188638,3.174,12.318,3.57673,8.12659,10.7006,-3.68535,-0.580661,9.5754,14.3232,-5.0241,5,-7.56339,-3.73522,0.721617,0.960209,-0.100259,64,80,76,78,74,36,78,81,79,77,83,22
0.90243,10,-0.188626,-1.28017,-14.4562,27.5043,-13.0497,0.188626,-0.188626,-1.28017,-14.0722,27.5043,-13.4337,0.188626,3.17463,12.3177,3.576,8.12668,10.7007,-3.68563,-0.58083,9.57548,14.3228,-5.02431,5,-7.56317,-3.73532,0.721068,0.960128,-0.100253,64,80,76,78,74,36,78,81,79,77,83,22
0.90292,10,-0.188613,-1.28006,-14.4558,27.504,-13.0495,0.188613,-0.188613,-1.28006,-14.0718,27.504,-13.4336,0.188613,3.17525,12.3175,3.57526,8.12678,10.7008,-3.6859,-0.580996,9.57557,14.3224,-5.02455,5,-7.56293,-3.73541,0.720513,0.960048,-0.100247,64,80,76,78,74,36,78,81,79,77,83,22
0.903401,10,-0.188598,-1.27996,-14.4558,27.504,-13.0495,0.188598,-0.188598,-1.27996,-14.0718,27.504,-13.4335,0.188598,3.17586,12.3172,3.57449,8.12689,10.7009,-3.68616,-0.581156,9.57565,14.322,-5.02481,5,-7.56266,-3.73549,0.719946,0.959968,-0.100239,64,80,76,78,74,36,78,81,79,77,83,22
0.903876,10,-0.188581,-1.27985,-14.4558,27.504,-13.0495,0.188581,-0.188581,-1.27985,-14.0719,27.504,-13.4335,0.188581,3.17648,12.317,3.57371,8.12702,10.701,-3.68641,-0.581309,9.57573,14.3216,-5.0251,5,-7.56235,-3.73555,0.719369,0.959889,-0.10023,64,80,76,78,74,36,78,81,79,77,83,22
0.904348,10,-0.188563,-1.27975,-14.4558,27.504,-13.0495,0.188563,-0.188563,-1.27975,-14.0719,27.504,-13.4334,0.188563,3.17708,12.3167,3.57291,8.12715,10.7011,-3.68665,-0.581458,9.57582,14.3211,-5.0254,5,-7.56202,-3.7356,0.718786,0.95981,-0.10022,64,80,76,78,74,36,78,81,79,77,83,22
0.904818,10,-0.188543,-1.27964,-14.4559,27.504,-13.0495,0.188543,-0.188543,-1.27964,-14.072,27.504,-13.4334,0.188543,3.17768,12.3164,3.5721,8.12729,10.7013,-3.68689,-0.581601,9.5759,14.3206,-5.02572,5,-7.56166,-3.73564,0.718199,0.959733,-0.100209,64,80,76,78,74,36,78,81,79,77,83,22
0.905288,10,-0.188523,-1.27954,-14.4559,27.504,-13.0495,0.188523,-0.188523,-1.27954,-14.072,27.504,-13.4334,0.188523,3.17827,12.3161,3.57128,8.12744,10.7015,-3.68712,-0.581741,9.57598,14.3201,-5.02606,5,-7.56129,-3.73567,0.71761,0.959656,-0.100198,64,80,76,78,74,36,78,81,79,77,83,22
0.905761,10,-0.188501,-1.27944,-14.4559,27.504,-13.0495,0.188501,-0.188501,-1.27944,-14.072,27.504,-13.4333,0.188501,3.17885,12.3158,3.57046,8.1276,10.7017,-3.68733,-0.581877,9.57605,14.3195,-5.02641,5,-7.5609,-3.7357,0.71702,0.95958,-0.100187,64,80,76,78,74,36,78,81,79,77,83,22
0.906236,10,-0.188479,-1.27934,-14.4559,27.504,-13.0495,0.188479,-0.188479,-1.27934,-14.0721,27.504,-13.4333,0.188479,3.17943,12.3155,3.56963,8.12775,10.7019,-3.68755,-0.58201,9.57613,14.319,-5.02676,5,-7.56051,-3.73572,0.716431,0.959506,-0.100175,64,80,75,78,74,36,78,81,79,77,83,22
0.906716,10,-0.188458,-1.27924,-14.4559,27.504,-13.0495,0.188458,-0.188458,-1.27924,-14.0721,27.504,-13.4332,0.188458,3.18,12.3152,3.5688,8.12791,10.7021,-3.68775,-0.582142,9.57621,14.3185,-5.02712,5,-7.56011,-3.73573,0.715849,0.959432,-0.100163,64,80,75,78,74,36,78,81,79,77,83,22
0.907202,10,-0.188436,-1.27915,-14.4559,27.504,-13.0494,0.188436,-0.188436,-1.27915,-14.0722,27.504,-13.4332,0.188436,3.18055,12.3149,3.56798,8.12806,10.7023,-3.68795,-0.582272,9.57629,14.3179,-5.02749,5,-7.55972,-3.73574,0.715272,0.95936,-0.100152,64,80,75,78,74,36,78,81,79,77,83,22
0.907694,10,-0.188414,-1.27905,-14.4559,27.504,-13.0494,0.188414,-0.188414,-1.27905,-14.0722,27.504,-13.4331,0.188414,3.1811,12.3146,3.56715,8.12822,10.7026,-3.68815,-0.582399,9.57636,14.3174,-5.02785,5,-7.55932,-3.73574,0.7147,0.959289,-0.10014,64,80,75,78,74,36,78,81,79,77,83,22
0.908192,10,-0.188392,-1.27896,-14.4559,27.504,-13.0494,0.188392,-0.188392,-1.27896,-14.0722,27.504,-13.4331,0.188392,3.18164,12.3143,3.56633,8.12838,10.7028,-3.68833,-0.582521,9.57643,14.3168,-5.02823,5,-7.55891,-3.73574,0.714132,0.959219,-0.100128,64,80,75,78,74,36,78,81,79,77,83,22
0.908697,10,-0.188369,-1.27887,-14.4559,27.504,-13.0494,0.188369,-0.188369,-1.27887,-14.0723,27.504,-13.4331,0.188369,3.18217,12.314,3.56551,8.12854,10.703,-3.68851,-0.582639,9.57651,14.3163,-5.0286,5,-7.55849,-3.73573,0.713567,0.95915,-0.100116,64,80,75,78,74,36,78,81,79,77,83,22
0.909208,10,-0.188345,-1.27878,-14.4559,27.504,-13.0494,0.188345,-0.188345,-1.27878,-14.0723,27.504,-13.433,0.188345,3.18269,12.3137,3.56471,8.12871,10.7033,-3.68869,-0.582751,9.57658,14.3157,-5.02899,5,-7.55806,-3.73572,0.713005,0.959083,-0.100103,64,80,75,78,74,36,78,81,79,77,83,22
0.909726,10,-0.18832,-1.27869,-14.4557,27.5038,-13.0493,0.18832,-0.18832,-1.27869,-14.0721,27.5038,-13.433,0.18832,3.18319,12.3134,3.56391,8.12888,10.7035,-3.68885,-0.582856,9.57664,14.3152,-5.02938,5,-7.55761,-3.7357,0.712447,0.959017,-0.10009,64,80,75,78,74,36,78,81,79,77,83,22
0.910254,10,-0.188294,-1.2786,-14.4557,27.5038,-13.0493,0.188294,-0.188294,-1.2786,-14.0722,27.5038,-13.4329,0.188294,3.18369,12.3131,3.56312,8.12906,10.7038,-3.68901,-0.582955,9.57671,14.3146,-5.02977,5,-7.55715,-3.73567,0.711888,0.958953,-0.100076,64,80,75,78,74,36,78,81,79,77,83,22
0.910789,10,-0.188267,-1.27852,-14.4558,27.5038,-13.0493,0.188267,-0.188267,-1.27852,-14.0722,27.5038,-13.4329,0.188267,3.18417,12.3127,3.56234,8.12926,10.704,-3.68916,-0.583046,9.57677,14.314,-5.03018,5,-7.55667,-3.73564,0.711331,0.95889,-0.100062,64,80,75,78,74,36,78,81,79,77,83,22
0.911331,10,-0.188238,-1.27844,-14.4558,27.5038,-13.0493,0.188238,-0.188238,-1.27844,-14.0722,27.5038,-13.4328,0.188238,3.18464,12.3125,3.56157,8.12946,10.7043,-3.6893,-0.583129,9.57683,14.3134,-5.03058,5,-7.55617,-3.73561,0.710776,0.958828,-0.100047,64,80,75,78,74,36,78,81,79,77,83,22
0.911876,10,-0.188209,-1.27836,-14.4558,27.5038,-13.0493,0.188209,-0.188209,-1.27836,-14.0723,27.5038,-13.4328,0.188209,3.1851,12.3122,3.56083,8.12967,10.7045,-3.68944,-0.583204,9.57688,14.3128,-5.03099,5,-7.55565,-3.73557,0.710226,0.958767,-0.100031,64,80,75,78,74,36,78,81,79,77,83,22
0.912423,10,-0.188177,-1.27828,-14.4558,27.5038,-13.0493,0.188177,-0.188177,-1.27828,-14.0723,27.5038,-13.4328,0.188177,3.18555,12.3119,3.56009,8.12989,10.7048,-3.68957,-0.583269,9.57693,14.3121,-5.03141,5,-7.55512,-3.73553,0.70968,0.958708,-0.100014,64,80,75,78,74,36,78,81,79,77,83,22
0.912971,10,-0.188145,-1.2782,-14.4558,27.5038,-13.0493,0.188145,-0.188145,-1.2782,-14.0723,27.5038,-13.4328,0.188145,3.18598,12.3116,3.55938,8.13012,10.705,-3.6897,-0.583325,9.57698,14.3115,-5.03181,5,-7.55458,-3.73548,0.70914,0.95865,-0.0999966,64,80,75,78,74,36,78,81,79,77,83,22
0.913517,10,-0.188111,-1.27812,-14.4553,27.5035,-13.0492,0.188111,-0.188111,-1.27812,-14.0718,27.5035,-13.4326,0.188111,3.18641,12.3113,3.55869,8.13036,10.7053,-3.68982,-0.583371,9.57703,14.3109,-5.03222,5,-7.55403,-3.73543,0.708606,0.958594,-0.0999783,64,80,75,78,74,36,78,81,79,77,83,22
0.914058,10,-0.188073,-1.27805,-14.4553,27.5035,-13.0492,0.188073,-0.188073,-1.27805,-14.0719,27.5035,-13.4326,0.188073,3.18682,12.311,3.55804,8.13062,10.7055,-3.68994,-0.583404,9.57707,14.3102,-5.03262,5,-7.55346,-3.73537,0.708081,0.958539,-0.0999585,64,80,75,78,74,36,78,81,79,77,83,22
0.914594,10,-0.188034,-1.27798,-14.4553,27.5035,-13.0492,0.188034,-0.188034,-1.27798,-14.0719,27.5035,-13.4326,0.188034,3.18721,12.3108,3.55741,8.1309,10.7057,-3.69006,-0.583427,9.57712,14.3095,-5.033,5,-7.55289,-3.73531,0.707566,0.958486,-0.0999376,64,80,75,78,74,36,78,81,79,77,83,22
0.915126,10,-0.187993,-1.27791,-14.4553,27.5035,-13.0492,0.187993,-0.187993,-1.27791,-14.0719,27.5035,-13.4325,0.187993,3.1876,12.3105,3.5568,8.13118,10.7059,-3.69017,-0.58344,9.57716,14.3088,-5.03338,5,-7.55231,-3.73525,0.707058,0.958434,-0.0999158,64,80,75,78,74,36,78,81,79,77,83,22
0.915654,10,-0.187952,-1.27784,-14.4553,27.5035,-13.0491,0.187952,-0.187952,-1.27784,-14.0719,27.5035,-13.4325,0.187952,3.18797,12.3103,3.55622,8.13147,10.7061,-3.69028,-0.583444,9.57719,14.3082,-5.03376,5,-7.55172,-3.73519,0.706559,0.958383,-0.0998935,64,80,75,78,74,36,78,81,79,77,83,22
0.916178,10,-0.187909,-1.27778,-14.4553,27.5035,-13.0491,0.187909,-0.187909,-1.27778,-14.072,27.5035,-13.4325,0.187909,3.18833,12.3101,3.55566,8.13177,10.7062,-3.69039,-0.58344,9.57723,14.3075,-5.03413,5,-7.55113,-3.73512,0.706069,0.958334,-0.0998708,64,80,75,78,74,36,78,81,79,77,83,22
0.916699,10,-0.187866,-1.27771,-14.4553,27.5035,-13.0491,0.187866,-0.187866,-1.27771,-14.072,27.5035,-13.4324,0.187866,3.18869,12.3098,3.55511,8.13207,10.7064,-3.69049,-0.583429,9.57726,14.3068,-5.03449,5,-7.55053,-3.73505,0.705586,0.958286,-0.099848,64,80,75,78,74,36,78,81,79,77,83,22
0.917217,10,-0.187823,-1.27765,-14.4553,27.5035,-13.0491,0.187823,-0.187823,-1.27765,-14.072,27.5035,-13.4324,0.187823,3.18903,12.3096,3.55457,8.13238,10.7066,-3.69059,-0.583412,9.57729,14.3061,-5.03485,5,-7.54993,-3.73498,0.705112,0.958239,-0.0998251,64,80,76,78,74,36,78,81,79,77,83,22
0.917734,10,-0.187783,-1.27759,-14.4553,27.5035,-13.0491,0.187783,-0.187783,-1.27759,-14.072,27.5035,-13.4324,0.187783,3.18937,12.3094,3.55404,8.13267,10.7068,-3.69069,-0.583391,9.57731,14.3055,-5.03522,5,-7.54932,-3.7349,0.704644,0.958192,-0.0998035,64,80,76,78,74,36,78,81,79,77,83,22
0.91825,10,-0.187743,-1.27753,-14.4553,27.5035,-13.0491,0.187743,-0.187743,-1.27753,-14.0721,27.5035,-13.4324,0.187743,3.1897,12.3092,3.5535,8.13297,10.707,-3.69078,-0.583365,9.57734,14.3048,-5.03559,5,-7.54871,-3.73482,0.704183,0.958146,-0.0997824,64,80,76,78,74,36,78,81,79,77,83,22
0.918763,10,-0.187704,-1.27747,-14.4553,27.5035,-13.0491,0.187704,-0.187704,-1.27747,-14.0721,27.5035,-13.4324,0.187704,3.19002,12.309,3.55299,8.13326,10.7071,-3.69087,-0.583336,9.57736,14.3042,-5.03596,5,-7.5481,-3.73474,0.703731,0.958101,-0.0997616,64,80,76,78,74,36,78,81,79,77,83,22
0.919271,10,-0.187665,-1.27741,-14.4553,27.5035,-13.0491,0.187665,-0.187665,-1.27741,-14.0721,27.5035,-13.4323,0.187665,3.19033,12.3087,3.55249,8.13355,10.7073,-3.69096,-0.583302,9.57738,14.3036,-5.03632,5,-7.5475,-3.73466,0.703289,0.958058,-0.0997405,64,80,76,78,74,36,78,81,79,77,83,22
0.919774,10,-0.187624,-1.27735,-14.4553,27.5035,-13.0491,0.187624,-0.187624,-1.27735,-14.0721,27.5035,-13.4323,0.187624,3.19063,12.3086,3.55201,8.13385,10.7075,-3.69104,-0.583264,9.5774,14.3029,-5.03666,5,-7.54691,-3.73458,0.702858,0.958016,-0.0997188,64,80,76,78,74,36,78,81,79,77,83,22
0.92027,10,-0.187582,-1.2773,-14.4553,27.5035,-13.0491,0.187582,-0.187582,-1.2773,-14.0722,27.5035,-13.4323,0.187582,3.19092,12.3084,3.55157,8.13416,10.7076,-3.69113,-0.583221,9.57742,14.3023,-5.03699,5,-7.54632,-3.7345,0.702439,0.957975,-0.0996963,64,80,76,78,74,36,78,81,79,77,83,22
0.920759,10,-0.187538,-1.27725,-14.4551,27.5033,-13.049,0.187538,-0.187538,-1.27725,-14.0719,27.5033,-13.4322,0.187538,3.19119,12.3082,3.55116,8.13447,10.7077,-3.69121,-0.583175,9.57744,14.3016,-5.0373,5,-7.54575,-3.73442,0.702032,0.957936,-0.0996727,64,80,76,78,74,36,78,81,79,77,83,22
0.921236,10,-0.18749,-1.2772,-14.4551,27.5033,-13.049,0.18749,-0.18749,-1.2772,-14.0719,27.5033,-13.4322,0.18749,3.19146,12.308,3.55079,8.13479,10.7078,-3.69128,-0.583124,9.57746,14.301,-5.03758,5,-7.54519,-3.73435,0.701638,0.9579,-0.0996473,64,80,76,78,74,36,78,81,79,77,83,22
0.921702,10,-0.187439,-1.27715,-14.4551,27.5033,-13.049,0.187439,-0.187439,-1.27715,-14.0719,27.5033,-13.4322,0.187439,3.19171,12.3079,3.55046,8.13513,10.7079,-3.69136,-0.58307,9.57748,14.3003,-5.03783,5,-7.54464,-3.73428,0.701259,0.957866,-0.0996203,64,80,76,78,74,36,78,81,79,77,83,22
0.922161,10,-0.187386,-1.27711,-14.4551,27.5033,-13.049,0.187386,-0.187386,-1.27711,-14.0719,27.5033,-13.4322,0.187386,3.19194,12.3077,3.55017,8.13548,10.708,-3.69143,-0.583012,9.5775,14.2996,-5.03806,5,-7.54411,-3.73422,0.700893,0.957833,-0.0995916,64,80,76,78,74,36,78,81,79,77,83,22
0.922612,10,-0.187329,-1.27707,-14.4551,27.5033,-13.049,0.187329,-0.187329,-1.27707,-14.072,27.5033,-13.4321,0.187329,3.19217,12.3076,3.54993,8.13583,10.708,-3.69151,-0.582951,9.57752,14.2988,-5.03827,5,-7.5436,-3.73417,0.700542,0.957803,-0.0995615,64,80,76,78,74,36,78,81,79,77,83,22
0.923058,10,-0.18727,-1.27703,-14.4551,27.5033,-13.049,0.18727,-0.18727,-1.27703,-14.072,27.5033,-13.4321,0.18727,3.19238,12.3075,3.54973,8.1362,10.708,-3.69158,-0.582887,9.57755,14.2981,-5.03845,5,-7.54311,-3.73412,0.700206,0.957775,-0.0995299,64,80,76,78,74,36,78,81,79,77,83,22
0.9235,10,-0.187208,-1.277,-14.4551,27.5033,-13.049,0.187208,-0.187208,-1.277,-14.072,27.5033,-13.4321,0.187208,3.19258,12.3074,3.54958,8.13656,10.7079,-3.69165,-0.582823,9.57757,14.2973,-5.0386,5,-7.54264,-3.73408,0.699884,0.957749,-0.0994971,64,80,76,78,74,36,78,81,79,77,83,22
0.923937,10,-0.187145,-1.27697,-14.455,27.5032,-13.049,0.187145,-0.187145,-1.27697,-14.0719,27.5032,-13.4321,0.187145,3.19277,12.3073,3.54946,8.13693,10.7079,-3.69173,-0.582756,9.5776,14.2965,-5.03874,5,-7.5422,-3.73404,0.699578,0.957725,-0.099463,64,80,76,78,74,36,78,81,79,77,83,22
0.924375,10,-0.187078,-1.27694,-14.455,27.5032,-13.049,0.187078,-0.187078,-1.27694,-14.072,27.5032,-13.4321,0.187078,3.19294,12.3072,3.54939,8.1373,10.7078,-3.69181,-0.582691,9.57763,14.2957,-5.03884,5,-7.54179,-3.73402,0.699289,0.957704,-0.0994276,64,80,76,78,74,36,78,81,79,77,83,22
0.924811,10,-0.18701,-1.27691,-14.455,27.5032,-13.049,0.18701,-0.18701,-1.27691,-14.072,27.5032,-13.4321,0.18701,3.19311,12.3071,3.54937,8.13767,10.7077,-3.69189,-0.582625,9.57767,14.2949,-5.03893,5,-7.5414,-3.734,0.699016,0.957684,-0.0993911,64,80,76,78,74,36,78,81,79,77,83,22
0.925245,10,-0.18694,-1.27689,-14.455,27.5032,-13.049,0.18694,-0.18694,-1.27689,-14.072,27.5032,-13.4321,0.18694,3.19326,12.307,3.54938,8.13805,10.7076,-3.69197,-0.58256,9.57771,14.2941,-5.03899,5,-7.54105,-3.73399,0.698758,0.957667,-0.0993536,64,80,76,78,74,36,78,81,79,77,83,22
0.925677,10,-0.186868,-1.27687,-14.4551,27.5032,-13.049,0.186868,-0.186868,-1.27687,-14.072,27.5032,-13.432,0.186868,3.1934,12.3069,3.54943,8.13841,10.7074,-3.69206,-0.582494,9.57775,14.2932,-5.03903,5,-7.54071,-3.73398,0.698513,0.957651,-0.0993155,64,80,76,78,74,36,78,81,79,77,83,22
0.926107,10,-0.186796,-1.27685,-14.4551,27.5032,-13.049,0.186796,-0.186796,-1.27685,-14.072,27.5032,-13.432,0.186796,3.19354,12.3068,3.54951,8.13878,10.7072,-3.69215,-0.582428,9.57779,14.2924,-5.03906,5,-7.5404,-3.73398,0.698281,0.957637,-0.0992769,64,80,76,78,74,36,78,81,79,77,83,22
0.926534,10,-0.186723,-1.27683,-14.4551,27.5032,-13.049,0.186723,-0.186723,-1.27683,-14.072,27.5032,-13.432,0.186723,3.19366,12.3068,3.54961,8.13915,10.707,-3.69224,-0.582362,9.57782,14.2915,-5.03907,5,-7.54011,-3.73398,0.698061,0.957624,-0.0992379,64,80,76,78,74,36,78,81,79,77,83,22
0.926958,10,-0.186649,-1.27682,-14.4543,27.5027,-13.0488,0.186649,-0.186649,-1.27682,-14.0712,27.5027,-13.4318,0.186649,3.19378,12.3067,3.54974,8.13951,10.7068,-3.69233,-0.582295,9.57786,14.2907,-5.03907,5,-7.53983,-3.73398,0.697851,0.957612,-0.0991987,64,80,76,78,74,36,78,81,79,77,83,22
0.927378,10,-0.186576,-1.2768,-14.4543,27.5027,-13.0488,0.186576,-0.186576,-1.2768,-14.0713,27.5027,-13.4318,0.186576,3.1939,12.3067,3.54988,8.13988,10.7066,-3.69242,-0.582225,9.5779,14.2899,-5.03907,5,-7.53956,-3.73399,0.69765,0.9576,-0.0991598,64,80,76,78,74,36,78,81,79,77,83,22
0.927794,10,-0.186503,-1.27679,-14.4543,27.5027,-13.0488,0.186503,-0.186503,-1.27679,-14.0713,27.5027,-13.4318,0.186503,3.194,12.3066,3.55003,8.14023,10.7064,-3.69251,-0.582154,9.57793,14.289,-5.03905,5,-7.53931,-3.73399,0.697457,0.957589,-0.0991209,64,80,76,78,74,36,78,81,79,77,83,22
0.928206,10,-0.186431,-1.27677,-14.4543,27.5027,-13.0488,0.186431,-0.186431,-1.27677,-14.0713,27.5027,-13.4318,0.186431,3.1941,12.3066,3.5502,8.14059,10.7061,-3.6926,-0.582083,9.57796,14.2882,-5.03903,5,-7.53906,-3.734,0.697274,0.957579,-0.0990823,64,80,76,78,74,36,78,81,79,77,83,22
0.928612,10,-0.186358,-1.27676,-14.4543,27.5027,-13.0488,0.186358,-0.186358,-1.27676,-14.0713,27.5027,-13.4318,0.186358,3.1942,12.3065,3.55038,8.14094,10.7058,-3.69269,-0.582013,9.57799,14.2874,-5.03899,5,-7.53883,-3.73401,0.697099,0.95757,-0.0990436,64,80,76,78,74,36,78,81,79,77,83,22
0.929014,10,-0.186286,-1.27675,-14.4543,27.5027,-13.0488,0.186286,-0.186286,-1.27675,-14.0713,27.5027,-13.4318,0.186286,3.19428,12.3065,3.55058,8.14128,10.7056,-3.69278,-0.581945,9.57803,14.2866,-5.03895,5,-7.53862,-3.73402,0.696934,0.957562,-0.099005,64,80,76,78,74,36,78,81,79,77,83,22
0.929411,10,-0.186214,-1.27674,-14.4543,27.5027,-13.0488,0.186214,-0.186214,-1.27674,-14.0713,27.5027,-13.4318,0.186214,3.19437,12.3065,3.55079,8.14162,10.7053,-3.69287,-0.581881,9.57807,14.2858,-5.03889,5,-7.53843,-3.73404,0.696779,0.957555,-0.0989664,64,80,76,78,74,36,78,81,79,77,83,22
0.929802,10,-0.186141,-1.27673,-14.4543,27.5026,-13.0488,0.186141,-0.186141,-1.27673,-14.0713,27.5026,-13.4318,0.186141,3.19444,12.3064,3.55103,8.14195,10.7051,-3.69296,-0.58182,9.57811,14.285,-5.03883,5,-7.53826,-3.73407,0.696633,0.95755,-0.0989279,64,80,76,78,74,36,78,81,79,77,83,22
0.93019,10,-0.186069,-1.27673,-14.4543,27.5026,-13.0488,0.186069,-0.186069,-1.27673,-14.0713,27.5026,-13.4318,0.186069,3.19451,12.3064,3.55128,8.14228,10.7048,-3.69305,-0.581764,9.57816,14.2842,-5.03875,5,-7.53811,-3.7341,0.696498,0.957547,-0.0988892,64,80,76,78,74,36,78,81,79,77,83,22
0.930572,10,-0.185996,-1.27673,-14.4543,27.5026,-13.0488,0.185996,-0.185996,-1.27673,-14.0713,27.5026,-13.4318,0.185996,3.19458,12.3064,3.55156,8.1426,10.7046,-3.69313,-0.581714,9.57821,14.2834,-5.03865,5,-7.53799,-3.73414,0.696373,0.957546,-0.0988505,64,80,76,78,74,36,78,81,79,77,83,22
0.930947,10,-0.185924,-1.27673,-14.4543,27.5026,-13.0488,0.185924,-0.185924,-1.27673,-14.0713,27.5026,-13.4318,0.185924,3.19463,12.3063,3.55186,8.14291,10.7043,-3.69322,-0.581669,9.57828,14.2826,-5.03855,5,-7.53789,-3.73418,0.696257,0.957546,-0.0988118,64,80,76,78,74,36,78,81,79,77,83,22
0.931315,10,-0.185851,-1.27673,-14.4543,27.5026,-13.0488,0.185851,-0.185851,-1.27673,-14.0713,27.5026,-13.4318,0.185851,3.19469,12.3063,3.55216,8.14321,10.7041,-3.6933,-0.581629,9.57834,14.2818,-5.03844,5,-7.53781,-3.73423,0.69615,0.957548,-0.098773,64,80,76,78,74,36,78,81,79,77,83,22
0.931675,10,-0.185778,-1.27674,-14.4543,27.5026,-13.0488,0.185778,-0.185778,-1.27674,-14.0713,27.5026,-13.4318,0.185778,3.19474,12.3063,3.55248,8.1435,10.7039,-3.69338,-0.581594,9.57842,14.281,-5.03833,5,-7.53774,-3.73429,0.696051,0.957552,-0.0987343,64,80,76,78,74,36,78,81,79,77,83,22
0.932025,10,-0.185706,-1.27674,-14.4543,27.5026,-13.0487,0.185706,-0.185706,-1.27674,-14.0713,27.5026,-13.4318,0.185706,3.19478,12.3062,3.55281,8.14378,10.7036,-3.69346,-0.581564,9.5785,14.2802,-5.03822,5,-7.53769,-3.73435,0.69596,0.957558,-0.0986956,64,80,76,78,74,36,78,81,79,77,83,22
0.932366,10,-0.185633,-1.27675,-14.4543,27.5026,-13.0487,0.185633,-0.185633,-1.27675,-14.0713,27.5026,-13.4318,0.185633,3.19482,12.3062,3.55315,8.14405,10.7034,-3.69354,-0.58154,9.57859,14.2794,-5.0381,5,-7.53765,-3.73442,0.695875,0.957565,-0.098657,64,80,76,78,74,36,78,81,79,77,83,22
0.932695,10,-0.185561,-1.27677,-14.4543,27.5026,-13.0487,0.185561,-0.185561,-1.27677,-14.0713,27.5026,-13.4318,0.185561,3.19485,12.3062,3.55348,8.1443,10.7032,-3.69363,-0.581521,9.57868,14.2785,-5.03799,5,-7.53761,-3.7345,0.695797,0.957574,-0.0986182,64,80,76,78,74,36,78,81,79,77,83,22
0.933011,10,-0.185488,-1.27678,-14.4543,27.5026,-13.0487,0.185488,-0.185488,-1.27678,-14.0713,27.5026,-13.4318,0.185488,3.19488,12.3061,3.55381,8.14453,10.703,-3.69372,-0.581507,9.57878,14.2777,-5.03789,5,-7.53757,-3.73459,0.695725,0.957585,-0.0985794,64,80,76,78,74,36,78,81,79,77,83,22
0.933318,10,-0.185416,-1.2768,-14.4543,27.5026,-13.0487,0.185416,-0.185416,-1.2768,-14.0713,27.5026,-13.4318,0.185416,3.1949,12.3061,3.55415,8.14475,10.7028,-3.69381,-0.581498,9.57888,14.2769,-5.03779,5,-7.53754,-3.73468,0.695659,0.957596,-0.0985408,64,80,76,78,74,36,78,81,79,77,83,22
0.933614,10,-0.185344,-1.27681,-14.4544,27.5026,-13.0487,0.185344,-0.185344,-1.27681,-14.0713,27.5026,-13.4318,0.185344,3.19493,12.3061,3.55449,8.14496,10.7026,-3.6939,-0.581492,9.57899,14.2761,-5.03769,5,-7.53752,-3.73477,0.695598,0.957609,-0.0985024,64,80,76,78,74,36,78,81,79,77,83,22
0.9339,10,-0.185272,-1.27683,-14.4544,27.5026,-13.0487,0.185272,-0.185272,-1.27683,-14.0713,27.5026,-13.4318,0.185272,3.19494,12.306,3.55483,8.14515,10.7024,-3.69398,-0.58149,9.5791,14.2753,-5.03759,5,-7.5375,-3.73487,0.695541,0.957623,-0.0984643,64,80,76,78,74,36,78,81,79,77,83,22
0.934178,10,-0.185201,-1.27685,-14.4544,27.5026,-13.0487,0.185201,-0.185201,-1.27685,-14.0713,27.5026,-13.4317,0.185201,3.19496,12.306,3.55517,8.14534,10.7022,-3.69407,-0.58149,9.57921,14.2745,-5.0375,5,-7.53749,-3.73498,0.695489,0.957638,-0.0984266,64,80,76,78,74,36,78,81,79,77,83,22
0.934447,10,-0.185132,-1.27687,-14.4536,27.5021,-13.0485,0.185132,-0.185132,-1.27687,-14.0706,27.5021,-13.4316,0.185132,3.19497,12.306,3.55551,8.14551,10.7021,-3.69416,-0.581492,9.57933,14.2738,-5.0374,5,-7.53749,-3.73508,0.695441,0.957654,-0.0983894,64,80,76,78,74,36,78,81,79,77,83,22
0.934709,10,-0.185063,-1.27689,-14.4536,27.5021,-13.0485,0.185063,-0.185063,-1.27689,-14.0706,27.5021,-13.4316,0.185063,3.19497,12.3059,3.55586,8.14569,10.7019,-3.69424,-0.581496,9.57944,14.273,-5.03731,5,-7.5375,-3.73519,0.695396,0.95767,-0.0983529,64,80,76,78,74,36,78,81,79,77,83,22
0.934964,10,-0.184996,-1.27692,-14.4536,27.5021,-13.0485,0.184996,-0.184996,-1.27692,-14.0706,27.5021,-13.4316,0.184996,3.19497,12.3059,3.55621,8.14585,10.7017,-3.69433,-0.5815,9.57956,14.2722,-5.03721,5,-7.53751,-3.7353,0.695354,0.957687,-0.0983171,64,80,76,78,74,36,78,81,79,77,83,22
0.935211,10,-0.18493,-1.27694,-14.4537,27.5021,-13.0485,0.18493,-0.18493,-1.27694,-14.0706,27.5021,-13.4316,0.18493,3.19497,12.3059,3.55656,8.14601,10.7015,-3.69441,-0.581506,9.57967,14.2715,-5.03712,5,-7.53753,-3.73541,0.695315,0.957705,-0.0982818,64,80,76,78,74,36,78,81,79,77,83,22
0.935451,10,-0.184865,-1.27696,-14.4537,27.5021,-13.0485,0.184865,-0.184865,-1.27696,-14.0706,27.5021,-13.4316,0.184865,3.19497,12.3058,3.55691,8.14616,10.7014,-3.69449,-0.581514,9.57979,14.2708,-5.03702,5,-7.53755,-3.73552,0.69528,0.957723,-0.098247,64,80,76,78,74,36,78,81,79,77,83,22
0.935685,10,-0.1848,-1.27699,-14.4537,27.5021,-13.0485,0.1848,-0.1848,-1.27699,-14.0706,27.5021,-13.4316,0.1848,3.19497,12.3058,3.55725,8.1463,10.7012,-3.69457,-0.581524,9.57991,14.2701,-5.03693,5,-7.53757,-3.73563,0.695247,0.957741,-0.0982126,64,80,76,78,74,36,78,81,79,77,83,22
0.935912,10,-0.184737,-1.27701,-14.4537,27.5021,-13.0485,0.184737,-0.184737,-1.27701,-14.0706,27.5021,-13.4316,0.184737,3.19497,12.3058,3.55758,8.14643,10.701,-3.69465,-0.581537,9.58003,14.2693,-5.03685,5,-7.53759,-3.73575,0.695218,0.957759,-0.0981787,64,80,76,78,74,36,78,81,79,77,83,22
0.936133,10,-0.184674,-1.27704,-14.4537,27.5021,-13.0485,0.184674,-0.184674,-1.27704,-14.0706,27.5021,-13.4316,0.184674,3.19496,12.3057,3.55789,8.14655,10.7009,-3.69473,-0.581553,9.58015,14.2686,-5.03677,5,-7.5376,-3.73586,0.695191,0.957778,-0.0981451,64,80,76,78,74,36,78,81,79,77,83,22
0.936348,10,-0.184611,-1.27706,-14.4537,27.5021,-13.0485,0.184611,-0.184611,-1.27706,-14.0706,27.5021,-13.4316,0.184611,3.19496,12.3057,3.55821,8.14666,10.7007,-3.69482,-0.581571,9.58027,14.2679,-5.03669,5,-7.53763,-3.73598,0.695169,0.957796,-0.0981118,64,80,76,78,74,36,78,81,79,77,83,22
0.936557,10,-0.184549,-1.27709,-14.4537,27.5021,-13.0485,0.184549,-0.184549,-1.27709,-14.0706,27.5021,-13.4316,0.184549,3.19496,12.3057,3.55852,8.14675,10.7006,-3.69491,-0.581592,9.58039,14.2672,-5.0366,5,-7.53765,-3.7361,0.69515,0.957814,-0.0980788,64,80,76,78,74,36,78,81,79,77,83,22
0.93676,10,-0.184488,-1.27711,-14.4537,27.5021,-13.0484,0.184488,-0.184488,-1.27711,-14.0706,27.5021,-13.4316,0.184488,3.19496,12.3056,3.5588,8.14683,10.7004,-3.695,-0.581617,9.58051,14.2665,-5.03653,5,-7.53767,-3.73622,0.695133,0.957832,-0.0980461,64,80,76,78,74,36,78,81,79,77,83,22
0.936957,10,-0.184427,-1.27713,-14.4537,27.5021,-13.0484,0.184427,-0.184427,-1.27713,-14.0706,27.5021,-13.4316,0.184427,3.19496,12.3056,3.55906,8.1469,10.7002,-3.6951,-0.581646,9.58063,14.2658,-5.03648,5,-7.53766,-3.73633,0.695118,0.95785,-0.0980135,64,80,76,78,74,36,78,81,79,77,83,22
0.937147,10,-0.184366,-1.27716,-14.4537,27.5021,-13.0484,0.184366,-0.184366,-1.27716,-14.0706,27.5021,-13.4316,0.184366,3.19496,12.3055,3.55928,8.14694,10.7001,-3.6952,-0.581679,9.58075,14.2651,-5.03646,5,-7.53763,-3.73645,0.695105,0.957869,-0.097981,64,80,76,78,74,36,78,81,79,77,83,22
0.937331,10,-0.184305,-1.27718,-14.4537,27.5021,-13.0484,0.184305,-0.184305,-1.27718,-14.0706,27.5021,-13.4316,0.184305,3.19496,12.3055,3.55946,8.14697,10.7,-3.69531,-0.581718,9.58087,14.2644,-5.03647,5,-7.53757,-3.73657,0.695092,0.957887,-0.0979486,64,80,76,78,74,36,78,81,79,77,83,22
0.937509,10,-0.184245,-1.27721,-14.4541,27.5024,-13.0485,0.184245,-0.184245,-1.27721,-14.071,27.5024,-13.4316,0.184245,3.19496,12.3054,3.5596,8.14697,10.6999,-3.69543,-0.581762,9.581,14.2637,-5.03652,5,-7.53747,-3.73668,0.695079,0.957906,-0.0979163,64,80,76,78,74,36,78,81,79,77,83,22
0.93768,10,-0.184184,-1.27723,-14.4541,27.5024,-13.0485,0.184184,-0.184184,-1.27723,-14.071,27.5024,-13.4316,0.184184,3.19496,12.3053,3.55966,8.14695,10.6999,-3.69556,-0.581814,9.58112,14.263,-5.03664,5,-7.53731,-3.73679,0.695065,0.957925,-0.0978839,64,80,76,78,74,36,78,81,79,77,83,22
0.937844,10,-0.184123,-1.27726,-14.4541,27.5024,-13.0485,0.184123,-0.184123,-1.27726,-14.071,27.5024,-13.4316,0.184123,3.19496,12.3052,3.55967,8.14691,10.6999,-3.6957,-0.581872,9.58126,14.2623,-5.0368,5,-7.5371,-3.7369,0.69505,0.957945,-0.0978513,64,80,76,78,74,36,78,81,79,77,83,22
0.938002,10,-0.184062,-1.27729,-14.4541,27.5024,-13.0485,0.184062,-0.184062,-1.27729,-14.071,27.5024,-13.4316,0.184062,3.19495,12.3052,3.55962,8.14685,10.6999,-3.69585,-0.581936,9.58139,14.2615,-5.03702,5,-7.53684,-3.73701,0.695035,0.957965,-0.0978188,64,80,76,78,74,36,78,81,79,77,83,22
0.938154,10,-0.184001,-1.27731,-14.4542,27.5024,-13.0485,0.184001,-0.184001,-1.27731,-14.071,27.5024,-13.4316,0.184001,3.19495,12.3051,3.55952,8.14676,10.7,-3.696,-0.582005,9.58152,14.2608,-5.03727,5,-7.53655,-3.73711,0.695019,0.957985,-0.0977864,64,80,76,78,74,36,78,81,79,77,83,22
0.9383,10,-0.183941,-1.27734,-14.4542,27.5024,-13.0484,0.183941,-0.183941,-1.27734,-14.071,27.5024,-13.4316,0.183941,3.19495,12.305,3.55938,8.14666,10.7001,-3.69616,-0.582078,9.58165,14.26,-5.03756,5,-7.53622,-3.73721,0.695002,0.958006,-0.0977542,64,80,76,78,74,36,78,81,79,77,83,22
0.938442,10,-0.183881,-1.27737,-14.4542,27.5024,-13.0484,0.183881,-0.183881,-1.27737,-14.071,27.5024,-13.4316,0.183881,3.19495,12.3048,3.55922,8.14655,10.7002,-3.69632,-0.582154,9.58179,14.2593,-5.03787,5,-7.53587,-3.73731,0.694985,0.958026,-0.0977222,64,80,76,78,74,36,78,81,79,77,83,22
0.938578,10,-0.183821,-1.27739,-14.4545,27.5026,-13.0485,0.183821,-0.183821,-1.27739,-14.0713,27.5026,-13.4317,0.183821,3.19495,12.3047,3.55902,8.14643,10.7003,-3.69648,-0.582233,9.58192,14.2585,-5.03821,5,-7.53549,-3.7374,0.694967,0.958046,-0.0976905,64,80,76,78,74,36,78,81,79,77,83,22
0.93871,10,-0.183762,-1.27742,-14.4545,27.5026,-13.0485,0.183762,-0.183762,-1.27742,-14.0713,27.5026,-13.4317,0.183762,3.19495,12.3046,3.55881,8.1463,10.7004,-3.69664,-0.582315,9.58205,14.2578,-5.03856,5,-7.53511,-3.73749,0.694951,0.958066,-0.0976592,64,80,76,78,74,36,78,81,79,77,83,22
0.938837,10,-0.183705,-1.27745,-14.4545,27.5026,-13.0485,0.183705,-0.183705,-1.27745,-14.0713,27.5026,-13.4317,0.183705,3.19495,12.3045,3.55858,8.14616,10.7005,-3.6968,-0.582397,9.58218,14.2571,-5.03891,5,-7.53472,-3.73758,0.694934,0.958085,-0.0976283,64,80,76,78,74,36,78,81,79,77,83,22
0.93896,10,-0.183647,-1.27747,-14.4545,27.5026,-13.0485,0.183647,-0.183647,-1.27747,-14.0713,27.5026,-13.4317,0.183647,3.19495,12.3044,3.55834,8.14601,10.7006,-3.69696,-0.582482,9.5823,14.2563,-5.03928,5,-7.53432,-3.73767,0.694918,0.958103,-0.0975978,64,80,76,78,74,36,78,81,79,77,83,22
0.939081,10,-0.183591,-1.2775,-14.4546,27.5026,-13.0485,0.183591,-0.183591,-1.2775,-14.0713,27.5026,-13.4317,0.183591,3.19495,12.3043,3.55808,8.14586,10.7008,-3.69712,-0.582567,9.58243,14.2556,-5.03966,5,-7.53391,-3.73775,0.694902,0.958122,-0.0975677,64,80,76,78,74,36,78,81,79,77,83,22
0.939198,10,-0.183535,-1.27752,-14.4546,27.5026,-13.0485,0.183535,-0.183535,-1.27752,-14.0713,27.5026,-13.4317,0.183535,3.19495,12.3041,3.55779,8.14569,10.7009,-3.69729,-0.582655,9.58255,14.2549,-5.04007,5,-7.53347,-3.73784,0.694885,0.958141,-0.097538,64,80,76,78,74,36,78,81,79,77,83,22
0.939314,10,-0.18348,-1.27755,-14.4546,27.5026,-13.0484,0.18348,-0.18348,-1.27755,-14.0713,27.5026,-13.4317,0.18348,3.19494,12.304,3.55747,8.14552,10.7011,-3.69745,-0.582743,9.58268,14.2542,-5.0405,5,-7.53301,-3.73792,0.694867,0.95816,-0.0975087,64,80,76,78,74,36,78,81,79,77,83,22
0.939427,10,-0.183426,-1.27757,-14.4552,27.503,-13.0486,0.183426,-0.183426,-1.27757,-14.0719,27.503,-13.4318,0.183426,3.19494,12.3039,3.55712,8.14535,10.7013,-3.69763,-0.582833,9.5828,14.2535,-5.04095,5,-7.53253,-3.73799,0.694848,0.958179,-0.0974798,64,80,76,78,74,36,78,81,79,77,83,22
0.93954,10,-0.183373,-1.2776,-14.4552,27.503,-13.0485,0.183373,-0.183373,-1.2776,-14.0719,27.503,-13.4318,0.183373,3.19494,12.3037,3.55674,8.14516,10.7015,-3.69781,-0.582924,9.58293,14.2528,-5.04144,5,-7.53202,-3.73807,0.694828,0.958199,-0.0974513,64,80,76,78,74,36,78,81,79,77,83,22
0.939652,10,-0.18332,-1.27763,-14.4552,27.503,-13.0485,0.18332,-0.18332,-1.27763,-14.0719,27.503,-13.4318,0.18332,3.19493,12.3036,3.55632,8.14496,10.7018,-3.69799,-0.583015,9.58306,14.2521,-5.04195,5,-7.53147,-3.73814,0.694806,0.95822,-0.0974232,64,80,76,78,74,36,78,81,79,77,83,22
0.939763,10,-0.183268,-1.27765,-14.4552,27.503,-13.0485,0.183268,-0.183268,-1.27765,-14.0719,27.503,-13.4318,0.183268,3.19492,12.3035,3.55587,8.14476,10.7021,-3.69818,-0.583107,9.5832,14.2514,-5.04249,5,-7.5309,-3.73822,0.694784,0.958241,-0.0973954,64,80,76,78,74,36,78,81,79,77,83,22
0.939874,10,-0.183217,-1.27768,-14.4552,27.503,-13.0485,0.183217,-0.183217,-1.27768,-14.0719,27.503,-13.4318,0.183217,3.19491,12.3033,3.55539,8.14455,10.7024,-3.69838,-0.5832,9.58333,14.2507,-5.04306,5,-7.5303,-3.73829,0.694761,0.958263,-0.0973681,64,80,76,78,74,36,78,81,79,77,83,22
0.939984,10,-0.183166,-1.27771,-14.4552,27.503,-13.0485,0.183166,-0.183166,-1.27771,-14.0719,27.503,-13.4318,0.183166,3.1949,12.3032,3.55489,8.14433,10.7027,-3.69858,-0.583294,9.58347,14.25,-5.04366,5,-7.52967,-3.73835,0.694738,0.958285,-0.0973411,64,80,76,78,74,36,78,81,79,77,83,22
0.940094,10,-0.183116,-1.27774,-14.4552,27.503,-13.0485,0.183116,-0.183116,-1.27774,-14.0719,27.503,-13.4318,0.183116,3.19489,12.303,3.55435,8.14411,10.7031,-3.69879,-0.583391,9.58361,14.2493,-5.04428,5,-7.52901,-3.73842,0.694715,0.958309,-0.0973146,64,80,76,78,74,36,78,81,79,77,83,22
0.940203,10,-0.183067,-1.27778,-14.4552,27.503,-13.0485,0.183067,-0.183067,-1.27778,-14.0719,27.503,-13.4318,0.183067,3.19487,12.3029,3.55379,8.14389,10.7035,-3.699,-0.583488,9.58376,14.2486,-5.04493,5,-7.52833,-3.73848,0.694694,0.958333,-0.0972884,64,80,76,78,74,36,78,81,79,77,83,22
0.940312,10,-0.183019,-1.27781,-14.4552,27.503,-13.0485,0.183019,-0.183019,-1.27781,-14.0719,27.503,-13.4318,0.183019,3.19485,12.3027,3.5532,8.14366,10.7039,-3.69923,-0.583589,9.5839,14.248,-5.0456,5,-7.52763,-3.73853,0.694672,0.958358,-0.0972626,64,80,76,78,74,36,78,81,79,77,83,22
0.940419,10,-0.182971,-1.27784,-14.4552,27.503,-13.0485,0.182971,-0.182971,-1.27784,-14.0719,27.503,-13.4318,0.182971,3.19483,12.3026,3.55259,8.14342,10.7043,-3.69946,-0.583692,9.58405,14.2473,-5.0463,5,-7.5269,-3.73858,0.694652,0.958383,-0.0972372,64,80,76,78,74,36,78,81,79,77,83,22
0.940527,10,-0.182924,-1.27788,-14.4552,27.503,-13.0485,0.182924,-0.182924,-1.27788,-14.0719,27.503,-13.4318,0.182924,3.19481,12.3024,3.55196,8.14319,10.7047,-3.69969,-0.583796,9.58421,14.2467,-5.04702,5,-7.52615,-3.73863,0.694633,0.958409,-0.0972121,64,80,76,78,74,36,78,81,79,77,83,22
0.940636,10,-0.182878,-1.27792,-14.4553,27.503,-13.0484,0.182878,-0.182878,-1.27792,-14.0719,27.503,-13.4318,0.182878,3.19478,12.3023,3.55131,8.14295,10.7052,-3.69993,-0.5839,9.58437,14.246,-5.04776,5,-7.52537,-3.73868,0.694617,0.958437,-0.0971874,64,80,76,78,74,36,78,81,79,77,83,22
0.940745,10,-0.182832,-1.27796,-14.4553,27.503,-13.0484,0.182832,-0.182832,-1.27796,-14.0719,27.503,-13.4318,0.182832,3.19475,12.3021,3.55066,8.14271,10.7056,-3.70017,-0.584004,9.58453,14.2454,-5.04851,5,-7.52458,-3.73873,0.694603,0.958467,-0.097163,64,80,76,78,74,36,78,81,79,77,83,22
0.940855,10,-0.182787,-1.278,-14.4553,27.503,-13.0484,0.182787,-0.182787,-1.278,-14.0719,27.503,-13.4318,0.182787,3.19471,12.3019,3.54999,8.14246,10.7061,-3.70041,-0.584107,9.58469,14.2447,-5.04928,5,-7.52376,-3.73879,0.694592,0.958498,-0.097139,64,80,76,78,74,36,78,81,79,77,83,22
0.940968,10,-0.182743,-1.27804,-14.4556,27.5033,-13.0485,0.182743,-0.182743,-1.27804,-14.0722,27.5033,-13.4319,0.182743,3.19466,12.3018,3.54931,8.14222,10.7066,-3.70066,-0.584208,9.58487,14.2441,-5.05006,5,-7.52292,-3.73885,0.694584,0.958531,-0.0971153,64,80,76,78,74,36,78,81,79,77,83,22
0.941082,10,-0.182698,-1.27809,-14.4556,27.5033,-13.0485,0.182698,-0.182698,-1.27809,-14.0722,27.5033,-13.4319,0.182698,3.1946,12.3016,3.54864,8.14197,10.7071,-3.70091,-0.584305,9.58504,14.2434,-5.05084,5,-7.52206,-3.73892,0.69458,0.958567,-0.0970917,64,80,76,78,74,36,78,81,79,77,83,22
0.9412,10,-0.182655,-1.27814,-14.4556,27.5033,-13.0485,0.182655,-0.182655,-1.27814,-14.0722,27.5033,-13.4319,0.182655,3.19453,12.3014,3.54797,8.14173,10.7076,-3.70116,-0.584398,9.58523,14.2428,-5.05164,5,-7.52118,-3.73901,0.694581,0.958605,-0.0970683,64,80,76,78,74,36,78,81,79,77,83,22
0.941319,10,-0.182611,-1.27819,-14.4556,27.5033,-13.0484,0.182611,-0.182611,-1.27819,-14.0722,27.5033,-13.4319,0.182611,3.19445,12.3013,3.54729,8.14148,10.7081,-3.70141,-0.584489,9.58542,14.2422,-5.05243,5,-7.52028,-3.7391,0.694586,0.958645,-0.0970453,64,80,76,78,74,36,78,81,79,77,83,22
0.94144,10,-0.182569,-1.27825,-14.4557,27.5033,-13.0484,0.182569,-0.182569,-1.27825,-14.0722,27.5033,-13.4319,0.182569,3.19436,12.3011,3.54662,8.14124,10.7087,-3.70166,-0.584576,9.58561,14.2415,-5.05323,5,-7.51936,-3.7392,0.694593,0.958687,-0.0970226,64,80,76,78,74,36,78,81,79,77,83,22
0.941561,10,-0.182527,-1.27831,-14.4557,27.5033,-13.0484,0.182527,-0.182527,-1.27831,-14.0722,27.5033,-13.4319,0.182527,3.19426,12.3009,3.54596,8.141,10.7092,-3.70192,-0.584661,9.5858,14.2409,-5.05404,5,-7.51844,-3.73931,0.694603,0.958731,-0.0970002,64,80,76,78,74,36,78,81,79,77,83,22
0.941684,10,-0.182486,-1.27837,-14.4557,27.5033,-13.0484,0.182486,-0.182486,-1.27837,-14.0722,27.5033,-13.4319,0.182486,3.19416,12.3007,3.54529,8.14076,10.7097,-3.70217,-0.584744,9.586,14.2403,-5.05484,5,-7.51751,-3.73943,0.694615,0.958775,-0.0969782,64,80,76,78,74,36,78,81,79,77,83,22
0.941806,10,-0.182445,-1.27843,-14.4557,27.5033,-13.0484,0.182445,-0.182445,-1.27843,-14.0722,27.5033,-13.4319,0.182445,3.19406,12.3006,3.54463,8.14052,10.7102,-3.70242,-0.584824,9.5862,14.2397,-5.05563,5,-7.51658,-3.73954,0.694629,0.958821,-0.0969567,64,80,76,78,74,36,78,81,79,77,83,22
0.941929,10,-0.182406,-1.27849,-14.4557,27.5033,-13.0484,0.182406,-0.182406,-1.27849,-14.0722,27.5033,-13.4319,0.182406,3.19395,12.3004,3.54397,8.14028,10.7108,-3.70267,-0.584904,9.5864,14.2391,-5.05643,5,-7.51564,-3.73966,0.694644,0.958867,-0.0969357,64,80,76,78,74,36,78,81,79,77,83,22
0.942052,10,-0.182367,-1.27855,-14.4557,27.5033,-13.0484,0.182367,-0.182367,-1.27855,-14.0722,27.5033,-13.4319,0.182367,3.19384,12.3002,3.54332,8.14005,10.7113,-3.70292,-0.584982,9.5866,14.2385,-5.05721,5,-7.51472,-3.73978,0.694659,0.958914,-0.0969152,64,80,76,78,74,36,78,81,79,77,83,22
0.942175,10,-0.18233,-1.27861,-14.4557,27.5033,-13.0484,0.18233,-0.18233,-1.27861,-14.0721,27.5033,-13.4319,0.18233,3.19372,12.3,3.54268,8.13983,10.7118,-3.70316,-0.585058,9.58679,14.2379,-5.058,5,-7.51379,-3.7399,0.694676,0.958961,-0.0968951,64,80,76,78,74,36,78,81,79,77,83,22
0.942297,10,-0.182293,-1.27868,-14.4557,27.5033,-13.0483,0.182293,-0.182293,-1.27868,-14.0721,27.5033,-13.4319,0.182293,3.1936,12.2998,3.54205,8.1396,10.7124,-3.70341,-0.585132,9.58699,14.2374,-5.05877,5,-7.51287,-3.74003,0.694694,0.959008,-0.0968753,64,80,76,78,74,36,78,81,79,77,83,22
0.942417,10,-0.182256,-1.27874,-14.4558,27.5033,-13.0483,0.182256,-0.182256,-1.27874,-14.0721,27.5033,-13.432,0.182256,3.19348,12.2997,3.54142,8.13938,10.7129,-3.70365,-0.585203,9.58719,14.2368,-5.05953,5,-7.51195,-3.74015,0.694714,0.959056,-0.096856,64,80,76,78,74,36,78,81,79,77,83,22
0.942537,10,-0.182221,-1.27881,-14.4558,27.5033,-13.0483,0.182221,-0.182221,-1.27881,-14.0721,27.5033,-13.432,0.182221,3.19336,12.2995,3.54081,8.13916,10.7134,-3.70388,-0.58527,9.58739,14.2362,-5.06029,5,-7.51104,-3.74028,0.694735,0.959104,-0.0968369,64,80,76,78,74,36,78,81,79,77,83,22
0.942655,10,-0.182185,-1.27887,-14.4569,27.5041,-13.0485,0.182185,-0.182185,-1.27887,-14.0732,27.5041,-13.4322,0.182185,3.19324,12.2993,3.54021,8.13894,10.7139,-3.70411,-0.585334,9.58758,14.2357,-5.06103,5,-7.51013,-3.74042,0.694759,0.959152,-0.0968181,64,80,76,78,74,36,78,81,79,77,83,22
0.942771,10,-0.18215,-1.27893,-14.4569,27.5041,-13.0485,0.18215,-0.18215,-1.27893,-14.0732,27.5041,-13.4322,0.18215,3.19311,12.2992,3.53962,8.13873,10.7144,-3.70434,-0.585393,9.58777,14.2352,-5.06176,5,-7.50923,-3.74056,0.694785,0.9592,-0.0967993,64,80,76,78,74,36,78,81,79,77,83,22
0.942885,10,-0.182115,-1.279,-14.4569,27.5041,-13.0485,0.182115,-0.182115,-1.279,-14.0732,27.5041,-13.4322,0.182115,3.19298,12.299,3.53906,8.13851,10.7149,-3.70456,-0.585448,9.58797,14.2346,-5.06247,5,-7.50834,-3.74071,0.694815,0.959248,-0.0967808,64,80,76,78,74,36,78,81,79,77,83,22
0.942998,10,-0.182081,-1.27906,-14.4569,27.5041,-13.0485,0.182081,-0.182081,-1.27906,-14.0732,27.5041,-13.4322,0.182081,3.19284,12.2989,3.53851,8.1383,10.7154,-3.70478,-0.585498,9.58815,14.2341,-5.06318,5,-7.50746,-3.74087,0.694847,0.959296,-0.0967623,64,80,76,78,74,36,78,81,79,77,83,22
0.943109,10,-0.182046,-1.27913,-14.4569,27.5041,-13.0485,0.182046,-0.182046,-1.27913,-14.0732,27.5041,-13.4322,0.182046,3.19271,12.2987,3.53797,8.13809,10.7158,-3.70498,-0.585544,9.58834,14.2336,-5.06386,5,-7.50659,-3.74103,0.694882,0.959345,-0.096744,64,80,76,78,74,36,78,81,79,77,83,22
0.943218,10,-0.182012,-1.27919,-14.4569,27.5041,-13.0485,0.182012,-0.182012,-1.27919,-14.0732,27.5041,-13.4322,0.182012,3.19257,12.2986,3.53746,8.13788,10.7163,-3.70519,-0.585586,9.58852,14.2331,-5.06453,5,-7.50573,-3.74119,0.694919,0.959393,-0.0967259,64,80,76,78,74,36,78,81,79,77,83,22
0.943326,10,-0.181979,-1.27926,-14.4569,27.5041,-13.0485,0.181979,-0.181979,-1.27926,-14.0732,27.5041,-13.4322,0.181979,3.19242,12.2984,3.53697,8.13768,10.7167,-3.70538,-0.585623,9.5887,14.2326,-5.06518,5,-7.50488,-3.74136,0.69496,0.959442,-0.0967078,64,80,76,78,74,36,78,81,79,77,83,22
0.943433,10,-0.181945,-1.27932,-14.4574,27.5044,-13.0486,0.181945,-0.181945,-1.27932,-14.0736,27.5044,-13.4323,0.181945,3.19227,12.2983,3.53649,8.13748,10.7171,-3.70556,-0.585657,9.58888,14.2321,-5.06581,5,-7.50404,-3.74154,0.695003,0.959491,-0.0966899,64,80,76,78,74,36,78,81,79,77,83,22
0.943538,10,-0.181912,-1.27939,-14.4574,27.5044,-13.0485,0.181912,-0.181912,-1.27939,-14.0736,27.5044,-13.4324,0.181912,3.19212,12.2981,3.53603,8.13729,10.7176,-3.70574,-0.585688,9.58906,14.2316,-5.06643,5,-7.50322,-3.74172,0.695048,0.95954,-0.0966722,64,80,76,78,74,36,78,81,79,77,83,22
0.943642,10,-0.181879,-1.27945,-14.4574,27.5044,-13.0485,0.181879,-0.181879,-1.27945,-14.0736,27.5044,-13.4324,0.181879,3.19197,12.298,3.53559,8.13711,10.718,-3.7059,-0.585715,9.58923,14.2311,-5.06703,5,-7.50241,-3.7419,0.695094,0.959589,-0.0966546,64,80,76,78,74,36,78,81,79,77,83,22
0.943745,10,-0.181846,-1.27952,-14.4574,27.5044,-13.0485,0.181846,-0.181846,-1.27952,-14.0736,27.5044,-13.4324,0.181846,3.19181,12.2979,3.53517,8.13693,10.7183,-3.70606,-0.585738,9.5894,14.2306,-5.0676,5,-7.50162,-3.74208,0.695144,0.959638,-0.096637,64,80,76,78,74,36,78,81,79,77,83,22
0.943847,10,-0.181813,-1.27958,-14.4574,27.5044,-13.0485,0.181813,-0.181813,-1.27958,-14.0736,27.5044,-13.4324,0.181813,3.19165,12.2977,3.53478,8.13676,10.7187,-3.7062,-0.585757,9.58956,14.2301,-5.06815,5,-7.50084,-3.74227,0.695199,0.959687,-0.0966195,64,80,76,78,74,36,78,81,79,77,83,22
0.943948,10,-0.18178,-1.27965,-14.4575,27.5044,-13.0485,0.18178,-0.18178,-1.27965,-14.0736,27.5044,-13.4324,0.18178,3.19148,12.2976,3.53443,8.1366,10.719,-3.70634,-0.585773,9.58972,14.2297,-5.06868,5,-7.50008,-3.74246,0.69526,0.959737,-0.0966019,64,80,76,78,74,36,78,81,79,77,83,22
0.944048,10,-0.181746,-1.27972,-14.4575,27.5044,-13.0485,0.181746,-0.181746,-1.27972,-14.0735,27.5044,-13.4324,0.181746,3.1913,12.2975,3.5341,8.13644,10.7193,-3.70647,-0.585784,9.58988,14.2292,-5.06918,5,-7.49933,-3.74266,0.695327,0.959787,-0.0965841,64,80,76,78,74,36,78,81,79,77,83,22
0.944147,10,-0.181713,-1.27978,-14.4577,27.5045,-13.0485,0.181713,-0.181713,-1.27978,-14.0737,27.5045,-13.4325,0.181713,3.19111,12.2974,3.53381,8.13629,10.7196,-3.70659,-0.585791,9.59003,14.2287,-5.06965,5,-7.49861,-3.74287,0.695402,0.959838,-0.0965661,64,80,76,78,74,36,78,81,79,77,83,22
0.944245,10,-0.181679,-1.27985,-14.4577,27.5045,-13.0485,0.181679,-0.181679,-1.27985,-14.0737,27.5045,-13.4325,0.181679,3.19092,12.2973,3.53357,8.13614,10.7199,-3.7067,-0.585792,9.59018,14.2282,-5.0701,5,-7.4979,-3.74309,0.695484,0.95989,-0.0965481,64,80,76,78,74,36,78,81,79,77,83,22
0.944342,10,-0.181645,-1.27992,-14.4577,27.5045,-13.0485,0.181645,-0.181645,-1.27992,-14.0737,27.5045,-13.4325,0.181645,3.19072,12.2972,3.53337,8.13601,10.7201,-3.7068,-0.585788,9.59033,14.2278,-5.07051,5,-7.49722,-3.74331,0.695575,0.959942,-0.0965299,64,80,76,78,74,36,78,81,79,77,83,22
0.944439,10,-0.18161,-1.27999,-14.4577,27.5045,-13.0485,0.18161,-0.18161,-1.27999,-14.0737,27.5045,-13.4325,0.18161,3.1905,12.2971,3.53321,8.13587,10.7202,-3.70689,-0.58578,9.59047,14.2273,-5.07089,5,-7.49655,-3.74353,0.695674,0.959995,-0.0965113,64,80,76,78,74,36,78,81,79,77,83,22
0.944534,10,-0.181575,-1.28007,-14.4577,27.5045,-13.0485,0.181575,-0.181575,-1.28007,-14.0737,27.5045,-13.4325,0.181575,3.19028,12.297,3.53308,8.13574,10.7204,-3.70698,-0.58577,9.59061,14.2268,-5.07124,5,-7.4959,-3.74377,0.695782,0.960049,-0.0964924,64,80,76,78,74,36,78,81,79,77,83,22
0.944629,10,-0.181538,-1.28014,-14.4577,27.5045,-13.0485,0.181538,-0.181538,-1.28014,-14.0737,27.5045,-13.4325,0.181538,3.19006,12.2969,3.533,8.13562,10.7205,-3.70706,-0.585756,9.59074,14.2264,-5.07157,5,-7.49527,-3.74401,0.695899,0.960103,-0.096473,64,80,76,78,74,36,78,81,79,77,83,22
0.944723,10,-0.181501,-1.28021,-14.4577,27.5045,-13.0485,0.181501,-0.181501,-1.28021,-14.0737,27.5045,-13.4325,0.181501,3.18982,12.2968,3.53295,8.13551,10.7205,-3.70713,-0.58574,9.59087,14.2259,-5.07186,5,-7.49465,-3.74426,0.696024,0.960156,-0.0964532,64,80,76,78,74,36,78,81,79,77,83,22
0.944815,10,-0.181463,-1.28028,-14.4581,27.5048,-13.0486,0.181463,-0.181463,-1.28028,-14.0741,27.5048,-13.4326,0.181463,3.18958,12.2968,3.53293,8.1354,10.7206,-3.7072,-0.585723,9.59099,14.2254,-5.07212,5,-7.49405,-3.74451,0.696157,0.96021,-0.0964328,64,80,76,78,74,36,78,81,79,77,83,22
0.944908,10,-0.181422,-1.28035,-14.4581,27.5048,-13.0486,0.181422,-0.181422,-1.28035,-14.074,27.5048,-13.4327,0.181422,3.18933,12.2967,3.53295,8.13529,10.7206,-3.70727,-0.585706,9.5911,14.2249,-5.07235,5,-7.49345,-3.74478,0.6963,0.960264,-0.0964113,64,80,76,78,74,36,78,81,79,77,83,22
0.944999,10,-0.181381,-1.28042,-14.4582,27.5048,-13.0486,0.181381,-0.181381,-1.28042,-14.074,27.5048,-13.4327,0.181381,3.18908,12.2967,3.53299,8.1352,10.7206,-3.70733,-0.58569,9.5912,14.2245,-5.07255,5,-7.49287,-3.74505,0.696452,0.960318,-0.0963891,64,80,76,78,74,36,78,81,79,77,83,22
0.945089,10,-0.181338,-1.28049,-14.4582,27.5048,-13.0485,0.181338,-0.181338,-1.28049,-14.074,27.5048,-13.4327,0.181338,3.18882,12.2966,3.53307,8.1351,10.7205,-3.7074,-0.585673,9.59129,14.224,-5.07272,5,-7.4923,-3.74532,0.696612,0.960371,-0.0963662,64,80,76,78,74,36,78,81,79,77,83,22
0.945177,10,-0.181294,-1.28057,-14.4582,27.5048,-13.0485,0.181294,-0.181294,-1.28057,-14.074,27.5048,-13.4327,0.181294,3.18855,12.2966,3.53317,8.13501,10.7204,-3.70745,-0.585655,9.59138,14.2235,-5.07287,5,-7.49174,-3.7456,0.696777,0.960424,-0.0963429,64,80,76,78,74,36,78,81,79,77,83,22
0.945263,10,-0.18125,-1.28064,-14.4582,27.5048,-13.0485,0.18125,-0.18125,-1.28064,-14.074,27.5048,-13.4327,0.18125,3.18829,12.2966,3.53329,8.13493,10.7203,-3.70751,-0.585637,9.59147,14.223,-5.07299,5,-7.49119,-3.74589,0.696948,0.960477,-0.0963194,64,80,76,78,74,36,78,81,79,77,83,22
0.945347,10,-0.181206,-1.28071,-14.4582,27.5048,-13.0485,0.181206,-0.181206,-1.28071,-14.074,27.5048,-13.4328,0.181206,3.18802,12.2966,3.53343,8.13485,10.7202,-3.70756,-0.585618,9.59154,14.2225,-5.07309,5,-7.49066,-3.74617,0.697123,0.960529,-0.0962958,64,80,76,78,74,36,78,81,79,77,83,22
0.945429,10,-0.181161,-1.28077,-14.4594,27.5057,-13.0488,0.181161,-0.181161,-1.28077,-14.0752,27.5057,-13.433,0.181161,3.18775,12.2966,3.53359,8.13478,10.7201,-3.70761,-0.585598,9.59162,14.222,-5.07318,5,-7.49014,-3.74645,0.697301,0.960581,-0.096272,64,80,76,78,74,36,78,81,79,77,83,22
0.945506,10,-0.181118,-1.28084,-14.4594,27.5057,-13.0488,0.181118,-0.181118,-1.28084,-14.0751,27.5057,-13.433,0.181118,3.18748,12.2966,3.53377,8.13471,10.7199,-3.70765,-0.585576,9.59169,14.2216,-5.07326,5,-7.48964,-3.74674,0.697481,0.960632,-0.0962487,64,80,76,78,74,36,78,81,79,77,83,22
0.945579,10,-0.181074,-1.28091,-14.4594,27.5057,-13.0488,0.181074,-0.181074,-1.28091,-14.0751,27.5057,-13.4331,0.181074,3.1872,12.2966,3.53395,8.13465,10.7198,-3.70769,-0.585553,9.59176,14.2211,-5.07333,5,-7.48914,-3.74702,0.697664,0.960683,-0.0962256,64,80,76,78,74,36,78,81,79,77,83,22
0.945649,10,-0.181031,-1.28098,-14.4594,27.5057,-13.0488,0.181031,-0.181031,-1.28098,-14.0751,27.5057,-13.4331,0.181031,3.18693,12.2966,3.53415,8.13459,10.7196,-3.70773,-0.585529,9.59182,14.2207,-5.07339,5,-7.48866,-3.7473,0.697848,0.960733,-0.0962027,64,80,76,78,74,36,78,81,79,77,83,22
0.945716,10,-0.180988,-1.28104,-14.4594,27.5057,-13.0488,0.180988,-0.180988,-1.28104,-14.0751,27.5057,-13.4331,0.180988,3.18667,12.2966,3.53436,8.13453,10.7194,-3.70777,-0.585506,9.59189,14.2202,-5.07343,5,-7.48819,-3.74758,0.698033,0.960783,-0.0961797,64,80,76,78,74,36,78,81,79,77,83,22
0.945781,10,-0.180945,-1.28111,-14.4594,27.5057,-13.0488,0.180945,-0.180945,-1.28111,-14.0751,27.5057,-13.4331,0.180945,3.1864,12.2966,3.53458,8.13448,10.7192,-3.7078,-0.585483,9.59194,14.2198,-5.07346,5,-7.48774,-3.74785,0.698218,0.960831,-0.0961566,64,80,76,78,74,36,78,81,79,77,83,22
0.945844,10,-0.180901,-1.28117,-14.4594,27.5057,-13.0488,0.180901,-0.180901,-1.28117,-14.075,27.5057,-13.4331,0.180901,3.18613,12.2967,3.5348,8.13442,10.719,-3.70784,-0.585462,9.59199,14.2193,-5.07347,5,-7.48729,-3.74813,0.698403,0.960879,-0.0961334,64,80,76,78,74,36,78,81,79,77,83,22
0.945905,10,-0.180857,-1.28123,-14.4599,27.506,-13.0489,0.180857,-0.180857,-1.28123,-14.0755,27.506,-13.4333,0.180857,3.18587,12.2967,3.53504,8.13437,10.7188,-3.70787,-0.585444,9.59204,14.2189,-5.07346,5,-7.48686,-3.74841,0.698588,0.960925,-0.0961099,64,80,76,78,74,36,78,81,79,77,83,22
0.945965,10,-0.180813,-1.28129,-14.4599,27.506,-13.0489,0.180813,-0.180813,-1.28129,-14.0755,27.506,-13.4333,0.180813,3.18561,12.2967,3.53528,8.13433,10.7186,-3.7079,-0.585426,9.59208,14.2185,-5.07341,5,-7.48645,-3.74868,0.698767,0.96097,-0.0960863,64,80,76,78,74,36,78,81,79,77,83,22
0.946023,10,-0.180768,-1.28135,-14.4599,27.506,-13.0489,0.180768,-0.180768,-1.28135,-14.0754,27.506,-13.4333,0.180768,3.18535,12.2968,3.53554,8.13428,10.7184,-3.70794,-0.585412,9.59211,14.218,-5.07333,5,-7.48607,-3.74894,0.698943,0.961014,-0.0960623,64,80,76,78,74,36,78,81,79,77,83,22
0.94608,10,-0.180722,-1.28141,-14.4599,27.506,-13.0489,0.180722,-0.180722,-1.28141,-14.0754,27.506,-13.4333,0.180722,3.1851,12.2968,3.5358,8.13424,10.7181,-3.70797,-0.585401,9.59214,14.2176,-5.07323,5,-7.48568,-3.74921,0.699119,0.961056,-0.0960379,64,80,76,78,74,36,78,81,79,77,83,22
0.946134,10,-0.180675,-1.28146,-14.4599,27.506,-13.0489,0.180675,-0.180675,-1.28146,-14.0754,27.506,-13.4333,0.180675,3.18485,12.2969,3.53605,8.13419,10.7179,-3.708,-0.585395,9.59217,14.2172,-5.07313,5,-7.4853,-3.74948,0.699297,0.961098,-0.0960128,64,80,76,78,74,36,78,81,79,77,83,22
0.946186,10,-0.180627,-1.28152,-14.4599,27.506,-13.0489,0.180627,-0.180627,-1.28152,-14.0754,27.506,-13.4333,0.180627,3.1846,12.297,3.5363,8.13414,10.7176,-3.70804,-0.585393,9.59218,14.2167,-5.07303,5,-7.48489,-3.74976,0.699478,0.961137,-0.095987,64,80,76,78,74,36,78,81,79,77,83,22
0.946235,10,-0.180576,-1.28157,-14.4598,27.506,-13.0489,0.180576,-0.180576,-1.28157,-14.0754,27.506,-13.4334,0.180576,3.18435,12.2971,3.53654,8.13409,10.7174,-3.70807,-0.585398,9.59219,14.2163,-5.07294,5,-7.48446,-3.75004,0.699666,0.961176,-0.0959602,64,80,76,78,74,36,78,81,79,77,83,22
0.94628,10,-0.180524,-1.28162,-14.4603,27.5064,-13.049,0.180524,-0.180524,-1.28162,-14.0758,27.5064,-13.4335,0.180524,3.1841,12.2972,3.53675,8.13403,10.7171,-3.70811,-0.585408,9.5922,14.2159,-5.07287,5,-7.484,-3.75034,0.699859,0.961214,-0.0959325,64,80,76,78,74,36,78,81,79,77,83,22
0.946326,10,-0.180469,-1.28167,-14.4603,27.5064,-13.049,0.180469,-0.180469,-1.28167,-14.0758,27.5064,-13.4335,0.180469,3.18385,12.2974,3.53694,8.13397,10.7169,-3.70815,-0.585427,9.59219,14.2154,-5.07285,5,-7.48348,-3.75065,0.700068,0.961251,-0.0959031,64,80,76,78,74,36,78,81,79,77,83,22
0.94637,10,-0.180412,-1.28172,-14.4603,27.5064,-13.049,0.180412,-0.180412,-1.28172,-14.0758,27.5064,-13.4335,0.180412,3.18361,12.2975,3.5371,8.13389,10.7166,-3.7082,-0.585454,9.59218,14.215,-5.07288,5,-7.48289,-3.75099,0.70029,0.961287,-0.0958724,64,80,76,78,74,36,78,81,79,77,83,22
0.946408,10,-0.180352,-1.28176,-14.4603,27.5064,-13.049,0.180352,-0.180352,-1.28176,-14.0758,27.5064,-13.4335,0.180352,3.18336,12.2977,3.53724,8.13382,10.7163,-3.70825,-0.585487,9.59217,14.2145,-5.07293,5,-7.48227,-3.75133,0.70052,0.961322,-0.0958406,64,80,76,78,74,36,78,81,79,77,83,22
0.946441,10,-0.180291,-1.28181,-14.4603,27.5064,-13.049,0.180291,-0.180291,-1.28181,-14.0758,27.5064,-13.4335,0.180291,3.18311,12.2979,3.53736,8.13373,10.716,-3.70829,-0.585526,9.59215,14.214,-5.07301,5,-7.4816,-3.75169,0.700758,0.961355,-0.095808,64,80,76,78,74,36,78,81,79,77,83,22
0.946465,10,-0.180229,-1.28185,-14.4603,27.5064,-13.049,0.180229,-0.180229,-1.28185,-14.0758,27.5064,-13.4336,0.180229,3.18287,12.2981,3.53746,8.13364,10.7157,-3.70834,-0.58557,9.59212,14.2136,-5.07311,5,-7.48092,-3.75205,0.700999,0.961389,-0.0957747,64,80,76,78,74,36,78,81,79,77,83,22
0.94648,10,-0.180165,-1.28189,-14.4603,27.5064,-13.049,0.180165,-0.180165,-1.28189,-14.0757,27.5064,-13.4336,0.180165,3.18263,12.2983,3.53754,8.13355,10.7155,-3.70839,-0.585619,9.5921,14.2131,-5.07322,5,-7.48021,-3.75242,0.701244,0.961421,-0.095741,64,80,76,78,74,36,78,81,79,77,83,22
0.946484,10,-0.180101,-1.28194,-14.4608,27.5067,-13.0491,0.180101,-0.180101,-1.28194,-14.0762,27.5067,-13.4337,0.180101,3.18239,12.2985,3.53762,8.13346,10.7152,-3.70844,-0.585673,9.59207,14.2126,-5.07334,5,-7.47948,-3.75279,0.70149,0.961452,-0.095707,64,80,76,78,74,36,78,81,79,77,83,22
0.946472,10,-0.180038,-1.28198,-14.4607,27.5067,-13.0491,0.180038,-0.180038,-1.28198,-14.0762,27.5067,-13.4337,0.180038,3.18215,12.2987,3.53769,8.13337,10.7149,-3.70849,-0.585729,9.59204,14.2122,-5.07346,5,-7.47877,-3.75315,0.701731,0.961483,-0.0956731,64,80,76,78,74,36,78,81,79,77,83,22
0.946446,10,-0.179975,-1.28202,-14.4607,27.5067,-13.0491,0.179975,-0.179975,-1.28202,-14.0761,27.5067,-13.4337,0.179975,3.18192,12.2989,3.53776,8.13328,10.7146,-3.70853,-0.585789,9.59201,14.2117,-5.07357,5,-7.47806,-3.7535,0.701968,0.961513,-0.0956394,64,80,76,78,74,36,78,81,79,77,83,22
0.946408,10,-0.179912,-1.28206,-14.4607,27.5067,-13.0491,0.179912,-0.179912,-1.28206,-14.0761,27.5067,-13.4337,0.179912,3.18169,12.2991,3.53782,8.13318,10.7143,-3.70857,-0.585852,9.59197,14.2112,-5.07369,5,-7.47735,-3.75386,0.702205,0.961542,-0.0956057,64,80,76,78,74,36,78,81,79,77,83,22
0.946359,10,-0.179848,-1.28209,-14.4607,27.5067,-13.0491,0.179848,-0.179848,-1.28209,-14.0761,27.5067,-13.4338,0.179848,3.18147,12.2993,3.53787,8.13309,10.7141,-3.70862,-0.585916,9.59194,14.2108,-5.07382,5,-7.47662,-3.75421,0.702443,0.96157,-0.0955719,64,80,76,78,74,36,78,81,79,77,83,22
0.946301,10,-0.179784,-1.28213,-14.4607,27.5067,-13.0491,0.179784,-0.179784,-1.28213,-14.0761,27.5067,-13.4338,0.179784,3.18125,12.2996,3.5379,8.13299,10.7138,-3.70866,-0.585983,9.5919,14.2103,-5.07397,5,-7.47587,-3.75458,0.702685,0.961598,-0.0955379,64,80,76,78,74,36,78,81,79,77,83,22
0.946235,10,-0.17972,-1.28217,-14.4607,27.5067,-13.0491,0.17972,-0.17972,-1.28217,-14.0761,27.5067,-13.4338,0.17972,3.18103,12.2998,3.53791,8.13289,10.7135,-3.70871,-0.586051,9.59186,14.2099,-5.07416,5,-7.4751,-3.75494,0.702932,0.961625,-0.0955037,64,80,76,78,74,36,78,81,79,77,83,22
0.946162,10,-0.179656,-1.2822,-14.4613,27.5072,-13.0493,0.179656,-0.179656,-1.2822,-14.0767,27.5072,-13.4339,0.179656,3.18081,12.3001,3.53791,8.13279,10.7133,-3.70876,-0.58612,9.59181,14.2094,-5.07437,5,-7.4743,-3.75532,0.703186,0.961651,-0.0954692,64,80,76,78,74,36,78,81,79,77,83,22
0.946086,10,-0.17959,-1.28223,-14.4613,27.5072,-13.0493,0.17959,-0.17959,-1.28223,-14.0766,27.5072,-13.434,0.17959,3.18059,12.3003,3.53788,8.13268,10.713,-3.70882,-0.586191,9.59177,14.209,-5.07464,5,-7.47345,-3.75571,0.70345,0.961676,-0.0954343,64,80,76,78,74,36,78,81,79,77,83,22
0.946005,10,-0.179524,-1.28227,-14.4613,27.5072,-13.0493,0.179524,-0.179524,-1.28227,-14.0766,27.5072,-13.434,0.179524,3.18038,12.3006,3.53783,8.13257,10.7127,-3.70889,-0.586262,9.59171,14.2085,-5.07495,5,-7.47256,-3.75612,0.703724,0.9617,-0.0953989,64,80,76,78,74,36,78,81,79,77,83,22
0.94592,10,-0.179457,-1.2823,-14.4613,27.5072,-13.0493,0.179457,-0.179457,-1.2823,-14.0766,27.5072,-13.434,0.179457,3.18016,12.3008,3.53776,8.13246,10.7125,-3.70896,-0.586334,9.59166,14.2081,-5.07531,5,-7.47162,-3.75654,0.704009,0.961724,-0.0953631,64,80,76,78,74,36,78,81,79,77,83,22
0.945831,10,-0.179389,-1.28233,-14.4613,27.5072,-13.0493,0.179389,-0.179389,-1.28233,-14.0766,27.5072,-13.434,0.179389,3.17995,12.3011,3.53766,8.13234,10.7123,-3.70904,-0.586406,9.59159,14.2076,-5.07572,5,-7.47065,-3.75698,0.704305,0.961746,-0.095327,64,80,76,78,74,36,78,81,79,77,83,22
0.945736,10,-0.179321,-1.28236,-14.4613,27.5072,-13.0493,0.179321,-0.179321,-1.28236,-14.0766,27.5072,-13.434,0.179321,3.17974,12.3014,3.53754,8.13221,10.712,-3.70913,-0.586478,9.59153,14.2072,-5.07618,5,-7.46964,-3.75743,0.704613,0.961768,-0.0952906,64,80,76,78,74,36,78,81,79,77,83,22
0.945636,10,-0.179252,-1.28238,-14.4613,27.5072,-13.0493,0.179252,-0.179252,-1.28238,-14.0766,27.5072,-13.434,0.179252,3.17954,12.3017,3.53739,8.13209,10.7118,-3.70922,-0.586549,9.59146,14.2067,-5.07668,5,-7.4686,-3.75789,0.704932,0.961787,-0.0952539,64,80,76,78,74,36,78,81,79,77,83,22
0.945531,10,-0.179182,-1.28241,-14.4612,27.5071,-13.0493,0.179182,-0.179182,-1.28241,-14.0764,27.5071,-13.434,0.179182,3.17934,12.302,3.53722,8.13196,10.7116,-3.70932,-0.58662,9.59138,14.2063,-5.07722,5,-7.46752,-3.75836,0.705264,0.961806,-0.0952169,64,80,76,78,74,36,78,81,79,77,83,22
0.94542,10,-0.179113,-1.28243,-14.4612,27.5071,-13.0493,0.179113,-0.179113,-1.28243,-14.0764,27.5071,-13.434,0.179113,3.17915,12.3023,3.53704,8.13182,10.7114,-3.70943,-0.586689,9.5913,14.2059,-5.07779,5,-7.46643,-3.75885,0.705605,0.961823,-0.09518,64,80,76,78,74,36,78,81,79,77,83,22
0.945303,10,-0.179044,-1.28245,-14.4612,27.5071,-13.0493,0.179044,-0.179044,-1.28245,-14.0764,27.5071,-13.4341,0.179044,3.17897,12.3026,3.53683,8.13167,10.7111,-3.70954,-0.586757,9.59122,14.2054,-5.0784,5,-7.46532,-3.75935,0.705957,0.961837,-0.0951429,64,80,76,78,74,36,78,81,79,77,83,22
0.945179,10,-0.178974,-1.28247,-14.4611,27.5071,-13.0493,0.178974,-0.178974,-1.28247,-14.0764,27.5071,-13.4341,0.178974,3.17879,12.3029,3.5366,8.13153,10.7109,-3.70966,-0.586824,9.59113,14.205,-5.07905,5,-7.46418,-3.75986,0.706321,0.961851,-0.0951057,64,80,76,78,74,36,78,81,79,77,83,22
0.945051,10,-0.178904,-1.28248,-14.4611,27.5071,-13.0493,0.178904,-0.178904,-1.28248,-14.0764,27.5071,-13.4341,0.178904,3.17862,12.3032,3.53634,8.13138,10.7108,-3.7098,-0.58689,9.59104,14.2045,-5.07976,5,-7.46299,-3.76038,0.706699,0.961863,-0.0950683,64,80,76,78,74,36,78,81,79,77,83,22
0.944916,10,-0.178833,-1.2825,-14.4611,27.5071,-13.0493,0.178833,-0.178833,-1.2825,-14.0764,27.5071,-13.4341,0.178833,3.17846,12.3035,3.53607,8.13122,10.7106,-3.70995,-0.586956,9.59094,14.2041,-5.08052,5,-7.46175,-3.76092,0.707093,0.961873,-0.0950307,64,80,76,78,74,36,78,81,79,77,83,22
0.944777,10,-0.178762,-1.28251,-14.4611,27.5071,-13.0493,0.178762,-0.178762,-1.28251,-14.0764,27.5071,-13.4341,0.178762,3.17829,12.3038,3.53577,8.13107,10.7104,-3.71011,-0.587022,9.59084,14.2037,-5.08135,5,-7.46044,-3.76148,0.707502,0.961881,-0.0949929,64,80,76,78,74,36,78,81,79,77,83,22
0.944632,10,-0.178691,-1.28252,-14.4611,27.5071,-13.0494,0.178691,-0.178691,-1.28252,-14.0764,27.5071,-13.4341,0.178691,3.17814,12.3041,3.53545,8.13091,10.7102,-3.7103,-0.587087,9.59073,14.2032,-5.08224,5,-7.45907,-3.76205,0.707928,0.961888,-0.0949549,64,80,76,78,74,36,78,81,79,77,83,22
0.944484,10,-0.178618,-1.28253,-14.4611,27.5071,-13.0494,0.178618,-0.178618,-1.28253,-14.0763,27.5071,-13.4341,0.178618,3.17798,12.3045,3.5351,8.13075,10.7101,-3.71051,-0.587156,9.59061,14.2028,-5.08323,5,-7.45758,-3.76264,0.708378,0.961894,-0.0949162,64,80,76,78,74,36,78,81,79,77,83,22
0.944332,10,-0.178545,-1.28253,-14.4611,27.5071,-13.0494,0.178545,-0.178545,-1.28253,-14.0763,27.5071,-13.4341,0.178545,3.17783,12.3048,3.53473,8.1306,10.7099,-3.71076,-0.587227,9.59049,14.2024,-5.08431,5,-7.456,-3.76325,0.708848,0.961899,-0.0948771,64,80,76,78,74,36,78,81,79,77,83,22
0.944176,10,-0.178471,-1.28254,-14.4611,27.5071,-13.0494,0.178471,-0.178471,-1.28254,-14.0763,27.5071,-13.4341,0.178471,3.17768,12.3052,3.53435,8.13044,10.7098,-3.71103,-0.587299,9.59036,14.2019,-5.08545,5,-7.45433,-3.76388,0.709334,0.961902,-0.0948378,64,80,76,78,74,36,78,81,79,77,83,22
0.944013,10,-0.178398,-1.28254,-14.4611,27.5071,-13.0494,0.178398,-0.178398,-1.28254,-14.0763,27.5071,-13.4342,0.178398,3.17754,12.3055,3.53394,8.13029,10.7096,-3.71131,-0.587371,9.59023,14.2015,-5.08665,5,-7.45261,-3.76452,0.709833,0.961905,-0.0947985,64,80,76,78,74,36,78,81,79,77,83,22
0.943843,10,-0.178324,-1.28254,-14.4611,27.5071,-13.0494,0.178324,-0.178324,-1.28254,-14.0763,27.5071,-13.4342,0.178324,3.1774,12.3058,3.53352,8.13013,10.7095,-3.7116,-0.58744,9.5901,14.201,-5.0879,5,-7.45084,-3.76516,0.710341,0.961905,-0.0947593,64,80,76,78,74,36,78,81,79,77,83,22
0.943665,10,-0.178251,-1.28254,-14.461,27.5071,-13.0494,0.178251,-0.178251,-1.28254,-14.0763,27.5071,-13.4342,0.178251,3.17726,12.3062,3.53309,8.12998,10.7094,-3.71191,-0.587508,9.58996,14.2006,-5.08918,5,-7.44905,-3.76581,0.710857,0.961905,-0.0947204,64,80,76,78,74,36,78,81,79,77,83,22
0.94348,10,-0.178179,-1.28254,-14.4615,27.5074,-13.0495,0.178179,-0.178179,-1.28254,-14.0767,27.5074,-13.4343,0.178179,3.17713,12.3065,3.53264,8.12983,10.7093,-3.71221,-0.587574,9.58982,14.2002,-5.0905,5,-7.44723,-3.76647,0.711377,0.961904,-0.0946819,64,80,76,78,74,36,78,81,79,77,83,22
0.943283,10,-0.178108,-1.28253,-14.4615,27.5074,-13.0495,0.178108,-0.178108,-1.28253,-14.0767,27.5074,-13.4343,0.178108,3.17701,12.3069,3.53219,8.12968,10.7092,-3.7125,-0.587631,9.58968,14.1997,-5.09181,5,-7.44544,-3.76713,0.711893,0.961901,-0.0946444,64,80,76,78,74,36,78,81,79,77,83,22
0.943074,10,-0.17804,-1.28253,-14.4615,27.5074,-13.0496,0.17804,-0.17804,-1.28253,-14.0767,27.5074,-13.4343,0.17804,3.1769,12.3072,3.53173,8.12953,10.7091,-3.71279,-0.587681,9.58954,14.1993,-5.09313,5,-7.44368,-3.76778,0.712406,0.961896,-0.0946076,64,80,76,78,74,36,78,81,79,77,83,22
0.942858,10,-0.177972,-1.28252,-14.4615,27.5074,-13.0496,0.177972,-0.177972,-1.28252,-14.0767,27.5074,-13.4343,0.177972,3.17679,12.3075,3.53127,8.12938,10.709,-3.71307,-0.587729,9.5894,14.1989,-5.09447,5,-7.44192,-3.76843,0.712919,0.961891,-0.0945715,64,80,76,78,74,36,78,81,79,77,83,22
0.942634,10,-0.177904,-1.28251,-14.4615,27.5074,-13.0496,0.177904,-0.177904,-1.28251,-14.0767,27.5074,-13.4343,0.177904,3.17669,12.3078,3.5308,8.12924,10.7089,-3.71336,-0.587778,9.58926,14.1985,-5.09582,5,-7.44013,-3.76909,0.713434,0.961885,-0.0945356,64,80,76,78,74,36,78,81,79,77,83,22
0.942406,10,-0.177837,-1.28251,-14.4614,27.5074,-13.0496,0.177837,-0.177837,-1.28251,-14.0767,27.5074,-13.4343,0.177837,3.17659,12.3081,3.53033,8.1291,10.7088,-3.71367,-0.587829,9.58911,14.1981,-5.09719,5,-7.43832,-3.76974,0.713952,0.961879,-0.0944998,64,80,76,78,74,36,78,81,79,77,83,22
0.942174,10,-0.17777,-1.2825,-14.4614,27.5074,-13.0496,0.17777,-0.17777,-1.2825,-14.0767,27.5074,-13.4343,0.17777,3.17648,12.3084,3.52986,8.12896,10.7088,-3.71399,-0.587886,9.58897,14.1977,-5.09858,5,-7.43646,-3.77038,0.714473,0.961874,-0.094464,64,80,76,78,74,36,78,81,79,77,83,22
0.94194,10,-0.177703,-1.28249,-14.4611,27.5072,-13.0495,0.177703,-0.177703,-1.28249,-14.0764,27.5072,-13.4343,0.177703,3.17637,12.3088,3.52939,8.12882,10.7087,-3.71434,-0.587949,9.58883,14.1973,-5.1,5,-7.43456,-3.77103,0.715,0.961869,-0.094428,64,80,76,78,74,36,78,81,79,77,83,22
0.941708,10,-0.177634,-1.28249,-14.4611,27.5072,-13.0496,0.177634,-0.177634,-1.28249,-14.0764,27.5072,-13.4343,0.177634,3.17625,12.3091,3.52893,8.12869,10.7086,-3.71474,-0.58803,9.58869,14.1969,-5.10146,5,-7.43255,-3.77168,0.715539,0.961866,-0.0943912,64,80,76,78,74,36,78,81,79,77,83,22
0.941477,10,-0.177563,-1.28249,-14.4611,27.5072,-13.0496,0.177563,-0.177563,-1.28249,-14.0764,27.5072,-13.4343,0.177563,3.17612,12.3094,3.52848,8.12855,10.7085,-3.71519,-0.588126,9.58855,14.1965,-5.10294,5,-7.43046,-3.77233,0.716088,0.961864,-0.0943537,64,80,76,78,74,36,78,81,79,77,83,22
0.941245,10,-0.177492,-1.28248,-14.4611,27.5072,-13.0496,0.177492,-0.177492,-1.28248,-14.0764,27.5072,-13.4343,0.177492,3.17599,12.3098,3.52803,8.12842,10.7084,-3.71567,-0.588232,9.58841,14.1961,-5.10446,5,-7.4283,-3.77298,0.716643,0.961864,-0.0943158,64,80,76,78,74,36,78,81,79,77,83,22
0.941013,10,-0.177421,-1.28249,-14.4611,27.5072,-13.0496,0.177421,-0.177421,-1.28249,-14.0764,27.5072,-13.4343,0.177421,3.17585,12.3101,3.52759,8.1283,10.7083,-3.71617,-0.588347,9.58828,14.1957,-5.10599,5,-7.42609,-3.77362,0.717202,0.961864,-0.0942776,64,80,76,78,74,36,78,81,79,77,83,22
0.940778,10,-0.177349,-1.28249,-14.4611,27.5072,-13.0496,0.177349,-0.177349,-1.28249,-14.0763,27.5072,-13.4343,0.177349,3.17571,12.3105,3.52715,8.12817,10.7082,-3.7167,-0.588466,9.58814,14.1953,-5.10754,5,-7.42384,-3.77425,0.717762,0.961865,-0.0942394,64,80,76,78,74,36,78,81,79,77,83,22
0.940541,10,-0.177277,-1.28249,-14.4611,27.5072,-13.0496,0.177277,-0.177277,-1.28249,-14.0763,27.5072,-13.4344,0.177277,3.17556,12.3108,3.52672,8.12805,10.7081,-3.71724,-0.58859,9.58801,14.1949,-5.1091,5,-7.42155,-3.77488,0.71832,0.961867,-0.0942012,64,80,76,78,74,36,78,81,79,77,83,22
0.9403,10,-0.177206,-1.28249,-14.4612,27.5073,-13.0497,0.177206,-0.177206,-1.28249,-14.0765,27.5073,-13.4344,0.177206,3.17541,12.3112,3.5263,8.12793,10.708,-3.71778,-0.588716,9.58787,14.1944,-5.11067,5,-7.41925,-3.77548,0.718877,0.961869,-0.0941631,64,80,76,78,74,36,78,81,79,77,83,22
0.940055,10,-0.177135,-1.28249,-14.4612,27.5073,-13.0497,0.177135,-0.177135,-1.28249,-14.0764,27.5073,-13.4344,0.177135,3.17527,12.3115,3.52588,8.12781,10.7079,-3.71832,-0.588839,9.58774,14.194,-5.11224,5,-7.41696,-3.77607,0.719425,0.961871,-0.0941256,64,80,76,78,74,36,78,81,79,77,83,22
0.939805,10,-0.177066,-1.2825,-14.4612,27.5073,-13.0497,0.177066,-0.177066,-1.2825,-14.0764,27.5073,-13.4344,0.177066,3.17513,12.3119,3.52547,8.1277,10.7078,-3.71886,-0.58896,9.58761,14.1936,-5.11381,5,-7.41467,-3.77664,0.719967,0.961873,-0.0940886,64,80,76,78,74,36,78,81,79,77,83,22
0.93955,10,-0.176997,-1.2825,-14.4612,27.5073,-13.0497,0.176997,-0.176997,-1.2825,-14.0764,27.5073,-13.4344,0.176997,3.17498,12.3122,3.52507,8.12758,10.7077,-3.71941,-0.589083,9.58748,14.1932,-5.11538,5,-7.41238,-3.77719,0.720504,0.961875,-0.094052,64,80,76,78,74,36,78,81,79,77,83,22
0.939291,10,-0.176929,-1.2825,-14.4612,27.5073,-13.0497,0.176929,-0.176929,-1.2825,-14.0764,27.5073,-13.4344,0.176929,3.17484,12.3125,3.52467,8.12748,10.7076,-3.71996,-0.589209,9.58735,14.1928,-5.11693,5,-7.41009,-3.77773,0.721037,0.961877,-0.0940156,64,80,76,78,74,36,78,81,79,77,83,22
0.939028,10,-0.176861,-1.28251,-14.4612,27.5073,-13.0497,0.176861,-0.176861,-1.28251,-14.0764,27.5073,-13.4345,0.176861,3.17469,12.3129,3.52428,8.12737,10.7075,-3.72052,-0.58934,9.58723,14.1924,-5.11848,5,-7.40779,-3.77828,0.721567,0.961881,-0.0939794,64,80,76,78,74,36,78,81,79,77,83,22
0.938762,10,-0.176793,-1.28251,-14.4611,27.5073,-13.0497,0.176793,-0.176793,-1.28251,-14.0764,27.5073,-13.4345,0.176793,3.17454,12.3132,3.5239,8.12726,10.7074,-3.72111,-0.589479,9.58711,14.1921,-5.12001,5,-7.40549,-3.77882,0.722095,0.961885,-0.0939432,64,80,76,78,74,36,78,81,79,77,83,22
0.938492,10,-0.176726,-1.28252,-14.4611,27.5073,-13.0497,0.176726,-0.176726,-1.28252,-14.0764,27.5073,-13.4345,0.176726,3.17438,12.3135,3.52354,8.12716,10.7073,-3.72171,-0.589628,9.58699,14.1917,-5.12152,5,-7.40318,-3.77937,0.722623,0.961891,-0.0939071,64,80,76,78,74,36,78,81,79,77,83,22
0.938218,10,-0.176658,-1.28253,-14.4611,27.5073,-13.0497,0.176658,-0.176658,-1.28253,-14.0764,27.5073,-13.4345,0.176658,3.17422,12.3139,3.52319,8.12706,10.7072,-3.72233,-0.589778,9.58688,14.1913,-5.123,5,-7.40085,-3.77992,0.723146,0.961899,-0.093871,64,80,76,78,74,36,78,81,79,77,83,22
0.937941,10,-0.17659,-1.28254,-14.4611,27.5073,-13.0497,0.17659,-0.17659,-1.28254,-14.0763,27.5073,-13.4345,0.17659,3.17405,12.3142,3.52285,8.12696,10.7071,-3.72297,-0.589936,9.58677,14.1909,-5.12447,5,-7.39851,-3.78047,0.723667,0.961908,-0.0938348,64,80,76,78,74,36,78,81,79,77,83,22
0.937662,10,-0.176522,-1.28256,-14.4611,27.5073,-13.0498,0.176522,-0.176522,-1.28256,-14.0763,27.5073,-13.4345,0.176522,3.17388,12.3145,3.52253,8.12686,10.7069,-3.72365,-0.59011,9.58667,14.1905,-5.12591,5,-7.39615,-3.78104,0.724191,0.961919,-0.0937985,64,80,76,78,74,36,78,81,79,77,83,22
0.937381,10,-0.176453,-1.28258,-14.4611,27.5073,-13.0498,0.176453,-0.176453,-1.28258,-14.0763,27.5073,-13.4345,0.176453,3.1737,12.3149,3.52221,8.12676,10.7068,-3.72436,-0.590304,9.58657,14.1901,-5.12732,5,-7.39379,-3.78163,0.724721,0.961931,-0.0937619,64,80,76,78,74,36,78,81,79,77,83,22
0.9371,10,-0.176384,-1.28259,-14.4611,27.5073,-13.0498,0.176384,-0.176384,-1.28259,-14.0763,27.5073,-13.4345,0.176384,3.17351,12.3152,3.5219,8.12667,10.7066,-3.72513,-0.590524,9.58648,14.1897,-5.1287,5,-7.39141,-3.78224,0.725258,0.961946,-0.0937251,64,80,76,78,74,36,78,81,79,77,83,22
0.936818,10,-0.176315,-1.28262,-14.4611,27.5073,-13.0498,0.176315,-0.176315,-1.28262,-14.0763,27.5073,-13.4346,0.176315,3.17331,12.3156,3.5216,8.12658,10.7064,-3.72594,-0.590773,9.58639,14.1894,-5.13006,5,-7.38903,-3.78288,0.725805,0.961962,-0.0936881,64,80,76,78,74,36,78,81,79,77,83,22
0.936537,10,-0.176245,-1.28264,-14.4596,27.5062,-13.0495,0.176245,-0.176245,-1.28264,-14.0748,27.5062,-13.4343,0.176245,3.17311,12.316,3.5213,8.1265,10.7062,-3.72681,-0.591055,9.58631,14.189,-5.1314,5,-7.38665,-3.78355,0.726363,0.961979,-0.0936507,64,80,76,78,74,36,78,81,79,77,83,22
0.936258,10,-0.176173,-1.28267,-14.4595,27.5062,-13.0495,0.176173,-0.176173,-1.28267,-14.0747,27.5062,-13.4343,0.176173,3.1729,12.3164,3.52098,8.12643,10.706,-3.72779,-0.591411,9.58623,14.1886,-5.1327,5,-7.38422,-3.78429,0.726964,0.961999,-0.0936126,64,80,76,78,74,36,78,81,79,77,83,22
0.93598,10,-0.176101,-1.28269,-14.4595,27.5062,-13.0495,0.176101,-0.176101,-1.28269,-14.0747,27.5062,-13.4343,0.176101,3.17268,12.3168,3.52066,8.12636,10.7058,-3.72886,-0.591823,9.58616,14.1882,-5.13398,5,-7.38178,-3.78508,0.727593,0.962021,-0.093574,64,80,76,78,74,36,78,81,79,77,83,22
0.935704,10,-0.176028,-1.28273,-14.4595,27.5062,-13.0495,0.176028,-0.176028,-1.28273,-14.0747,27.5062,-13.4343,0.176028,3.17246,12.3172,3.52033,8.1263,10.7055,-3.72999,-0.592275,9.58609,14.1879,-5.13524,5,-7.37933,-3.7859,0.728238,0.962044,-0.0935351,64,80,76,78,74,36,78,81,79,77,83,22
0.935431,10,-0.175955,-1.28276,-14.4595,27.5062,-13.0495,0.175955,-0.175955,-1.28276,-14.0747,27.5062,-13.4343,0.175955,3.17223,12.3176,3.52001,8.12624,10.7053,-3.73117,-0.592753,9.58603,14.1875,-5.13646,5,-7.3769,-3.78675,0.728889,0.962069,-0.0934961,64,80,76,78,74,36,78,81,79,77,83,22
0.93516,10,-0.175881,-1.28279,-14.4595,27.5062,-13.0495,0.175881,-0.175881,-1.28279,-14.0747,27.5062,-13.4343,0.175881,3.172,12.318,3.5197,8.12619,10.705,-3.73237,-0.593247,9.58597,14.1871,-5.13766,5,-7.37449,-3.78761,0.729538,0.962095,-0.093457,64,80,76,78,74,36,78,81,79,77,83,22
0.934893,10,-0.175808,-1.28283,-14.4595,27.5062,-13.0495,0.175808,-0.175808,-1.28283,-14.0747,27.5062,-13.4344,0.175808,3.17177,12.3184,3.51941,8.12614,10.7048,-3.73359,-0.593749,9.58591,14.1868,-5.13882,5,-7.37211,-3.78847,0.730181,0.962121,-0.0934181,64,80,76,78,74,36,78,81,79,77,83,22
0.934629,10,-0.175736,-1.28286,-14.4606,27.507,-13.0497,0.175736,-0.175736,-1.28286,-14.0757,27.507,-13.4346,0.175736,3.17153,12.3188,3.51912,8.1261,10.7045,-3.73482,-0.594254,9.58585,14.1864,-5.13996,5,-7.36976,-3.78933,0.730813,0.962148,-0.0933795,64,80,76,78,74,36,78,81,79,77,83,22
0.934369,10,-0.175665,-1.2829,-14.4606,27.507,-13.0497,0.175665,-0.175665,-1.2829,-14.0757,27.507,-13.4346,0.175665,3.1713,12.3192,3.51888,8.12607,10.7043,-3.73597,-0.594703,9.58579,14.186,-5.14106,5,-7.3675,-3.79013,0.731391,0.962175,-0.0933416,64,80,76,78,74,36,78,81,79,77,83,22
0.934113,10,-0.175595,-1.28293,-14.4606,27.507,-13.0498,0.175595,-0.175595,-1.28293,-14.0757,27.507,-13.4346,0.175595,3.17106,12.3196,3.51867,8.12604,10.704,-3.73709,-0.595123,9.58573,14.1857,-5.14213,5,-7.36529,-3.7909,0.731936,0.962201,-0.0933043,64,80,76,78,74,36,78,81,79,77,83,22
0.93386,10,-0.175526,-1.28297,-14.4606,27.507,-13.0498,0.175526,-0.175526,-1.28297,-14.0757,27.507,-13.4347,0.175526,3.17082,12.32,3.51848,8.12601,10.7038,-3.7382,-0.595539,9.58568,14.1853,-5.14318,5,-7.36313,-3.79166,0.732468,0.962228,-0.0932675,64,80,76,78,74,36,78,81,79,77,83,22
0.933612,10,-0.175457,-1.28301,-14.4606,27.507,-13.0498,0.175457,-0.175457,-1.28301,-14.0757,27.507,-13.4347,0.175457,3.17059,12.3204,3.51828,8.12598,10.7036,-3.73934,-0.595973,9.58562,14.185,-5.1442,5,-7.36099,-3.79243,0.733004,0.962255,-0.0932309,64,80,76,78,74,36,78,81,79,77,83,22
0.933368,10,-0.175389,-1.28304,-14.4606,27.507,-13.0498,0.175389,-0.175389,-1.28304,-14.0757,27.507,-13.4347,0.175389,3.17035,12.3208,3.51807,8.12596,10.7034,-3.74052,-0.596445,9.58557,14.1847,-5.14519,5,-7.35885,-3.79324,0.73356,0.962283,-0.0931945,64,80,76,78,74,36,78,81,79,77,83,22
0.933129,10,-0.175321,-1.28308,-14.4606,27.507,-13.0498,0.175321,-0.175321,-1.28308,-14.0756,27.507,-13.4347,0.175321,3.17012,12.3212,3.51784,8.12594,10.7031,-3.74176,-0.59697,9.58553,14.1843,-5.14617,5,-7.35671,-3.79409,0.734148,0.962311,-0.0931582,64,80,76,78,74,36,78,81,79,77,83,22
0.932893,10,-0.175253,-1.28312,-14.4613,27.5075,-13.0499,0.175253,-0.175253,-1.28312,-14.0763,27.5075,-13.4349,0.175253,3.16988,12.3216,3.51757,8.12592,10.7028,-3.74308,-0.597562,9.58549,14.184,-5.14712,5,-7.35456,-3.79499,0.734782,0.962341,-0.0931219,64,80,76,78,74,36,78,81,79,77,83,22
0.932662,10,-0.175184,-1.28316,-14.4613,27.5075,-13.0499,0.175184,-0.175184,-1.28316,-14.0763,27.5075,-13.4349,0.175184,3.16965,12.322,3.51727,8.1259,10.7025,-3.74452,-0.598246,9.58547,14.1837,-5.14805,5,-7.35238,-3.79599,0.735473,0.962372,-0.0930852,64,80,76,78,74,36,78,81,79,77,83,22
0.932436,10,-0.175114,-1.28321,-14.4613,27.5075,-13.0499,0.175114,-0.175114,-1.28321,-14.0763,27.5075,-13.4349,0.175114,3.16942,12.3224,3.51692,8.12589,10.7022,-3.74607,-0.599025,9.58545,14.1834,-5.14897,5,-7.35018,-3.79708,0.736228,0.962405,-0.0930483,64,80,76,78,74,36,78,81,79,77,83,22
0.932213,10,-0.175045,-1.28325,-14.4613,27.5075,-13.0499,0.175045,-0.175045,-1.28325,-14.0763,27.5075,-13.4349,0.175045,3.16918,12.3229,3.51651,8.12587,10.7018,-3.74774,-0.599902,9.58545,14.1831,-5.14987,5,-7.34792,-3.79826,0.737054,0.96244,-0.0930112,64,80,76,78,74,36,78,81,79,77,83,22
0.931996,10,-0.174975,-1.2833,-14.4613,27.5075,-13.05,0.174975,-0.174975,-1.2833,-14.0763,27.5075,-13.4349,0.174975,3.16896,12.3233,3.51605,8.12585,10.7014,-3.74954,-0.600878,9.58545,14.1828,-5.15075,5,-7.34561,-3.79951,0.737956,0.962475,-0.092974,64,80,76,78,74,36,78,81,79,77,83,22
0.931783,10,-0.174905,-1.28335,-14.4613,27.5075,-13.05,0.174905,-0.174905,-1.28335,-14.0763,27.5075,-13.435,0.174905,3.16873,12.3238,3.51552,8.12583,10.7009,-3.75145,-0.601953,9.58547,14.1825,-5.15163,5,-7.34322,-3.80084,0.738937,0.96251,-0.0929367,64,80,76,78,74,36,78,81,79,77,83,22
0.931576,10,-0.174835,-1.28339,-14.4613,27.5075,-13.05,0.174835,-0.174835,-1.28339,-14.0762,27.5075,-13.435,0.174835,3.16852,12.3243,3.51493,8.12581,10.7004,-3.75349,-0.603126,9.58549,14.1822,-5.1525,5,-7.34076,-3.80224,0.739999,0.962545,-0.0928994,64,80,76,78,74,36,78,81,79,77,83,22
0.931373,10,-0.174765,-1.28344,-14.4616,27.5078,-13.05,0.174765,-0.174765,-1.28344,-14.0766,27.5078,-13.4351,0.174765,3.16831,12.3247,3.51428,8.12579,10.6998,-3.75564,-0.604394,9.58551,14.182,-5.15337,5,-7.33822,-3.80371,0.741143,0.962581,-0.0928622,64,80,76,78,74,36,78,81,80,77,83,22
0.931176,10,-0.174696,-1.28349,-14.4616,27.5078,-13.05,0.174696,-0.174696,-1.28349,-14.0766,27.5078,-13.4351,0.174696,3.16811,12.3252,3.51351,8.12576,10.6992,-3.75797,-0.605802,9.58555,14.1817,-5.15424,5,-7.33552,-3.80526,0.742413,0.962615,-0.092825,64,80,76,78,74,36,78,81,80,77,83,22
0.930983,10,-0.174626,-1.28353,-14.4617,27.5078,-13.05,0.174626,-0.174626,-1.28353,-14.0766,27.5078,-13.4351,0.174626,3.16793,12.3257,3.51266,8.12573,10.6986,-3.76044,-0.607323,9.58558,14.1814,-5.15512,5,-7.3327,-3.80687,0.743785,0.962649,-0.0927879,64,80,76,78,74,36,78,81,80,77,83,22
0.930796,10,-0.174557,-1.28358,-14.4617,27.5078,-13.05,0.174557,-0.174557,-1.28358,-14.0766,27.5078,-13.4351,0.174557,3.16775,12.3262,3.51174,8.12569,10.6978,-3.76303,-0.608934,9.58563,14.1812,-5.15599,5,-7.32979,-3.80853,0.745239,0.962681,-0.092751,64,80,76,78,74,36,78,81,80,77,83,22
0.930614,10,-0.174488,-1.28362,-14.4617,27.5078,-13.05,0.174488,-0.174488,-1.28362,-14.0766,27.5078,-13.4351,0.174488,3.16758,12.3266,3.51076,8.12565,10.6971,-3.7657,-0.610614,9.58567,14.1809,-5.15686,5,-7.32681,-3.81023,0.746757,0.962713,-0.0927144,64,80,76,78,74,36,78,81,80,77,83,22
0.930436,10,-0.17442,-1.28366,-14.4617,27.5078,-13.05,0.17442,-0.17442,-1.28366,-14.0766,27.5078,-13.4351,0.17442,3.16742,12.3271,3.50975,8.12561,10.6963,-3.76842,-0.612347,9.58572,14.1807,-5.15772,5,-7.3238,-3.81196,0.748324,0.962745,-0.092678,64,80,76,78,74,36,78,81,80,77,83,22
0.930264,10,-0.174352,-1.2837,-14.4617,27.5078,-13.05,0.174352,-0.174352,-1.2837,-14.0765,27.5078,-13.4351,0.174352,3.16727,12.3276,3.5087,8.12557,10.6955,-3.77119,-0.614119,9.58578,14.1804,-5.15856,5,-7.32076,-3.81371,0.749927,0.962777,-0.0926421,64,80,76,78,74,36,78,81,80,77,83,22
0.930096,10,-0.174286,-1.28374,-14.4605,27.507,-13.0498,0.174286,-0.174286,-1.28374,-14.0754,27.507,-13.4349,0.174286,3.16712,12.3281,3.50764,8.12552,10.6947,-3.77399,-0.615918,9.58583,14.1802,-5.15939,5,-7.31772,-3.81547,0.751555,0.962807,-0.0926066,64,81,76,78,74,36,78,81,80,77,83,22
0.929934,10,-0.17422,-1.28379,-14.4605,27.507,-13.0498,0.17422,-0.17422,-1.28379,-14.0754,27.507,-13.4349,0.17422,3.16696,12.3285,3.5066,8.12548,10.6939,-3.77674,-0.617697,9.58589,14.18,-5.16019,5,-7.31476,-3.81722,0.75316,0.962839,-0.0925716,64,81,76,78,74,36,78,81,80,77,83,22
0.929776,10,-0.174156,-1.28383,-14.4605,27.507,-13.0498,0.174156,-0.174156,-1.28383,-14.0753,27.507,-13.4349,0.174156,3.16681,12.329,3.50557,8.12543,10.6931,-3.77948,-0.619469,9.58594,14.1797,-5.16097,5,-7.31184,-3.81896,0.754757,0.96287,-0.0925372,64,81,76,78,74,36,78,81,80,77,83,22
0.929623,10,-0.174092,-1.28387,-14.4605,27.507,-13.0498,0.174092,-0.174092,-1.28387,-14.0753,27.507,-13.4349,0.174092,3.16666,12.3295,3.50453,8.12539,10.6923,-3.78221,-0.62125,9.586,14.1795,-5.16173,5,-7.30894,-3.82069,0.756361,0.962901,-0.0925033,64,81,76,78,74,36,78,81,80,77,83,22
0.929474,10,-0.174029,-1.28391,-14.4605,27.507,-13.0498,0.174029,-0.174029,-1.28391,-14.0753,27.507,-13.4349,0.174029,3.16651,12.3299,3.50347,8.12534,10.6915,-3.78496,-0.62305,9.58606,14.1793,-5.16249,5,-7.30603,-3.82242,0.757984,0.962932,-0.0924699,64,81,76,78,74,36,78,81,80,77,83,22
0.929329,10,-0.173968,-1.28395,-14.4605,27.507,-13.0498,0.173968,-0.173968,-1.28395,-14.0753,27.507,-13.4349,0.173968,3.16638,12.3304,3.50238,8.12529,10.6907,-3.78775,-0.624882,9.58612,14.1791,-5.16323,5,-7.30308,-3.82417,0.759638,0.962961,-0.092437,64,81,76,78,74,36,78,81,80,77,83,22
0.929186,10,-0.173907,-1.28398,-14.4605,27.507,-13.0498,0.173907,-0.173907,-1.28398,-14.0753,27.507,-13.435,0.173907,3.16626,12.3308,3.50125,8.12524,10.6898,-3.79059,-0.626755,9.58618,14.1789,-5.16398,5,-7.30009,-3.82592,0.761334,0.962989,-0.0924046,64,81,76,78,74,36,78,81,80,77,83,22
0.929046,10,-0.173847,-1.28402,-14.4618,27.5079,-13.05,0.173847,-0.173847,-1.28402,-14.0766,27.5079,-13.4352,0.173847,3.16615,12.3313,3.50006,8.12519,10.6889,-3.79349,-0.628679,9.58624,14.1787,-5.16474,5,-7.29702,-3.82769,0.763079,0.963014,-0.0923727,64,81,76,78,74,36,78,81,80,77,83,22
0.928908,10,-0.173788,-1.28405,-14.4618,27.5079,-13.05,0.173788,-0.173788,-1.28405,-14.0766,27.5079,-13.4352,0.173788,3.16605,12.3317,3.49882,8.12513,10.688,-3.79645,-0.63064,9.58631,14.1785,-5.1655,5,-7.29387,-3.82947,0.764876,0.963038,-0.0923413,64,81,76,78,74,36,78,81,80,77,83,22
0.92877,10,-0.17373,-1.28408,-14.4618,27.5079,-13.05,0.17373,-0.17373,-1.28408,-14.0766,27.5079,-13.4353,0.17373,3.16598,12.3321,3.49751,8.12506,10.6871,-3.7995,-0.632657,9.58638,14.1783,-5.16628,5,-7.29062,-3.83127,0.766734,0.96306,-0.0923103,64,81,76,78,74,36,78,81,80,77,83,22
0.928635,10,-0.173673,-1.28411,-14.4618,27.5079,-13.05,0.173673,-0.173673,-1.28411,-14.0766,27.5079,-13.4353,0.173673,3.16592,12.3325,3.49613,8.12499,10.6861,-3.80263,-0.634746,9.58645,14.1781,-5.16707,5,-7.28726,-3.8331,0.76866,0.96308,-0.0922799,64,81,76,78,74,36,78,81,80,77,83,22
0.928502,10,-0.173617,-1.28413,-14.4618,27.5079,-13.05,0.173617,-0.173617,-1.28413,-14.0766,27.5079,-13.4353,0.173617,3.16588,12.3329,3.49467,8.12492,10.685,-3.80588,-0.636921,9.58653,14.1779,-5.16788,5,-7.28378,-3.83495,0.770658,0.963097,-0.0922499,64,81,76,78,74,36,78,81,80,77,83,22
0.928372,10,-0.173562,-1.28415,-14.4618,27.5079,-13.05,0.173562,-0.173562,-1.28415,-14.0766,27.5079,-13.4353,0.173562,3.16586,12.3333,3.49311,8.12486,10.684,-3.80924,-0.639192,9.58661,14.1777,-5.16871,5,-7.28018,-3.83683,0.772733,0.963112,-0.0922205,64,81,76,78,74,36,78,81,80,77,83,22
0.928243,10,-0.173508,-1.28417,-14.4618,27.5079,-13.05,0.173508,-0.173508,-1.28417,-14.0766,27.5079,-13.4353,0.173508,3.16586,12.3336,3.49145,8.12479,10.6829,-3.81272,-0.641566,9.58669,14.1774,-5.16957,5,-7.27645,-3.83873,0.774885,0.963124,-0.0921918,64,81,76,78,74,36,78,81,80,77,83,22
0.928117,10,-0.173455,-1.28418,-14.4618,27.5079,-13.05,0.173455,-0.173455,-1.28418,-14.0766,27.5079,-13.4353,0.173455,3.16588,12.3339,3.4897,8.12473,10.6818,-3.81632,-0.644049,9.58678,14.1772,-5.17045,5,-7.27259,-3.84067,0.777115,0.963135,-0.0921636,64,81,76,78,74,36,78,81,80,77,83,22
0.927995,10,-0.173403,-1.28419,-14.4619,27.5079,-13.05,0.173403,-0.173403,-1.28419,-14.0766,27.5079,-13.4352,0.173403,3.16593,12.3343,3.48777,8.12468,10.6806,-3.82014,-0.646726,9.58688,14.177,-5.17137,5,-7.26852,-3.84268,0.779474,0.963143,-0.092136,64,81,76,78,74,36,78,81,80,77,83,22
0.927876,10,-0.173353,-1.2842,-14.4619,27.5079,-13.05,0.173353,-0.173353,-1.2842,-14.0766,27.5079,-13.4352,0.173353,3.16599,12.3346,3.48571,8.12464,10.6794,-3.82414,-0.649557,9.58698,14.1767,-5.17233,5,-7.26428,-3.84472,0.781933,0.963148,-0.0921092,64,81,76,78,74,36,78,81,80,77,83,22
0.92776,10,-0.173303,-1.2842,-14.4619,27.5079,-13.05,0.173303,-0.173303,-1.2842,-14.0766,27.5079,-13.4352,0.173303,3.16608,12.3348,3.48354,8.1246,10.6781,-3.82826,-0.652506,9.58709,14.1765,-5.17331,5,-7.25991,-3.8468,0.784469,0.963151,-0.0920829,64,81,76,78,74,36,78,81,80,77,83,22
0.927645,10,-0.173255,-1.2842,-14.4619,27.5079,-13.05,0.173255,-0.173255,-1.2842,-14.0766,27.5079,-13.4352,0.173255,3.16618,12.3351,3.48128,8.12458,10.6768,-3.83247,-0.655543,9.5872,14.1763,-5.17431,5,-7.25546,-3.8489,0.787062,0.963152,-0.0920573,64,81,76,78,74,36,78,81,80,77,83,22
0.927533,10,-0.173208,-1.2842,-14.4619,27.5079,-13.05,0.173208,-0.173208,-1.2842,-14.0766,27.5079,-13.4352,0.173208,3.16629,12.3354,3.47898,8.12455,10.6755,-3.83675,-0.658642,9.58731,14.176,-5.17533,5,-7.25093,-3.851,0.789694,0.963152,-0.0920323,64,81,76,78,74,36,78,81,80,77,83,22
0.927421,10,-0.173163,-1.2842,-14.4619,27.5079,-13.0499,0.173163,-0.173163,-1.2842,-14.0766,27.5079,-13.4352,0.173163,3.16642,12.3356,3.47663,8.12454,10.6742,-3.84107,-0.661783,9.58742,14.1758,-5.17635,5,-7.24636,-3.85311,0.792352,0.963151,-0.0920079,64,81,76,78,74,36,78,81,80,77,83,22
0.92731,10,-0.173118,-1.2842,-14.4632,27.5089,-13.0502,0.173118,-0.173118,-1.2842,-14.078,27.5089,-13.4355,0.173118,3.16655,12.3358,3.47426,8.12452,10.6729,-3.84541,-0.664949,9.58754,14.1755,-5.17737,5,-7.24178,-3.85521,0.795023,0.963148,-0.0919841,64,81,76,78,74,36,78,81,80,77,83,22
0.927199,10,-0.173074,-1.28419,-14.4632,27.5089,-13.0502,0.173074,-0.173074,-1.28419,-14.078,27.5089,-13.4355,0.173074,3.16669,12.336,3.4719,8.12451,10.6716,-3.8497,-0.668091,9.58766,14.1753,-5.17839,5,-7.23723,-3.85728,0.797675,0.963146,-0.0919608,64,81,76,78,74,36,78,81,80,77,83,22
0.927087,10,-0.173031,-1.28419,-14.4632,27.5089,-13.0502,0.173031,-0.173031,-1.28419,-14.078,27.5089,-13.4355,0.173031,3.16683,12.3363,3.46956,8.1245,10.6703,-3.85397,-0.67122,9.58778,14.175,-5.1794,5,-7.23272,-3.85933,0.800315,0.963143,-0.091938,64,81,76,78,74,36,78,81,80,77,83,22
0.926975,10,-0.17299,-1.28418,-14.4632,27.5089,-13.0502,0.17299,-0.17299,-1.28418,-14.078,27.5089,-13.4354,0.17299,3.16698,12.3365,3.46721,8.1245,10.669,-3.85823,-0.674348,9.5879,14.1748,-5.1804,5,-7.22822,-3.86136,0.802949,0.963139,-0.0919157,64,81,76,78,74,36,78,81,80,77,83,22
0.926863,10,-0.172949,-1.28418,-14.4633,27.5089,-13.0502,0.172949,-0.172949,-1.28418,-14.078,27.5089,-13.4354,0.172949,3.16713,12.3367,3.46485,8.1245,10.6677,-3.86249,-0.677489,9.58803,14.1745,-5.18141,5,-7.22371,-3.86338,0.805583,0.963134,-0.0918941,64,81,76,78,74,36,78,81,80,77,83,22
