565950964-design/kaipule_sdk/control/csv_file/huoyanjingjin.csv
Head_1,Head_2,Joint_1,Joint_2,Joint_3,Joint_4,Joint_5,Joint_6,Joint_7,Joint_8,Joint_9,Joint_10,Joint_11,Joint_12,Joint_13,Joint_14,Joint_15,Joint_16,Joint_17,Joint_18,Joint_19,Joint_20,Joint_21,Joint_22,Joint_23,Joint_24,Joint_25,Joint_26,Joint_27,Joint_28,Finger_1,Finger_2,Finger_3,Finger_4,Finger_5,Finger_6,Finger_7,Finger_8,Finger_9,Finger_10,Finger_11,Finger_12
-2.10031,8.37903,-0.143096,-2.11108,-14.0297,27.5035,-13.4748,0.143096,-0.143096,-2.11108,-13.3964,27.5035,-14.1082,0.143096,-5.77832,19.2308,11.6363,11.2528,4.92938,-6.79598,-0.4684,4.77709,20.7507,9.2681,8.48739,-14.7102,-7.34934,0.0473186,1.58331,-0.075995,52,68,76,80,78,48,70,73,78,76,85,30
-2.10029,8.37903,-0.143098,-2.11108,-14.0297,27.5035,-13.4748,0.143098,-0.143098,-2.11108,-13.3964,27.5035,-14.1082,0.143098,-5.77831,19.2308,11.6363,11.2528,4.92945,-6.79598,-0.468398,4.77708,20.7508,9.26807,8.48739,-14.7102,-7.34933,0.047316,1.58331,-0.0759959,52,68,76,80,78,48,70,73,78,76,85,30
-2.10027,8.37902,-0.143101,-2.11108,-14.0297,27.5035,-13.4748,0.143101,-0.143101,-2.11108,-13.3964,27.5035,-14.1082,0.143101,-5.77831,19.2308,11.6361,11.2528,4.92959,-6.79599,-0.468395,4.77708,20.7508,9.268,8.4874,-14.7101,-7.34932,0.0473105,1.58331,-0.0759975,52,68,76,80,78,48,70,73,78,76,85,30
-2.10024,8.37901,-0.143105,-2.11108,-14.0297,27.5035,-13.4748,0.143105,-0.143105,-2.11108,-13.3964,27.5035,-14.1082,0.143105,-5.77831,19.2308,11.6359,11.2528,4.92978,-6.796,-0.468389,4.77707,20.7508,9.26792,8.48741,-14.71,-7.3493,0.0473022,1.58331,-0.0759998,52,68,76,80,78,48,70,73,78,76,85,30
-2.10019,8.37899,-0.143111,-2.11107,-14.0297,27.5035,-13.4748,0.143111,-0.143111,-2.11107,-13.3964,27.5035,-14.1082,0.143111,-5.77831,19.2309,11.6357,11.2529,4.93004,-6.79601,-0.46838,4.77705,20.7509,9.26781,8.48743,-14.7099,-7.34927,0.047291,1.5833,-0.0760028,52,68,76,80,78,48,70,73,78,76,85,30
-2.10013,8.37897,-0.143117,-2.11107,-14.0297,27.5035,-13.4748,0.143117,-0.143117,-2.11107,-13.3964,27.5035,-14.1082,0.143117,-5.77831,19.2309,11.6354,11.2529,4.93035,-6.79601,-0.468368,4.77703,20.751,9.26769,8.48745,-14.7097,-7.34923,0.0472768,1.5833,-0.0760063,52,68,76,80,78,48,70,73,78,76,85,30
-2.10007,8.37894,-0.143125,-2.11106,-14.0297,27.5035,-13.4748,0.143125,-0.143125,-2.11106,-13.3964,27.5035,-14.1082,0.143125,-5.77831,19.2309,11.635,11.2529,4.93072,-6.79602,-0.468352,4.77701,20.7511,9.26756,8.48747,-14.7096,-7.34918,0.0472598,1.5833,-0.0760104,52,68,76,80,78,48,70,73,78,76,85,30
-2.09999,8.37891,-0.143133,-2.11106,-14.0297,27.5035,-13.4748,0.143133,-0.143133,-2.11106,-13.3964,27.5035,-14.1082,0.143133,-5.77831,19.2309,11.6347,11.253,4.93114,-6.79603,-0.468332,4.77698,20.7512,9.26742,8.48749,-14.7094,-7.34912,0.04724,1.58329,-0.0760149,52,68,76,80,78,48,70,73,78,76,85,30
-2.09991,8.37888,-0.143143,-2.11105,-14.0297,27.5035,-13.4748,0.143143,-0.143143,-2.11105,-13.3964,27.5035,-14.1082,0.143143,-5.77832,19.2309,11.6342,11.253,4.9316,-6.79603,-0.468309,4.77695,20.7513,9.26727,8.48752,-14.7093,-7.34905,0.0472163,1.58329,-0.0760199,52,68,76,80,78,48,70,73,78,76,85,30
-2.09982,8.37885,-0.143153,-2.11105,-14.0297,27.5035,-13.4748,0.143153,-0.143153,-2.11105,-13.3964,27.5035,-14.1082,0.143153,-5.77833,19.231,11.6337,11.2531,4.93211,-6.79603,-0.468281,4.77691,20.7515,9.26712,8.48756,-14.7091,-7.34897,0.0471894,1.58328,-0.0760253,52,68,76,80,78,48,70,73,78,76,85,30
-2.09972,8.37881,-0.143164,-2.11104,-14.0297,27.5035,-13.4748,0.143164,-0.143164,-2.11104,-13.3964,27.5035,-14.1082,0.143164,-5.77834,19.231,11.6332,11.2531,4.93266,-6.79602,-0.468249,4.77686,20.7516,9.26697,8.48759,-14.7089,-7.34888,0.0471602,1.58328,-0.076031,52,68,76,80,78,48,70,73,78,76,85,30
-2.09961,8.37877,-0.143175,-2.11103,-14.0297,27.5035,-13.4749,0.143175,-0.143175,-2.11103,-13.3964,27.5035,-14.1082,0.143175,-5.77835,19.231,11.6327,11.2532,4.93325,-6.79601,-0.46821,4.77681,20.7518,9.26682,8.48763,-14.7087,-7.34877,0.0471293,1.58328,-0.0760368,52,68,76,80,78,48,70,73,78,76,85,30
-2.0995,8.37872,-0.143186,-2.11103,-14.0297,27.5035,-13.4749,0.143186,-0.143186,-2.11103,-13.3964,27.5035,-14.1082,0.143186,-5.77838,19.2311,11.6321,11.2533,4.93386,-6.796,-0.468166,4.77676,20.7519,9.26668,8.48766,-14.7085,-7.34866,0.0470974,1.58327,-0.0760428,52,68,76,80,78,48,70,73,78,76,85,30
-2.09938,8.37868,-0.143197,-2.11102,-14.0297,27.5035,-13.4749,0.143197,-0.143197,-2.11102,-13.3964,27.5035,-14.1082,0.143197,-5.7784,19.2311,11.6315,11.2534,4.93451,-6.79598,-0.468114,4.7767,20.7521,9.26655,8.4877,-14.7083,-7.34854,0.0470649,1.58327,-0.0760489,52,68,76,80,78,48,70,73,78,76,85,30
-2.09925,8.37863,-0.143209,-2.11102,-14.0294,27.5033,-13.4748,0.143209,-0.143209,-2.11102,-13.3961,27.5033,-14.1081,0.143209,-5.77843,19.2312,11.6309,11.2535,4.93517,-6.79595,-0.468056,4.77664,20.7523,9.26644,8.48773,-14.7081,-7.3484,0.0470323,1.58326,-0.076055,52,68,76,80,78,48,70,73,78,76,85,30
-2.0991,8.37858,-0.14322,-2.11101,-14.0294,27.5033,-13.4748,0.14322,-0.14322,-2.11101,-13.3961,27.5033,-14.1081,0.14322,-5.77847,19.2313,11.6303,11.2536,4.93585,-6.79592,-0.467986,4.77658,20.7525,9.26635,8.48775,-14.708,-7.34826,0.0470014,1.58326,-0.0760609,52,68,76,80,78,48,70,73,78,76,85,30
-2.09896,8.37853,-0.143231,-2.11101,-14.0294,27.5033,-13.4748,0.143231,-0.143231,-2.11101,-13.3961,27.5033,-14.1081,0.143231,-5.77851,19.2314,11.6297,11.2537,4.93654,-6.79588,-0.467908,4.77652,20.7527,9.26629,8.48777,-14.7079,-7.3481,0.0469718,1.58325,-0.0760666,52,68,76,80,78,48,70,73,78,76,85,30
-2.0988,8.37847,-0.143241,-2.111,-14.0294,27.5033,-13.4748,0.143241,-0.143241,-2.111,-13.3961,27.5033,-14.1081,0.143241,-5.77855,19.2315,11.629,11.2539,4.93724,-6.79583,-0.467822,4.77646,20.7529,9.26624,8.48778,-14.7078,-7.34794,0.0469433,1.58325,-0.0760721,52,68,76,80,78,48,70,73,78,76,85,30
-2.09864,8.37841,-0.143251,-2.111,-14.0294,27.5033,-13.4748,0.143251,-0.143251,-2.111,-13.3961,27.5033,-14.1081,0.143251,-5.77861,19.2316,11.6283,11.254,4.93796,-6.79578,-0.467731,4.77639,20.7531,9.26621,8.48779,-14.7077,-7.34777,0.0469155,1.58325,-0.0760776,52,68,76,80,78,48,70,73,78,76,85,30
-2.09847,8.37835,-0.143261,-2.111,-14.0294,27.5033,-13.4748,0.143261,-0.143261,-2.111,-13.3961,27.5033,-14.1081,0.143261,-5.77866,19.2317,11.6277,11.2542,4.93868,-6.79573,-0.467634,4.77633,20.7534,9.26619,8.4878,-14.7077,-7.34759,0.0468885,1.58325,-0.076083,52,68,76,80,78,48,70,73,78,76,85,30
-2.0983,8.3783,-0.143271,-2.111,-14.0294,27.5033,-13.4748,0.143271,-0.143271,-2.111,-13.3961,27.5033,-14.1081,0.143271,-5.77872,19.2318,11.627,11.2543,4.93941,-6.79568,-0.467533,4.77626,20.7536,9.26618,8.48781,-14.7076,-7.34741,0.0468619,1.58325,-0.0760883,52,68,76,80,78,48,70,73,78,76,85,30
-2.09813,8.37824,-0.143281,-2.11099,-14.0294,27.5033,-13.4748,0.143281,-0.143281,-2.11099,-13.3961,27.5033,-14.1081,0.143281,-5.77878,19.2319,11.6263,11.2545,4.94015,-6.79562,-0.467429,4.77619,20.7538,9.26618,8.48781,-14.7076,-7.34723,0.0468359,1.58325,-0.0760936,52,68,76,80,78,48,70,73,78,76,85,30
-2.09796,8.37818,-0.143292,-2.11099,-14.0294,27.5033,-13.4749,0.143292,-0.143292,-2.11099,-13.3961,27.5033,-14.1082,0.143292,-5.77884,19.2321,11.6257,11.2547,4.94091,-6.79557,-0.467326,4.77612,20.754,9.26616,8.48782,-14.7075,-7.34705,0.0468089,1.58324,-0.0760991,52,68,76,80,78,48,70,73,78,76,85,30
-2.09779,8.37812,-0.143302,-2.11099,-14.0294,27.5033,-13.4749,0.143302,-0.143302,-2.11099,-13.3961,27.5033,-14.1082,0.143302,-5.7789,19.2322,11.625,11.2548,4.94167,-6.79553,-0.467222,4.77605,20.7543,9.26614,8.48784,-14.7075,-7.34687,0.0467817,1.58324,-0.0761046,52,68,76,80,78,48,70,73,78,76,85,30
-2.09763,8.37806,-0.143312,-2.11099,-14.0294,27.5033,-13.4749,0.143312,-0.143312,-2.11099,-13.3961,27.5033,-14.1082,0.143312,-5.77897,19.2323,11.6243,11.255,4.94243,-6.79548,-0.467118,4.77598,20.7545,9.26613,8.48785,-14.7074,-7.34669,0.046755,1.58324,-0.0761101,52,68,76,80,78,48,70,73,78,76,85,30
-2.09746,8.378,-0.143322,-2.11099,-14.0294,27.5033,-13.4749,0.143322,-0.143322,-2.11099,-13.3961,27.5033,-14.1082,0.143322,-5.77903,19.2324,11.6236,11.2551,4.94319,-6.79543,-0.46701,4.77591,20.7547,9.26612,8.48786,-14.7074,-7.34651,0.0467292,1.58324,-0.0761154,52,68,76,80,78,48,70,73,78,76,85,30
-2.09729,8.37794,-0.143332,-2.11099,-14.0294,27.5033,-13.4749,0.143332,-0.143332,-2.11099,-13.3961,27.5033,-14.1082,0.143332,-5.7791,19.2325,11.6229,11.2553,4.94394,-6.79538,-0.4669,4.77584,20.7549,9.26613,8.48786,-14.7074,-7.34633,0.0467048,1.58324,-0.0761205,52,68,76,80,78,48,70,73,78,76,85,30
-2.09711,8.37788,-0.143341,-2.11099,-14.0294,27.5033,-13.4749,0.143341,-0.143341,-2.11099,-13.3961,27.5033,-14.1082,0.143341,-5.77917,19.2326,11.6223,11.2555,4.94467,-6.79532,-0.466786,4.77577,20.7552,9.26616,8.48786,-14.7074,-7.34614,0.0466823,1.58324,-0.0761252,52,68,76,80,78,48,70,73,78,76,85,30
-2.09694,8.37782,-0.143349,-2.11099,-14.0291,27.5032,-13.4748,0.143349,-0.143349,-2.11099,-13.3958,27.5032,-14.1081,0.143349,-5.77924,19.2328,11.6216,11.2557,4.94538,-6.79525,-0.466667,4.7757,20.7554,9.26622,8.48785,-14.7074,-7.34594,0.046662,1.58324,-0.0761296,52,68,76,80,78,48,70,73,78,76,85,30
-2.09675,8.37776,-0.143356,-2.11099,-14.0291,27.5032,-13.4748,0.143356,-0.143356,-2.11099,-13.3958,27.5032,-14.1081,0.143356,-5.77931,19.233,11.621,11.2559,4.94604,-6.79516,-0.466539,4.77564,20.7556,9.26632,8.48782,-14.7075,-7.34575,0.046645,1.58324,-0.0761333,52,68,76,80,78,48,70,73,78,76,85,30
-2.09657,8.3777,-0.143362,-2.11099,-14.0291,27.5032,-13.4749,0.143362,-0.143362,-2.11099,-13.3958,27.5032,-14.1082,0.143362,-5.77938,19.2331,11.6204,11.2561,4.94667,-6.79506,-0.466404,4.77558,20.7559,9.26647,8.48778,-14.7076,-7.34554,0.046631,1.58324,-0.0761364,52,68,76,80,78,48,70,73,78,76,85,30
-2.09637,8.37763,-0.143367,-2.111,-14.0291,27.5032,-13.4749,0.143367,-0.143367,-2.111,-13.3958,27.5032,-14.1082,0.143367,-5.77945,19.2333,11.6199,11.2563,4.94726,-6.79495,-0.466264,4.77552,20.7561,9.26666,8.48773,-14.7077,-7.34534,0.0466199,1.58325,-0.076139,52,68,76,80,78,48,70,73,78,76,85,30
-2.09618,8.37757,-0.143371,-2.111,-14.0291,27.5032,-13.4749,0.143371,-0.143371,-2.111,-13.3958,27.5032,-14.1082,0.143371,-5.77953,19.2336,11.6193,11.2565,4.94783,-6.79484,-0.46612,4.77547,20.7564,9.26687,8.48766,-14.7079,-7.34513,0.0466113,1.58325,-0.0761412,52,68,76,80,78,48,70,73,78,76,85,30
-2.09598,8.37751,-0.143374,-2.111,-14.0291,27.5032,-13.4749,0.143374,-0.143374,-2.111,-13.3958,27.5032,-14.1082,0.143374,-5.7796,19.2338,11.6188,11.2567,4.94838,-6.79471,-0.465972,4.77541,20.7566,9.2671,8.48759,-14.7081,-7.34491,0.046605,1.58325,-0.076143,52,68,76,80,78,48,70,73,78,76,85,30
-2.09578,8.37745,-0.143377,-2.11101,-14.0291,27.5032,-13.4749,0.143377,-0.143377,-2.11101,-13.3958,27.5032,-14.1082,0.143377,-5.77968,19.234,11.6182,11.2569,4.94891,-6.79458,-0.465823,4.77536,20.7569,9.26735,8.48752,-14.7083,-7.34469,0.0466008,1.58326,-0.0761445,52,68,76,80,78,48,70,73,78,76,85,30
-2.09558,8.37739,-0.143379,-2.11101,-14.029,27.5031,-13.4748,0.143379,-0.143379,-2.11101,-13.3957,27.5031,-14.1081,0.143379,-5.77975,19.2342,11.6177,11.2571,4.94942,-6.79445,-0.465673,4.77531,20.7571,9.26761,8.48744,-14.7085,-7.34447,0.0465985,1.58326,-0.0761456,52,68,76,80,78,48,70,73,78,76,85,30
-2.09538,8.37733,-0.143381,-2.11102,-14.029,27.5031,-13.4749,0.143381,-0.143381,-2.11102,-13.3957,27.5031,-14.1082,0.143381,-5.77982,19.2345,11.6172,11.2573,4.94995,-6.79432,-0.465527,4.77527,20.7574,9.26786,8.48736,-14.7087,-7.34424,0.0465971,1.58326,-0.0761468,52,68,76,80,78,48,70,73,78,76,85,30
-2.09518,8.37727,-0.143383,-2.11102,-14.029,27.5031,-13.4749,0.143383,-0.143383,-2.11102,-13.3957,27.5031,-14.1082,0.143383,-5.7799,19.2347,11.6166,11.2575,4.95047,-6.79419,-0.465383,4.77522,20.7576,9.2681,8.48728,-14.709,-7.34401,0.0465969,1.58327,-0.0761478,52,68,76,80,78,48,70,73,78,76,85,30
-2.09498,8.37722,-0.143385,-2.11103,-14.029,27.5031,-13.4749,0.143385,-0.143385,-2.11103,-13.3957,27.5031,-14.1082,0.143385,-5.77997,19.2349,11.6161,11.2577,4.95098,-6.79406,-0.465239,4.77518,20.7578,9.26835,8.48721,-14.7092,-7.34378,0.046598,1.58327,-0.0761487,52,68,76,80,78,48,70,73,78,76,85,30
-2.09479,8.37716,-0.143386,-2.11103,-14.029,27.5031,-13.4749,0.143386,-0.143386,-2.11103,-13.3956,27.5031,-14.1082,0.143386,-5.78004,19.2351,11.6156,11.2579,4.95147,-6.79392,-0.465094,4.77513,20.7581,9.26862,8.48712,-14.7094,-7.34354,0.0466005,1.58328,-0.0761493,52,68,76,80,78,48,70,73,78,76,85,30
-2.09459,8.37711,-0.143386,-2.11104,-14.029,27.5031,-13.4749,0.143386,-0.143386,-2.11104,-13.3956,27.5031,-14.1082,0.143386,-5.78011,19.2353,11.6151,11.2581,4.95192,-6.79378,-0.464946,4.77509,20.7583,9.2689,8.48703,-14.7097,-7.34332,0.0466043,1.58328,-0.0761495,52,68,76,80,78,48,70,73,78,76,85,30
-2.09439,8.37706,-0.143386,-2.11105,-14.029,27.5031,-13.4749,0.143386,-0.143386,-2.11105,-13.3956,27.5031,-14.1082,0.143386,-5.78018,19.2356,11.6146,11.2583,4.95234,-6.79363,-0.464796,4.77506,20.7586,9.26922,8.48693,-14.71,-7.34309,0.0466096,1.58329,-0.0761494,52,68,76,80,78,48,70,73,78,76,85,30
-2.0942,8.377,-0.143385,-2.11105,-14.029,27.5031,-13.4749,0.143385,-0.143385,-2.11105,-13.3957,27.5031,-14.1082,0.143385,-5.78025,19.2358,11.6142,11.2585,4.95271,-6.79347,-0.464641,4.77502,20.7588,9.26956,8.48682,-14.7103,-7.34287,0.0466162,1.58329,-0.0761488,52,68,76,80,78,48,70,73,78,76,85,30
-2.09401,8.37694,-0.143383,-2.11106,-14.029,27.5031,-13.4749,0.143383,-0.143383,-2.11106,-13.3957,27.5031,-14.1082,0.143383,-5.78032,19.2361,11.6139,11.2588,4.95301,-6.7933,-0.46448,4.77499,20.7591,9.26996,8.48669,-14.7106,-7.34267,0.0466248,1.5833,-0.0761477,52,68,76,80,78,48,70,73,78,76,85,30
-2.09382,8.37688,-0.14338,-2.11107,-14.029,27.5031,-13.4749,0.14338,-0.14338,-2.11107,-13.3957,27.5031,-14.1082,0.14338,-5.78039,19.2364,11.6136,11.259,4.95326,-6.79312,-0.464313,4.77495,20.7593,9.2704,8.48655,-14.711,-7.34247,0.046635,1.5833,-0.076146,52,68,76,80,78,48,70,73,78,76,85,30
-2.09363,8.37682,-0.143376,-2.11108,-14.029,27.5031,-13.4749,0.143376,-0.143376,-2.11108,-13.3957,27.5031,-14.1082,0.143376,-5.78046,19.2368,11.6134,11.2592,4.95345,-6.79292,-0.464141,4.77492,20.7596,9.27088,8.48639,-14.7113,-7.34228,0.0466462,1.58331,-0.0761438,52,68,76,80,78,48,70,73,78,76,85,30
-2.09344,8.37676,-0.143371,-2.11109,-14.029,27.5031,-13.4749,0.143371,-0.143371,-2.11109,-13.3957,27.5031,-14.1082,0.143371,-5.78053,19.2371,11.6133,11.2595,4.95359,-6.79271,-0.463962,4.77489,20.76,9.2714,8.48623,-14.7117,-7.3421,0.0466579,1.58331,-0.0761412,52,68,76,80,78,48,70,73,78,76,85,30
-2.09326,8.37669,-0.143366,-2.11109,-14.029,27.5031,-13.4749,0.143366,-0.143366,-2.11109,-13.3957,27.5031,-14.1082,0.143366,-5.7806,19.2375,11.6132,11.2597,4.95367,-6.79249,-0.463779,4.77487,20.7603,9.27195,8.48605,-14.7121,-7.34194,0.0466695,1.58332,-0.0761384,52,68,76,80,78,48,70,73,78,76,85,30
-2.09308,8.37663,-0.14336,-2.1111,-14.029,27.5031,-13.4749,0.14336,-0.14336,-2.1111,-13.3957,27.5031,-14.1082,0.14336,-5.78066,19.2379,11.6131,11.2599,4.9537,-6.79226,-0.46359,4.77484,20.7606,9.27254,8.48587,-14.7125,-7.34178,0.0466808,1.58332,-0.0761354,52,68,76,80,78,48,70,73,78,76,85,30
-2.0929,8.37657,-0.143354,-2.11111,-14.029,27.5031,-13.4749,0.143354,-0.143354,-2.11111,-13.3957,27.5031,-14.1082,0.143354,-5.78072,19.2383,11.6132,11.2602,4.95368,-6.79203,-0.463397,4.77481,20.761,9.27315,8.48567,-14.713,-7.34163,0.0466912,1.58333,-0.0761321,52,68,76,80,78,48,70,73,78,76,85,30
-2.09272,8.37651,-0.143348,-2.11111,-14.029,27.5031,-13.4749,0.143348,-0.143348,-2.11111,-13.3956,27.5031,-14.1082,0.143348,-5.78077,19.2387,11.6132,11.2604,4.95362,-6.79178,-0.4632,4.77478,20.7613,9.27378,8.48548,-14.7134,-7.3415,0.0467009,1.58333,-0.0761288,52,68,76,80,78,48,70,73,78,76,85,30
-2.09255,8.37645,-0.143341,-2.11112,-14.029,27.5031,-13.4749,0.143341,-0.143341,-2.11112,-13.3956,27.5031,-14.1082,0.143341,-5.78082,19.2392,11.6134,11.2606,4.9535,-6.79153,-0.462999,4.77476,20.7617,9.27444,8.48528,-14.7138,-7.34137,0.0467094,1.58334,-0.0761255,52,68,76,80,78,48,70,73,78,76,85,30
-2.09238,8.37639,-0.143335,-2.11112,-14.029,27.5031,-13.4749,0.143335,-0.143335,-2.11112,-13.3956,27.5031,-14.1082,0.143335,-5.78087,19.2396,11.6135,11.2609,4.95335,-6.79127,-0.462794,4.77473,20.7621,9.27511,8.48507,-14.7143,-7.34125,0.0467161,1.58334,-0.0761221,52,68,76,80,78,48,70,73,78,76,85,30
-2.09222,8.37633,-0.143329,-2.11112,-14.029,27.5031,-13.4749,0.143329,-0.143329,-2.11112,-13.3956,27.5031,-14.1082,0.143329,-5.78091,19.2401,11.6138,11.2611,4.95317,-6.791,-0.462586,4.7747,20.7625,9.27581,8.48486,-14.7148,-7.34114,0.0467207,1.58334,-0.0761188,52,68,76,80,78,48,70,73,78,76,85,30
-2.09207,8.37628,-0.143322,-2.11112,-14.029,27.5031,-13.4749,0.143322,-0.143322,-2.11112,-13.3956,27.5031,-14.1083,0.143322,-5.78095,19.2405,11.6141,11.2613,4.95295,-6.79073,-0.462374,4.77467,20.7629,9.27651,8.48465,-14.7152,-7.34105,0.0467227,1.58334,-0.0761155,52,68,76,80,78,48,70,73,78,76,85,30
-2.09192,8.37622,-0.143316,-2.11112,-14.029,27.5031,-13.4749,0.143316,-0.143316,-2.11112,-13.3956,27.5031,-14.1083,0.143316,-5.78097,19.241,11.6144,11.2616,4.95272,-6.79045,-0.46216,4.77464,20.7633,9.27723,8.48444,-14.7157,-7.34096,0.0467219,1.58334,-0.0761122,52,68,76,80,78,48,70,73,78,76,85,30
-2.09178,8.37617,-0.14331,-2.11112,-14.0294,27.5034,-13.475,0.14331,-0.14331,-2.11112,-13.3961,27.5034,-14.1083,0.14331,-5.78099,19.2415,11.6148,11.2618,4.95246,-6.79016,-0.461943,4.77461,20.7637,9.27796,8.48422,-14.7161,-7.34088,0.0467181,1.58334,-0.076109,52,68,76,80,78,48,70,73,78,76,85,30
-2.09165,8.37611,-0.143304,-2.11111,-14.0294,27.5034,-13.475,0.143304,-0.143304,-2.11111,-13.3961,27.5034,-14.1083,0.143304,-5.781,19.242,11.6152,11.262,4.95219,-6.78987,-0.461723,4.77457,20.7641,9.2787,8.48401,-14.7166,-7.34081,0.04671,1.58334,-0.0761059,52,68,76,80,78,48,70,73,78,76,85,30
-2.09154,8.37605,-0.143299,-2.11111,-14.0294,27.5034,-13.475,0.143299,-0.143299,-2.11111,-13.3961,27.5034,-14.1083,0.143299,-5.781,19.2424,11.6156,11.2622,4.95192,-6.78957,-0.461501,4.77454,20.7645,9.27944,8.48379,-14.717,-7.34075,0.046698,1.58333,-0.0761029,52,68,76,80,78,48,70,73,78,76,85,30
-2.09143,8.376,-0.143293,-2.1111,-14.0294,27.5034,-13.475,0.143293,-0.143293,-2.1111,-13.3961,27.5034,-14.1083,0.143293,-5.78098,19.2429,11.6161,11.2624,4.95164,-6.78926,-0.461277,4.7745,20.7649,9.28019,8.48358,-14.7174,-7.3407,0.0466826,1.58332,-0.0760999,52,68,76,80,78,48,70,73,78,76,85,30
-2.09133,8.37595,-0.143288,-2.11108,-14.0294,27.5034,-13.475,0.143288,-0.143288,-2.11108,-13.3961,27.5034,-14.1083,0.143288,-5.78096,19.2434,11.6167,11.2626,4.95134,-6.78895,-0.461052,4.77446,20.7654,9.28094,8.48337,-14.7179,-7.34065,0.0466643,1.58331,-0.0760971,52,68,76,80,78,48,70,73,78,76,85,30
-2.09124,8.37589,-0.143283,-2.11107,-14.0294,27.5034,-13.475,0.143283,-0.143283,-2.11107,-13.3961,27.5034,-14.1083,0.143283,-5.78094,19.2439,11.6172,11.2628,4.95104,-6.78864,-0.460826,4.77442,20.7658,9.28169,8.48315,-14.7183,-7.34061,0.0466435,1.5833,-0.0760944,52,68,76,80,78,48,70,73,78,76,85,30
-2.09116,8.37584,-0.143278,-2.11106,-14.0294,27.5034,-13.475,0.143278,-0.143278,-2.11106,-13.3961,27.5034,-14.1083,0.143278,-5.78091,19.2444,11.6178,11.263,4.95073,-6.78832,-0.4606,4.77437,20.7662,9.28244,8.48294,-14.7187,-7.34058,0.0466205,1.58329,-0.0760919,52,68,76,80,78,48,70,73,78,76,85,30
-2.09108,8.37579,-0.143274,-2.11104,-14.0296,27.5036,-13.4751,0.143274,-0.143274,-2.11104,-13.3963,27.5036,-14.1084,0.143274,-5.78087,19.2449,11.6184,11.2631,4.95041,-6.78801,-0.460374,4.77433,20.7666,9.28318,8.48273,-14.7191,-7.34055,0.0465956,1.58328,-0.0760895,52,68,76,80,78,48,70,73,78,76,85,30
-2.091,8.37574,-0.143269,-2.11103,-14.0296,27.5036,-13.4751,0.143269,-0.143269,-2.11103,-13.3963,27.5036,-14.1084,0.143269,-5.78084,19.2453,11.619,11.2633,4.95008,-6.7877,-0.460148,4.77429,20.7671,9.28393,8.48252,-14.7195,-7.34054,0.0465699,1.58327,-0.0760872,52,68,76,80,78,48,70,73,78,76,85,30
-2.09092,8.3757,-0.143265,-2.11101,-14.0296,27.5036,-13.4751,0.143265,-0.143265,-2.11101,-13.3963,27.5036,-14.1084,0.143265,-5.7808,19.2458,11.6197,11.2635,4.94974,-6.78739,-0.459922,4.77425,20.7675,9.28466,8.48232,-14.7199,-7.34053,0.0465431,1.58326,-0.076085,52,68,76,80,78,48,70,73,78,76,85,30
-2.09085,8.37566,-0.143261,-2.11099,-14.0296,27.5036,-13.4751,0.143261,-0.143261,-2.11099,-13.3963,27.5036,-14.1084,0.143261,-5.78076,19.2463,11.6203,11.2636,4.94939,-6.78708,-0.459698,4.7742,20.7679,9.28539,8.48212,-14.7203,-7.34052,0.0465152,1.58325,-0.076083,52,68,76,80,78,48,70,73,78,76,85,30
-2.09079,8.37561,-0.143258,-2.11098,-14.0296,27.5036,-13.4751,0.143258,-0.143258,-2.11098,-13.3963,27.5036,-14.1084,0.143258,-5.78072,19.2467,11.6209,11.2638,4.94905,-6.78677,-0.459476,4.77416,20.7683,9.28611,8.48192,-14.7207,-7.34052,0.0464861,1.58323,-0.076081,52,68,76,80,78,48,70,73,78,76,85,30
-2.09073,8.37557,-0.143254,-2.11096,-14.0296,27.5036,-13.4751,0.143254,-0.143254,-2.11096,-13.3963,27.5036,-14.1084,0.143254,-5.78067,19.2472,11.6216,11.264,4.94871,-6.78646,-0.459257,4.77412,20.7687,9.28682,8.48172,-14.7211,-7.34052,0.0464556,1.58322,-0.0760791,52,68,76,80,78,48,70,73,78,76,85,30
-2.09068,8.37553,-0.143251,-2.11094,-14.0296,27.5036,-13.4751,0.143251,-0.143251,-2.11094,-13.3963,27.5036,-14.1084,0.143251,-5.78062,19.2476,11.6222,11.2641,4.94838,-6.78616,-0.459042,4.77408,20.7691,9.28752,8.48152,-14.7215,-7.34052,0.0464238,1.5832,-0.0760772,52,68,76,80,78,48,70,73,78,76,85,30
-2.09064,8.37549,-0.143247,-2.11092,-14.0298,27.5038,-13.4751,0.143247,-0.143247,-2.11092,-13.3965,27.5038,-14.1084,0.143247,-5.78056,19.248,11.6229,11.2643,4.94806,-6.78585,-0.45883,4.77403,20.7696,9.28822,8.48133,-14.7218,-7.34052,0.0463907,1.58319,-0.0760753,52,68,76,80,78,48,70,73,78,76,85,30
-2.0906,8.37544,-0.143243,-2.11089,-14.0298,27.5038,-13.4751,0.143243,-0.143243,-2.11089,-13.3965,27.5038,-14.1084,0.143243,-5.78049,19.2485,11.6236,11.2644,4.94776,-6.78555,-0.458625,4.77398,20.77,9.2889,8.48115,-14.7222,-7.34052,0.0463547,1.58317,-0.0760734,52,68,76,80,78,48,70,73,78,76,85,30
-2.09058,8.37539,-0.14324,-2.11087,-14.0298,27.5038,-13.4751,0.14324,-0.14324,-2.11087,-13.3965,27.5038,-14.1084,0.14324,-5.78041,19.2489,11.6243,11.2645,4.94748,-6.78525,-0.458425,4.77394,20.7703,9.28957,8.48096,-14.7225,-7.34052,0.0463166,1.58315,-0.0760714,52,68,76,80,78,48,70,73,78,76,85,30
-2.09057,8.37534,-0.143236,-2.11084,-14.0298,27.5038,-13.4751,0.143236,-0.143236,-2.11084,-13.3965,27.5038,-14.1084,0.143236,-5.78033,19.2494,11.625,11.2647,4.94722,-6.78495,-0.45823,4.77389,20.7707,9.29023,8.48078,-14.7228,-7.34052,0.0462771,1.58313,-0.0760694,52,68,76,80,78,48,70,73,78,76,85,30
-2.09057,8.37528,-0.143232,-2.11082,-14.0298,27.5038,-13.4751,0.143232,-0.143232,-2.11082,-13.3965,27.5038,-14.1084,0.143232,-5.78024,19.2498,11.6257,11.2648,4.94697,-6.78465,-0.45804,4.77384,20.7711,9.29088,8.4806,-14.7232,-7.34051,0.0462367,1.58311,-0.0760672,52,68,76,80,78,48,70,73,78,76,85,30
-2.09058,8.37522,-0.143227,-2.11079,-14.0298,27.5038,-13.4751,0.143227,-0.143227,-2.11079,-13.3965,27.5038,-14.1084,0.143227,-5.78014,19.2502,11.6264,11.2649,4.94675,-6.78435,-0.457855,4.77378,20.7715,9.29152,8.48043,-14.7235,-7.3405,0.0461959,1.58309,-0.0760649,52,68,76,80,78,48,70,73,78,76,85,30
-2.09061,8.37516,-0.143223,-2.11075,-14.0298,27.5038,-13.4752,0.143223,-0.143223,-2.11075,-13.3965,27.5038,-14.1084,0.143223,-5.78004,19.2506,11.6271,11.265,4.94655,-6.78406,-0.457675,4.77373,20.7719,9.29215,8.48026,-14.7238,-7.34049,0.046155,1.58307,-0.0760624,52,68,76,80,78,48,70,73,78,76,85,30
-2.09064,8.37509,-0.143217,-2.11072,-14.0301,27.504,-13.4752,0.143217,-0.143217,-2.11072,-13.3969,27.504,-14.1084,0.143217,-5.77994,19.2511,11.6279,11.2651,4.94638,-6.78377,-0.4575,4.77368,20.7723,9.29276,8.48009,-14.7241,-7.34047,0.0461144,1.58304,-0.0760596,52,68,76,80,78,48,70,73,78,76,85,30
-2.09068,8.37502,-0.143212,-2.11069,-14.0301,27.504,-13.4752,0.143212,-0.143212,-2.11069,-13.3969,27.504,-14.1084,0.143212,-5.77982,19.2515,11.6286,11.2652,4.94622,-6.78348,-0.457327,4.77363,20.7726,9.29337,8.47993,-14.7244,-7.34046,0.0460757,1.58302,-0.0760566,52,68,76,80,78,48,70,73,78,76,85,30
-2.09074,8.37494,-0.143206,-2.11066,-14.0301,27.504,-13.4752,0.143206,-0.143206,-2.11066,-13.3969,27.504,-14.1084,0.143206,-5.77971,19.2519,11.6293,11.2653,4.94609,-6.7832,-0.457157,4.77357,20.773,9.29397,8.47977,-14.7247,-7.34044,0.0460383,1.58299,-0.0760534,52,68,76,80,78,48,70,73,78,76,85,30
-2.0908,8.37486,-0.143199,-2.11062,-14.0301,27.504,-13.4752,0.143199,-0.143199,-2.11062,-13.3969,27.504,-14.1084,0.143199,-5.77959,19.2524,11.6301,11.2654,4.94598,-6.78293,-0.456993,4.77352,20.7734,9.29456,8.47962,-14.7249,-7.34042,0.0460013,1.58297,-0.0760499,52,68,76,80,78,48,70,73,78,76,85,30
-2.09088,8.37478,-0.143192,-2.11059,-14.0301,27.504,-13.4752,0.143192,-0.143192,-2.11059,-13.3969,27.504,-14.1084,0.143192,-5.77948,19.2528,11.6308,11.2655,4.94588,-6.78266,-0.456834,4.77346,20.7737,9.29513,8.47947,-14.7252,-7.34039,0.0459641,1.58294,-0.0760461,52,68,76,80,78,48,70,73,78,76,85,30
-2.09097,8.37468,-0.143184,-2.11055,-14.0301,27.504,-13.4752,0.143184,-0.143184,-2.11055,-13.3969,27.504,-14.1084,0.143184,-5.77936,19.2532,11.6315,11.2656,4.9458,-6.7824,-0.456681,4.77341,20.7741,9.29569,8.47933,-14.7255,-7.34036,0.0459261,1.58292,-0.0760419,52,68,76,80,78,48,70,73,78,76,85,30
-2.09106,8.37458,-0.143175,-2.11052,-14.0301,27.504,-13.4752,0.143175,-0.143175,-2.11052,-13.3969,27.504,-14.1084,0.143175,-5.77925,19.2537,11.6323,11.2657,4.94573,-6.78215,-0.456536,4.77335,20.7744,9.29623,8.47919,-14.7257,-7.34031,0.0458866,1.58289,-0.0760372,52,68,76,80,78,48,70,73,78,76,85,30
-2.09117,8.37447,-0.143166,-2.11048,-14.0303,27.5041,-13.4753,0.143166,-0.143166,-2.11048,-13.3971,27.5041,-14.1084,0.143166,-5.77914,19.2541,11.633,11.2658,4.94567,-6.78192,-0.456398,4.77329,20.7747,9.29675,8.47906,-14.726,-7.34026,0.0458452,1.58286,-0.0760322,52,68,76,80,78,48,70,73,78,76,85,30
-2.09129,8.37436,-0.143155,-2.11045,-14.0302,27.5041,-13.4753,0.143155,-0.143155,-2.11045,-13.3971,27.5041,-14.1084,0.143155,-5.77903,19.2545,11.6337,11.2659,4.94562,-6.7817,-0.45627,4.77323,20.7751,9.29724,8.47893,-14.7263,-7.3402,0.0458014,1.58284,-0.0760266,52,68,76,80,78,48,70,73,78,76,85,30
-2.09142,8.37423,-0.143144,-2.11042,-14.0302,27.5041,-13.4753,0.143144,-0.143144,-2.11042,-13.3971,27.5041,-14.1084,0.143144,-5.77893,19.255,11.6344,11.2659,4.94558,-6.78149,-0.456151,4.77316,20.7754,9.29772,8.47882,-14.7265,-7.34013,0.0457547,1.58281,-0.0760206,52,68,76,80,78,48,70,73,78,76,85,30
-2.09156,8.37409,-0.143132,-2.11039,-14.0302,27.5041,-13.4753,0.143132,-0.143132,-2.11039,-13.3971,27.5041,-14.1084,0.143132,-5.77883,19.2554,11.6351,11.266,4.94554,-6.78129,-0.45604,4.77309,20.7757,9.29817,8.4787,-14.7268,-7.34005,0.0457048,1.58279,-0.076014,52,68,76,80,78,48,70,73,78,76,85,30
-2.0917,8.37395,-0.143119,-2.11035,-14.0302,27.5041,-13.4753,0.143119,-0.143119,-2.11035,-13.3971,27.5041,-14.1084,0.143119,-5.77875,19.2558,11.6358,11.2661,4.94549,-6.78111,-0.455937,4.77302,20.776,9.2986,8.4786,-14.727,-7.33995,0.0456514,1.58277,-0.0760071,52,68,76,80,78,48,70,73,78,76,85,30
-2.09186,8.37379,-0.143105,-2.11032,-14.0302,27.5041,-13.4753,0.143105,-0.143105,-2.11032,-13.3971,27.5041,-14.1084,0.143105,-5.77866,19.2563,11.6365,11.2663,4.94545,-6.78094,-0.455842,4.77295,20.7763,9.29901,8.4785,-14.7273,-7.33985,0.0455943,1.58274,-0.0759997,52,68,76,80,78,48,70,73,78,76,85,30
-2.09202,8.37363,-0.14309,-2.11029,-14.0302,27.5041,-13.4753,0.14309,-0.14309,-2.11029,-13.3971,27.5041,-14.1084,0.14309,-5.77859,19.2567,11.6372,11.2664,4.94539,-6.78079,-0.455753,4.77287,20.7766,9.2994,8.47841,-14.7276,-7.33974,0.0455331,1.58272,-0.0759919,52,68,76,80,78,48,70,73,78,76,85,30
-2.09218,8.37346,-0.143075,-2.11026,-14.0302,27.5041,-13.4753,0.143075,-0.143075,-2.11026,-13.3971,27.5041,-14.1084,0.143075,-5.77852,19.2572,11.6378,11.2665,4.94533,-6.78065,-0.45567,4.77278,20.7768,9.29976,8.47832,-14.7278,-7.33961,0.0454677,1.5827,-0.0759838,52,68,76,80,78,48,70,73,78,76,85,30
-2.09235,8.37328,-0.143059,-2.11023,-14.0302,27.5041,-13.4753,0.143059,-0.143059,-2.11023,-13.3971,27.5041,-14.1084,0.143059,-5.77846,19.2576,11.6385,11.2666,4.94526,-6.78052,-0.455593,4.77269,20.7771,9.30012,8.47824,-14.7281,-7.33948,0.0453984,1.58267,-0.0759755,52,68,76,80,78,48,70,73,78,76,85,30
-2.09251,8.3731,-0.143043,-2.1102,-14.0302,27.5041,-13.4753,0.143043,-0.143043,-2.1102,-13.3972,27.5041,-14.1084,0.143043,-5.7784,19.258,11.6391,11.2667,4.94517,-6.7804,-0.455522,4.7726,20.7774,9.30045,8.47817,-14.7283,-7.33935,0.0453248,1.58265,-0.0759669,52,68,76,80,78,48,70,73,78,76,85,30
-2.09268,8.37291,-0.143027,-2.11017,-14.0302,27.5041,-13.4753,0.143027,-0.143027,-2.11017,-13.3972,27.5041,-14.1084,0.143027,-5.77836,19.2585,11.6398,11.2668,4.94507,-6.78029,-0.455456,4.7725,20.7776,9.30076,8.4781,-14.7286,-7.3392,0.0452467,1.58263,-0.075958,52,68,76,80,78,48,70,73,78,76,85,30
-2.09286,8.37271,-0.143009,-2.11014,-14.0302,27.5041,-13.4753,0.143009,-0.143009,-2.11014,-13.3972,27.5041,-14.1084,0.143009,-5.77832,19.2589,11.6404,11.2669,4.94495,-6.7802,-0.455393,4.7724,20.7779,9.30105,8.47804,-14.7288,-7.33904,0.0451641,1.58261,-0.0759487,52,68,76,80,78,48,70,73,78,76,85,30
-2.09303,8.3725,-0.142991,-2.11012,-14.0302,27.5041,-13.4753,0.142991,-0.142991,-2.11012,-13.3972,27.5041,-14.1084,0.142991,-5.77829,19.2593,11.641,11.2671,4.94481,-6.78012,-0.455334,4.77229,20.7781,9.30133,8.47798,-14.7291,-7.33888,0.0450768,1.58259,-0.075939,52,68,76,80,78,48,70,73,78,76,85,30
-2.09321,8.37229,-0.142972,-2.11009,-14.0302,27.5041,-13.4754,0.142972,-0.142972,-2.11009,-13.3972,27.5041,-14.1084,0.142972,-5.77827,19.2598,11.6417,11.2672,4.94465,-6.78004,-0.455277,4.77218,20.7783,9.30158,8.47793,-14.7293,-7.33871,0.0449848,1.58257,-0.0759288,52,68,76,80,78,48,70,73,78,76,85,30
-2.09338,8.37208,-0.142952,-2.11007,-14.0302,27.5041,-13.4754,0.142952,-0.142952,-2.11007,-13.3971,27.5041,-14.1084,0.142952,-5.77827,19.2602,11.6423,11.2673,4.94447,-6.77998,-0.455221,4.77206,20.7786,9.30181,8.47788,-14.7296,-7.33853,0.0448883,1.58255,-0.0759182,52,68,76,80,78,48,70,73,78,76,85,30
-2.09356,8.37186,-0.14293,-2.11004,-14.0302,27.5041,-13.4754,0.14293,-0.14293,-2.11004,-13.3971,27.5041,-14.1084,0.14293,-5.77828,19.2606,11.6429,11.2674,4.94425,-6.77992,-0.455165,4.77194,20.7788,9.30202,8.47784,-14.7298,-7.33834,0.0447858,1.58253,-0.0759068,52,68,76,80,78,48,70,73,78,76,85,30
-2.09373,8.37163,-0.142908,-2.11002,-14.0301,27.5041,-13.4754,0.142908,-0.142908,-2.11002,-13.3971,27.5041,-14.1084,0.142908,-5.77831,19.2611,11.6434,11.2676,4.94401,-6.77987,-0.455109,4.77181,20.779,9.3022,8.47779,-14.7301,-7.33815,0.0446783,1.58252,-0.0758947,52,68,76,80,78,48,70,73,78,76,85,30
-2.09391,8.3714,-0.142884,-2.11001,-14.0301,27.5041,-13.4754,0.142884,-0.142884,-2.11001,-13.3971,27.5041,-14.1084,0.142884,-5.77835,19.2615,11.644,11.2677,4.94375,-6.77983,-0.455053,4.77168,20.7791,9.30237,8.47776,-14.7303,-7.33795,0.0445666,1.5825,-0.0758821,52,68,76,80,78,48,70,73,78,76,85,30
-2.09408,8.37116,-0.14286,-2.10999,-14.0301,27.5041,-13.4754,0.14286,-0.14286,-2.10999,-13.3971,27.5041,-14.1084,0.14286,-5.7784,19.2619,11.6445,11.2678,4.94346,-6.7798,-0.454998,4.77154,20.7793,9.30252,8.47772,-14.7306,-7.33774,0.0444514,1.58249,-0.0758692,52,68,76,80,78,48,70,73,78,76,85,30
-2.09426,8.37093,-0.142835,-2.10997,-14.0301,27.5041,-13.4754,0.142835,-0.142835,-2.10997,-13.3971,27.5041,-14.1084,0.142835,-5.77846,19.2624,11.6451,11.2679,4.94316,-6.77978,-0.454944,4.7714,20.7795,9.30265,8.47768,-14.7308,-7.33753,0.0443334,1.58248,-0.0758559,52,68,76,80,78,48,70,73,78,76,85,30
-2.09444,8.37069,-0.142809,-2.10996,-14.0301,27.5041,-13.4754,0.142809,-0.142809,-2.10996,-13.3971,27.5041,-14.1084,0.142809,-5.77853,19.2628,11.6456,11.268,4.94283,-6.77976,-0.454891,4.77126,20.7796,9.30277,8.47765,-14.7311,-7.33731,0.0442133,1.58247,-0.0758424,52,68,76,80,78,48,70,73,78,76,85,30
-2.09461,8.37045,-0.142784,-2.10994,-14.0303,27.5043,-13.4755,0.142784,-0.142784,-2.10994,-13.3973,27.5043,-14.1085,0.142784,-5.7786,19.2632,11.6462,11.2682,4.94249,-6.77974,-0.45484,4.77112,20.7798,9.30287,8.47762,-14.7313,-7.33709,0.0440915,1.58246,-0.0758287,52,68,76,80,78,48,70,73,78,76,85,30
-2.09479,8.37022,-0.142758,-2.10993,-14.0303,27.5043,-13.4755,0.142758,-0.142758,-2.10993,-13.3973,27.5043,-14.1085,0.142758,-5.77867,19.2636,11.6467,11.2683,4.94214,-6.77973,-0.454793,4.77099,20.78,9.30296,8.47759,-14.7316,-7.33688,0.0439701,1.58245,-0.0758152,52,68,76,80,78,48,70,73,78,76,85,30
-2.09498,8.36998,-0.142733,-2.10992,-14.0303,27.5043,-13.4755,0.142733,-0.142733,-2.10992,-13.3973,27.5043,-14.1085,0.142733,-5.77874,19.2641,11.6473,11.2684,4.94177,-6.77973,-0.454748,4.77085,20.7801,9.30304,8.47755,-14.7318,-7.33666,0.0438488,1.58244,-0.0758018,52,68,76,80,78,48,70,73,78,76,85,30
-2.09516,8.36975,-0.142708,-2.10991,-14.0303,27.5043,-13.4755,0.142708,-0.142708,-2.10991,-13.3973,27.5043,-14.1085,0.142708,-5.77881,19.2645,11.6478,11.2685,4.94139,-6.77973,-0.454704,4.77072,20.7802,9.30311,8.47752,-14.7321,-7.33644,0.0437271,1.58243,-0.0757883,52,68,76,80,78,48,70,73,78,76,85,30
-2.09534,8.36952,-0.142682,-2.10989,-14.0303,27.5043,-13.4755,0.142682,-0.142682,-2.10989,-13.3973,27.5043,-14.1085,0.142682,-5.77889,19.2649,11.6484,11.2686,4.94101,-6.77973,-0.454662,4.77058,20.7804,9.30317,8.47749,-14.7323,-7.33622,0.043605,1.58242,-0.0757747,52,68,76,80,78,48,70,73,78,76,85,30
-2.09552,8.36929,-0.142656,-2.10988,-14.0303,27.5043,-13.4755,0.142656,-0.142656,-2.10988,-13.3973,27.5043,-14.1085,0.142656,-5.77897,19.2653,11.6489,11.2687,4.94062,-6.77973,-0.454618,4.77045,20.7805,9.30322,8.47747,-14.7325,-7.336,0.0434821,1.58241,-0.075761,52,68,76,80,78,48,70,73,78,76,85,30
-2.09568,8.36906,-0.14263,-2.10987,-14.0303,27.5043,-13.4755,0.14263,-0.14263,-2.10987,-13.3973,27.5043,-14.1085,0.14263,-5.77906,19.2657,11.6494,11.2688,4.94023,-6.77974,-0.454574,4.77031,20.7806,9.30326,8.47744,-14.7328,-7.33578,0.0433584,1.58241,-0.0757471,52,68,76,80,78,48,70,73,78,76,85,30
-2.09584,8.36883,-0.142604,-2.10987,-14.0299,27.504,-13.4755,0.142604,-0.142604,-2.10987,-13.3969,27.504,-14.1084,0.142604,-5.77917,19.2661,11.6498,11.2689,4.93985,-6.77975,-0.454528,4.77017,20.7807,9.30329,8.47742,-14.733,-7.33556,0.0432339,1.5824,-0.075733,52,68,76,80,78,48,70,73,78,76,85,30
-2.09599,8.3686,-0.142577,-2.10986,-14.0299,27.504,-13.4755,0.142577,-0.142577,-2.10986,-13.3969,27.504,-14.1084,0.142577,-5.77929,19.2664,11.6503,11.269,4.93947,-6.77976,-0.454477,4.77002,20.7808,9.30331,8.47741,-14.7332,-7.33534,0.0431078,1.5824,-0.0757185,52,68,76,80,78,48,70,73,78,76,85,30
-2.09613,8.36837,-0.142549,-2.10986,-14.0299,27.504,-13.4755,0.142549,-0.142549,-2.10986,-13.3969,27.504,-14.1085,0.142549,-5.77943,19.2668,11.6506,11.2691,4.93911,-6.77977,-0.454422,4.76987,20.7809,9.30333,8.4774,-14.7335,-7.33512,0.0429807,1.58239,-0.0757036,52,68,76,80,78,48,70,73,78,76,85,30
-2.09625,8.36814,-0.14252,-2.10986,-14.0298,27.504,-13.4755,0.14252,-0.14252,-2.10986,-13.3969,27.504,-14.1085,0.14252,-5.77958,19.2672,11.651,11.2693,4.93875,-6.77978,-0.454364,4.76972,20.781,9.30334,8.4774,-14.7337,-7.3349,0.0428531,1.58239,-0.0756885,52,68,76,80,78,48,70,73,78,76,85,30
-2.09637,8.36791,-0.142491,-2.10986,-14.0298,27.504,-13.4755,0.142491,-0.142491,-2.10986,-13.3969,27.504,-14.1085,0.142491,-5.77974,19.2676,11.6512,11.2694,4.9384,-6.77979,-0.454303,4.76957,20.7811,9.30334,8.4774,-14.7339,-7.33468,0.0427255,1.5824,-0.0756732,52,68,76,80,78,48,70,73,78,76,85,30
-2.09647,8.36769,-0.142462,-2.10987,-14.0298,27.504,-13.4755,0.142462,-0.142462,-2.10987,-13.3969,27.504,-14.1085,0.142462,-5.77992,19.268,11.6515,11.2695,4.93806,-6.77981,-0.45424,4.76941,20.7811,9.30334,8.47741,-14.7342,-7.33446,0.0425985,1.5824,-0.0756577,52,68,76,80,78,48,70,73,78,76,85,30
-2.09657,8.36746,-0.142433,-2.10987,-14.0298,27.504,-13.4755,0.142433,-0.142433,-2.10987,-13.3968,27.504,-14.1085,0.142433,-5.78011,19.2684,11.6517,11.2696,4.93774,-6.77982,-0.454176,4.76925,20.7812,9.30334,8.47742,-14.7344,-7.33424,0.0424727,1.5824,-0.0756422,52,68,76,80,78,48,70,73,78,76,85,30
-2.09666,8.36724,-0.142404,-2.10988,-14.0292,27.5036,-13.4754,0.142404,-0.142404,-2.10988,-13.3963,27.5036,-14.1084,0.142404,-5.78031,19.2687,11.6518,11.2698,4.93743,-6.77984,-0.454111,4.76909,20.7813,9.30333,8.47743,-14.7346,-7.33402,0.0423484,1.58241,-0.0756266,52,68,76,80,78,48,70,73,78,76,85,30
-2.09675,8.36703,-0.142375,-2.10989,-14.0292,27.5036,-13.4755,0.142375,-0.142375,-2.10989,-13.3963,27.5036,-14.1084,0.142375,-5.78053,19.2691,11.6519,11.2699,4.93713,-6.77986,-0.454048,4.76892,20.7813,9.30332,8.47744,-14.7348,-7.33381,0.0422258,1.58242,-0.0756111,52,68,76,80,78,48,70,73,78,76,85,30
-2.09683,8.36681,-0.142346,-2.1099,-14.0292,27.5036,-13.4755,0.142346,-0.142346,-2.1099,-13.3962,27.5036,-14.1084,0.142346,-5.78075,19.2694,11.652,11.2701,4.93685,-6.77989,-0.453985,4.76876,20.7813,9.30331,8.47746,-14.735,-7.3336,0.0421055,1.58243,-0.0755956,52,68,76,80,78,48,70,73,78,76,85,30
-2.0969,8.36661,-0.142317,-2.10992,-14.0292,27.5036,-13.4755,0.142317,-0.142317,-2.10992,-13.3962,27.5036,-14.1085,0.142317,-5.78099,19.2698,11.652,11.2702,4.93658,-6.77991,-0.453922,4.76859,20.7814,9.3033,8.47748,-14.7353,-7.33339,0.0419882,1.58244,-0.0755803,52,68,76,80,78,48,70,73,78,76,85,30
-2.09697,8.3664,-0.142288,-2.10993,-14.0292,27.5036,-13.4755,0.142288,-0.142288,-2.10993,-13.3962,27.5036,-14.1085,0.142288,-5.78124,19.2701,11.652,11.2704,4.93634,-6.77994,-0.453857,4.76843,20.7814,9.3033,8.47751,-14.7355,-7.33318,0.0418746,1.58245,-0.0755651,52,68,76,80,78,48,70,73,78,76,85,30
-2.09703,8.3662,-0.14226,-2.10995,-14.0292,27.5036,-13.4755,0.14226,-0.14226,-2.10995,-13.3962,27.5036,-14.1085,0.14226,-5.7815,19.2705,11.652,11.2706,4.93611,-6.77997,-0.45379,4.76827,20.7815,9.30329,8.47753,-14.7357,-7.33297,0.0417654,1.58247,-0.07555,52,68,76,80,78,48,70,73,78,76,85,30
-2.09709,8.36601,-0.142232,-2.10998,-14.0292,27.5036,-13.4755,0.142232,-0.142232,-2.10998,-13.3962,27.5036,-14.1085,0.142232,-5.78178,19.2708,11.6519,11.2708,4.93591,-6.78001,-0.453719,4.76811,20.7815,9.3033,8.47755,-14.7359,-7.33276,0.041661,1.58248,-0.0755351,52,68,76,80,78,48,70,73,78,76,85,30
-2.09714,8.36583,-0.142204,-2.11001,-14.0291,27.5036,-13.4755,0.142204,-0.142204,-2.11001,-13.3961,27.5036,-14.1085,0.142204,-5.78207,19.2711,11.6517,11.271,4.93573,-6.78004,-0.453643,4.76797,20.7815,9.30331,8.47758,-14.7361,-7.33255,0.041562,1.58251,-0.0755204,52,68,76,80,78,48,70,73,78,76,85,30
-2.09719,8.36564,-0.142177,-2.11004,-14.0291,27.5036,-13.4755,0.142177,-0.142177,-2.11004,-13.3961,27.5036,-14.1086,0.142177,-5.78238,19.2714,11.6516,11.2712,4.93557,-6.78008,-0.453562,4.76783,20.7815,9.30333,8.4776,-14.7362,-7.33234,0.0414679,1.58253,-0.075506,52,68,76,80,78,48,70,73,78,76,85,30
-2.09723,8.36547,-0.142151,-2.11008,-14.0291,27.5036,-13.4756,0.142151,-0.142151,-2.11008,-13.3961,27.5036,-14.1086,0.142151,-5.7827,19.2717,11.6514,11.2714,4.93544,-6.78012,-0.453475,4.7677,20.7815,9.30336,8.47763,-14.7364,-7.33213,0.0413795,1.58256,-0.0754919,52,68,76,80,78,48,70,73,78,76,85,30
-2.09727,8.3653,-0.142125,-2.11012,-14.0291,27.5036,-13.4756,0.142125,-0.142125,-2.11012,-13.3961,27.5036,-14.1086,0.142125,-5.78303,19.272,11.6512,11.2717,4.93534,-6.78016,-0.453382,4.76758,20.7816,9.3034,8.47765,-14.7366,-7.33191,0.0412976,1.58259,-0.075478,52,68,76,80,78,48,70,73,78,76,85,30
-2.0973,8.36514,-0.142099,-2.11017,-14.0291,27.5036,-13.4756,0.142099,-0.142099,-2.11017,-13.396,27.5036,-14.1086,0.142099,-5.78338,19.2723,11.651,11.2719,4.93526,-6.78021,-0.453284,4.76747,20.7816,9.30345,8.47768,-14.7367,-7.3317,0.0412227,1.58263,-0.0754643,52,68,76,80,78,48,70,73,78,76,85,30
-2.09732,8.36499,-0.142073,-2.11022,-14.0291,27.5036,-13.4756,0.142073,-0.142073,-2.11022,-13.396,27.5036,-14.1087,0.142073,-5.78374,19.2725,11.6507,11.2721,4.93521,-6.78025,-0.453181,4.76737,20.7816,9.30351,8.4777,-14.7369,-7.33148,0.0411552,1.58267,-0.0754508,52,68,76,80,78,48,70,73,78,76,85,30
-2.09734,8.36485,-0.142048,-2.11028,-14.0291,27.5036,-13.4756,0.142048,-0.142048,-2.11028,-13.396,27.5036,-14.1087,0.142048,-5.78411,19.2728,11.6504,11.2724,4.93519,-6.78029,-0.453074,4.76728,20.7816,9.30358,8.47773,-14.737,-7.33125,0.0410954,1.58271,-0.0754373,52,68,76,80,78,48,70,73,78,76,85,30
-2.09736,8.36472,-0.142023,-2.11034,-14.0285,27.5032,-13.4755,0.142023,-0.142023,-2.11034,-13.3954,27.5032,-14.1086,0.142023,-5.7845,19.2731,11.6501,11.2726,4.93519,-6.78033,-0.452962,4.7672,20.7816,9.30365,8.47775,-14.7371,-7.33103,0.0410436,1.58275,-0.0754239,52,68,76,80,78,48,70,73,78,76,85,30
-2.09738,8.3646,-0.141998,-2.11041,-14.0285,27.5032,-13.4755,0.141998,-0.141998,-2.11041,-13.3953,27.5032,-14.1086,0.141998,-5.7849,19.2733,11.6499,11.2729,4.93523,-6.78037,-0.452844,4.76713,20.7815,9.30373,8.47778,-14.7372,-7.33079,0.041002,1.5828,-0.0754105,52,68,76,80,78,48,70,73,78,76,85,30
-2.09739,8.3645,-0.141972,-2.11048,-14.0285,27.5032,-13.4755,0.141972,-0.141972,-2.11048,-13.3953,27.5032,-14.1086,0.141972,-5.78531,19.2736,11.6495,11.2731,4.9353,-6.7804,-0.452721,4.76707,20.7815,9.30381,8.47781,-14.7372,-7.33055,0.0409694,1.58286,-0.0753969,52,68,76,80,78,48,70,73,78,76,85,30
-2.0974,8.36441,-0.141947,-2.11055,-14.0284,27.5032,-13.4755,0.141947,-0.141947,-2.11055,-13.3953,27.5032,-14.1087,0.141947,-5.78573,19.2738,11.6492,11.2733,4.93539,-6.78043,-0.452595,4.76702,20.7815,9.3039,8.47783,-14.7373,-7.33031,0.040945,1.58291,-0.0753835,52,68,76,80,78,48,70,73,78,76,85,30
-2.0974,8.36434,-0.141922,-2.11063,-14.0284,27.5032,-13.4755,0.141922,-0.141922,-2.11063,-13.3953,27.5032,-14.1087,0.141922,-5.78616,19.2741,11.6489,11.2736,4.9355,-6.78046,-0.452467,4.76698,20.7815,9.304,8.47786,-14.7373,-7.33006,0.0409279,1.58297,-0.0753701,52,68,76,80,78,48,70,73,78,76,85,30
-2.0974,8.36426,-0.141897,-2.11071,-14.0284,27.5032,-13.4755,0.141897,-0.141897,-2.11071,-13.3952,27.5032,-14.1087,0.141897,-5.78659,19.2743,11.6486,11.2738,4.93563,-6.78049,-0.452337,4.76695,20.7814,9.3041,8.47789,-14.7373,-7.32981,0.0409174,1.58303,-0.0753568,52,68,76,80,78,48,70,73,78,76,85,30
-2.0974,8.3642,-0.141872,-2.11079,-14.0284,27.5032,-13.4755,0.141872,-0.141872,-2.11079,-13.3952,27.5032,-14.1088,0.141872,-5.78703,19.2745,11.6483,11.2741,4.93578,-6.78051,-0.452206,4.76692,20.7814,9.3042,8.47791,-14.7373,-7.32956,0.0409127,1.58309,-0.0753438,52,68,76,80,78,48,70,73,78,76,85,30
-2.0974,8.36413,-0.141848,-2.11087,-14.0284,27.5032,-13.4755,0.141848,-0.141848,-2.11087,-13.3952,27.5032,-14.1088,0.141848,-5.78747,19.2747,11.648,11.2743,4.93593,-6.78054,-0.452075,4.7669,20.7814,9.3043,8.47794,-14.7373,-7.32931,0.0409131,1.58316,-0.0753309,52,68,76,80,78,48,70,73,78,76,85,30
-2.09739,8.36406,-0.141825,-2.11096,-14.0284,27.5032,-13.4755,0.141825,-0.141825,-2.11096,-13.3951,27.5032,-14.1088,0.141825,-5.78791,19.275,11.6476,11.2746,4.93609,-6.78057,-0.451947,4.76688,20.7813,9.30439,8.47796,-14.7372,-7.32907,0.0409171,1.58322,-0.0753185,52,68,76,80,78,48,70,73,78,76,85,30
-2.09738,8.36399,-0.141802,-2.11104,-14.0284,27.5032,-13.4755,0.141802,-0.141802,-2.11104,-13.3951,27.5032,-14.1089,0.141802,-5.78835,19.2752,11.6473,11.2749,4.93624,-6.78061,-0.451822,4.76685,20.7813,9.30449,8.47798,-14.7372,-7.32883,0.0409248,1.58328,-0.0753064,52,68,76,80,78,48,70,73,78,76,85,30
-2.09737,8.36392,-0.14178,-2.11112,-14.0284,27.5032,-13.4756,0.14178,-0.14178,-2.11112,-13.3951,27.5032,-14.1089,0.14178,-5.78879,19.2754,11.647,11.2751,4.9364,-6.78064,-0.451698,4.76683,20.7813,9.30458,8.478,-14.7372,-7.32859,0.040936,1.58334,-0.0752946,52,68,76,80,78,48,70,73,78,76,85,30
-2.09736,8.36386,-0.141758,-2.11121,-14.0284,27.5032,-13.4756,0.141758,-0.141758,-2.11121,-13.395,27.5032,-14.1089,0.141758,-5.78923,19.2756,11.6466,11.2754,4.93657,-6.78067,-0.451573,4.76681,20.7812,9.30468,8.47802,-14.7371,-7.32835,0.040951,1.58341,-0.0752829,52,68,76,80,78,48,70,73,78,76,85,30
-2.09735,8.3638,-0.141736,-2.11129,-14.0284,27.5032,-13.4756,0.141736,-0.141736,-2.11129,-13.395,27.5032,-14.109,0.141736,-5.78967,19.2758,11.6463,11.2756,4.93676,-6.7807,-0.451447,4.7668,20.7812,9.30478,8.47804,-14.7371,-7.32811,0.0409695,1.58347,-0.0752713,52,68,76,80,78,48,70,73,78,76,85,30
-2.09734,8.36376,-0.141714,-2.11138,-14.0284,27.5032,-13.4756,0.141714,-0.141714,-2.11138,-13.395,27.5032,-14.109,0.141714,-5.79011,19.2759,11.646,11.2759,4.93696,-6.78072,-0.451318,4.7668,20.7811,9.30488,8.47806,-14.737,-7.32787,0.0409917,1.58354,-0.0752596,52,68,76,80,78,48,70,73,78,76,85,30
-2.09732,8.36374,-0.141692,-2.11147,-14.0279,27.5029,-13.4755,0.141692,-0.141692,-2.11147,-13.3945,27.5029,-14.1089,0.141692,-5.79054,19.2761,11.6457,11.2761,4.93719,-6.78074,-0.451187,4.76681,20.7811,9.30499,8.47808,-14.737,-7.32763,0.0410173,1.5836,-0.0752479,52,68,76,80,78,48,70,73,78,76,85,30
-2.09731,8.36375,-0.14167,-2.11156,-14.0279,27.5029,-13.4755,0.14167,-0.14167,-2.11156,-13.3945,27.5029,-14.1089,0.14167,-5.79096,19.2763,11.6454,11.2763,4.93743,-6.78075,-0.45105,4.76684,20.781,9.30511,8.47811,-14.7369,-7.32738,0.041048,1.58367,-0.0752359,52,68,76,80,78,48,70,73,78,76,85,30
-2.0973,8.36378,-0.141646,-2.11165,-14.0279,27.5029,-13.4755,0.141646,-0.141646,-2.11165,-13.3944,27.5029,-14.109,0.141646,-5.79139,19.2765,11.6451,11.2765,4.93771,-6.78074,-0.450908,4.76688,20.781,9.30523,8.47815,-14.7368,-7.32713,0.0410828,1.58374,-0.0752236,52,68,76,80,78,48,70,73,78,76,85,30
-2.09729,8.36384,-0.141623,-2.11175,-14.0279,27.5029,-13.4755,0.141623,-0.141623,-2.11175,-13.3944,27.5029,-14.109,0.141623,-5.7918,19.2767,11.6448,11.2766,4.938,-6.78073,-0.450762,4.76693,20.7809,9.30537,8.47819,-14.7367,-7.32688,0.0411209,1.58381,-0.0752111,52,68,76,80,78,48,70,73,78,76,85,30
-2.09728,8.36391,-0.141599,-2.11184,-14.0279,27.5029,-13.4755,0.141599,-0.141599,-2.11184,-13.3944,27.5029,-14.109,0.141599,-5.79221,19.2769,11.6445,11.2768,4.93832,-6.78071,-0.450613,4.767,20.7808,9.30551,8.47823,-14.7366,-7.32663,0.0411614,1.58388,-0.0751985,52,68,76,80,78,48,70,73,78,76,85,30
-2.09727,8.364,-0.141575,-2.11194,-14.0279,27.5029,-13.4755,0.141575,-0.141575,-2.11194,-13.3944,27.5029,-14.1091,0.141575,-5.79262,19.2771,11.6442,11.2769,4.93866,-6.78068,-0.450461,4.76707,20.7808,9.30566,8.47828,-14.7365,-7.32637,0.0412039,1.58395,-0.0751858,52,68,76,80,78,48,70,73,78,76,85,30
-2.09726,8.3641,-0.141552,-2.11203,-14.0279,27.5029,-13.4755,0.141552,-0.141552,-2.11203,-13.3943,27.5029,-14.1091,0.141552,-5.79302,19.2772,11.6439,11.277,4.93901,-6.78064,-0.450308,4.76715,20.7807,9.3058,8.47833,-14.7363,-7.32611,0.0412479,1.58403,-0.0751731,52,68,76,80,78,48,70,73,78,76,85,30
-2.09725,8.36422,-0.141528,-2.11213,-14.0278,27.5028,-13.4754,0.141528,-0.141528,-2.11213,-13.3942,27.5028,-14.1091,0.141528,-5.79342,19.2774,11.6437,11.2771,4.93937,-6.7806,-0.450152,4.76723,20.7806,9.30595,8.47838,-14.7362,-7.32586,0.0412928,1.5841,-0.0751604,52,68,76,80,78,48,70,73,78,76,85,30
-2.09724,8.36434,-0.141504,-2.11223,-14.0278,27.5028,-13.4754,0.141504,-0.141504,-2.11223,-13.3941,27.5028,-14.1091,0.141504,-5.79382,19.2776,11.6434,11.2772,4.93975,-6.78056,-0.449998,4.76732,20.7805,9.30611,8.47843,-14.736,-7.3256,0.0413376,1.58417,-0.0751479,52,68,76,80,78,48,70,73,78,76,85,30
-2.09723,8.36446,-0.141481,-2.11232,-14.0278,27.5028,-13.4754,0.141481,-0.141481,-2.11232,-13.3941,27.5028,-14.1091,0.141481,-5.79421,19.2778,11.6431,11.2773,4.94013,-6.7805,-0.449843,4.76741,20.7805,9.30626,8.47849,-14.7359,-7.32534,0.0413825,1.58424,-0.0751356,52,68,76,80,78,48,70,73,78,76,85,30
-2.09723,8.3646,-0.141458,-2.11242,-14.0278,27.5028,-13.4754,0.141458,-0.141458,-2.11242,-13.3941,27.5028,-14.1092,0.141458,-5.79459,19.2779,11.6429,11.2774,4.94052,-6.78045,-0.449688,4.7675,20.7804,9.30641,8.47855,-14.7357,-7.32508,0.0414279,1.58431,-0.0751234,52,68,76,80,78,48,70,73,78,76,85,30
-2.09722,8.36474,-0.141435,-2.11251,-14.0278,27.5028,-13.4754,0.141435,-0.141435,-2.11251,-13.3941,27.5028,-14.1092,0.141435,-5.79497,19.2781,11.6427,11.2775,4.94092,-6.78039,-0.449534,4.7676,20.7803,9.30656,8.47861,-14.7356,-7.32483,0.0414742,1.58438,-0.0751112,52,68,76,80,78,48,70,73,78,76,85,30
-2.09721,8.36489,-0.141413,-2.11261,-14.0278,27.5028,-13.4754,0.141413,-0.141413,-2.11261,-13.394,27.5028,-14.1092,0.141413,-5.79533,19.2782,11.6424,11.2775,4.94132,-6.78033,-0.449379,4.7677,20.7802,9.30672,8.47867,-14.7354,-7.32458,0.0415218,1.58445,-0.0750991,52,68,76,80,78,48,70,73,78,76,85,30
-2.09721,8.36505,-0.14139,-2.1127,-14.0278,27.5028,-13.4754,0.14139,-0.14139,-2.1127,-13.394,27.5028,-14.1092,0.14139,-5.79569,19.2784,11.6422,11.2776,4.94172,-6.78027,-0.449225,4.76781,20.7801,9.30688,8.47873,-14.7353,-7.32433,0.0415709,1.58452,-0.0750869,52,68,76,80,78,48,70,73,78,76,85,30
-2.0972,8.36521,-0.141367,-2.11279,-14.0281,27.503,-13.4755,0.141367,-0.141367,-2.11279,-13.3943,27.503,-14.1093,0.141367,-5.79604,19.2786,11.642,11.2776,4.94212,-6.7802,-0.44907,4.76792,20.7801,9.30704,8.47879,-14.7351,-7.32408,0.0416221,1.58459,-0.0750747,52,68,76,80,78,48,70,73,78,76,85,30
-2.09719,8.36539,-0.141344,-2.11288,-14.0281,27.503,-13.4755,0.141344,-0.141344,-2.11288,-13.3943,27.503,-14.1093,0.141344,-5.79637,19.2787,11.6417,11.2776,4.94254,-6.78014,-0.448915,4.76804,20.78,9.3072,8.47885,-14.735,-7.32385,0.0416749,1.58466,-0.0750624,52,68,76,80,78,48,70,73,78,76,85,30
-2.09719,8.36558,-0.14132,-2.11297,-14.0281,27.503,-13.4755,0.14132,-0.14132,-2.11297,-13.3942,27.503,-14.1094,0.14132,-5.7967,19.2789,11.6415,11.2777,4.94295,-6.78007,-0.44876,4.76816,20.7799,9.30736,8.47891,-14.7348,-7.32361,0.0417303,1.58473,-0.07505,52,68,76,80,78,48,70,73,78,76,85,30
-2.09718,8.36577,-0.141297,-2.11306,-14.0281,27.503,-13.4755,0.141297,-0.141297,-2.11306,-13.3942,27.503,-14.1094,0.141297,-5.797,19.279,11.6413,11.2777,4.94336,-6.78,-0.448605,4.7683,20.7798,9.30752,8.47897,-14.7347,-7.32339,0.0417888,1.5848,-0.0750376,52,68,76,80,78,48,70,73,78,76,85,30
-2.09717,8.36598,-0.141273,-2.11315,-14.0281,27.503,-13.4755,0.141273,-0.141273,-2.11315,-13.3942,27.503,-14.1094,0.141273,-5.7973,19.2792,11.6411,11.2776,4.94376,-6.77994,-0.448452,4.76845,20.7797,9.30769,8.47902,-14.7345,-7.32316,0.0418511,1.58486,-0.075025,52,68,76,80,78,48,70,73,78,76,85,30
-2.09716,8.3662,-0.14125,-2.11324,-14.0282,27.503,-13.4755,0.14125,-0.14125,-2.11324,-13.3942,27.503,-14.1094,0.14125,-5.79758,19.2793,11.641,11.2776,4.94414,-6.77987,-0.4483,4.76861,20.7796,9.30786,8.47908,-14.7344,-7.32295,0.0419179,1.58493,-0.0750125,52,68,76,80,78,48,70,73,78,76,85,30
-2.09715,8.36643,-0.141226,-2.11333,-14.0282,27.503,-13.4754,0.141226,-0.141226,-2.11333,-13.3942,27.503,-14.1094,0.141226,-5.79785,19.2795,11.6408,11.2775,4.94449,-6.7798,-0.448149,4.76878,20.7795,9.30805,8.47914,-14.7343,-7.32274,0.0419896,1.585,-0.0749999,52,68,76,80,78,48,70,73,78,76,85,30
-2.09715,8.36668,-0.141203,-2.11342,-14.0287,27.5034,-13.4755,0.141203,-0.141203,-2.11342,-13.3947,27.5034,-14.1096,0.141203,-5.79811,19.2797,11.6407,11.2775,4.94482,-6.77973,-0.448001,4.76898,20.7794,9.30824,8.47919,-14.7342,-7.32253,0.0420668,1.58506,-0.0749874,52,68,76,80,78,48,70,73,78,76,85,30
-2.09714,8.36694,-0.141179,-2.11351,-14.0287,27.5034,-13.4755,0.141179,-0.141179,-2.11351,-13.3947,27.5034,-14.1096,0.141179,-5.79835,19.2798,11.6406,11.2774,4.94512,-6.77965,-0.447857,4.76919,20.7793,9.30845,8.47925,-14.7342,-7.32232,0.0421499,1.58513,-0.0749749,52,68,76,80,78,48,70,73,78,76,85,30
-2.09714,8.36722,-0.141156,-2.1136,-14.0287,27.5034,-13.4755,0.141156,-0.141156,-2.1136,-13.3947,27.5034,-14.1096,0.141156,-5.79859,19.28,11.6405,11.2773,4.94537,-6.77958,-0.447716,4.76942,20.7792,9.30867,8.47931,-14.7341,-7.32212,0.0422395,1.5852,-0.0749624,52,68,76,80,78,48,70,73,78,76,85,30
-2.09713,8.36751,-0.141133,-2.1137,-14.0287,27.5034,-13.4755,0.141133,-0.141133,-2.1137,-13.3946,27.5034,-14.1096,0.141133,-5.79881,19.2801,11.6404,11.2771,4.94559,-6.77951,-0.447578,4.76967,20.7791,9.3089,8.47937,-14.7341,-7.32193,0.0423356,1.58527,-0.0749501,52,68,76,80,78,48,70,73,78,76,85,30
-2.09713,8.36782,-0.14111,-2.11379,-14.0288,27.5034,-13.4755,0.14111,-0.14111,-2.11379,-13.3946,27.5034,-14.1096,0.14111,-5.79901,19.2803,11.6404,11.277,4.94577,-6.77943,-0.447443,4.76995,20.7791,9.30914,8.47943,-14.7341,-7.32173,0.0424387,1.58534,-0.0749378,52,68,76,80,78,48,70,73,78,76,85,30
-2.09713,8.36814,-0.141087,-2.11389,-14.0288,27.5034,-13.4755,0.141087,-0.141087,-2.11389,-13.3946,27.5034,-14.1096,0.141087,-5.79921,19.2805,11.6404,11.2768,4.94591,-6.77936,-0.447312,4.77023,20.779,9.3094,8.47949,-14.7341,-7.32155,0.0425489,1.58542,-0.0749257,52,68,76,80,78,48,70,73,78,76,85,30
-2.09713,8.36847,-0.141064,-2.11399,-14.0288,27.5034,-13.4755,0.141064,-0.141064,-2.11399,-13.3946,27.5034,-14.1096,0.141064,-5.7994,19.2806,11.6404,11.2767,4.94602,-6.77929,-0.447183,4.77054,20.7789,9.30967,8.47955,-14.7341,-7.32137,0.0426665,1.58549,-0.0749138,52,68,76,80,78,48,70,73,78,76,85,30
-2.09714,8.36881,-0.141042,-2.11409,-14.0288,27.5034,-13.4754,0.141042,-0.141042,-2.11409,-13.3946,27.5034,-14.1097,0.141042,-5.79957,19.2808,11.6404,11.2765,4.94608,-6.77922,-0.447058,4.77086,20.7788,9.30995,8.47961,-14.7342,-7.32119,0.0427914,1.58556,-0.0749021,52,68,76,80,78,48,70,73,78,76,85,30
-2.09714,8.36915,-0.141021,-2.11419,-14.0288,27.5034,-13.4754,0.141021,-0.141021,-2.11419,-13.3946,27.5034,-14.1097,0.141021,-5.79973,19.281,11.6405,11.2763,4.94611,-6.77915,-0.446934,4.7712,20.7788,9.31024,8.47967,-14.7342,-7.32102,0.0429226,1.58564,-0.0748906,52,68,76,80,78,48,70,73,78,76,85,30
-2.09715,8.36951,-0.140999,-2.11429,-14.0289,27.5034,-13.4754,0.140999,-0.140999,-2.11429,-13.3946,27.5034,-14.1097,0.140999,-5.79988,19.2811,11.6406,11.276,4.94611,-6.77908,-0.446813,4.77155,20.7787,9.31055,8.47972,-14.7343,-7.32086,0.0430607,1.58571,-0.0748793,52,68,76,80,78,48,70,73,78,76,85,30
-2.09715,8.36987,-0.140979,-2.11439,-14.0289,27.5034,-13.4754,0.140979,-0.140979,-2.11439,-13.3946,27.5034,-14.1097,0.140979,-5.80003,19.2813,11.6406,11.2758,4.94607,-6.77901,-0.446696,4.77191,20.7787,9.31087,8.47978,-14.7345,-7.32071,0.0432064,1.58579,-0.0748682,52,68,76,80,78,48,70,73,78,76,85,30
-2.09716,8.37024,-0.140958,-2.11449,-14.0289,27.5034,-13.4753,0.140958,-0.140958,-2.11449,-13.3946,27.5034,-14.1097,0.140958,-5.80016,19.2815,11.6408,11.2756,4.94599,-6.77895,-0.446581,4.77229,20.7786,9.3112,8.47983,-14.7346,-7.32056,0.0433603,1.58587,-0.0748574,52,68,76,80,78,48,70,73,78,76,85,30
-2.09717,8.37061,-0.140939,-2.11459,-14.0289,27.5034,-13.4753,0.140939,-0.140939,-2.11459,-13.3946,27.5034,-14.1097,0.140939,-5.80029,19.2816,11.6409,11.2753,4.94588,-6.77889,-0.446471,4.77268,20.7786,9.31154,8.47988,-14.7347,-7.32042,0.0435227,1.58594,-0.074847,52,68,76,80,78,48,70,73,78,76,85,30
-2.09719,8.371,-0.14092,-2.1147,-14.029,27.5034,-13.4753,0.14092,-0.14092,-2.1147,-13.3946,27.5034,-14.1097,0.14092,-5.8004,19.2818,11.6411,11.275,4.94573,-6.77882,-0.446365,4.77308,20.7785,9.31189,8.47993,-14.7349,-7.32029,0.0436938,1.58602,-0.0748369,52,68,76,80,78,48,70,73,78,76,85,30
-2.0972,8.37139,-0.140902,-2.1148,-14.0301,27.5041,-13.4755,0.140902,-0.140902,-2.1148,-13.3956,27.5041,-14.1099,0.140902,-5.80052,19.282,11.6413,11.2748,4.94555,-6.77877,-0.446264,4.7735,20.7785,9.31224,8.47998,-14.7351,-7.32016,0.0438735,1.5861,-0.0748271,52,68,76,80,78,48,70,73,78,76,85,30
-2.09723,8.37179,-0.140884,-2.11491,-14.0301,27.5041,-13.4755,0.140884,-0.140884,-2.11491,-13.3956,27.5041,-14.1099,0.140884,-5.80062,19.2821,11.6415,11.2745,4.94534,-6.77871,-0.446168,4.77394,20.7785,9.31259,8.48002,-14.7353,-7.32004,0.0440688,1.58618,-0.074818,52,68,76,80,78,48,70,73,78,76,85,30
-2.09725,8.3722,-0.140868,-2.11502,-14.0301,27.5041,-13.4754,0.140868,-0.140868,-2.11502,-13.3956,27.5041,-14.1099,0.140868,-5.80073,19.2823,11.6418,11.2742,4.9451,-6.77865,-0.446077,4.77439,20.7785,9.31295,8.48007,-14.7355,-7.31993,0.044276,1.58627,-0.0748095,52,68,76,80,78,48,70,73,78,76,85,30
-2.09728,8.37262,-0.140853,-2.11514,-14.0302,27.5041,-13.4754,0.140853,-0.140853,-2.11514,-13.3956,27.5041,-14.1099,0.140853,-5.80083,19.2824,11.642,11.2739,4.94482,-6.7786,-0.445992,4.77485,20.7785,9.3133,8.48011,-14.7357,-7.31983,0.044492,1.58635,-0.0748013,52,68,76,80,78,48,70,73,78,76,85,30
-2.09731,8.37304,-0.140838,-2.11525,-14.0302,27.5041,-13.4754,0.140838,-0.140838,-2.11525,-13.3956,27.5041,-14.1099,0.140838,-5.80093,19.2826,11.6423,11.2736,4.94453,-6.77855,-0.445911,4.77533,20.7784,9.31366,8.48015,-14.7359,-7.31973,0.0447142,1.58644,-0.0747935,52,68,76,80,78,48,70,73,78,76,85,30
-2.09734,8.37346,-0.140824,-2.11536,-14.0302,27.5041,-13.4753,0.140824,-0.140824,-2.11536,-13.3956,27.5041,-14.1099,0.140824,-5.80102,19.2827,11.6426,11.2733,4.94421,-6.7785,-0.445835,4.7758,20.7784,9.31403,8.48019,-14.7362,-7.31963,0.0449404,1.58652,-0.0747859,52,68,76,80,78,48,70,73,78,76,85,30
-2.09737,8.37388,-0.14081,-2.11548,-14.0302,27.5041,-13.4753,0.14081,-0.14081,-2.11548,-13.3956,27.5041,-14.1099,0.14081,-5.8011,19.2829,11.643,11.273,4.94387,-6.77846,-0.445763,4.77629,20.7784,9.3144,8.48022,-14.7364,-7.31954,0.045169,1.58661,-0.0747785,52,68,76,80,78,48,70,73,78,76,85,30
-2.09741,8.3743,-0.140796,-2.11559,-14.0303,27.5041,-13.4753,0.140796,-0.140796,-2.11559,-13.3956,27.5041,-14.1099,0.140796,-5.80118,19.283,11.6433,11.2727,4.94352,-6.77841,-0.445695,4.77677,20.7784,9.31477,8.48026,-14.7367,-7.31946,0.0453985,1.58669,-0.0747712,52,68,76,80,78,48,70,73,78,76,85,30
-2.09744,8.37471,-0.140782,-2.1157,-14.0303,27.5041,-13.4752,0.140782,-0.140782,-2.1157,-13.3956,27.5041,-14.1099,0.140782,-5.80125,19.2832,11.6436,11.2724,4.94315,-6.77837,-0.445632,4.77725,20.7784,9.31515,8.48029,-14.737,-7.31937,0.0456173,1.58677,-0.0747636,52,68,76,80,78,48,70,73,78,76,85,30
-2.09747,8.37511,-0.140768,-2.11581,-14.0303,27.5041,-13.4752,0.140768,-0.140768,-2.11581,-13.3956,27.5041,-14.1099,0.140768,-5.80131,19.2833,11.6439,11.2721,4.94277,-6.77834,-0.445572,4.77772,20.7784,9.31554,8.48031,-14.7372,-7.31928,0.0458303,1.58685,-0.0747558,52,68,76,80,78,48,70,73,78,76,85,30
-2.09751,8.37551,-0.140753,-2.11591,-14.0304,27.5041,-13.4752,0.140753,-0.140753,-2.11591,-13.3956,27.5041,-14.1099,0.140753,-5.80136,19.2835,11.6443,11.2718,4.94239,-6.7783,-0.445515,4.77819,20.7784,9.31593,8.48034,-14.7375,-7.3192,0.046042,1.58693,-0.0747482,52,68,76,80,78,48,70,73,78,76,85,30
-2.09754,8.3759,-0.140739,-2.11601,-14.0304,27.5041,-13.4751,0.140739,-0.140739,-2.11601,-13.3956,27.5041,-14.1099,0.140739,-5.80142,19.2836,11.6446,11.2715,4.942,-6.77827,-0.445462,4.77865,20.7784,9.31631,8.48036,-14.7378,-7.31912,0.0462561,1.58701,-0.0747409,52,68,76,80,78,48,70,73,78,76,85,30
-2.09758,8.3763,-0.140727,-2.11612,-14.0304,27.5041,-13.4751,0.140727,-0.140727,-2.11612,-13.3956,27.5041,-14.1099,0.140727,-5.80147,19.2837,11.6449,11.2712,4.9416,-6.77823,-0.445411,4.77912,20.7784,9.31669,8.48038,-14.7381,-7.31905,0.0464759,1.58709,-0.0747341,52,68,76,80,78,48,70,73,78,76,85,30
-2.09761,8.37669,-0.140715,-2.11622,-14.0305,27.5041,-13.4751,0.140715,-0.140715,-2.11622,-13.3956,27.5041,-14.1099,0.140715,-5.80152,19.2839,11.6453,11.2708,4.94119,-6.7782,-0.445362,4.7796,20.7784,9.31705,8.4804,-14.7383,-7.31898,0.0467042,1.58717,-0.0747281,52,68,76,80,78,48,70,73,78,76,85,30
-2.09765,8.37709,-0.140705,-2.11633,-14.0309,27.5044,-13.4751,0.140705,-0.140705,-2.11633,-13.396,27.5044,-14.11,0.140705,-5.80158,19.284,11.6457,11.2705,4.94078,-6.77817,-0.445316,4.78008,20.7784,9.3174,8.48043,-14.7386,-7.31893,0.0469428,1.58725,-0.0747228,52,68,76,80,78,48,70,73,78,76,85,30
-2.0977,8.37751,-0.140698,-2.11645,-14.0309,27.5044,-13.4751,0.140698,-0.140698,-2.11645,-13.396,27.5044,-14.11,0.140698,-5.80166,19.2841,11.6461,11.2703,4.94037,-6.77813,-0.445269,4.78057,20.7785,9.31771,8.48046,-14.7389,-7.31888,0.0472033,1.58733,-0.0747189,52,68,76,80,78,48,70,73,78,76,85,30
-2.09774,8.37793,-0.140693,-2.11656,-14.0309,27.5044,-13.475,0.140693,-0.140693,-2.11656,-13.396,27.5044,-14.11,0.140693,-5.80174,19.2842,11.6465,11.27,4.93996,-6.77809,-0.445224,4.78107,20.7785,9.31799,8.48049,-14.7391,-7.31885,0.0474821,1.58742,-0.0747162,52,68,76,80,78,48,70,73,78,76,85,30
-2.09779,8.37836,-0.14069,-2.11668,-14.031,27.5044,-13.475,0.14069,-0.14069,-2.11668,-13.3959,27.5044,-14.11,0.14069,-5.80183,19.2843,11.647,11.2697,4.93955,-6.77805,-0.44518,4.78158,20.7786,9.31826,8.48053,-14.7394,-7.31882,0.0477758,1.58751,-0.0747145,52,68,76,80,78,48,70,73,78,76,85,30
-2.09785,8.37879,-0.140689,-2.1168,-14.031,27.5044,-13.475,0.140689,-0.140689,-2.1168,-13.3959,27.5044,-14.11,0.140689,-5.80192,19.2844,11.6474,11.2694,4.93913,-6.77801,-0.445137,4.7821,20.7787,9.3185,8.48057,-14.7396,-7.31881,0.0480815,1.5876,-0.0747139,52,68,76,80,78,48,70,73,78,76,85,30
-2.0979,8.37922,-0.140689,-2.11693,-14.031,27.5044,-13.4749,0.140689,-0.140689,-2.11693,-13.3959,27.5044,-14.11,0.140689,-5.80202,19.2845,11.6479,11.2691,4.93871,-6.77797,-0.445096,4.78262,20.7788,9.31872,8.48061,-14.7398,-7.3188,0.0483965,1.5877,-0.074714,52,68,76,80,78,48,70,73,78,76,85,30
-2.09796,8.37965,-0.140691,-2.11705,-14.0311,27.5044,-13.4749,0.140691,-0.140691,-2.11705,-13.3959,27.5044,-14.11,0.140691,-5.80213,19.2845,11.6484,11.2688,4.9383,-6.77792,-0.445057,4.78314,20.7788,9.31892,8.48065,-14.7401,-7.31881,0.0487189,1.58779,-0.0747149,52,68,76,80,78,48,70,73,78,76,85,30
-2.09802,8.38009,-0.140694,-2.11718,-14.0311,27.5044,-13.4749,0.140694,-0.140694,-2.11718,-13.396,27.5044,-14.11,0.140694,-5.80224,19.2846,11.649,11.2686,4.93789,-6.77788,-0.44502,4.78366,20.779,9.31911,8.4807,-14.7403,-7.31881,0.0490467,1.58788,-0.0747165,52,68,76,80,78,48,70,73,78,76,85,30
-2.09808,8.38051,-0.140698,-2.1173,-14.0311,27.5044,-13.4748,0.140698,-0.140698,-2.1173,-13.396,27.5044,-14.11,0.140698,-5.80235,19.2847,11.6495,11.2683,4.93747,-6.77783,-0.444988,4.78417,20.7791,9.3193,8.48074,-14.7405,-7.31882,0.0493731,1.58798,-0.0747186,52,68,76,80,78,48,70,73,78,76,85,30
-2.09814,8.38093,-0.140703,-2.11743,-14.0312,27.5044,-13.4748,0.140703,-0.140703,-2.11743,-13.3959,27.5044,-14.11,0.140703,-5.80246,19.2848,11.65,11.268,4.93706,-6.77779,-0.444958,4.78468,20.7792,9.31948,8.48079,-14.7407,-7.31884,0.0496998,1.58807,-0.0747212,52,68,76,80,78,48,70,73,78,76,85,30
-2.09821,8.38135,-0.140708,-2.11755,-14.0312,27.5044,-13.4748,0.140708,-0.140708,-2.11755,-13.3959,27.5044,-14.11,0.140708,-5.80257,19.2848,11.6505,11.2678,4.93665,-6.77774,-0.44493,4.78519,20.7793,9.31964,8.48084,-14.7409,-7.31886,0.0500281,1.58816,-0.0747243,52,68,76,80,78,48,70,73,78,76,85,30
-2.09827,8.38177,-0.140715,-2.11768,-14.0312,27.5044,-13.4747,0.140715,-0.140715,-2.11768,-13.3959,27.5044,-14.11,0.140715,-5.80268,19.2849,11.651,11.2675,4.93625,-6.77769,-0.444903,4.78569,20.7794,9.3198,8.48089,-14.7411,-7.31888,0.0503593,1.58826,-0.0747278,52,68,76,80,78,48,70,73,78,76,85,30
-2.09833,8.38218,-0.140722,-2.1178,-14.0313,27.5044,-13.4747,0.140722,-0.140722,-2.1178,-13.3959,27.5044,-14.11,0.140722,-5.8028,19.2849,11.6516,11.2673,4.93585,-6.77765,-0.444876,4.78619,20.7796,9.31993,8.48094,-14.7414,-7.31891,0.0506946,1.58835,-0.0747318,52,68,76,80,78,48,70,73,78,76,85,30
-2.0984,8.38259,-0.140731,-2.11792,-14.0313,27.5044,-13.4747,0.140731,-0.140731,-2.11792,-13.3959,27.5044,-14.11,0.140731,-5.80292,19.285,11.6521,11.267,4.93547,-6.7776,-0.444847,4.78669,20.7797,9.32005,8.48099,-14.7415,-7.31895,0.0510348,1.58844,-0.0747361,52,68,76,80,78,48,70,73,78,76,85,30
-2.09846,8.38299,-0.140739,-2.11805,-14.0317,27.5047,-13.4747,0.140739,-0.140739,-2.11805,-13.3963,27.5047,-14.1101,0.140739,-5.80305,19.285,11.6526,11.2668,4.93508,-6.77755,-0.444817,4.78719,20.7798,9.32015,8.48104,-14.7417,-7.31898,0.0513807,1.58854,-0.0747409,52,69,76,80,78,48,70,73,78,76,85,30
-2.09852,8.3834,-0.140749,-2.11817,-14.0318,27.5047,-13.4747,0.140749,-0.140749,-2.11817,-13.3963,27.5047,-14.1101,0.140749,-5.80318,19.285,11.6532,11.2666,4.93471,-6.77751,-0.444782,4.78769,20.78,9.32023,8.48109,-14.7419,-7.31903,0.0517352,1.58863,-0.074746,52,69,76,80,78,48,70,73,78,76,85,30
-2.09858,8.38381,-0.140759,-2.1183,-14.0318,27.5047,-13.4746,0.140759,-0.140759,-2.1183,-13.3963,27.5047,-14.1101,0.140759,-5.80331,19.2851,11.6537,11.2663,4.93435,-6.77746,-0.444744,4.78818,20.7801,9.32028,8.48114,-14.7421,-7.31908,0.0520979,1.58872,-0.0747515,52,69,76,80,78,48,70,73,78,76,85,30
-2.09864,8.38421,-0.14077,-2.11843,-14.0318,27.5047,-13.4746,0.14077,-0.14077,-2.11843,-13.3963,27.5047,-14.1101,0.14077,-5.80345,19.2851,11.6543,11.2661,4.934,-6.77741,-0.444703,4.78868,20.7802,9.32031,8.4812,-14.7422,-7.31913,0.0524682,1.58882,-0.0747573,52,69,76,80,78,48,70,73,78,76,85,30
-2.0987,8.38462,-0.140782,-2.11855,-14.0319,27.5047,-13.4746,0.140782,-0.140782,-2.11855,-13.3963,27.5047,-14.1101,0.140782,-5.8036,19.2851,11.6548,11.2659,4.93366,-6.77737,-0.444658,4.78917,20.7804,9.32032,8.48125,-14.7423,-7.31919,0.0528456,1.58892,-0.0747635,52,69,76,80,78,48,70,73,78,76,85,30
-2.09876,8.38502,-0.140794,-2.11868,-14.0319,27.5047,-13.4745,0.140794,-0.140794,-2.11868,-13.3963,27.5047,-14.1101,0.140794,-5.80374,19.2851,11.6554,11.2657,4.93333,-6.77733,-0.44461,4.78967,20.7805,9.3203,8.48131,-14.7425,-7.31925,0.0532298,1.58901,-0.07477,52,69,76,80,78,48,70,73,78,76,85,30
-2.09882,8.38543,-0.140807,-2.11881,-14.0319,27.5047,-13.4745,0.140807,-0.140807,-2.11881,-13.3963,27.5047,-14.1102,0.140807,-5.80389,19.2852,11.656,11.2655,4.93302,-6.77729,-0.44456,4.79016,20.7807,9.32027,8.48136,-14.7426,-7.31931,0.0536205,1.58911,-0.0747768,52,69,76,80,78,48,70,73,78,76,85,30
-2.09887,8.38583,-0.14082,-2.11894,-14.032,27.5047,-13.4745,0.14082,-0.14082,-2.11894,-13.3963,27.5047,-14.1102,0.14082,-5.80405,19.2852,11.6565,11.2653,4.93271,-6.77725,-0.444507,4.79066,20.7808,9.32022,8.48141,-14.7427,-7.31938,0.0540173,1.58921,-0.0747838,52,69,76,80,78,48,70,73,78,76,85,30
-2.09893,8.38623,-0.140834,-2.11907,-14.032,27.5047,-13.4744,0.140834,-0.140834,-2.11907,-13.3963,27.5047,-14.1102,0.140834,-5.80421,19.2852,11.6571,11.2651,4.93242,-6.77721,-0.444452,4.79115,20.781,9.32015,8.48146,-14.7428,-7.31945,0.0544162,1.5893,-0.0747912,52,69,76,80,78,48,70,73,78,76,85,30
-2.09898,8.38662,-0.140848,-2.1192,-14.032,27.5047,-13.4744,0.140848,-0.140848,-2.1192,-13.3963,27.5047,-14.1102,0.140848,-5.80437,19.2852,11.6576,11.2649,4.93214,-6.77718,-0.444396,4.79164,20.7811,9.32006,8.48151,-14.7429,-7.31952,0.054819,1.5894,-0.0747988,52,69,76,80,78,48,70,73,78,76,85,30
-2.09903,8.38702,-0.140863,-2.11933,-14.0321,27.5047,-13.4744,0.140863,-0.140863,-2.11933,-13.3963,27.5047,-14.1102,0.140863,-5.80454,19.2852,11.6581,11.2648,4.93187,-6.77715,-0.444337,4.79213,20.7813,9.31996,8.48156,-14.7429,-7.31959,0.0552274,1.5895,-0.0748067,52,69,76,80,78,48,70,73,78,76,85,30
-2.09908,8.38741,-0.140878,-2.11947,-14.0321,27.5047,-13.4743,0.140878,-0.140878,-2.11947,-13.3962,27.5047,-14.1102,0.140878,-5.80471,19.2852,11.6587,11.2646,4.93162,-6.77712,-0.444276,4.79262,20.7815,9.31984,8.48161,-14.743,-7.31966,0.0556427,1.5896,-0.0748148,52,69,76,80,78,48,70,73,78,76,85,30
-2.09913,8.3878,-0.140894,-2.1196,-14.0321,27.5047,-13.4743,0.140894,-0.140894,-2.1196,-13.3962,27.5047,-14.1102,0.140894,-5.80488,19.2852,11.6592,11.2645,4.93137,-6.7771,-0.444213,4.79311,20.7816,9.31971,8.48165,-14.7431,-7.31974,0.0560659,1.5897,-0.0748232,52,69,76,80,78,48,70,73,78,76,85,30
-2.09918,8.38819,-0.14091,-2.11973,-14.0322,27.5047,-13.4743,0.14091,-0.14091,-2.11973,-13.3962,27.5047,-14.1102,0.14091,-5.80506,19.2852,11.6597,11.2644,4.93114,-6.77709,-0.444147,4.79359,20.7818,9.31956,8.48169,-14.7431,-7.31981,0.0564976,1.5898,-0.0748318,52,69,76,80,78,48,70,73,78,76,85,30
-2.09922,8.38857,-0.140927,-2.11986,-14.0324,27.5048,-13.4743,0.140927,-0.140927,-2.11986,-13.3964,27.5048,-14.1103,0.140927,-5.80524,19.2851,11.6602,11.2642,4.93092,-6.77708,-0.444078,4.79408,20.782,9.31939,8.48172,-14.7432,-7.31989,0.0569382,1.5899,-0.0748406,52,69,76,80,78,48,70,73,78,76,85,30
-2.09927,8.38896,-0.140944,-2.12,-14.0324,27.5048,-13.4743,0.140944,-0.140944,-2.12,-13.3964,27.5048,-14.1103,0.140944,-5.80542,19.2851,11.6607,11.2642,4.9307,-6.77708,-0.444006,4.79456,20.7821,9.31921,8.48176,-14.7432,-7.31996,0.0573969,1.59,-0.0748496,52,69,76,80,78,48,70,73,78,76,85,30
-2.09931,8.38934,-0.140961,-2.12013,-14.0325,27.5048,-13.4742,0.140961,-0.140961,-2.12013,-13.3964,27.5048,-14.1103,0.140961,-5.80561,19.2851,11.6611,11.2641,4.9305,-6.77709,-0.443931,4.79504,20.7823,9.31902,8.48178,-14.7433,-7.32003,0.0578692,1.5901,-0.0748589,52,69,76,80,78,48,70,73,78,76,85,30
-2.09935,8.38972,-0.140979,-2.12026,-14.0325,27.5048,-13.4742,0.140979,-0.140979,-2.12026,-13.3964,27.5048,-14.1103,0.140979,-5.8058,19.2851,11.6616,11.264,4.9303,-6.77712,-0.443853,4.79552,20.7825,9.31881,8.48181,-14.7433,-7.3201,0.0583513,1.5902,-0.0748683,52,69,76,80,78,48,70,73,78,76,85,30
-2.09938,8.39009,-0.140997,-2.1204,-14.0325,27.5048,-13.4742,0.140997,-0.140997,-2.1204,-13.3964,27.5048,-14.1103,0.140997,-5.80599,19.2851,11.662,11.2639,4.93012,-6.77714,-0.443773,4.79599,20.7826,9.3186,8.48183,-14.7433,-7.32017,0.0588399,1.5903,-0.0748779,52,69,76,80,78,48,70,73,78,76,85,30
-2.09942,8.39046,-0.141015,-2.12053,-14.0326,27.5048,-13.4741,0.141015,-0.141015,-2.12053,-13.3964,27.5048,-14.1103,0.141015,-5.80618,19.285,11.6624,11.2639,4.92994,-6.77717,-0.443692,4.79646,20.7828,9.31838,8.48185,-14.7433,-7.32024,0.0593321,1.5904,-0.0748875,52,69,76,80,78,48,70,73,78,76,85,30
-2.09945,8.39083,-0.141033,-2.12066,-14.0326,27.5048,-13.4741,0.141033,-0.141033,-2.12066,-13.3964,27.5048,-14.1103,0.141033,-5.80637,19.285,11.6629,11.2639,4.92978,-6.77721,-0.443609,4.79692,20.783,9.31815,8.48187,-14.7434,-7.32031,0.0598258,1.59049,-0.0748973,52,69,76,80,78,48,70,73,78,76,85,30
-2.09948,8.39118,-0.141052,-2.12079,-14.0326,27.5048,-13.4741,0.141052,-0.141052,-2.12079,-13.3964,27.5048,-14.1103,0.141052,-5.80657,19.285,11.6632,11.2638,4.92962,-6.77725,-0.443526,4.79738,20.7831,9.31791,8.48188,-14.7434,-7.32038,0.0603189,1.59059,-0.074907,52,68,76,80,78,48,70,73,78,76,85,30
-2.09951,8.39154,-0.14107,-2.12092,-14.0326,27.5048,-13.474,0.14107,-0.14107,-2.12092,-13.3964,27.5048,-14.1103,0.14107,-5.80676,19.285,11.6636,11.2638,4.92946,-6.77729,-0.443444,4.79783,20.7833,9.31768,8.4819,-14.7434,-7.32045,0.0608016,1.59069,-0.0749167,52,68,76,80,78,48,70,73,78,76,85,30
-2.09954,8.39188,-0.141088,-2.12104,-14.0327,27.5048,-13.474,0.141088,-0.141088,-2.12104,-13.3964,27.5048,-14.1103,0.141088,-5.80695,19.2849,11.664,11.2638,4.92932,-6.77733,-0.443362,4.79827,20.7835,9.31744,8.48191,-14.7434,-7.32052,0.0612773,1.59078,-0.0749264,52,68,76,80,78,48,70,73,78,76,85,30
-2.09957,8.39222,-0.141106,-2.12117,-14.0327,27.5048,-13.474,0.141106,-0.141106,-2.12117,-13.3963,27.5048,-14.1103,0.141106,-5.80714,19.2849,11.6644,11.2638,4.92919,-6.77737,-0.443281,4.7987,20.7836,9.3172,8.48192,-14.7434,-7.3206,0.0617493,1.59088,-0.074936,52,68,76,80,78,48,70,73,78,76,85,30
-2.0996,8.39255,-0.141124,-2.12129,-14.0327,27.5048,-13.474,0.141124,-0.141124,-2.12129,-13.3963,27.5048,-14.1103,0.141124,-5.80732,19.2849,11.6647,11.2637,4.92906,-6.77742,-0.443199,4.79912,20.7838,9.31695,8.48193,-14.7434,-7.32067,0.0622204,1.59097,-0.0749455,52,68,76,80,78,48,70,73,78,76,85,30
-2.09962,8.39287,-0.141142,-2.12141,-14.0328,27.5048,-13.4739,0.141142,-0.141142,-2.12141,-13.3963,27.5048,-14.1104,0.141142,-5.80751,19.2849,11.6651,11.2637,4.92893,-6.77747,-0.443117,4.79954,20.784,9.31671,8.48194,-14.7434,-7.32074,0.0626931,1.59106,-0.0749551,52,68,76,80,78,48,70,73,78,76,85,30
-2.09965,8.3932,-0.14116,-2.12153,-14.0328,27.5048,-13.4739,0.14116,-0.14116,-2.12153,-13.3963,27.5048,-14.1104,0.14116,-5.8077,19.2848,11.6654,11.2637,4.92881,-6.77752,-0.443034,4.79995,20.7841,9.31646,8.48195,-14.7434,-7.3208,0.0631695,1.59115,-0.0749645,52,68,76,80,78,48,70,73,78,76,85,30
-2.09967,8.39351,-0.141177,-2.12165,-14.0327,27.5047,-13.4738,0.141177,-0.141177,-2.12165,-13.3962,27.5047,-14.1103,0.141177,-5.80788,19.2848,11.6657,11.2638,4.92869,-6.77758,-0.44295,4.80036,20.7843,9.31621,8.48195,-14.7434,-7.32086,0.0636513,1.59124,-0.074974,52,68,76,80,78,48,70,73,78,76,85,30
-2.09969,8.39383,-0.141195,-2.12177,-14.0327,27.5047,-13.4738,0.141195,-0.141195,-2.12177,-13.3962,27.5047,-14.1103,0.141195,-5.80806,19.2848,11.666,11.2638,4.92858,-6.77765,-0.442863,4.80077,20.7844,9.31596,8.48195,-14.7434,-7.32091,0.0641454,1.59132,-0.0749835,52,68,76,80,78,48,70,73,78,76,85,30
-2.09971,8.39414,-0.141213,-2.12188,-14.0327,27.5047,-13.4738,0.141213,-0.141213,-2.12188,-13.3961,27.5047,-14.1104,0.141213,-5.80824,19.2847,11.6663,11.2638,4.92847,-6.77773,-0.442775,4.80117,20.7846,9.3157,8.48194,-14.7434,-7.32096,0.0646503,1.59141,-0.074993,52,68,76,80,78,48,70,73,78,76,85,30
-2.09974,8.39445,-0.141231,-2.122,-14.0327,27.5047,-13.4738,0.141231,-0.141231,-2.122,-13.3961,27.5047,-14.1104,0.141231,-5.80841,19.2847,11.6665,11.2639,4.92836,-6.77781,-0.442685,4.80156,20.7847,9.31545,8.48193,-14.7434,-7.321,0.0651652,1.5915,-0.0750024,52,68,76,80,78,48,70,73,78,76,85,30
-2.09976,8.39475,-0.141248,-2.12211,-14.0328,27.5047,-13.4737,0.141248,-0.141248,-2.12211,-13.3961,27.5047,-14.1104,0.141248,-5.80859,19.2847,11.6668,11.2639,4.92825,-6.77791,-0.442595,4.80196,20.7849,9.31519,8.48191,-14.7434,-7.32103,0.0656891,1.59158,-0.0750117,52,68,76,80,78,48,70,73,78,76,85,30
-2.09978,8.39506,-0.141266,-2.12222,-14.0328,27.5047,-13.4737,0.141266,-0.141266,-2.12222,-13.3961,27.5047,-14.1104,0.141266,-5.80876,19.2846,11.667,11.264,4.92815,-6.77801,-0.442505,4.80235,20.785,9.31493,8.48189,-14.7434,-7.32105,0.0662212,1.59167,-0.0750209,52,68,76,80,78,48,70,73,78,76,85,30
-2.09979,8.39535,-0.141282,-2.12233,-14.0328,27.5047,-13.4737,0.141282,-0.141282,-2.12233,-13.3961,27.5047,-14.1104,0.141282,-5.80893,19.2846,11.6672,11.2641,4.92805,-6.77812,-0.442415,4.80273,20.7852,9.31466,8.48187,-14.7433,-7.32107,0.066761,1.59175,-0.0750297,52,68,76,80,78,48,70,73,78,76,85,30
-2.09981,8.39564,-0.141298,-2.12244,-14.0328,27.5047,-13.4737,0.141298,-0.141298,-2.12244,-13.3961,27.5047,-14.1104,0.141298,-5.8091,19.2846,11.6674,11.2642,4.92795,-6.77824,-0.442327,4.80311,20.7853,9.3144,8.48185,-14.7433,-7.32108,0.0673079,1.59183,-0.0750384,52,68,76,80,78,48,70,73,78,76,85,30
-2.09983,8.39593,-0.141314,-2.12255,-14.0329,27.5047,-13.4736,0.141314,-0.141314,-2.12255,-13.3961,27.5047,-14.1104,0.141314,-5.80928,19.2845,11.6676,11.2643,4.92786,-6.77837,-0.442242,4.80349,20.7855,9.31413,8.48182,-14.7433,-7.32108,0.0678589,1.59191,-0.0750466,52,68,76,80,78,48,70,73,78,76,85,30
-2.09984,8.39621,-0.141329,-2.12266,-14.0329,27.5047,-13.4736,0.141329,-0.141329,-2.12266,-13.3961,27.5047,-14.1104,0.141329,-5.80945,19.2845,11.6678,11.2644,4.92776,-6.7785,-0.442158,4.80386,20.7856,9.31386,8.4818,-14.7432,-7.32107,0.0684152,1.592,-0.0750544,52,68,76,80,78,48,70,73,78,76,85,30
-2.09985,8.39649,-0.141343,-2.12277,-14.0329,27.5047,-13.4736,0.141343,-0.141343,-2.12277,-13.3961,27.5047,-14.1104,0.141343,-5.80962,19.2845,11.6679,11.2646,4.92767,-6.77864,-0.442076,4.80422,20.7857,9.31358,8.48178,-14.7432,-7.32105,0.0689781,1.59208,-0.0750619,52,68,76,80,78,48,70,73,78,76,85,30
-2.09986,8.39676,-0.141356,-2.12287,-14.0329,27.5047,-13.4736,0.141356,-0.141356,-2.12287,-13.3961,27.5047,-14.1104,0.141356,-5.80978,19.2844,11.668,11.2647,4.92759,-6.77879,-0.441995,4.80459,20.7858,9.31331,8.48175,-14.7431,-7.32102,0.0695488,1.59216,-0.0750692,52,68,76,80,78,48,70,73,78,76,85,30
-2.09988,8.39703,-0.14137,-2.12298,-14.0329,27.5047,-13.4735,0.14137,-0.14137,-2.12298,-13.3961,27.5047,-14.1104,0.14137,-5.80994,19.2844,11.6681,11.2649,4.92752,-6.77894,-0.441915,4.80495,20.7859,9.31305,8.48173,-14.7431,-7.32099,0.0701283,1.59223,-0.0750762,52,68,76,80,78,48,70,73,78,76,85,30
-2.09989,8.39729,-0.141382,-2.12308,-14.033,27.5047,-13.4735,0.141382,-0.141382,-2.12308,-13.396,27.5047,-14.1104,0.141382,-5.8101,19.2844,11.6681,11.265,4.92747,-6.7791,-0.441833,4.80532,20.786,9.31278,8.4817,-14.743,-7.32095,0.0707174,1.59231,-0.0750831,52,68,76,80,78,48,70,73,78,76,85,30
-2.09991,8.39756,-0.141395,-2.12318,-14.0331,27.5048,-13.4735,0.141395,-0.141395,-2.12318,-13.3961,27.5048,-14.1105,0.141395,-5.81024,19.2843,11.6681,11.2652,4.92742,-6.77927,-0.441751,4.80568,20.7861,9.31252,8.48167,-14.7429,-7.3209,0.0713167,1.59239,-0.0750898,52,68,76,80,78,48,70,73,78,76,85,30
-2.09992,8.39782,-0.141408,-2.12329,-14.0331,27.5048,-13.4735,0.141408,-0.141408,-2.12329,-13.3961,27.5048,-14.1105,0.141408,-5.81038,19.2843,11.6681,11.2654,4.92739,-6.77944,-0.441667,4.80605,20.7862,9.31226,8.48164,-14.7428,-7.32084,0.0719284,1.59246,-0.0750964,52,68,76,80,78,48,70,73,78,76,85,30
-2.09995,8.39808,-0.14142,-2.12338,-14.0331,27.5048,-13.4735,0.14142,-0.14142,-2.12338,-13.3961,27.5048,-14.1105,0.14142,-5.8105,19.2843,11.668,11.2656,4.92739,-6.77961,-0.44158,4.80642,20.7864,9.31201,8.48161,-14.7427,-7.32077,0.0725524,1.59254,-0.075103,52,68,76,80,78,48,70,73,78,76,85,30
-2.09997,8.39834,-0.141432,-2.12348,-14.0332,27.5048,-13.4734,0.141432,-0.141432,-2.12348,-13.3961,27.5048,-14.1105,0.141432,-5.81062,19.2843,11.6679,11.2658,4.9274,-6.77979,-0.441491,4.80679,20.7865,9.31177,8.48158,-14.7426,-7.3207,0.0731885,1.59261,-0.0751096,52,68,76,80,78,48,70,73,78,76,85,30
-2.1,8.39861,-0.141445,-2.12358,-14.0332,27.5048,-13.4734,0.141445,-0.141445,-2.12358,-13.3961,27.5048,-14.1105,0.141445,-5.81072,19.2842,11.6678,11.266,4.92742,-6.77997,-0.441399,4.80717,20.7866,9.31154,8.48154,-14.7425,-7.32063,0.0738365,1.59268,-0.0751162,52,68,76,80,78,48,70,73,78,76,85,30
-2.10004,8.39887,-0.141457,-2.12367,-14.0332,27.5048,-13.4734,0.141457,-0.141457,-2.12367,-13.3961,27.5048,-14.1105,0.141457,-5.81081,19.2842,11.6676,11.2663,4.92746,-6.78015,-0.441305,4.80754,20.7867,9.31132,8.4815,-14.7424,-7.32054,0.0744963,1.59275,-0.0751227,52,68,76,80,78,48,70,73,78,76,85,30
-2.10008,8.39913,-0.141469,-2.12376,-14.0332,27.5048,-13.4734,0.141469,-0.141469,-2.12376,-13.3961,27.5048,-14.1105,0.141469,-5.81089,19.2842,11.6674,11.2665,4.92752,-6.78033,-0.441209,4.80792,20.7868,9.31111,8.48146,-14.7422,-7.32046,0.0751679,1.59282,-0.0751292,52,68,76,80,78,48,70,73,78,76,85,30
-2.10012,8.39938,-0.141481,-2.12385,-14.0333,27.5048,-13.4733,0.141481,-0.141481,-2.12385,-13.3961,27.5048,-14.1105,0.141481,-5.81096,19.2842,11.6671,11.2667,4.92759,-6.78052,-0.44111,4.80831,20.7869,9.31092,8.48141,-14.7421,-7.32036,0.0758509,1.59289,-0.0751357,52,68,76,80,78,48,70,73,78,76,85,30
-2.10016,8.39964,-0.141493,-2.12394,-14.0333,27.5048,-13.4733,0.141493,-0.141493,-2.12394,-13.3961,27.5048,-14.1105,0.141493,-5.81102,19.2842,11.6668,11.267,4.92768,-6.7807,-0.44101,4.80869,20.787,9.31074,8.48136,-14.742,-7.32026,0.0765405,1.59296,-0.0751421,52,68,76,80,78,48,70,73,78,76,85,30
-2.10021,8.39989,-0.141505,-2.12403,-14.0333,27.5048,-13.4733,0.141505,-0.141505,-2.12403,-13.3961,27.5048,-14.1105,0.141505,-5.81106,19.2841,11.6665,11.2672,4.92778,-6.78089,-0.440908,4.80907,20.7871,9.31059,8.4813,-14.7419,-7.32016,0.0772392,1.59302,-0.0751483,52,68,76,80,78,48,70,73,78,76,85,30
-2.10026,8.40015,-0.141517,-2.12411,-14.0333,27.5048,-13.4733,0.141517,-0.141517,-2.12411,-13.3961,27.5048,-14.1105,0.141517,-5.81109,19.2841,11.6661,11.2675,4.92789,-6.78107,-0.440804,4.80946,20.7872,9.31044,8.48123,-14.7417,-7.32005,0.0779489,1.59308,-0.0751547,52,68,76,80,78,48,70,73,78,76,85,30
-2.10032,8.4004,-0.141529,-2.12419,-14.0334,27.5048,-13.4732,0.141529,-0.141529,-2.12419,-13.3961,27.5048,-14.1105,0.141529,-5.81111,19.2841,11.6658,11.2677,4.92802,-6.78125,-0.440695,4.80985,20.7873,9.31032,8.48116,-14.7416,-7.31994,0.078671,1.59314,-0.0751611,52,68,76,80,78,48,70,73,78,76,85,30
-2.10039,8.40064,-0.141542,-2.12427,-14.0334,27.5048,-13.4732,0.141542,-0.141542,-2.12427,-13.3961,27.5048,-14.1105,0.141542,-5.81112,19.2841,11.6653,11.268,4.92816,-6.78143,-0.440581,4.81024,20.7875,9.3102,8.48109,-14.7415,-7.31983,0.0794067,1.5932,-0.0751679,52,68,76,80,78,48,70,73,78,76,85,30
-2.10046,8.40089,-0.141555,-2.12435,-14.0334,27.5048,-13.4732,0.141555,-0.141555,-2.12435,-13.3961,27.5048,-14.1105,0.141555,-5.81111,19.2841,11.6649,11.2683,4.92832,-6.78161,-0.440461,4.81065,20.7876,9.31011,8.481,-14.7414,-7.31972,0.0801567,1.59326,-0.0751749,52,68,76,80,78,48,70,73,78,76,85,30
-2.10053,8.40114,-0.141569,-2.12443,-14.0329,27.5044,-13.473,0.141569,-0.141569,-2.12443,-13.3956,27.5044,-14.1104,0.141569,-5.8111,19.2841,11.6644,11.2685,4.92849,-6.78178,-0.440334,4.81106,20.7877,9.31002,8.48091,-14.7412,-7.31961,0.0809209,1.59332,-0.0751824,52,68,76,80,78,48,70,73,78,76,85,30
-2.10062,8.40139,-0.141585,-2.12451,-14.0329,27.5044,-13.473,0.141585,-0.141585,-2.12451,-13.3956,27.5044,-14.1104,0.141585,-5.81106,19.2841,11.6639,11.2688,4.92869,-6.78195,-0.440197,4.81149,20.7879,9.30995,8.48081,-14.7411,-7.31952,0.0817133,1.59338,-0.0751906,52,68,76,80,78,48,70,73,78,76,85,30
-2.10072,8.40163,-0.141601,-2.12459,-14.033,27.5044,-13.473,0.141601,-0.141601,-2.12459,-13.3956,27.5044,-14.1103,0.141601,-5.81102,19.2841,11.6634,11.269,4.92891,-6.78212,-0.440049,4.81193,20.7881,9.30988,8.4807,-14.741,-7.31943,0.0825267,1.59344,-0.0751994,52,68,76,80,78,48,70,73,78,76,85,30
-2.10082,8.40188,-0.141619,-2.12467,-14.033,27.5044,-13.4729,0.141619,-0.141619,-2.12467,-13.3956,27.5044,-14.1103,0.141619,-5.81096,19.2841,11.6628,11.2693,4.92914,-6.78228,-0.439895,4.81238,20.7883,9.30983,8.48058,-14.7408,-7.31934,0.0833549,1.5935,-0.0752088,52,68,76,80,78,48,70,73,78,76,85,30
-2.10092,8.40212,-0.141637,-2.12475,-14.033,27.5044,-13.4729,0.141637,-0.141637,-2.12475,-13.3956,27.5044,-14.1103,0.141637,-5.8109,19.2841,11.6622,11.2696,4.92939,-6.78243,-0.439735,4.81284,20.7885,9.30979,8.48046,-14.7407,-7.31926,0.0841925,1.59356,-0.0752185,52,68,76,80,78,48,70,73,78,76,85,30
-2.10103,8.40236,-0.141656,-2.12482,-14.0331,27.5044,-13.4729,0.141656,-0.141656,-2.12482,-13.3956,27.5044,-14.1103,0.141656,-5.81082,19.2841,11.6616,11.2698,4.92964,-6.78259,-0.439571,4.81329,20.7887,9.30976,8.48033,-14.7406,-7.31918,0.0850351,1.59362,-0.0752285,52,68,76,80,78,48,70,73,78,76,85,30
-2.10115,8.4026,-0.141675,-2.1249,-14.0331,27.5044,-13.4728,0.141675,-0.141675,-2.1249,-13.3956,27.5044,-14.1103,0.141675,-5.81075,19.2841,11.661,11.2701,4.9299,-6.78274,-0.439403,4.81375,20.7889,9.30975,8.4802,-14.7404,-7.31911,0.0858791,1.59368,-0.0752387,52,68,76,80,78,48,70,73,78,76,85,30
-2.10127,8.40283,-0.141694,-2.12498,-14.033,27.5042,-13.4728,0.141694,-0.141694,-2.12498,-13.3955,27.5042,-14.1103,0.141694,-5.81067,19.2841,11.6604,11.2703,4.93016,-6.78289,-0.439234,4.81421,20.7891,9.30974,8.48006,-14.7403,-7.31903,0.0867214,1.59373,-0.075249,52,68,76,80,78,48,70,73,78,76,85,30
-2.10139,8.40306,-0.141713,-2.12505,-14.033,27.5042,-13.4727,0.141713,-0.141713,-2.12505,-13.3955,27.5042,-14.1103,0.141713,-5.81059,19.2841,11.6598,11.2706,4.93042,-6.78304,-0.439067,4.81465,20.7893,9.30975,8.47993,-14.7402,-7.31896,0.0875451,1.59379,-0.0752592,52,68,76,80,78,48,70,73,78,76,85,30
-2.1015,8.40328,-0.141732,-2.12512,-14.033,27.5042,-13.4727,0.141732,-0.141732,-2.12512,-13.3955,27.5042,-14.1102,0.141732,-5.81051,19.2842,11.6592,11.2708,4.93067,-6.78319,-0.438902,4.81509,20.7895,9.30977,8.4798,-14.7401,-7.31888,0.0883563,1.59384,-0.0752693,52,68,76,80,78,48,70,73,78,76,85,30
-2.10162,8.4035,-0.141752,-2.12519,-14.0331,27.5042,-13.4727,0.141752,-0.141752,-2.12519,-13.3955,27.5042,-14.1102,0.141752,-5.81044,19.2842,11.6586,11.2711,4.93091,-6.78333,-0.438737,4.81552,20.7898,9.3098,8.47967,-14.74,-7.3188,0.0891604,1.59389,-0.0752795,52,68,76,80,78,48,70,73,78,76,85,30
-2.10175,8.40371,-0.141771,-2.12526,-14.0331,27.5042,-13.4726,0.141771,-0.141771,-2.12526,-13.3955,27.5042,-14.1102,0.141771,-5.81035,19.2842,11.6579,11.2713,4.93117,-6.78348,-0.43857,4.81595,20.79,9.30984,8.47954,-14.7398,-7.31873,0.0899622,1.59394,-0.0752897,52,68,76,80,78,48,70,73,78,76,85,30
-2.10187,8.40393,-0.14179,-2.12533,-14.0331,27.5042,-13.4726,0.14179,-0.14179,-2.12533,-13.3955,27.5042,-14.1102,0.14179,-5.81026,19.2842,11.6573,11.2715,4.93143,-6.78361,-0.438401,4.81638,20.7902,9.30987,8.4794,-14.7397,-7.31866,0.0907658,1.594,-0.0753002,52,68,76,80,78,48,70,73,78,76,85,30
-2.102,8.40414,-0.14181,-2.1254,-14.0331,27.5042,-13.4726,0.14181,-0.14181,-2.1254,-13.3955,27.5042,-14.1102,0.14181,-5.81017,19.2842,11.6567,11.2718,4.93171,-6.78374,-0.438227,4.81682,20.7904,9.3099,8.47926,-14.7396,-7.3186,0.0915748,1.59405,-0.0753109,52,68,76,80,78,48,70,73,78,76,85,30
-2.10212,8.40434,-0.141831,-2.12546,-14.0325,27.5037,-13.4724,0.141831,-0.141831,-2.12546,-13.3949,27.5037,-14.11,0.141831,-5.81006,19.2842,11.656,11.272,4.932,-6.78387,-0.438049,4.81726,20.7907,9.30993,8.47912,-14.7395,-7.31855,0.092392,1.5941,-0.0753218,52,68,76,80,78,48,70,73,78,76,85,30
-2.10225,8.40455,-0.141853,-2.12553,-14.0325,27.5037,-13.4724,0.141853,-0.141853,-2.12553,-13.3949,27.5037,-14.11,0.141853,-5.80994,19.2842,11.6554,11.2722,4.93232,-6.78398,-0.437863,4.81773,20.7909,9.30994,8.47896,-14.7394,-7.31852,0.0932271,1.59415,-0.0753334,52,68,76,80,78,48,70,73,78,76,85,30
-2.10239,8.40476,-0.141875,-2.1256,-14.0326,27.5037,-13.4723,0.141875,-0.141875,-2.1256,-13.3949,27.5037,-14.11,0.141875,-5.8098,19.2843,11.6547,11.2724,4.93266,-6.78409,-0.437671,4.81821,20.7912,9.30995,8.4788,-14.7392,-7.31849,0.0940786,1.5942,-0.0753454,52,68,76,80,78,48,70,73,78,76,85,30
-2.10252,8.40498,-0.141899,-2.12567,-14.0326,27.5037,-13.4723,0.141899,-0.141899,-2.12567,-13.3949,27.5037,-14.11,0.141899,-5.80965,19.2843,11.654,11.2726,4.93302,-6.78419,-0.437472,4.81871,20.7915,9.30994,8.47863,-14.739,-7.31849,0.0949449,1.59425,-0.075358,52,68,76,80,78,48,70,73,78,76,85,30
-2.10266,8.40519,-0.141924,-2.12574,-14.0326,27.5037,-13.4723,0.141924,-0.141924,-2.12574,-13.3949,27.5037,-14.11,0.141924,-5.80948,19.2843,11.6534,11.2728,4.93339,-6.78429,-0.437266,4.81923,20.7918,9.30992,8.47846,-14.7388,-7.31849,0.0958246,1.59431,-0.075371,52,68,76,80,78,48,70,73,78,76,85,30
-2.1028,8.4054,-0.141949,-2.12581,-14.0327,27.5037,-13.4722,0.141949,-0.141949,-2.12581,-13.3949,27.5037,-14.11,0.141949,-5.80931,19.2844,11.6527,11.273,4.93378,-6.78437,-0.437056,4.81976,20.7921,9.3099,8.47828,-14.7386,-7.31851,0.0967166,1.59436,-0.0753845,52,68,76,80,78,48,70,73,78,76,85,30
-2.10295,8.40561,-0.141975,-2.12588,-14.0327,27.5037,-13.4722,0.141975,-0.141975,-2.12588,-13.395,27.5037,-14.1099,0.141975,-5.80912,19.2844,11.652,11.2732,4.93419,-6.78445,-0.43684,4.8203,20.7924,9.30986,8.4781,-14.7384,-7.31855,0.0976196,1.59441,-0.0753986,52,68,76,80,78,48,70,73,78,76,85,30
-2.1031,8.40582,-0.142003,-2.12595,-14.0325,27.5036,-13.4721,0.142003,-0.142003,-2.12595,-13.3947,27.5036,-14.1099,0.142003,-5.80892,19.2845,11.6513,11.2734,4.9346,-6.78453,-0.436619,4.82085,20.7927,9.30982,8.47792,-14.7382,-7.3186,0.0985324,1.59447,-0.0754132,52,68,76,80,78,48,70,73,78,76,85,30
-2.10326,8.40603,-0.14203,-2.12602,-14.0326,27.5036,-13.472,0.14203,-0.14203,-2.12602,-13.3947,27.5036,-14.1099,0.14203,-5.80871,19.2845,11.6507,11.2736,4.93502,-6.78459,-0.436396,4.82141,20.7931,9.30977,8.47774,-14.738,-7.31865,0.0994533,1.59452,-0.0754279,52,68,76,80,78,48,70,73,78,76,85,30
-2.10342,8.40623,-0.142059,-2.12609,-14.0326,27.5036,-13.472,0.142059,-0.142059,-2.12609,-13.3948,27.5036,-14.1098,0.142059,-5.80848,19.2846,11.65,11.2737,4.93544,-6.78465,-0.436169,4.82198,20.7935,9.30971,8.47755,-14.7377,-7.31873,0.100382,1.59457,-0.075443,52,68,76,80,78,48,70,73,78,76,85,30
-2.10359,8.40643,-0.142089,-2.12616,-14.0326,27.5036,-13.472,0.142089,-0.142089,-2.12616,-13.3948,27.5036,-14.1098,0.142089,-5.80825,19.2847,11.6494,11.2739,4.93587,-6.78471,-0.435939,4.82256,20.7938,9.30965,8.47737,-14.7375,-7.31881,0.101318,1.59462,-0.0754589,52,68,76,80,78,48,70,73,78,76,85,30
-2.10377,8.40664,-0.14212,-2.12623,-14.0327,27.5036,-13.4719,0.14212,-0.14212,-2.12623,-13.3948,27.5036,-14.1098,0.14212,-5.808,19.2847,11.6487,11.2741,4.9363,-6.78476,-0.435704,4.82316,20.7942,9.30958,8.47719,-14.7372,-7.31892,0.102262,1.59467,-0.0754755,52,68,76,80,78,48,70,73,78,76,85,30
-2.10395,8.40685,-0.142153,-2.1263,-14.0327,27.5036,-13.4719,0.142153,-0.142153,-2.1263,-13.3948,27.5036,-14.1098,0.142153,-5.80775,19.2848,11.6481,11.2742,4.93673,-6.78482,-0.435466,4.82378,20.7947,9.30951,8.477,-14.7369,-7.31904,0.103213,1.59473,-0.0754933,52,68,76,80,78,48,70,73,78,76,85,30
-2.10414,8.40706,-0.142189,-2.12638,-14.0328,27.5036,-13.4718,0.142189,-0.142189,-2.12638,-13.3949,27.5036,-14.1097,0.142189,-5.80748,19.2849,11.6475,11.2744,4.93716,-6.78487,-0.435222,4.82441,20.7951,9.30943,8.47682,-14.7366,-7.31919,0.104171,1.59478,-0.0755123,52,68,76,80,78,48,70,73,78,76,85,30
-2.10433,8.40727,-0.142227,-2.12645,-14.0325,27.5033,-13.4717,0.142227,-0.142227,-2.12645,-13.3946,27.5033,-14.1096,0.142227,-5.80719,19.285,11.6469,11.2745,4.93759,-6.78492,-0.434975,4.82506,20.7956,9.30935,8.47664,-14.7362,-7.31936,0.105136,1.59484,-0.0755326,52,68,76,80,78,48,70,73,78,76,85,30
-2.10453,8.40749,-0.142269,-2.12653,-14.0325,27.5033,-13.4717,0.142269,-0.142269,-2.12653,-13.3946,27.5033,-14.1096,0.142269,-5.80689,19.2851,11.6464,11.2747,4.93802,-6.78497,-0.434722,4.82574,20.7962,9.30926,8.47646,-14.7358,-7.31955,0.106107,1.5949,-0.0755547,52,68,76,80,78,48,70,73,78,76,85,30
-2.10474,8.40772,-0.142313,-2.12661,-14.0326,27.5033,-13.4716,0.142313,-0.142313,-2.12661,-13.3946,27.5033,-14.1096,0.142313,-5.80658,19.2852,11.6458,11.2748,4.93844,-6.78503,-0.434463,4.82644,20.7967,9.30918,8.47628,-14.7354,-7.31977,0.107085,1.59495,-0.0755785,52,68,76,80,78,48,70,73,78,76,85,30
-2.10496,8.40795,-0.142361,-2.12669,-14.0327,27.5033,-13.4715,0.142361,-0.142361,-2.12669,-13.3946,27.5033,-14.1096,0.142361,-5.80626,19.2853,11.6453,11.2749,4.93886,-6.78509,-0.434201,4.82717,20.7973,9.30909,8.47611,-14.7349,-7.32002,0.108069,1.59501,-0.0756039,52,68,76,80,78,48,70,73,78,76,85,30
-2.10518,8.40819,-0.142412,-2.12677,-14.0327,27.5033,-13.4715,0.142412,-0.142412,-2.12677,-13.3947,27.5033,-14.1095,0.142412,-5.80592,19.2854,11.6449,11.275,4.93928,-6.78515,-0.433935,4.82792,20.798,9.30901,8.47593,-14.7344,-7.32029,0.109059,1.59508,-0.0756309,52,68,76,80,78,48,70,73,78,76,85,30
-2.10541,8.40843,-0.142466,-2.12686,-14.0328,27.5033,-13.4714,0.142466,-0.142466,-2.12686,-13.3947,27.5033,-14.1095,0.142466,-5.80558,19.2855,11.6444,11.2751,4.93969,-6.78521,-0.433667,4.8287,20.7987,9.30893,8.47576,-14.7338,-7.3206,0.110054,1.59514,-0.0756595,52,68,76,80,78,48,70,73,78,76,85,30
-2.10564,8.40868,-0.142522,-2.12695,-14.0328,27.5033,-13.4714,0.142522,-0.142522,-2.12695,-13.3947,27.5033,-14.1095,0.142522,-5.80522,19.2856,11.644,11.2752,4.94009,-6.78528,-0.433398,4.82951,20.7994,9.30885,8.47558,-14.7332,-7.32094,0.111055,1.59521,-0.0756896,52,68,76,80,78,48,70,73,78,76,85,30
-2.10588,8.40894,-0.142582,-2.12704,-14.0329,27.5033,-13.4713,0.142582,-0.142582,-2.12704,-13.3948,27.5033,-14.1094,0.142582,-5.80485,19.2857,11.6436,11.2753,4.94048,-6.78535,-0.433128,4.83034,20.8001,9.30878,8.47541,-14.7325,-7.32131,0.112061,1.59528,-0.0757212,52,68,76,80,78,48,70,73,78,76,85,30
-2.10612,8.4092,-0.142644,-2.12714,-14.033,27.5033,-13.4713,0.142644,-0.142644,-2.12714,-13.3948,27.5033,-14.1094,0.142644,-5.80448,19.2858,11.6432,11.2754,4.94087,-6.78542,-0.432858,4.8312,20.8009,9.30873,8.47524,-14.7318,-7.32171,0.113073,1.59535,-0.0757544,52,68,76,80,78,48,70,73,78,76,85,30
-2.10636,8.40947,-0.142709,-2.12724,-14.033,27.5033,-13.4712,0.142709,-0.142709,-2.12724,-13.3949,27.5033,-14.1094,0.142709,-5.80409,19.2859,11.6428,11.2755,4.94125,-6.7855,-0.432587,4.8321,20.8017,9.30868,8.47507,-14.7311,-7.32215,0.114091,1.59543,-0.0757892,52,68,76,80,78,48,70,73,78,76,85,30
-2.1066,8.40974,-0.142777,-2.12734,-14.0331,27.5033,-13.4711,0.142777,-0.142777,-2.12734,-13.3949,27.5033,-14.1093,0.142777,-5.8037,19.2861,11.6425,11.2756,4.94162,-6.78557,-0.432318,4.83302,20.8026,9.30865,8.4749,-14.7303,-7.32262,0.115113,1.59551,-0.0758254,52,68,76,80,78,48,70,73,78,76,85,30
-2.10685,8.41002,-0.142848,-2.12745,-14.0332,27.5033,-13.471,0.142848,-0.142848,-2.12745,-13.3949,27.5033,-14.1093,0.142848,-5.8033,19.2862,11.6421,11.2756,4.94198,-6.78565,-0.43205,4.83397,20.8035,9.30864,8.47473,-14.7295,-7.32312,0.11614,1.59559,-0.0758629,52,68,76,80,78,48,70,73,78,76,85,30
-2.1071,8.4103,-0.142921,-2.12757,-14.0333,27.5033,-13.471,0.142921,-0.142921,-2.12757,-13.395,27.5033,-14.1092,0.142921,-5.80289,19.2863,11.6418,11.2757,4.94233,-6.78573,-0.431785,4.83495,20.8044,9.30864,8.47456,-14.7286,-7.32365,0.11717,1.59568,-0.0759016,52,68,76,80,78,48,70,73,78,76,85,30
-2.10735,8.41059,-0.142995,-2.12769,-14.0333,27.5033,-13.4709,0.142995,-0.142995,-2.12769,-13.395,27.5033,-14.1092,0.142995,-5.80248,19.2865,11.6416,11.2758,4.94267,-6.78582,-0.431522,4.83595,20.8053,9.30866,8.47439,-14.7277,-7.32421,0.118204,1.59576,-0.0759414,52,68,76,80,78,48,70,73,78,76,85,30
-2.1076,8.41088,-0.143072,-2.12781,-14.0335,27.5034,-13.4709,0.143072,-0.143072,-2.12781,-13.3952,27.5034,-14.1092,0.143072,-5.80207,19.2866,11.6413,11.2759,4.94299,-6.78591,-0.431263,4.83698,20.8063,9.30869,8.47422,-14.7268,-7.32479,0.119241,1.59586,-0.0759823,52,68,76,80,78,48,70,73,78,76,85,30
-2.10785,8.41117,-0.14315,-2.12793,-14.0336,27.5034,-13.4708,0.14315,-0.14315,-2.12793,-13.3952,27.5034,-14.1092,0.14315,-5.80165,19.2868,11.6411,11.2759,4.9433,-6.786,-0.431009,4.83802,20.8072,9.30874,8.47405,-14.7258,-7.3254,0.120276,1.59595,-0.0760238,52,68,76,80,78,48,70,73,78,76,85,30
-2.1081,8.41146,-0.143229,-2.12806,-14.0337,27.5034,-13.4707,0.143229,-0.143229,-2.12806,-13.3953,27.5034,-14.1091,0.143229,-5.80122,19.2869,11.6409,11.276,4.94359,-6.78609,-0.43076,4.83909,20.8082,9.3088,8.47389,-14.7249,-7.32603,0.121313,1.59605,-0.076066,52,68,76,80,78,48,70,73,78,76,85,30
-2.10836,8.41176,-0.143311,-2.1282,-14.0338,27.5034,-13.4706,0.143311,-0.143311,-2.1282,-13.3953,27.5034,-14.1091,0.143311,-5.8008,19.2871,11.6407,11.2761,4.94387,-6.78619,-0.430514,4.84018,20.8093,9.3089,8.47372,-14.7238,-7.32668,0.122352,1.59615,-0.0761094,52,68,76,80,78,48,70,73,78,76,85,30
-2.10861,8.41207,-0.143395,-2.12833,-14.0339,27.5034,-13.4705,0.143395,-0.143395,-2.12833,-13.3954,27.5034,-14.109,0.143395,-5.80037,19.2872,11.6405,11.2762,4.94413,-6.78629,-0.430272,4.84131,20.8103,9.30902,8.47355,-14.7228,-7.32736,0.123396,1.59625,-0.0761541,52,68,76,80,78,48,70,73,78,76,85,30
-2.10886,8.41237,-0.143482,-2.12848,-14.034,27.5034,-13.4704,0.143482,-0.143482,-2.12848,-13.3954,27.5034,-14.109,0.143482,-5.79993,19.2874,11.6404,11.2762,4.94436,-6.7864,-0.430033,4.84246,20.8114,9.30919,8.47339,-14.7216,-7.32806,0.124447,1.59636,-0.0762003,52,68,76,80,78,48,70,73,78,76,85,30
-2.10911,8.41269,-0.143572,-2.12863,-14.034,27.5034,-13.4704,0.143572,-0.143572,-2.12863,-13.3955,27.5034,-14.109,0.143572,-5.7995,19.2876,11.6403,11.2763,4.94458,-6.78651,-0.429797,4.84365,20.8125,9.30941,8.47322,-14.7204,-7.32878,0.125505,1.59647,-0.0762484,52,68,76,80,78,48,70,73,78,76,85,30
-2.10936,8.41301,-0.143666,-2.12879,-14.0341,27.5034,-13.4703,0.143666,-0.143666,-2.12879,-13.3955,27.5034,-14.1089,0.143666,-5.79906,19.2877,11.6402,11.2764,4.94477,-6.78663,-0.429563,4.84488,20.8137,9.30969,8.47306,-14.7191,-7.32953,0.126572,1.59659,-0.0762983,52,68,76,80,78,48,70,73,78,76,85,30
-2.1096,8.41334,-0.143763,-2.12895,-14.0342,27.5034,-13.4702,0.143763,-0.143763,-2.12895,-13.3955,27.5034,-14.1089,0.143763,-5.79861,19.2879,11.6402,11.2765,4.94493,-6.78675,-0.429331,4.84614,20.8149,9.31001,8.47289,-14.7177,-7.3303,0.127649,1.59671,-0.07635,52,68,76,80,78,48,70,73,78,76,85,30
-2.10984,8.41367,-0.143864,-2.12912,-14.0343,27.5034,-13.4701,0.143864,-0.143864,-2.12912,-13.3956,27.5034,-14.1088,0.143864,-5.79816,19.2881,11.6401,11.2766,4.94507,-6.78687,-0.4291,4.84744,20.8162,9.31039,8.47273,-14.7163,-7.3311,0.128737,1.59684,-0.0764038,52,68,76,80,78,48,70,73,78,76,85,30
-2.11008,8.41401,-0.143969,-2.1293,-14.0344,27.5034,-13.47,0.143969,-0.143969,-2.1293,-13.3956,27.5034,-14.1088,0.143969,-5.79771,19.2883,11.6401,11.2767,4.94519,-6.787,-0.428871,4.84878,20.8175,9.31084,8.47256,-14.7147,-7.33191,0.129835,1.59697,-0.0764598,52,68,76,80,78,48,70,73,78,76,85,30
-2.11031,8.41436,-0.144079,-2.12948,-14.0345,27.5034,-13.4699,0.144079,-0.144079,-2.12948,-13.3957,27.5034,-14.1087,0.144079,-5.79725,19.2885,11.6402,11.2768,4.94527,-6.78714,-0.428644,4.85016,20.8188,9.31136,8.4724,-14.7131,-7.33274,0.130942,1.59711,-0.0765182,52,68,76,80,78,48,70,73,78,76,85,30
-2.11054,8.41471,-0.144194,-2.12968,-14.0346,27.5034,-13.4698,0.144194,-0.144194,-2.12968,-13.3957,27.5034,-14.1087,0.144194,-5.7968,19.2886,11.6402,11.2769,4.94534,-6.78728,-0.428417,4.85159,20.8202,9.31196,8.47224,-14.7113,-7.33358,0.132059,1.59726,-0.0765791,52,68,76,80,78,48,70,73,78,76,85,30
-2.11075,8.41507,-0.144313,-2.12988,-14.0347,27.5034,-13.4697,0.144313,-0.144313,-2.12988,-13.3958,27.5034,-14.1086,0.144313,-5.79634,19.2888,11.6403,11.277,4.94537,-6.78743,-0.428192,4.85305,20.8217,9.31264,8.47208,-14.7095,-7.33442,0.133185,1.59741,-0.0766427,52,68,76,80,78,48,70,73,78,76,85,30
-2.11096,8.41544,-0.144437,-2.13009,-14.0352,27.5037,-13.4696,0.144437,-0.144437,-2.13009,-13.3961,27.5037,-14.1087,0.144437,-5.79589,19.289,11.6404,11.2772,4.94538,-6.78758,-0.427968,4.85455,20.8232,9.31341,8.47192,-14.7075,-7.33527,0.134319,1.59757,-0.0767089,52,68,76,80,78,48,70,73,78,76,85,30
-2.11115,8.4158,-0.14457,-2.13031,-14.0353,27.5037,-13.4695,0.14457,-0.14457,-2.13031,-13.3962,27.5037,-14.1086,0.14457,-5.79543,19.2892,11.6405,11.2773,4.94537,-6.78775,-0.427743,4.85611,20.8248,9.31432,8.47176,-14.7053,-7.3361,0.135472,1.59773,-0.0767795,52,68,76,80,78,48,70,73,78,76,85,30
-2.11133,8.41618,-0.144709,-2.13054,-14.0354,27.5037,-13.4694,0.144709,-0.144709,-2.13054,-13.3962,27.5037,-14.1086,0.144709,-5.79498,19.2893,11.6406,11.2774,4.94533,-6.78792,-0.427519,4.85772,20.8264,9.31534,8.4716,-14.7029,-7.33693,0.136637,1.5979,-0.0768536,52,68,76,80,78,48,70,73,78,76,85,30
-2.1115,8.41655,-0.144853,-2.13078,-14.0355,27.5037,-13.4693,0.144853,-0.144853,-2.13078,-13.3963,27.5037,-14.1085,0.144853,-5.79452,19.2895,11.6408,11.2776,4.94526,-6.78811,-0.427297,4.85937,20.8281,9.31645,8.47145,-14.7005,-7.33776,0.137808,1.59808,-0.0769303,52,68,76,80,78,48,70,73,78,76,85,30
-2.11166,8.41693,-0.145001,-2.13102,-14.0356,27.5037,-13.4692,0.145001,-0.145001,-2.13102,-13.3963,27.5037,-14.1085,0.145001,-5.79407,19.2896,11.6409,11.2777,4.94518,-6.7883,-0.427076,4.86104,20.8298,9.31762,8.47129,-14.6979,-7.33857,0.138979,1.59827,-0.0770089,52,68,76,80,78,48,70,73,78,76,85,30
-2.11181,8.4173,-0.145151,-2.13127,-14.0357,27.5037,-13.469,0.145151,-0.145151,-2.13127,-13.3964,27.5037,-14.1084,0.145151,-5.79363,19.2898,11.6411,11.2779,4.94508,-6.78849,-0.426856,4.86273,20.8316,9.31885,8.47114,-14.6953,-7.33938,0.140146,1.59845,-0.0770888,52,68,76,80,78,48,70,73,78,76,85,30
-2.11195,8.41768,-0.145303,-2.13152,-14.0359,27.5037,-13.4689,0.145303,-0.145303,-2.13152,-13.3964,27.5037,-14.1084,0.145303,-5.79319,19.2899,11.6413,11.278,4.94496,-6.78868,-0.426639,4.86443,20.8333,9.32012,8.471,-14.6927,-7.34019,0.141304,1.59864,-0.0771696,52,68,76,80,78,48,70,73,78,76,85,30
-2.11209,8.41806,-0.145455,-2.13178,-14.0359,27.5036,-13.4688,0.145455,-0.145455,-2.13178,-13.3964,27.5036,-14.1083,0.145455,-5.79275,19.2901,11.6415,11.2782,4.94482,-6.78888,-0.426424,4.86613,20.8351,9.32142,8.47086,-14.69,-7.34099,0.142452,1.59883,-0.0772507,52,68,76,80,78,48,70,73,78,76,85,30
-2.11223,8.41843,-0.145605,-2.13203,-14.036,27.5036,-13.4686,0.145605,-0.145605,-2.13203,-13.3964,27.5036,-14.1083,0.145605,-5.79233,19.2902,11.6417,11.2784,4.94467,-6.78906,-0.426213,4.8678,20.8368,9.32269,8.47072,-14.6873,-7.34179,0.143574,1.59902,-0.0773303,52,68,76,80,78,48,70,73,78,76,85,30
-2.11236,8.4188,-0.145753,-2.13227,-14.0361,27.5036,-13.4685,0.145753,-0.145753,-2.13227,-13.3964,27.5036,-14.1082,0.145753,-5.79191,19.2904,11.642,11.2785,4.94452,-6.78925,-0.426005,4.86946,20.8386,9.32396,8.4706,-14.6847,-7.34259,0.144674,1.5992,-0.077409,52,68,76,80,78,48,70,73,78,76,85,30
-2.11249,8.41917,-0.1459,-2.13252,-14.0362,27.5036,-13.4684,0.1459,-0.1459,-2.13252,-13.3965,27.5036,-14.1082,0.1459,-5.79149,19.2905,11.6422,11.2787,4.94435,-6.78943,-0.4258,4.87111,20.8403,9.32524,8.47047,-14.682,-7.34338,0.145759,1.59939,-0.0774874,52,68,76,80,78,48,70,73,78,76,85,30
-2.11261,8.41953,-0.146048,-2.13277,-14.0364,27.5036,-13.4683,0.146048,-0.146048,-2.13277,-13.3965,27.5036,-14.1081,0.146048,-5.79108,19.2907,11.6425,11.2788,4.94417,-6.78961,-0.425598,4.87275,20.842,9.32654,8.47035,-14.6793,-7.34416,0.146834,1.59958,-0.0775661,52,68,76,80,78,48,70,73,78,76,85,30
-2.11272,8.41989,-0.146197,-2.13302,-14.0365,27.5036,-13.4682,0.146197,-0.146197,-2.13302,-13.3966,27.5036,-14.1081,0.146197,-5.79068,19.2908,11.6427,11.279,4.94399,-6.7898,-0.4254,4.8744,20.8437,9.32789,8.47023,-14.6766,-7.34492,0.147903,1.59976,-0.0776457,52,68,76,80,78,48,70,73,78,76,85,30
