565950964-design/kaipule_sdk/control/csv_file/jiekexun.csv
Head_1,Head_2,Joint_1,Joint_2,Joint_3,Joint_4,Joint_5,Joint_6,Joint_7,Joint_8,Joint_9,Joint_10,Joint_11,Joint_12,Joint_13,Joint_14,Joint_15,Joint_16,Joint_17,Joint_18,Joint_19,Joint_20,Joint_21,Joint_22,Joint_23,Joint_24,Joint_25,Joint_26,Joint_27,Joint_28,Finger_1,Finger_2,Finger_3,Finger_4,Finger_5,Finger_6,Finger_7,Finger_8,Finger_9,Finger_10,Finger_11,Finger_12
-0.782337,9.03776,-0.363914,-1.70474,-15.7043,27.5123,-11.8148,0.363914,-0.363914,-1.70474,-15.1929,27.5123,-12.3262,0.363914,16.7821,35.9021,9.10256,7.12702,5.79783,-10.2325,-7.18586,25.3058,39.7901,2.88539,5,-25.9322,-11.0088,-3.37457,1.27855,-0.194402,56,87,86,89,87,44,74,76,80,82,90,26
-0.782339,9.03777,-0.363914,-1.70473,-15.7043,27.5123,-11.8148,0.363914,-0.363914,-1.70473,-15.1929,27.5123,-12.3262,0.363914,16.7822,35.9021,9.10254,7.12701,5.79785,-10.2325,-7.18586,25.3058,39.7901,2.88542,5,-25.9322,-11.0088,-3.37457,1.27855,-0.194403,56,87,86,89,87,44,74,76,80,82,90,26
-0.782343,9.03778,-0.363916,-1.70472,-15.7043,27.5123,-11.8148,0.363916,-0.363916,-1.70472,-15.1929,27.5123,-12.3262,0.363916,16.7822,35.9021,9.1025,7.127,5.79788,-10.2325,-7.18586,25.3058,39.7901,2.88548,5,-25.9323,-11.0088,-3.37457,1.27854,-0.194403,56,87,86,89,87,44,74,76,80,82,90,26
-0.78235,9.0378,-0.363917,-1.70471,-15.7043,27.5123,-11.8148,0.363917,-0.363917,-1.70471,-15.1929,27.5123,-12.3262,0.363917,16.7823,35.9021,9.10244,7.12699,5.79793,-10.2325,-7.18586,25.3058,39.7902,2.88556,5,-25.9323,-11.0088,-3.37457,1.27853,-0.194404,56,87,86,89,87,44,74,76,80,82,90,26
-0.78236,9.03782,-0.363919,-1.70469,-15.7043,27.5123,-11.8148,0.363919,-0.363919,-1.70469,-15.1929,27.5123,-12.3262,0.363919,16.7823,35.9021,9.10235,7.12697,5.79799,-10.2324,-7.18586,25.3058,39.7902,2.88567,5,-25.9325,-11.0088,-3.37457,1.27852,-0.194405,56,87,86,89,87,44,74,76,80,82,90,26
-0.782372,9.03785,-0.363922,-1.70467,-15.7043,27.5123,-11.8148,0.363922,-0.363922,-1.70467,-15.1929,27.5123,-12.3262,0.363922,16.7824,35.9022,9.10224,7.12694,5.79807,-10.2324,-7.18587,25.3058,39.7903,2.8858,5,-25.9326,-11.0088,-3.37457,1.2785,-0.194407,56,87,86,89,87,44,74,76,80,82,90,26
-0.782387,9.03788,-0.363924,-1.70465,-15.7043,27.5123,-11.8148,0.363924,-0.363924,-1.70465,-15.1929,27.5123,-12.3262,0.363924,16.7825,35.9022,9.1021,7.12691,5.79816,-10.2324,-7.18587,25.3057,39.7904,2.88597,5,-25.9327,-11.0087,-3.37456,1.27848,-0.194408,56,87,86,89,87,44,74,76,80,82,90,26
-0.782404,9.0379,-0.363927,-1.70462,-15.7043,27.5123,-11.8148,0.363927,-0.363927,-1.70462,-15.1929,27.5123,-12.3262,0.363927,16.7826,35.9023,9.10193,7.12688,5.79827,-10.2323,-7.18588,25.3057,39.7905,2.88615,5,-25.9329,-11.0087,-3.37456,1.27846,-0.19441,56,87,86,89,87,44,74,76,80,82,90,26
-0.782424,9.03793,-0.36393,-1.70459,-15.7043,27.5123,-11.8148,0.36393,-0.36393,-1.70459,-15.1929,27.5123,-12.3262,0.36393,16.7828,35.9024,9.10174,7.12684,5.7984,-10.2323,-7.18589,25.3057,39.7906,2.88636,5,-25.9331,-11.0087,-3.37456,1.27844,-0.194411,56,87,86,89,87,44,74,76,80,82,90,26
-0.782447,9.03797,-0.363933,-1.70455,-15.7043,27.5123,-11.8148,0.363933,-0.363933,-1.70455,-15.193,27.5123,-12.3261,0.363933,16.7829,35.9024,9.10152,7.1268,5.79854,-10.2322,-7.18591,25.3057,39.7907,2.88658,5,-25.9333,-11.0087,-3.37456,1.27841,-0.194413,56,87,86,89,87,44,74,76,80,82,90,26
-0.782472,9.038,-0.363936,-1.70451,-15.7043,27.5123,-11.8148,0.363936,-0.363936,-1.70451,-15.193,27.5123,-12.3261,0.363936,16.7831,35.9025,9.10126,7.12675,5.79869,-10.2321,-7.18592,25.3056,39.7908,2.88683,5,-25.9335,-11.0086,-3.37456,1.27838,-0.194414,56,87,86,89,87,44,74,76,80,82,90,26
-0.782501,9.03802,-0.363939,-1.70447,-15.7043,27.5123,-11.8148,0.363939,-0.363939,-1.70447,-15.193,27.5123,-12.3261,0.363939,16.7833,35.9026,9.10098,7.1267,5.79886,-10.2321,-7.18595,25.3056,39.791,2.88711,5,-25.9338,-11.0086,-3.37456,1.27835,-0.194416,56,87,86,89,87,44,74,76,80,82,90,26
-0.782533,9.03805,-0.363942,-1.70443,-15.7043,27.5123,-11.8148,0.363942,-0.363942,-1.70443,-15.193,27.5123,-12.3261,0.363942,16.7834,35.9028,9.10066,7.12665,5.79905,-10.232,-7.18597,25.3056,39.7911,2.88743,5,-25.9341,-11.0086,-3.37456,1.27832,-0.194418,56,87,86,89,87,44,74,76,80,82,90,26
-0.782568,9.03807,-0.363945,-1.70438,-15.7043,27.5123,-11.8148,0.363945,-0.363945,-1.70438,-15.193,27.5123,-12.3261,0.363945,16.7836,35.9029,9.1003,7.1266,5.79924,-10.2319,-7.186,25.3055,39.7913,2.88778,5,-25.9344,-11.0085,-3.37455,1.27828,-0.194419,56,87,86,89,87,44,74,76,80,82,90,26
-0.782607,9.03808,-0.363948,-1.70432,-15.7046,27.5125,-11.8148,0.363948,-0.363948,-1.70432,-15.1933,27.5125,-12.3261,0.363948,16.7838,35.9031,9.0999,7.12656,5.79945,-10.2319,-7.18604,25.3055,39.7915,2.88817,5,-25.9347,-11.0085,-3.37454,1.27824,-0.194421,56,87,86,89,87,44,74,76,80,82,90,26
-0.782652,9.03809,-0.363951,-1.70427,-15.7046,27.5125,-11.8148,0.363951,-0.363951,-1.70427,-15.1933,27.5125,-12.3261,0.363951,16.784,35.9032,9.09946,7.12653,5.79967,-10.2318,-7.18608,25.3054,39.7917,2.88862,5,-25.935,-11.0085,-3.37453,1.2782,-0.194422,56,87,86,89,87,44,74,76,80,82,90,26
-0.782702,9.03809,-0.363954,-1.70421,-15.7046,27.5125,-11.8149,0.363954,-0.363954,-1.70421,-15.1933,27.5125,-12.3261,0.363954,16.7843,35.9034,9.09898,7.1265,5.7999,-10.2318,-7.18613,25.3053,39.7919,2.88911,5,-25.9354,-11.0085,-3.37451,1.27815,-0.194424,56,87,86,89,87,44,74,76,80,82,90,26
-0.782754,9.03809,-0.363957,-1.70414,-15.7046,27.5125,-11.8149,0.363957,-0.363957,-1.70414,-15.1933,27.5125,-12.3261,0.363957,16.7845,35.9036,9.09845,7.12648,5.80014,-10.2317,-7.18618,25.3052,39.7922,2.88965,5,-25.9358,-11.0085,-3.37449,1.27811,-0.194426,56,87,86,89,87,44,74,76,80,82,90,26
-0.78281,9.03808,-0.36396,-1.70407,-15.7046,27.5125,-11.8149,0.36396,-0.36396,-1.70407,-15.1933,27.5125,-12.3261,0.36396,16.7847,35.9039,9.0979,7.12646,5.80039,-10.2316,-7.18624,25.3051,39.7924,2.89022,5,-25.9362,-11.0085,-3.37446,1.27806,-0.194427,56,87,86,89,87,44,74,76,80,82,90,26
-0.782868,9.03806,-0.363963,-1.70401,-15.7046,27.5125,-11.8149,0.363963,-0.363963,-1.70401,-15.1933,27.5125,-12.3261,0.363963,16.7849,35.9041,9.09731,7.12645,5.80065,-10.2316,-7.1863,25.305,39.7927,2.89082,5,-25.9366,-11.0085,-3.37443,1.278,-0.194429,56,87,86,89,87,44,74,76,80,82,90,26
-0.782928,9.03804,-0.363965,-1.70393,-15.7045,27.5125,-11.8149,0.363965,-0.363965,-1.70393,-15.1934,27.5125,-12.3261,0.363965,16.7852,35.9043,9.09671,7.12644,5.80091,-10.2315,-7.18637,25.3048,39.7929,2.89145,5,-25.937,-11.0085,-3.3744,1.27795,-0.19443,56,87,86,89,87,44,74,76,80,82,90,26
-0.782989,9.03801,-0.363968,-1.70386,-15.705,27.5128,-11.815,0.363968,-0.363968,-1.70386,-15.1938,27.5128,-12.3261,0.363968,16.7854,35.9046,9.09608,7.12643,5.80118,-10.2315,-7.18643,25.3047,39.7932,2.8921,5,-25.9374,-11.0085,-3.37437,1.2779,-0.194432,56,87,86,89,87,44,74,76,80,82,90,26
-0.783049,9.03799,-0.363971,-1.70379,-15.705,27.5128,-11.815,0.363971,-0.363971,-1.70379,-15.1938,27.5128,-12.3261,0.363971,16.7856,35.9048,9.09545,7.12642,5.80145,-10.2314,-7.1865,25.3046,39.7935,2.89276,5,-25.9379,-11.0085,-3.37433,1.27784,-0.194434,56,87,86,89,87,44,74,76,80,82,90,26
-0.783108,9.03796,-0.363974,-1.70371,-15.705,27.5128,-11.815,0.363974,-0.363974,-1.70371,-15.1938,27.5128,-12.3261,0.363974,16.7859,35.9051,9.09481,7.12642,5.80173,-10.2314,-7.18657,25.3044,39.7938,2.89342,5,-25.9383,-11.0085,-3.3743,1.27778,-0.194435,56,87,86,89,87,44,74,76,80,82,90,26
-0.783169,9.03792,-0.363977,-1.70363,-15.7049,27.5128,-11.815,0.363977,-0.363977,-1.70363,-15.1939,27.5128,-12.3261,0.363977,16.7861,35.9053,9.09416,7.12641,5.802,-10.2313,-7.18664,25.3043,39.794,2.8941,5,-25.9388,-11.0085,-3.37426,1.27773,-0.194437,56,87,86,89,87,44,74,76,80,82,90,26
-0.78323,9.03789,-0.36398,-1.70356,-15.7049,27.5128,-11.815,0.36398,-0.36398,-1.70356,-15.1939,27.5128,-12.3261,0.36398,16.7864,35.9056,9.09349,7.12641,5.80228,-10.2313,-7.18671,25.3041,39.7943,2.89479,5,-25.9392,-11.0085,-3.37422,1.27767,-0.194438,56,87,86,89,87,44,74,76,80,82,90,26
-0.783292,9.03785,-0.363983,-1.70348,-15.7049,27.5128,-11.815,0.363983,-0.363983,-1.70348,-15.1939,27.5128,-12.3261,0.363983,16.7866,35.9058,9.09283,7.12642,5.80255,-10.2313,-7.18679,25.304,39.7946,2.89549,5,-25.9397,-11.0085,-3.37418,1.27761,-0.19444,56,87,86,89,87,44,74,76,80,82,90,26
-0.783356,9.03781,-0.363986,-1.7034,-15.7049,27.5128,-11.815,0.363986,-0.363986,-1.7034,-15.1939,27.5128,-12.326,0.363986,16.7868,35.9061,9.09215,7.12642,5.80283,-10.2312,-7.18686,25.3038,39.7949,2.8962,5,-25.9401,-11.0086,-3.37414,1.27755,-0.194442,56,87,86,89,87,44,74,76,80,82,90,26
-0.783421,9.03777,-0.363989,-1.70333,-15.7053,27.5131,-11.8151,0.363989,-0.363989,-1.70333,-15.1943,27.5131,-12.3261,0.363989,16.7871,35.9064,9.09146,7.12643,5.80311,-10.2312,-7.18694,25.3037,39.7952,2.89692,5,-25.9406,-11.0086,-3.3741,1.27749,-0.194443,56,87,86,89,87,44,74,76,80,82,90,26
-0.783489,9.03773,-0.363992,-1.70325,-15.7053,27.5131,-11.8151,0.363992,-0.363992,-1.70325,-15.1943,27.5131,-12.3261,0.363992,16.7873,35.9066,9.09076,7.12645,5.80339,-10.2311,-7.18702,25.3035,39.7955,2.89765,5,-25.941,-11.0086,-3.37406,1.27744,-0.194445,56,87,86,89,87,44,74,76,80,82,90,26
-0.783559,9.03769,-0.363994,-1.70317,-15.7053,27.5131,-11.8151,0.363994,-0.363994,-1.70317,-15.1944,27.5131,-12.3261,0.363994,16.7875,35.9069,9.09005,7.12647,5.80367,-10.2311,-7.18711,25.3034,39.7958,2.8984,5,-25.9415,-11.0086,-3.37402,1.27738,-0.194446,56,87,86,89,87,44,74,76,80,82,90,26
-0.783632,9.03764,-0.363997,-1.70309,-15.7053,27.5131,-11.8151,0.363997,-0.363997,-1.70309,-15.1944,27.5131,-12.3261,0.363997,16.7877,35.9072,9.08934,7.12649,5.80394,-10.2311,-7.1872,25.3032,39.7961,2.89916,5,-25.942,-11.0087,-3.37397,1.27732,-0.194447,56,87,86,89,87,44,74,76,80,82,90,26
-0.783708,9.03759,-0.363999,-1.70302,-15.7053,27.5131,-11.8152,0.363999,-0.363999,-1.70302,-15.1944,27.5131,-12.3261,0.363999,16.7879,35.9075,9.08863,7.12652,5.80421,-10.2311,-7.18729,25.303,39.7964,2.89992,5,-25.9425,-11.0087,-3.37393,1.27726,-0.194448,56,87,86,89,87,44,74,76,80,82,90,26
-0.783787,9.03755,-0.364,-1.70294,-15.7053,27.5131,-11.8152,0.364,-0.364,-1.70294,-15.1944,27.5131,-12.326,0.364,16.7881,35.9077,9.08793,7.12656,5.80448,-10.231,-7.18738,25.3029,39.7967,2.90069,5,-25.9429,-11.0087,-3.37388,1.27721,-0.194449,56,87,86,89,87,44,74,76,80,82,90,26
-0.783869,9.0375,-0.364,-1.70287,-15.7053,27.5131,-11.8152,0.364,-0.364,-1.70287,-15.1944,27.5131,-12.326,0.364,16.7884,35.908,9.08723,7.12661,5.80473,-10.231,-7.18746,25.3027,39.797,2.90147,5,-25.9434,-11.0087,-3.37382,1.27715,-0.194449,56,87,86,89,87,44,74,76,80,82,90,26
-0.783955,9.03745,-0.363999,-1.70279,-15.7056,27.5133,-11.8153,0.363999,-0.363999,-1.70279,-15.1948,27.5133,-12.3261,0.363999,16.7885,35.9083,9.08654,7.12667,5.80496,-10.231,-7.18755,25.3025,39.7973,2.90224,5,-25.9438,-11.0087,-3.37376,1.2771,-0.194448,56,87,86,89,87,44,74,76,80,82,90,26
-0.784044,9.03741,-0.363997,-1.70272,-15.7056,27.5133,-11.8153,0.363997,-0.363997,-1.70272,-15.1948,27.5133,-12.3261,0.363997,16.7887,35.9087,9.08586,7.12675,5.80518,-10.231,-7.18764,25.3024,39.7976,2.90302,5,-25.9442,-11.0087,-3.37369,1.27704,-0.194447,56,87,86,89,87,44,74,76,80,82,90,26
-0.784137,9.03736,-0.363993,-1.70265,-15.7056,27.5133,-11.8153,0.363993,-0.363993,-1.70265,-15.1948,27.5133,-12.3261,0.363993,16.7889,35.909,9.0852,7.12683,5.80538,-10.231,-7.18772,25.3022,39.7979,2.90379,5,-25.9446,-11.0087,-3.37362,1.27699,-0.194445,56,87,86,89,87,44,74,76,80,82,90,26
-0.784233,9.03731,-0.363988,-1.70258,-15.7056,27.5133,-11.8153,0.363988,-0.363988,-1.70258,-15.1948,27.5133,-12.3261,0.363988,16.7891,35.9093,9.08456,7.12693,5.80556,-10.2309,-7.18779,25.302,39.7982,2.90456,5,-25.9449,-11.0086,-3.37353,1.27694,-0.194443,56,87,86,89,87,44,74,76,80,82,90,26
-0.784332,9.03727,-0.363982,-1.70252,-15.7056,27.5133,-11.8153,0.363982,-0.363982,-1.70252,-15.1948,27.5133,-12.3261,0.363982,16.7893,35.9096,9.08394,7.12704,5.80572,-10.2309,-7.18787,25.3019,39.7984,2.90533,5,-25.9453,-11.0086,-3.37344,1.27689,-0.194439,56,87,86,89,87,44,74,76,80,82,90,26
-0.784434,9.03723,-0.363973,-1.70245,-15.7056,27.5133,-11.8153,0.363973,-0.363973,-1.70245,-15.1948,27.5133,-12.326,0.363973,16.7895,35.91,9.08335,7.12716,5.80587,-10.2309,-7.18794,25.3017,39.7987,2.90608,5,-25.9456,-11.0085,-3.37334,1.27684,-0.194434,56,87,86,89,87,44,74,76,80,82,90,26
-0.784539,9.03719,-0.363963,-1.70239,-15.7056,27.5133,-11.8153,0.363963,-0.363963,-1.70239,-15.1948,27.5133,-12.326,0.363963,16.7896,35.9104,9.08278,7.1273,5.80599,-10.2309,-7.18801,25.3016,39.7989,2.90683,5,-25.9458,-11.0085,-3.37324,1.27679,-0.194429,56,87,86,89,87,44,74,76,80,82,90,26
-0.784646,9.03715,-0.363951,-1.70233,-15.7058,27.5135,-11.8154,0.363951,-0.363951,-1.70233,-15.1951,27.5135,-12.3261,0.363951,16.7898,35.9107,9.08225,7.12745,5.8061,-10.2309,-7.18807,25.3014,39.7992,2.90757,5,-25.9461,-11.0084,-3.37313,1.27675,-0.194422,56,87,86,89,87,44,74,76,80,82,90,26
-0.784756,9.03712,-0.363937,-1.70227,-15.7057,27.5135,-11.8154,0.363937,-0.363937,-1.70227,-15.1951,27.5135,-12.3261,0.363937,16.7899,35.9111,9.08174,7.12761,5.80618,-10.2308,-7.18813,25.3013,39.7994,2.9083,5,-25.9463,-11.0083,-3.37301,1.2767,-0.194415,56,87,86,89,87,44,74,76,80,82,90,26
-0.784868,9.03709,-0.36392,-1.70221,-15.7057,27.5135,-11.8154,0.36392,-0.36392,-1.70221,-15.1951,27.5135,-12.326,0.36392,16.7901,35.9115,9.08128,7.12778,5.80625,-10.2308,-7.18819,25.3011,39.7996,2.90902,5,-25.9464,-11.0082,-3.37289,1.27666,-0.194406,56,87,86,89,87,44,74,76,80,82,90,26
-0.784982,9.03707,-0.363902,-1.70215,-15.7057,27.5135,-11.8154,0.363902,-0.363902,-1.70215,-15.1951,27.5135,-12.326,0.363902,16.7902,35.9119,9.08084,7.12797,5.8063,-10.2308,-7.18824,25.301,39.7998,2.90973,5,-25.9466,-11.0081,-3.37277,1.27661,-0.194396,56,87,86,89,87,44,74,76,80,82,90,26
-0.785098,9.03705,-0.363881,-1.7021,-15.7057,27.5135,-11.8154,0.363881,-0.363881,-1.7021,-15.1951,27.5135,-12.326,0.363881,16.7904,35.9123,9.08045,7.12816,5.80633,-10.2308,-7.18829,25.3009,39.8,2.91042,5,-25.9467,-11.008,-3.37265,1.27657,-0.194385,56,87,86,89,87,44,74,76,80,82,90,26
-0.785215,9.03704,-0.363859,-1.70204,-15.7057,27.5135,-11.8154,0.363859,-0.363859,-1.70204,-15.1951,27.5135,-12.326,0.363859,16.7905,35.9128,9.08009,7.12837,5.80633,-10.2308,-7.18834,25.3007,39.8002,2.9111,5,-25.9468,-11.0079,-3.37252,1.27653,-0.194372,56,87,86,89,87,44,74,76,80,82,90,26
-0.785332,9.03703,-0.363834,-1.70199,-15.7057,27.5135,-11.8154,0.363834,-0.363834,-1.70199,-15.1951,27.5135,-12.326,0.363834,16.7906,35.9132,9.07977,7.12859,5.80632,-10.2308,-7.18838,25.3006,39.8004,2.91176,5,-25.9468,-11.0078,-3.3724,1.27649,-0.194359,56,87,86,89,87,44,74,76,80,82,90,26
-0.78545,9.03703,-0.363808,-1.70194,-15.7055,27.5133,-11.8154,0.363808,-0.363808,-1.70194,-15.1949,27.5133,-12.326,0.363808,16.7908,35.9136,9.07948,7.12881,5.80628,-10.2307,-7.18841,25.3004,39.8005,2.9124,5,-25.9468,-11.0077,-3.37227,1.27645,-0.194345,56,87,86,89,87,44,74,76,80,82,90,26
-0.785567,9.03703,-0.36378,-1.70189,-15.7055,27.5133,-11.8154,0.36378,-0.36378,-1.70189,-15.1949,27.5133,-12.326,0.36378,16.7909,35.9141,9.07923,7.12904,5.80621,-10.2307,-7.18844,25.3003,39.8007,2.91302,5,-25.9468,-11.0075,-3.37214,1.27642,-0.19433,56,87,86,89,87,44,74,76,80,82,90,26
-0.785683,9.03704,-0.36375,-1.70184,-15.7055,27.5133,-11.8154,0.36375,-0.36375,-1.70184,-15.195,27.5133,-12.326,0.36375,16.791,35.9146,9.07902,7.12928,5.80613,-10.2307,-7.18847,25.3002,39.8008,2.91363,5,-25.9468,-11.0074,-3.372,1.27638,-0.194313,56,87,86,89,87,44,74,76,80,82,90,26
-0.7858,9.03706,-0.363718,-1.70179,-15.7055,27.5133,-11.8154,0.363718,-0.363718,-1.70179,-15.195,27.5133,-12.326,0.363718,16.7911,35.915,9.07885,7.12953,5.80601,-10.2307,-7.18849,25.3,39.8009,2.91422,5,-25.9467,-11.0072,-3.37187,1.27635,-0.194296,56,87,86,89,87,44,74,76,80,82,90,26
-0.785917,9.03708,-0.363684,-1.70175,-15.7055,27.5133,-11.8154,0.363684,-0.363684,-1.70175,-15.195,27.5133,-12.3259,0.363684,16.7912,35.9155,9.07871,7.12978,5.80588,-10.2307,-7.1885,25.2999,39.801,2.91479,5,-25.9466,-11.007,-3.37174,1.27631,-0.194278,56,87,86,89,87,44,74,76,80,82,90,26
-0.786034,9.03711,-0.363649,-1.70171,-15.7055,27.5133,-11.8154,0.363649,-0.363649,-1.70171,-15.195,27.5133,-12.3259,0.363649,16.7912,35.916,9.07862,7.13004,5.80572,-10.2307,-7.18851,25.2998,39.8011,2.91534,5,-25.9465,-11.0069,-3.37162,1.27628,-0.194259,56,87,86,89,87,44,74,76,80,82,90,26
-0.786152,9.03715,-0.363612,-1.70167,-15.7055,27.5133,-11.8154,0.363612,-0.363612,-1.70167,-15.195,27.5133,-12.3259,0.363612,16.7913,35.9165,9.07855,7.13031,5.80553,-10.2307,-7.18852,25.2996,39.8012,2.91587,5,-25.9464,-11.0067,-3.37151,1.27625,-0.194239,56,87,86,89,87,44,74,76,80,82,90,26
-0.78627,9.03721,-0.363574,-1.70163,-15.705,27.513,-11.8154,0.363574,-0.363574,-1.70163,-15.1945,27.513,-12.3258,0.363574,16.7914,35.9169,9.07853,7.13059,5.80532,-10.2307,-7.18853,25.2995,39.8013,2.91637,5,-25.9462,-11.0065,-3.3714,1.27622,-0.194218,56,87,86,89,87,44,74,76,80,82,90,26
-0.786388,9.03728,-0.363533,-1.70159,-15.705,27.513,-11.8154,0.363533,-0.363533,-1.70159,-15.1945,27.513,-12.3258,0.363533,16.7914,35.9174,9.07854,7.13088,5.80509,-10.2307,-7.18853,25.2994,39.8014,2.91686,5,-25.946,-11.0064,-3.3713,1.27619,-0.194196,56,87,86,89,87,44,74,76,80,82,90,26
-0.786507,9.03736,-0.363491,-1.70155,-15.705,27.513,-11.8154,0.363491,-0.363491,-1.70155,-15.1945,27.513,-12.3258,0.363491,16.7914,35.918,9.07859,7.13117,5.80483,-10.2307,-7.18854,25.2992,39.8014,2.91733,5,-25.9458,-11.0062,-3.37121,1.27616,-0.194174,56,87,86,89,87,44,74,76,80,82,90,26
-0.786627,9.03746,-0.363448,-1.70152,-15.705,27.513,-11.8154,0.363448,-0.363448,-1.70152,-15.1945,27.513,-12.3258,0.363448,16.7915,35.9185,9.07867,7.13148,5.80455,-10.2308,-7.18854,25.2991,39.8015,2.91777,5,-25.9456,-11.006,-3.37113,1.27614,-0.19415,56,87,86,89,87,44,74,76,80,82,90,26
-0.786748,9.03757,-0.363403,-1.70149,-15.705,27.513,-11.8154,0.363403,-0.363403,-1.70149,-15.1945,27.513,-12.3258,0.363403,16.7915,35.919,9.07878,7.13179,5.80425,-10.2308,-7.18854,25.2989,39.8015,2.9182,5,-25.9454,-11.0058,-3.37107,1.27611,-0.194126,56,87,86,89,87,44,74,76,80,82,90,26
-0.78687,9.0377,-0.363358,-1.70145,-15.705,27.513,-11.8154,0.363358,-0.363358,-1.70145,-15.1945,27.513,-12.3258,0.363358,16.7915,35.9195,9.07891,7.1321,5.80394,-10.2308,-7.18855,25.2988,39.8015,2.9186,5,-25.9452,-11.0057,-3.37101,1.27609,-0.194101,56,87,86,89,87,44,74,76,80,82,90,26
-0.786995,9.03783,-0.363311,-1.70142,-15.7049,27.513,-11.8154,0.363311,-0.363311,-1.70142,-15.1945,27.513,-12.3258,0.363311,16.7915,35.92,9.07906,7.13241,5.8036,-10.2309,-7.18855,25.2987,39.8016,2.91899,5,-25.9449,-11.0055,-3.37097,1.27607,-0.194076,56,87,86,89,87,44,74,76,80,82,90,26
-0.787121,9.03798,-0.363264,-1.70139,-15.7049,27.513,-11.8154,0.363264,-0.363264,-1.70139,-15.1945,27.513,-12.3258,0.363264,16.7916,35.9206,9.07923,7.13272,5.80326,-10.2309,-7.18855,25.2985,39.8016,2.91935,5,-25.9447,-11.0053,-3.37094,1.27604,-0.194051,56,87,86,89,87,44,74,76,80,82,90,26
-0.787252,9.03813,-0.363217,-1.70136,-15.7049,27.513,-11.8154,0.363217,-0.363217,-1.70136,-15.1945,27.513,-12.3258,0.363217,16.7916,35.9211,9.07941,7.13303,5.8029,-10.231,-7.18854,25.2984,39.8016,2.9197,5,-25.9444,-11.0052,-3.37092,1.27602,-0.194025,56,87,86,89,87,44,74,76,80,82,90,26
-0.787385,9.03829,-0.36317,-1.70133,-15.7049,27.513,-11.8154,0.36317,-0.36317,-1.70133,-15.1945,27.513,-12.3258,0.36317,16.7916,35.9216,9.0796,7.13334,5.80253,-10.2311,-7.18853,25.2983,39.8016,2.92002,5,-25.9441,-11.005,-3.37092,1.276,-0.193999,56,87,86,89,87,44,74,76,80,82,90,26
-0.78752,9.03846,-0.363122,-1.7013,-15.7049,27.513,-11.8154,0.363122,-0.363122,-1.7013,-15.1945,27.513,-12.3258,0.363122,16.7916,35.9222,9.0798,7.13364,5.80215,-10.2312,-7.18853,25.2981,39.8016,2.92032,5,-25.9439,-11.0049,-3.37093,1.27597,-0.193973,56,87,86,89,87,44,74,76,80,82,90,26
-0.787656,9.03864,-0.363074,-1.70126,-15.7049,27.513,-11.8155,0.363074,-0.363074,-1.70126,-15.1945,27.513,-12.3258,0.363074,16.7917,35.9227,9.08001,7.13394,5.80177,-10.2312,-7.18852,25.298,39.8016,2.92061,5,-25.9436,-11.0048,-3.37095,1.27595,-0.193947,56,87,86,89,87,44,74,76,80,82,90,26
-0.787793,9.03885,-0.363026,-1.70123,-15.7049,27.513,-11.8155,0.363026,-0.363026,-1.70123,-15.1945,27.513,-12.3258,0.363026,16.7917,35.9232,9.08022,7.13423,5.80139,-10.2313,-7.18851,25.2979,39.8016,2.92088,5,-25.9434,-11.0046,-3.37097,1.27592,-0.193921,56,87,86,89,87,44,74,76,80,82,90,26
-0.78793,9.03908,-0.362977,-1.7012,-15.7049,27.513,-11.8155,0.362977,-0.362977,-1.7012,-15.1945,27.513,-12.3258,0.362977,16.7918,35.9238,9.08043,7.1345,5.80101,-10.2314,-7.18851,25.2978,39.8017,2.92115,5,-25.9432,-11.0045,-3.371,1.2759,-0.193895,56,87,86,89,87,44,74,76,80,82,90,26
-0.788067,9.03933,-0.362928,-1.70116,-15.7042,27.5126,-11.8153,0.362928,-0.362928,-1.70116,-15.1939,27.5126,-12.3257,0.362928,16.7918,35.9243,9.08063,7.13477,5.80065,-10.2315,-7.18851,25.2976,39.8016,2.92141,5,-25.943,-11.0044,-3.37102,1.27587,-0.193868,56,87,86,89,87,44,74,76,80,82,90,26
-0.788203,9.03963,-0.362878,-1.70112,-15.7042,27.5126,-11.8154,0.362878,-0.362878,-1.70112,-15.1939,27.5126,-12.3257,0.362878,16.7919,35.9248,9.08082,7.13501,5.80031,-10.2316,-7.18851,25.2975,39.8016,2.92167,5,-25.9428,-11.0043,-3.37104,1.27584,-0.193841,56,87,86,89,87,44,74,76,80,82,90,26
-0.788337,9.03997,-0.362827,-1.70108,-15.7042,27.5126,-11.8154,0.362827,-0.362827,-1.70108,-15.1939,27.5126,-12.3257,0.362827,16.792,35.9253,9.08099,7.13524,5.8,-10.2317,-7.18852,25.2974,39.8016,2.92192,5,-25.9426,-11.0043,-3.37106,1.27581,-0.193814,56,87,86,89,87,44,74,76,80,82,90,26
-0.78847,9.04034,-0.362776,-1.70104,-15.7042,27.5126,-11.8154,0.362776,-0.362776,-1.70104,-15.1939,27.5126,-12.3257,0.362776,16.792,35.9259,9.08116,7.13546,5.7997,-10.2318,-7.18853,25.2972,39.8016,2.92218,5,-25.9425,-11.0042,-3.37106,1.27578,-0.193786,56,87,86,89,87,44,74,76,80,82,90,26
-0.788602,9.04074,-0.362725,-1.70099,-15.7042,27.5126,-11.8154,0.362725,-0.362725,-1.70099,-15.1939,27.5126,-12.3257,0.362725,16.7921,35.9264,9.08133,7.13566,5.79941,-10.2319,-7.18854,25.2971,39.8015,2.92243,5,-25.9423,-11.0041,-3.37107,1.27574,-0.193758,56,87,86,89,87,44,74,76,80,82,90,26
-0.788731,9.04115,-0.362673,-1.70095,-15.7042,27.5126,-11.8154,0.362673,-0.362673,-1.70095,-15.1939,27.5126,-12.3257,0.362673,16.7922,35.9269,9.0815,7.13585,5.79913,-10.232,-7.18856,25.297,39.8015,2.92268,5,-25.9422,-11.0041,-3.37107,1.27571,-0.19373,56,87,86,89,87,44,74,76,80,82,90,26
-0.788858,9.04158,-0.362622,-1.7009,-15.7042,27.5126,-11.8154,0.362622,-0.362622,-1.7009,-15.1939,27.5126,-12.3257,0.362622,16.7923,35.9274,9.08168,7.13603,5.79886,-10.2321,-7.18857,25.2968,39.8015,2.92292,5,-25.9421,-11.0041,-3.37107,1.27568,-0.193703,56,87,86,89,87,44,74,76,80,82,90,26
-0.788982,9.04201,-0.362572,-1.70086,-15.7042,27.5126,-11.8154,0.362572,-0.362572,-1.70086,-15.1939,27.5126,-12.3257,0.362572,16.7924,35.9279,9.08187,7.1362,5.79858,-10.2322,-7.18859,25.2967,39.8014,2.92317,5,-25.9421,-11.004,-3.37107,1.27564,-0.193675,56,87,86,89,87,44,74,76,80,82,90,26
-0.789103,9.04243,-0.362522,-1.70082,-15.7042,27.5126,-11.8154,0.362522,-0.362522,-1.70082,-15.1939,27.5126,-12.3257,0.362522,16.7924,35.9284,9.08211,7.13635,5.79828,-10.2323,-7.18861,25.2965,39.8014,2.92342,5,-25.942,-11.004,-3.37107,1.27561,-0.193648,56,87,86,89,87,44,74,76,80,82,90,26
-0.78922,9.04284,-0.362473,-1.70078,-15.7042,27.5126,-11.8154,0.362473,-0.362473,-1.70078,-15.1939,27.5126,-12.3257,0.362473,16.7925,35.9289,9.08238,7.1365,5.79797,-10.2324,-7.18862,25.2964,39.8013,2.92367,5,-25.942,-11.004,-3.37107,1.27558,-0.193622,56,87,86,89,87,44,74,76,80,82,90,26
-0.789334,9.04325,-0.362425,-1.70074,-15.7042,27.5126,-11.8154,0.362425,-0.362425,-1.70074,-15.1939,27.5126,-12.3257,0.362425,16.7926,35.9293,9.08266,7.13664,5.79766,-10.2325,-7.18864,25.2962,39.8013,2.92392,5,-25.942,-11.004,-3.37107,1.27555,-0.193596,56,87,86,89,87,44,74,76,80,82,90,26
-0.789447,9.04367,-0.362377,-1.7007,-15.7041,27.5126,-11.8154,0.362377,-0.362377,-1.7007,-15.1939,27.5126,-12.3257,0.362377,16.7926,35.9298,9.08292,7.13677,5.79736,-10.2325,-7.18866,25.2961,39.8012,2.92416,5,-25.942,-11.004,-3.37107,1.27552,-0.19357,56,87,86,89,87,44,74,76,80,82,90,26
-0.789558,9.04411,-0.362329,-1.70065,-15.7041,27.5126,-11.8155,0.362329,-0.362329,-1.70065,-15.1939,27.5126,-12.3256,0.362329,16.7927,35.9303,9.08316,7.13689,5.79709,-10.2326,-7.18868,25.296,39.8011,2.9244,5,-25.942,-11.004,-3.37106,1.27549,-0.193544,56,87,86,89,87,44,74,76,80,82,90,26
-0.789669,9.04458,-0.362282,-1.70061,-15.7041,27.5126,-11.8155,0.362282,-0.362282,-1.70061,-15.1939,27.5126,-12.3256,0.362282,16.7928,35.9307,9.08336,7.13701,5.79686,-10.2327,-7.1887,25.2958,39.8011,2.92463,5,-25.942,-11.004,-3.37105,1.27546,-0.193518,56,87,86,89,87,44,74,76,80,82,90,26
-0.789778,9.04509,-0.362234,-1.70056,-15.7043,27.5127,-11.8155,0.362234,-0.362234,-1.70056,-15.1941,27.5127,-12.3257,0.362234,16.7929,35.9311,9.08351,7.13711,5.79667,-10.2328,-7.18873,25.2957,39.801,2.92484,5,-25.9419,-11.004,-3.37103,1.27542,-0.193492,56,87,86,89,87,44,74,76,80,82,90,26
-0.789888,9.04565,-0.362186,-1.70051,-15.7043,27.5127,-11.8155,0.362186,-0.362186,-1.70051,-15.1942,27.5127,-12.3257,0.362186,16.793,35.9316,9.08355,7.13721,5.79655,-10.2329,-7.18876,25.2956,39.8009,2.92504,5,-25.9419,-11.004,-3.37101,1.27538,-0.193466,56,87,86,89,87,44,74,76,80,82,90,26
-0.789998,9.04626,-0.362137,-1.70045,-15.7043,27.5127,-11.8155,0.362137,-0.362137,-1.70045,-15.1942,27.5127,-12.3257,0.362137,16.7932,35.932,9.0835,7.1373,5.7965,-10.2329,-7.1888,25.2954,39.8008,2.92522,5,-25.9419,-11.004,-3.37097,1.27534,-0.19344,56,87,86,89,87,44,74,76,80,82,90,26
-0.790108,9.04692,-0.362088,-1.70039,-15.7043,27.5127,-11.8155,0.362088,-0.362088,-1.70039,-15.1942,27.5127,-12.3256,0.362088,16.7934,35.9325,9.08337,7.13739,5.7965,-10.233,-7.18885,25.2953,39.8008,2.92539,5,-25.9418,-11.004,-3.37093,1.27529,-0.193413,56,87,86,89,87,44,74,76,80,82,90,26
-0.790218,9.04761,-0.362038,-1.70033,-15.7043,27.5127,-11.8155,0.362038,-0.362038,-1.70033,-15.1942,27.5127,-12.3256,0.362038,16.7936,35.9329,9.08318,7.13746,5.79656,-10.2331,-7.1889,25.2952,39.8007,2.92555,5,-25.9417,-11.004,-3.37089,1.27525,-0.193386,56,87,86,89,87,44,74,76,80,82,90,26
-0.790328,9.04833,-0.361989,-1.70026,-15.7043,27.5127,-11.8155,0.361989,-0.361989,-1.70026,-15.1942,27.5127,-12.3256,0.361989,16.7938,35.9334,9.08294,7.13754,5.79666,-10.2332,-7.18895,25.2951,39.8006,2.92569,5,-25.9417,-11.0041,-3.37084,1.2752,-0.19336,56,87,86,89,87,44,74,76,80,82,90,26
-0.790436,9.04907,-0.361941,-1.70019,-15.7043,27.5127,-11.8156,0.361941,-0.361941,-1.70019,-15.1942,27.5127,-12.3256,0.361941,16.794,35.9338,9.08264,7.1376,5.7968,-10.2332,-7.18901,25.2949,39.8005,2.92582,5,-25.9416,-11.0041,-3.37079,1.27514,-0.193333,56,87,86,89,87,44,74,76,80,82,90,26
-0.790544,9.04984,-0.361892,-1.70012,-15.7046,27.5129,-11.8156,0.361892,-0.361892,-1.70012,-15.1946,27.5129,-12.3257,0.361892,16.7942,35.9343,9.08231,7.13767,5.79697,-10.2333,-7.18907,25.2948,39.8004,2.92594,5,-25.9415,-11.0041,-3.37073,1.27509,-0.193307,56,87,86,89,87,44,74,76,80,82,90,26
-0.790651,9.0506,-0.361845,-1.70005,-15.7046,27.5129,-11.8156,0.361845,-0.361845,-1.70005,-15.1946,27.5129,-12.3257,0.361845,16.7945,35.9347,9.08197,7.13773,5.79715,-10.2333,-7.18913,25.2947,39.8003,2.92605,5,-25.9414,-11.0042,-3.37068,1.27504,-0.193282,56,87,86,89,87,44,74,76,80,82,90,26
-0.790757,9.05138,-0.361798,-1.69998,-15.7046,27.5129,-11.8156,0.361798,-0.361798,-1.69998,-15.1946,27.5129,-12.3256,0.361798,16.7947,35.9351,9.08162,7.1378,5.79736,-10.2334,-7.18919,25.2946,39.8002,2.92616,5,-25.9413,-11.0042,-3.37063,1.27499,-0.193257,56,87,86,89,87,44,74,76,80,82,90,26
-0.790861,9.05216,-0.361753,-1.69991,-15.7046,27.5129,-11.8156,0.361753,-0.361753,-1.69991,-15.1946,27.5129,-12.3256,0.361753,16.7949,35.9355,9.08124,7.13786,5.79758,-10.2335,-7.18925,25.2945,39.8002,2.92625,5,-25.9413,-11.0043,-3.37058,1.27493,-0.193232,56,87,86,89,87,44,74,76,80,82,90,26
-0.790964,9.05295,-0.361707,-1.69984,-15.7046,27.5129,-11.8157,0.361707,-0.361707,-1.69984,-15.1946,27.5129,-12.3256,0.361707,16.7952,35.9359,9.08083,7.13791,5.79784,-10.2335,-7.18931,25.2944,39.8001,2.92634,5,-25.9412,-11.0043,-3.37053,1.27488,-0.193207,56,87,86,89,87,44,74,76,80,82,90,26
-0.791064,9.05377,-0.361662,-1.69977,-15.7046,27.5129,-11.8157,0.361662,-0.361662,-1.69977,-15.1947,27.5129,-12.3256,0.361662,16.7954,35.9363,9.08038,7.13796,5.79811,-10.2336,-7.18938,25.2943,39.8,2.92642,5,-25.9411,-11.0044,-3.37047,1.27483,-0.193183,56,87,86,89,87,44,74,76,80,82,90,26
-0.791163,9.05459,-0.361617,-1.6997,-15.7046,27.5129,-11.8157,0.361617,-0.361617,-1.6997,-15.1947,27.5129,-12.3256,0.361617,16.7957,35.9367,9.07989,7.13801,5.79842,-10.2336,-7.18945,25.2942,39.7999,2.9265,5,-25.941,-11.0044,-3.3704,1.27477,-0.193158,56,87,86,89,87,44,74,76,80,82,90,26
-0.79126,9.05544,-0.361572,-1.69962,-15.7046,27.5129,-11.8157,0.361572,-0.361572,-1.69962,-15.1947,27.5129,-12.3256,0.361572,16.796,35.9371,9.07935,7.13804,5.79876,-10.2337,-7.18951,25.2941,39.7998,2.92656,5,-25.9409,-11.0045,-3.37033,1.27471,-0.193134,56,87,86,89,87,44,74,76,80,82,90,26
-0.791355,9.05631,-0.361527,-1.69954,-15.7046,27.5129,-11.8157,0.361527,-0.361527,-1.69954,-15.1947,27.5129,-12.3255,0.361527,16.7963,35.9375,9.07874,7.13808,5.79913,-10.2337,-7.18959,25.294,39.7997,2.92662,5,-25.9407,-11.0045,-3.37025,1.27465,-0.193109,56,87,86,89,87,44,74,76,80,82,90,26
-0.791448,9.0572,-0.361481,-1.69946,-15.7046,27.5129,-11.8157,0.361481,-0.361481,-1.69946,-15.1947,27.5129,-12.3255,0.361481,16.7966,35.9379,9.07809,7.1381,5.79953,-10.2338,-7.18966,25.2939,39.7996,2.92666,5,-25.9406,-11.0046,-3.37016,1.27459,-0.193085,56,87,86,89,87,44,74,76,80,82,90,26
-0.791539,9.05811,-0.361436,-1.69937,-15.7046,27.5129,-11.8157,0.361436,-0.361436,-1.69937,-15.1948,27.5129,-12.3255,0.361436,16.797,35.9383,9.07737,7.13812,5.79997,-10.2338,-7.18974,25.2938,39.7995,2.9267,5,-25.9404,-11.0046,-3.37007,1.27453,-0.19306,56,87,86,89,87,44,74,76,80,82,90,26
-0.791626,9.05904,-0.361389,-1.69928,-15.7046,27.5129,-11.8157,0.361389,-0.361389,-1.69928,-15.1948,27.5129,-12.3255,0.361389,16.7973,35.9387,9.0766,7.13812,5.80043,-10.2339,-7.18982,25.2937,39.7994,2.92673,5,-25.9402,-11.0046,-3.36996,1.27446,-0.193035,56,87,86,89,87,44,74,76,80,82,90,26
-0.791709,9.06,-0.361343,-1.69919,-15.7046,27.5129,-11.8157,0.361343,-0.361343,-1.69919,-15.1948,27.5129,-12.3254,0.361343,16.7978,35.9391,9.07579,7.13812,5.80092,-10.234,-7.18989,25.2937,39.7993,2.92676,5,-25.94,-11.0047,-3.36984,1.27439,-0.19301,56,87,86,89,87,44,74,76,80,82,90,26
-0.791788,9.06098,-0.361296,-1.69909,-15.7046,27.5129,-11.8157,0.361296,-0.361296,-1.69909,-15.1948,27.5129,-12.3254,0.361296,16.7982,35.9395,9.07492,7.13811,5.80143,-10.234,-7.18997,25.2936,39.7992,2.92678,5,-25.9397,-11.0047,-3.36972,1.27432,-0.192985,56,87,86,89,87,44,74,76,80,82,90,26
-0.791862,9.06198,-0.36125,-1.69899,-15.7061,27.514,-11.816,0.36125,-0.36125,-1.69899,-15.1964,27.514,-12.3257,0.36125,16.7986,35.9399,9.07401,7.1381,5.80197,-10.2341,-7.19005,25.2936,39.7991,2.92679,5,-25.9395,-11.0047,-3.36959,1.27424,-0.192959,56,87,86,89,87,44,74,76,80,82,90,26
-0.791928,9.06302,-0.361202,-1.69889,-15.7061,27.514,-11.816,0.361202,-0.361202,-1.69889,-15.1964,27.514,-12.3257,0.361202,16.7991,35.9403,9.07306,7.13807,5.80252,-10.2341,-7.19013,25.2936,39.7989,2.92679,5,-25.9391,-11.0047,-3.36945,1.27417,-0.192933,56,87,86,89,87,44,74,76,80,82,90,26
-0.791986,9.06408,-0.361153,-1.69878,-15.7061,27.514,-11.816,0.361153,-0.361153,-1.69878,-15.1964,27.514,-12.3256,0.361153,16.7996,35.9407,9.07206,7.13803,5.80309,-10.2342,-7.1902,25.2935,39.7988,2.92679,5,-25.9388,-11.0048,-3.3693,1.27409,-0.192907,56,87,86,89,87,44,74,76,80,82,90,26
-0.792039,9.06517,-0.361104,-1.69868,-15.7061,27.514,-11.816,0.361104,-0.361104,-1.69868,-15.1965,27.514,-12.3256,0.361104,16.8001,35.9411,9.07104,7.13799,5.80367,-10.2342,-7.19028,25.2935,39.7987,2.92678,5,-25.9384,-11.0047,-3.36914,1.27401,-0.192881,56,87,86,89,87,44,74,76,80,82,90,26
-0.792088,9.06627,-0.361056,-1.69857,-15.7061,27.514,-11.816,0.361056,-0.361056,-1.69857,-15.1965,27.514,-12.3255,0.361056,16.8007,35.9415,9.06998,7.13793,5.80427,-10.2343,-7.19035,25.2935,39.7986,2.92677,5,-25.9381,-11.0047,-3.36898,1.27392,-0.192854,56,87,86,89,87,44,74,76,80,82,90,26
-0.792132,9.06737,-0.361007,-1.69845,-15.7061,27.514,-11.816,0.361007,-0.361007,-1.69845,-15.1965,27.514,-12.3255,0.361007,16.8012,35.9419,9.06889,7.13787,5.80488,-10.2344,-7.19042,25.2935,39.7985,2.92676,5,-25.9377,-11.0047,-3.36882,1.27384,-0.192828,56,87,86,89,87,44,74,76,80,82,90,26
-0.792174,9.06849,-0.360959,-1.69834,-15.7061,27.514,-11.816,0.360959,-0.360959,-1.69834,-15.1966,27.514,-12.3255,0.360959,16.8018,35.9424,9.06778,7.13781,5.8055,-10.2344,-7.1905,25.2935,39.7984,2.92675,5,-25.9372,-11.0047,-3.36865,1.27376,-0.192802,56,87,86,89,87,44,74,76,80,82,90,26
-0.792213,9.0696,-0.360911,-1.69823,-15.7068,27.5145,-11.8161,0.360911,-0.360911,-1.69823,-15.1973,27.5145,-12.3256,0.360911,16.8024,35.9428,9.06665,7.13774,5.80613,-10.2345,-7.19057,25.2935,39.7983,2.92673,5,-25.9368,-11.0047,-3.36847,1.27367,-0.192776,56,87,86,89,87,44,74,76,80,82,90,26
-0.792252,9.0707,-0.360865,-1.69811,-15.7068,27.5145,-11.8161,0.360865,-0.360865,-1.69811,-15.1974,27.5145,-12.3255,0.360865,16.8029,35.9432,9.06551,7.13767,5.80677,-10.2345,-7.19064,25.2935,39.7982,2.92672,5,-25.9364,-11.0046,-3.3683,1.27358,-0.192751,56,87,86,89,87,44,74,76,80,82,90,26
-0.79229,9.07179,-0.36082,-1.698,-15.7068,27.5145,-11.8161,0.36082,-0.36082,-1.698,-15.1974,27.5145,-12.3255,0.36082,16.8035,35.9436,9.06435,7.13759,5.80742,-10.2346,-7.19071,25.2935,39.7981,2.92671,5,-25.936,-11.0046,-3.36812,1.2735,-0.192727,56,87,86,89,87,44,74,76,80,82,90,26
-0.792326,9.07287,-0.360776,-1.69788,-15.7068,27.5145,-11.8161,0.360776,-0.360776,-1.69788,-15.1974,27.5145,-12.3255,0.360776,16.8041,35.944,9.06319,7.13752,5.80807,-10.2346,-7.19079,25.2935,39.798,2.9267,5,-25.9355,-11.0046,-3.36795,1.27341,-0.192703,56,87,86,89,87,44,74,76,80,82,90,26
-0.792359,9.07395,-0.360732,-1.69777,-15.7068,27.5145,-11.8161,0.360732,-0.360732,-1.69777,-15.1975,27.5145,-12.3254,0.360732,16.8047,35.9444,9.06202,7.13744,5.80872,-10.2347,-7.19086,25.2935,39.7979,2.92669,5,-25.9351,-11.0045,-3.36777,1.27333,-0.192679,56,87,86,89,87,44,74,76,80,82,90,26
-0.792387,9.07503,-0.360688,-1.69765,-15.7068,27.5145,-11.8161,0.360688,-0.360688,-1.69765,-15.1975,27.5145,-12.3254,0.360688,16.8053,35.9447,9.06086,7.13735,5.80936,-10.2348,-7.19093,25.2935,39.7978,2.92667,5,-25.9347,-11.0045,-3.36759,1.27324,-0.192655,56,87,86,89,87,44,74,76,80,82,90,26
-0.79241,9.07612,-0.360644,-1.69754,-15.7068,27.5145,-11.8161,0.360644,-0.360644,-1.69754,-15.1976,27.5145,-12.3253,0.360644,16.8058,35.9451,9.05971,7.13727,5.80999,-10.2348,-7.19099,25.2935,39.7978,2.92664,5,-25.9342,-11.0044,-3.36741,1.27315,-0.192631,56,87,86,89,87,44,74,76,80,82,90,26
-0.792427,9.0772,-0.3606,-1.69743,-15.7073,27.5149,-11.8162,0.3606,-0.3606,-1.69743,-15.1981,27.5149,-12.3254,0.3606,16.8064,35.9455,9.05857,7.13718,5.81061,-10.2349,-7.19105,25.2936,39.7977,2.92662,5,-25.9338,-11.0044,-3.36723,1.27307,-0.192607,56,87,86,89,87,44,74,76,80,82,90,26
-0.792437,9.0783,-0.360554,-1.69732,-15.7073,27.5149,-11.8162,0.360554,-0.360554,-1.69732,-15.1981,27.5149,-12.3254,0.360554,16.807,35.9459,9.05745,7.13708,5.81122,-10.2349,-7.19111,25.2936,39.7976,2.92658,5,-25.9333,-11.0043,-3.36705,1.27299,-0.192583,56,87,86,89,87,44,74,76,80,82,90,26
-0.792439,9.07941,-0.360508,-1.69721,-15.7073,27.5149,-11.8162,0.360508,-0.360508,-1.69721,-15.1982,27.5149,-12.3253,0.360508,16.8076,35.9463,9.05635,7.13699,5.8118,-10.235,-7.19116,25.2936,39.7975,2.92653,5,-25.9328,-11.0043,-3.36687,1.2729,-0.192558,56,87,86,89,87,44,74,76,80,82,90,26
-0.792432,9.08053,-0.360461,-1.6971,-15.7074,27.5149,-11.8161,0.360461,-0.360461,-1.6971,-15.1982,27.5149,-12.3253,0.360461,16.8082,35.9467,9.05528,7.13689,5.81237,-10.235,-7.19121,25.2936,39.7974,2.92648,5,-25.9323,-11.0042,-3.3667,1.27282,-0.192532,56,87,86,89,87,44,74,76,80,82,90,26
-0.792417,9.08166,-0.360412,-1.69699,-15.7074,27.5149,-11.8161,0.360412,-0.360412,-1.69699,-15.1983,27.5149,-12.3252,0.360412,16.8087,35.9471,9.05424,7.13679,5.81291,-10.235,-7.19126,25.2937,39.7973,2.92641,5,-25.9318,-11.0042,-3.36652,1.27274,-0.192506,56,87,86,89,87,44,74,76,80,82,90,26
-0.792392,9.0828,-0.360364,-1.69689,-15.7074,27.5149,-11.8161,0.360364,-0.360364,-1.69689,-15.1983,27.5149,-12.3252,0.360364,16.8093,35.9476,9.05324,7.13668,5.81343,-10.2351,-7.1913,25.2937,39.7972,2.92634,5,-25.9312,-11.0042,-3.36635,1.27267,-0.19248,56,87,86,89,87,44,74,76,80,82,90,26
-0.792357,9.08394,-0.360314,-1.69679,-15.7074,27.5149,-11.8161,0.360314,-0.360314,-1.69679,-15.1983,27.5149,-12.3252,0.360314,16.8099,35.948,9.05228,7.13658,5.81392,-10.2351,-7.19133,25.2938,39.797,2.92626,5,-25.9307,-11.0041,-3.36618,1.27259,-0.192453,56,87,86,89,87,44,74,76,80,82,90,26
-0.792313,9.08509,-0.360264,-1.69669,-15.7074,27.5149,-11.8161,0.360264,-0.360264,-1.69669,-15.1984,27.5149,-12.3251,0.360264,16.8104,35.9484,9.05137,7.13648,5.81438,-10.2351,-7.19136,25.2939,39.7969,2.92616,5,-25.9302,-11.0041,-3.36601,1.27252,-0.192425,56,87,86,89,87,44,74,76,80,82,90,26
-0.792259,9.08625,-0.360213,-1.69659,-15.7074,27.5149,-11.8161,0.360213,-0.360213,-1.69659,-15.1984,27.5149,-12.3251,0.360213,16.811,35.9488,9.05049,7.13637,5.81481,-10.2351,-7.19139,25.2939,39.7968,2.92605,5,-25.9296,-11.0041,-3.36585,1.27245,-0.192398,56,87,86,89,87,44,74,76,80,82,90,26
-0.792196,9.08741,-0.360161,-1.6965,-15.7074,27.5149,-11.8161,0.360161,-0.360161,-1.6965,-15.1985,27.5149,-12.325,0.360161,16.8115,35.9493,9.04966,7.13627,5.81521,-10.2352,-7.19142,25.294,39.7967,2.92594,5,-25.9291,-11.004,-3.36569,1.27238,-0.19237,56,87,86,89,87,44,74,76,80,82,90,26
-0.792122,9.08858,-0.360109,-1.69641,-15.7074,27.5149,-11.8161,0.360109,-0.360109,-1.69641,-15.1985,27.5149,-12.325,0.360109,16.812,35.9497,9.04889,7.13617,5.81558,-10.2352,-7.19144,25.2941,39.7965,2.92581,5,-25.9285,-11.004,-3.36553,1.27231,-0.192341,56,87,86,89,87,44,74,76,80,82,90,26
-0.792037,9.08975,-0.360056,-1.69633,-15.7074,27.5149,-11.8161,0.360056,-0.360056,-1.69633,-15.1985,27.5149,-12.325,0.360056,16.8125,35.9501,9.04818,7.13607,5.81591,-10.2352,-7.19146,25.2942,39.7964,2.92567,5,-25.928,-11.004,-3.36538,1.27225,-0.192313,56,87,86,89,87,44,74,76,80,82,90,26
-0.79194,9.09092,-0.360003,-1.69625,-15.7075,27.5149,-11.8161,0.360003,-0.360003,-1.69625,-15.1986,27.5149,-12.3249,0.360003,16.813,35.9506,9.04754,7.13597,5.8162,-10.2352,-7.19148,25.2943,39.7963,2.92553,5,-25.9275,-11.004,-3.36524,1.27219,-0.192284,56,87,86,89,87,44,74,76,80,82,90,26
-0.791832,9.09211,-0.359951,-1.69618,-15.7075,27.5149,-11.816,0.359951,-0.359951,-1.69618,-15.1986,27.5149,-12.3249,0.359951,16.8135,35.951,9.04697,7.13589,5.81645,-10.2352,-7.19149,25.2944,39.7961,2.92538,5,-25.9269,-11.004,-3.36511,1.27213,-0.192256,56,87,86,89,87,44,74,76,80,82,90,26
-0.791711,9.09329,-0.359898,-1.69611,-15.7076,27.515,-11.8161,0.359898,-0.359898,-1.69611,-15.1987,27.515,-12.3249,0.359898,16.8139,35.9515,9.04649,7.13581,5.81665,-10.2352,-7.1915,25.2945,39.796,2.92523,5,-25.9264,-11.004,-3.36498,1.27208,-0.192227,56,87,86,89,87,44,74,76,80,82,90,26
-0.791572,9.09449,-0.359846,-1.69605,-15.7076,27.515,-11.816,0.359846,-0.359846,-1.69605,-15.1988,27.515,-12.3249,0.359846,16.8143,35.9519,9.04613,7.13574,5.81678,-10.2352,-7.19152,25.2946,39.7959,2.92509,5,-25.9259,-11.0041,-3.36487,1.27204,-0.192199,56,87,86,89,87,44,74,76,80,82,90,26
-0.791419,9.09569,-0.359794,-1.696,-15.7076,27.515,-11.816,0.359794,-0.359794,-1.696,-15.1988,27.515,-12.3248,0.359794,16.8147,35.9523,9.04588,7.13568,5.81685,-10.2352,-7.19154,25.2947,39.7957,2.92494,5,-25.9254,-11.0041,-3.36476,1.272,-0.192171,56,87,86,89,87,44,74,76,80,82,90,26
-0.791254,9.09689,-0.359743,-1.69595,-15.7076,27.515,-11.816,0.359743,-0.359743,-1.69595,-15.1988,27.515,-12.3248,0.359743,16.8151,35.9527,9.04572,7.13563,5.81687,-10.2352,-7.19155,25.2948,39.7956,2.9248,5,-25.925,-11.0041,-3.36466,1.27196,-0.192144,56,87,86,89,87,44,74,76,80,82,90,26
-0.791079,9.0981,-0.359692,-1.6959,-15.7076,27.515,-11.816,0.359692,-0.359692,-1.6959,-15.1989,27.515,-12.3248,0.359692,16.8154,35.9531,9.04563,7.13559,5.81686,-10.2352,-7.19157,25.295,39.7955,2.92466,5,-25.9245,-11.0042,-3.36457,1.27193,-0.192116,56,87,86,89,87,44,74,76,80,82,90,26
-0.790897,9.0993,-0.359642,-1.69586,-15.7076,27.515,-11.816,0.359642,-0.359642,-1.69586,-15.1989,27.515,-12.3248,0.359642,16.8158,35.9535,9.04559,7.13555,5.81681,-10.2352,-7.19158,25.2951,39.7953,2.9245,5,-25.9241,-11.0042,-3.36449,1.2719,-0.192089,56,87,86,89,87,44,74,76,80,82,90,26
-0.790709,9.10049,-0.359592,-1.69582,-15.7076,27.515,-11.816,0.359592,-0.359592,-1.69582,-15.1989,27.515,-12.3247,0.359592,16.8161,35.954,9.0456,7.13553,5.81674,-10.2352,-7.19159,25.2952,39.7952,2.92434,5,-25.9236,-11.0043,-3.36442,1.27187,-0.192062,56,87,86,89,87,44,74,76,80,82,90,26
-0.790518,9.10167,-0.359542,-1.69579,-15.7077,27.515,-11.816,0.359542,-0.359542,-1.69579,-15.1989,27.515,-12.3247,0.359542,16.8164,35.9544,9.04564,7.1355,5.81664,-10.2352,-7.1916,25.2953,39.7951,2.92418,5,-25.9232,-11.0044,-3.36435,1.27184,-0.192035,56,87,86,89,87,44,74,76,80,82,90,26
-0.790332,9.10284,-0.359492,-1.69576,-15.7077,27.515,-11.816,0.359492,-0.359492,-1.69576,-15.1989,27.515,-12.3247,0.359492,16.8167,35.9548,9.04563,7.13549,5.81657,-10.2351,-7.1916,25.2955,39.7949,2.92398,5,-25.9228,-11.0045,-3.36428,1.27182,-0.192008,56,87,86,89,87,44,74,76,80,82,90,26
-0.790149,9.10398,-0.359442,-1.69572,-15.7077,27.515,-11.8159,0.359442,-0.359442,-1.69572,-15.199,27.515,-12.3247,0.359442,16.817,35.9552,9.04562,7.13548,5.81649,-10.2351,-7.1916,25.2956,39.7948,2.92376,5,-25.9223,-11.0045,-3.36422,1.27179,-0.191981,56,87,86,89,87,44,74,76,80,82,90,26
-0.789964,9.10512,-0.359392,-1.6957,-15.7077,27.515,-11.8159,0.359392,-0.359392,-1.6957,-15.199,27.515,-12.3246,0.359392,16.8173,35.9556,9.04563,7.13547,5.8164,-10.2351,-7.1916,25.2958,39.7946,2.92354,5,-25.9219,-11.0046,-3.36416,1.27177,-0.191954,56,87,86,89,87,44,74,76,80,82,90,26
-0.789775,9.10624,-0.359344,-1.69567,-15.7077,27.515,-11.8159,0.359344,-0.359344,-1.69567,-15.199,27.515,-12.3246,0.359344,16.8175,35.9559,9.04568,7.13547,5.81629,-10.2351,-7.1916,25.2959,39.7945,2.92332,5,-25.9215,-11.0047,-3.36411,1.27175,-0.191927,56,87,86,89,87,44,74,76,80,82,90,26
-0.78958,9.10735,-0.359296,-1.69565,-15.7077,27.515,-11.8159,0.359296,-0.359296,-1.69565,-15.199,27.515,-12.3246,0.359296,16.8178,35.9563,9.0458,7.13547,5.81614,-10.235,-7.1916,25.296,39.7944,2.92311,5,-25.9211,-11.0048,-3.36406,1.27173,-0.191902,56,87,86,89,87,44,74,76,80,82,90,26
-0.789376,9.10845,-0.359251,-1.69563,-15.7077,27.515,-11.8159,0.359251,-0.359251,-1.69563,-15.199,27.515,-12.3246,0.359251,16.818,35.9567,9.04602,7.13548,5.81595,-10.235,-7.1916,25.2962,39.7942,2.92294,5,-25.9207,-11.0049,-3.36402,1.27172,-0.191877,56,87,86,89,87,44,74,76,80,82,90,26
-0.789163,9.10955,-0.359207,-1.69561,-15.7074,27.5147,-11.8158,0.359207,-0.359207,-1.69561,-15.1987,27.5147,-12.3245,0.359207,16.8182,35.957,9.04633,7.13549,5.81571,-10.235,-7.19161,25.2963,39.7941,2.92279,5,-25.9204,-11.005,-3.36398,1.27171,-0.191853,56,87,86,89,87,44,74,76,80,82,90,26
-0.78893,9.11064,-0.359166,-1.69561,-15.7074,27.5147,-11.8158,0.359166,-0.359166,-1.69561,-15.1987,27.5147,-12.3245,0.359166,16.8184,35.9574,9.04681,7.13549,5.8154,-10.235,-7.19163,25.2964,39.794,2.9227,5,-25.92,-11.0051,-3.36395,1.2717,-0.191831,56,87,86,89,87,44,74,76,80,82,90,26
-0.788681,9.11172,-0.359127,-1.6956,-15.7074,27.5147,-11.8158,0.359127,-0.359127,-1.6956,-15.1987,27.5147,-12.3245,0.359127,16.8185,35.9577,9.04744,7.13549,5.81502,-10.235,-7.19166,25.2966,39.7939,2.92266,5,-25.9197,-11.0052,-3.36392,1.2717,-0.19181,56,87,86,89,87,44,74,76,80,82,90,26
-0.788419,9.1128,-0.359091,-1.69561,-15.7074,27.5147,-11.8158,0.359091,-0.359091,-1.69561,-15.1987,27.5147,-12.3245,0.359091,16.8186,35.958,9.0482,7.13549,5.81458,-10.235,-7.1917,25.2967,39.7938,2.92266,5,-25.9195,-11.0053,-3.3639,1.2717,-0.191791,56,87,86,89,87,44,74,76,80,82,90,26
-0.788147,9.11387,-0.359057,-1.69561,-15.7074,27.5147,-11.8158,0.359057,-0.359057,-1.69561,-15.1987,27.5147,-12.3245,0.359057,16.8187,35.9583,9.04908,7.13549,5.81408,-10.235,-7.19174,25.2968,39.7937,2.92271,5,-25.9192,-11.0054,-3.36389,1.27171,-0.191772,56,87,86,89,87,44,74,76,80,82,90,26
-0.787867,9.11492,-0.359026,-1.69563,-15.7074,27.5147,-11.8158,0.359026,-0.359026,-1.69563,-15.1988,27.5147,-12.3244,0.359026,16.8188,35.9585,9.05007,7.1355,5.81354,-10.235,-7.19179,25.2969,39.7936,2.92278,5,-25.919,-11.0055,-3.36388,1.27172,-0.191755,56,87,86,89,87,44,74,76,80,82,90,26
-0.787582,9.11597,-0.358996,-1.69564,-15.7074,27.5147,-11.8158,0.358996,-0.358996,-1.69564,-15.1988,27.5147,-12.3244,0.358996,16.8188,35.9588,9.05114,7.13551,5.81295,-10.235,-7.19185,25.297,39.7935,2.92289,5,-25.9189,-11.0056,-3.36387,1.27173,-0.191739,56,87,86,89,87,44,74,76,80,82,90,26
-0.787293,9.11701,-0.358967,-1.69566,-15.7075,27.5147,-11.8157,0.358967,-0.358967,-1.69566,-15.1988,27.5147,-12.3244,0.358967,16.8188,35.959,9.0523,7.13553,5.81233,-10.235,-7.1919,25.2972,39.7935,2.92303,5,-25.9187,-11.0057,-3.36387,1.27175,-0.191724,56,87,86,89,87,44,74,76,80,82,90,26
-0.787011,9.11802,-0.358941,-1.69569,-15.7075,27.5147,-11.8157,0.358941,-0.358941,-1.69569,-15.1988,27.5147,-12.3244,0.358941,16.8188,35.9592,9.05353,7.13556,5.81166,-10.235,-7.19195,25.2973,39.7934,2.92317,5,-25.9186,-11.0058,-3.36387,1.27177,-0.191709,56,87,86,89,87,44,74,76,80,82,90,26
-0.78673,9.11903,-0.358915,-1.69572,-15.7075,27.5147,-11.8157,0.358915,-0.358915,-1.69572,-15.1988,27.5147,-12.3244,0.358915,16.8188,35.9594,9.05481,7.13561,5.81097,-10.235,-7.19199,25.2974,39.7933,2.92333,5,-25.9185,-11.0059,-3.36388,1.27179,-0.191695,56,87,86,89,87,44,74,76,80,82,90,26
-0.78645,9.12002,-0.358891,-1.69576,-15.7075,27.5147,-11.8157,0.358891,-0.358891,-1.69576,-15.1988,27.5147,-12.3244,0.358891,16.8187,35.9596,9.05615,7.13566,5.81025,-10.235,-7.19204,25.2975,39.7933,2.92351,5,-25.9184,-11.006,-3.36389,1.27182,-0.191682,56,87,86,89,87,44,74,76,80,82,90,26
-0.786166,9.12099,-0.358869,-1.69579,-15.7075,27.5147,-11.8157,0.358869,-0.358869,-1.69579,-15.1988,27.5147,-12.3244,0.358869,16.8187,35.9598,9.05753,7.13571,5.80951,-10.235,-7.19208,25.2976,39.7932,2.9237,5,-25.9183,-11.0061,-3.36391,1.27184,-0.19167,56,87,86,89,87,44,74,76,80,82,90,26
-0.785878,9.12195,-0.358847,-1.69583,-15.7075,27.5147,-11.8157,0.358847,-0.358847,-1.69583,-15.1987,27.5147,-12.3244,0.358847,16.8186,35.96,9.05894,7.13576,5.80877,-10.235,-7.19214,25.2978,39.7932,2.92392,5,-25.9183,-11.0062,-3.36392,1.27187,-0.191659,56,87,86,89,87,44,74,76,80,82,90,26
-0.785582,9.12289,-0.358828,-1.69586,-15.7075,27.5147,-11.8157,0.358828,-0.358828,-1.69586,-15.1987,27.5147,-12.3245,0.358828,16.8186,35.9601,9.06038,7.13579,5.80801,-10.235,-7.1922,25.2979,39.7931,2.92416,5,-25.9182,-11.0063,-3.36394,1.2719,-0.191648,56,87,86,89,87,44,74,76,80,82,90,26
-0.785279,9.12382,-0.358809,-1.6959,-15.7077,27.5149,-11.8157,0.358809,-0.358809,-1.6959,-15.1989,27.5149,-12.3245,0.358809,16.8185,35.9603,9.06185,7.1358,5.80725,-10.235,-7.19228,25.298,39.7931,2.92442,5,-25.9182,-11.0064,-3.36395,1.27192,-0.191638,56,87,86,89,87,44,74,76,80,82,90,26
-0.784961,9.12474,-0.358792,-1.69593,-15.7077,27.5149,-11.8157,0.358792,-0.358792,-1.69593,-15.1989,27.5149,-12.3245,0.358792,16.8184,35.9605,9.06332,7.13578,5.8065,-10.235,-7.19237,25.298,39.793,2.92471,5,-25.9181,-11.0064,-3.36396,1.27195,-0.191629,56,87,86,89,87,44,74,76,80,82,90,26
-0.784629,9.12565,-0.358777,-1.69596,-15.7077,27.5149,-11.8157,0.358777,-0.358777,-1.69596,-15.1989,27.5149,-12.3245,0.358777,16.8183,35.9606,9.0648,7.13574,5.80576,-10.2351,-7.19248,25.2981,39.793,2.92503,5,-25.918,-11.0065,-3.36397,1.27197,-0.19162,56,87,86,89,87,44,74,76,80,82,90,26
-0.784287,9.12654,-0.358762,-1.69598,-15.7077,27.5149,-11.8157,0.358762,-0.358762,-1.69598,-15.1989,27.5149,-12.3245,0.358762,16.8182,35.9607,9.06628,7.13566,5.80503,-10.2351,-7.19261,25.2982,39.793,2.92537,5,-25.9179,-11.0066,-3.36398,1.27199,-0.191612,56,87,86,89,87,44,74,76,80,82,90,26
-0.783937,9.12742,-0.358749,-1.696,-15.7077,27.5149,-11.8157,0.358749,-0.358749,-1.696,-15.1989,27.5149,-12.3245,0.358749,16.8182,35.9609,9.06776,7.13557,5.8043,-10.2352,-7.19274,25.2982,39.793,2.92573,5,-25.9178,-11.0067,-3.36398,1.272,-0.191605,56,87,86,89,87,44,74,76,80,82,90,26
-0.783581,9.12829,-0.358737,-1.69602,-15.7077,27.5149,-11.8157,0.358737,-0.358737,-1.69602,-15.1989,27.5149,-12.3245,0.358737,16.8181,35.961,9.06925,7.13546,5.80359,-10.2353,-7.19289,25.2982,39.793,2.92611,5,-25.9177,-11.0068,-3.36398,1.27202,-0.191599,56,87,86,89,87,44,74,76,80,82,90,26
-0.78322,9.12914,-0.358726,-1.69604,-15.7077,27.5149,-11.8157,0.358726,-0.358726,-1.69604,-15.1989,27.5149,-12.3245,0.358726,16.818,35.9611,9.07073,7.13533,5.80288,-10.2354,-7.19305,25.2982,39.793,2.92651,5,-25.9175,-11.0069,-3.36398,1.27203,-0.191593,56,87,86,89,87,44,74,76,80,82,90,26
-0.782856,9.12998,-0.358716,-1.69606,-15.7075,27.5147,-11.8157,0.358716,-0.358716,-1.69606,-15.1986,27.5147,-12.3245,0.358716,16.818,35.9612,9.07221,7.13519,5.80217,-10.2354,-7.19321,25.2983,39.793,2.92692,5,-25.9174,-11.007,-3.36397,1.27205,-0.191588,56,87,86,89,87,44,74,76,80,82,90,26
-0.782492,9.1308,-0.358708,-1.69608,-15.7075,27.5147,-11.8157,0.358708,-0.358708,-1.69608,-15.1986,27.5147,-12.3245,0.358708,16.8179,35.9613,9.07369,7.13504,5.80148,-10.2355,-7.19338,25.2983,39.793,2.92734,5,-25.9173,-11.0071,-3.36397,1.27206,-0.191583,56,87,86,89,87,44,74,76,80,82,90,26
-0.782129,9.1316,-0.3587,-1.6961,-15.7075,27.5147,-11.8157,0.3587,-0.3587,-1.6961,-15.1986,27.5147,-12.3245,0.3587,16.8178,35.9614,9.07516,7.13488,5.80079,-10.2356,-7.19356,25.2983,39.793,2.92777,5,-25.9171,-11.0072,-3.36396,1.27207,-0.191579,56,87,86,89,87,44,74,76,80,82,90,26
-0.781767,9.13239,-0.358694,-1.69611,-15.7075,27.5147,-11.8157,0.358694,-0.358694,-1.69611,-15.1986,27.5147,-12.3245,0.358694,16.8177,35.9615,9.07662,7.13472,5.80011,-10.2357,-7.19373,25.2983,39.793,2.92821,5,-25.917,-11.0073,-3.36395,1.27208,-0.191575,56,87,86,89,87,44,74,76,80,82,90,26
-0.781405,9.13317,-0.358687,-1.69613,-15.7075,27.5147,-11.8157,0.358687,-0.358687,-1.69613,-15.1986,27.5147,-12.3245,0.358687,16.8176,35.9616,9.07806,7.13454,5.79945,-10.2358,-7.19392,25.2983,39.793,2.92865,5,-25.9168,-11.0074,-3.36394,1.2721,-0.191572,56,87,86,89,87,44,74,76,80,82,90,26
-0.781043,9.13393,-0.358682,-1.69614,-15.7075,27.5147,-11.8157,0.358682,-0.358682,-1.69614,-15.1986,27.5147,-12.3245,0.358682,16.8176,35.9617,9.07948,7.13435,5.7988,-10.236,-7.1941,25.2983,39.7931,2.9291,5,-25.9167,-11.0075,-3.36393,1.27211,-0.191569,56,87,86,89,87,44,74,76,80,82,90,26
-0.780683,9.13467,-0.358677,-1.69615,-15.7075,27.5147,-11.8157,0.358677,-0.358677,-1.69615,-15.1986,27.5147,-12.3245,0.358677,16.8175,35.9618,9.08088,7.13416,5.79817,-10.2361,-7.19429,25.2983,39.7931,2.92954,5,-25.9165,-11.0076,-3.36392,1.27211,-0.191566,56,87,86,89,87,44,74,76,80,82,90,26
-0.780323,9.1354,-0.358671,-1.69616,-15.7074,27.5146,-11.8156,0.358671,-0.358671,-1.69616,-15.1985,27.5146,-12.3245,0.358671,16.8174,35.9619,9.08225,7.13395,5.79755,-10.2362,-7.19449,25.2982,39.7931,2.92999,5,-25.9164,-11.0077,-3.36391,1.27212,-0.191563,56,87,86,89,87,44,75,76,80,82,90,26
-0.779965,9.13612,-0.358666,-1.69616,-15.7074,27.5146,-11.8157,0.358666,-0.358666,-1.69616,-15.1985,27.5146,-12.3245,0.358666,16.8174,35.9619,9.08359,7.13373,5.79694,-10.2363,-7.19469,25.2982,39.7931,2.93043,5,-25.9162,-11.0078,-3.3639,1.27212,-0.19156,56,87,86,89,87,44,75,76,80,82,90,26
-0.779608,9.13682,-0.358661,-1.69616,-15.7074,27.5146,-11.8157,0.358661,-0.358661,-1.69616,-15.1985,27.5146,-12.3245,0.358661,16.8173,35.962,9.08489,7.13351,5.79636,-10.2364,-7.1949,25.2981,39.7932,2.93087,5,-25.916,-11.0079,-3.36389,1.27212,-0.191557,56,87,86,89,87,44,75,76,80,82,90,26
-0.779252,9.1375,-0.358655,-1.69616,-15.7074,27.5146,-11.8157,0.358655,-0.358655,-1.69616,-15.1985,27.5146,-12.3245,0.358655,16.8173,35.9621,9.08616,7.13328,5.7958,-10.2365,-7.1951,25.2981,39.7932,2.93131,5,-25.9158,-11.008,-3.36387,1.27212,-0.191554,56,87,86,89,87,44,75,76,80,82,90,26
-0.778896,9.13818,-0.358649,-1.69616,-15.7074,27.5146,-11.8157,0.358649,-0.358649,-1.69616,-15.1985,27.5146,-12.3245,0.358649,16.8172,35.9622,9.08738,7.13303,5.79526,-10.2367,-7.19531,25.298,39.7932,2.93174,5,-25.9156,-11.0081,-3.36386,1.27212,-0.191551,56,87,86,89,87,44,75,76,80,82,90,26
-0.77854,9.13885,-0.358644,-1.69615,-15.7073,27.5146,-11.8157,0.358644,-0.358644,-1.69615,-15.1985,27.5146,-12.3245,0.358644,16.8172,35.9623,9.08854,7.13279,5.79475,-10.2368,-7.19553,25.2979,39.7932,2.93217,5,-25.9153,-11.0082,-3.36385,1.27211,-0.191548,56,87,86,89,87,44,75,76,80,82,90,26
-0.778184,9.13951,-0.358638,-1.69613,-15.7073,27.5146,-11.8157,0.358638,-0.358638,-1.69613,-15.1985,27.5146,-12.3245,0.358638,16.8172,35.9624,9.08965,7.13253,5.79426,-10.2369,-7.19574,25.2978,39.7933,2.93259,5,-25.9151,-11.0083,-3.36383,1.2721,-0.191545,56,87,86,89,87,44,75,76,80,82,90,26
-0.777827,9.14016,-0.358633,-1.69611,-15.7073,27.5146,-11.8157,0.358633,-0.358633,-1.69611,-15.1985,27.5146,-12.3245,0.358633,16.8172,35.9624,9.0907,7.13227,5.79381,-10.2371,-7.19595,25.2977,39.7933,2.933,5,-25.9149,-11.0084,-3.36381,1.27208,-0.191542,56,87,86,89,87,44,75,76,80,82,90,25
-0.77747,9.1408,-0.358627,-1.69609,-15.7073,27.5146,-11.8157,0.358627,-0.358627,-1.69609,-15.1985,27.5146,-12.3245,0.358627,16.8171,35.9625,9.09168,7.13201,5.79339,-10.2372,-7.19616,25.2976,39.7933,2.9334,5,-25.9146,-11.0085,-3.36379,1.27207,-0.19154,56,87,86,89,87,44,75,76,80,82,90,25
-0.777112,9.14145,-0.358623,-1.69606,-15.7073,27.5146,-11.8157,0.358623,-0.358623,-1.69606,-15.1985,27.5146,-12.3245,0.358623,16.8171,35.9626,9.09259,7.13174,5.79301,-10.2374,-7.19638,25.2974,39.7934,2.93379,5,-25.9143,-11.0086,-3.36378,1.27204,-0.191537,56,87,86,89,87,44,75,76,80,82,90,25
-0.776753,9.14208,-0.358618,-1.69603,-15.7073,27.5146,-11.8157,0.358618,-0.358618,-1.69603,-15.1985,27.5146,-12.3245,0.358618,16.8172,35.9627,9.09343,7.13147,5.79265,-10.2375,-7.19658,25.2973,39.7934,2.93417,5,-25.9141,-11.0087,-3.36375,1.27202,-0.191534,56,87,86,89,87,44,75,76,80,82,90,25
-0.776393,9.14272,-0.358613,-1.69599,-15.7073,27.5146,-11.8157,0.358613,-0.358613,-1.69599,-15.1985,27.5146,-12.3245,0.358613,16.8172,35.9628,9.09421,7.1312,5.79233,-10.2377,-7.19679,25.2971,39.7935,2.93454,5,-25.9138,-11.0088,-3.36373,1.27199,-0.191532,56,87,86,89,87,44,75,76,80,82,90,25
-0.776032,9.14336,-0.358609,-1.69595,-15.7073,27.5146,-11.8157,0.358609,-0.358609,-1.69595,-15.1985,27.5146,-12.3245,0.358609,16.8172,35.9629,9.09493,7.13094,5.79205,-10.2378,-7.19699,25.297,39.7935,2.9349,5,-25.9135,-11.0089,-3.3637,1.27196,-0.191529,56,87,86,89,87,44,75,76,80,82,90,25
-0.775671,9.144,-0.358604,-1.69591,-15.7073,27.5146,-11.8158,0.358604,-0.358604,-1.69591,-15.1985,27.5146,-12.3245,0.358604,16.8172,35.963,9.09559,7.13067,5.79179,-10.238,-7.19717,25.2968,39.7936,2.93524,5,-25.9133,-11.0089,-3.36367,1.27193,-0.191527,56,87,86,89,87,44,75,76,80,82,90,25
-0.775309,9.14465,-0.3586,-1.69586,-15.7066,27.5142,-11.8156,0.3586,-0.3586,-1.69586,-15.1979,27.5142,-12.3244,0.3586,16.8173,35.9632,9.0962,7.13042,5.79156,-10.2381,-7.19735,25.2966,39.7937,2.93557,5,-25.913,-11.009,-3.36364,1.2719,-0.191525,56,87,86,89,87,44,75,76,80,82,90,25
-0.774943,9.14531,-0.358595,-1.69581,-15.7066,27.5142,-11.8156,0.358595,-0.358595,-1.69581,-15.1979,27.5142,-12.3244,0.358595,16.8173,35.9633,9.09675,7.13019,5.79135,-10.2382,-7.19751,25.2964,39.7937,2.93588,5,-25.9127,-11.0091,-3.3636,1.27186,-0.191522,56,87,86,89,87,44,75,76,80,82,90,25
-0.774575,9.14598,-0.358591,-1.69576,-15.7066,27.5142,-11.8157,0.358591,-0.358591,-1.69576,-15.1979,27.5142,-12.3244,0.358591,16.8174,35.9634,9.09725,7.12997,5.79118,-10.2384,-7.19765,25.2962,39.7938,2.93617,5,-25.9125,-11.0092,-3.36355,1.27182,-0.19152,56,87,86,89,87,44,75,76,80,82,90,25
-0.774206,9.14666,-0.358586,-1.69571,-15.7066,27.5142,-11.8157,0.358586,-0.358586,-1.69571,-15.1979,27.5142,-12.3244,0.358586,16.8175,35.9635,9.09771,7.12976,5.79103,-10.2385,-7.19778,25.296,39.7939,2.93645,5,-25.9122,-11.0092,-3.3635,1.27178,-0.191517,56,87,86,89,87,44,75,76,80,82,90,25
-0.773839,9.14734,-0.358582,-1.69566,-15.7066,27.5142,-11.8157,0.358582,-0.358582,-1.69566,-15.1979,27.5142,-12.3244,0.358582,16.8175,35.9636,9.09812,7.12956,5.7909,-10.2386,-7.1979,25.2958,39.7939,2.93671,5,-25.912,-11.0093,-3.36345,1.27174,-0.191515,56,87,86,89,87,44,75,76,80,82,90,25
-0.773475,9.14802,-0.358577,-1.6956,-15.7066,27.5142,-11.8157,0.358577,-0.358577,-1.6956,-15.1979,27.5142,-12.3244,0.358577,16.8176,35.9638,9.0985,7.12936,5.79079,-10.2387,-7.198,25.2956,39.794,2.93696,5,-25.9117,-11.0093,-3.3634,1.2717,-0.191512,56,87,86,89,87,44,75,76,80,82,90,25
-0.773114,9.14869,-0.358572,-1.69554,-15.7066,27.5142,-11.8157,0.358572,-0.358572,-1.69554,-15.1979,27.5142,-12.3244,0.358572,16.8177,35.9639,9.09883,7.12917,5.7907,-10.2388,-7.19811,25.2954,39.7941,2.9372,5,-25.9115,-11.0094,-3.36334,1.27166,-0.19151,56,87,86,89,87,44,75,76,80,82,90,25
-0.772757,9.14936,-0.358567,-1.69549,-15.7065,27.5142,-11.8157,0.358567,-0.358567,-1.69549,-15.1979,27.5142,-12.3244,0.358567,16.8177,35.964,9.09914,7.12898,5.79063,-10.2389,-7.1982,25.2952,39.7942,2.93742,5,-25.9113,-11.0094,-3.36328,1.27162,-0.191507,56,87,86,89,87,44,75,76,80,82,90,25
-0.77241,9.14999,-0.358562,-1.69543,-15.7065,27.5142,-11.8157,0.358562,-0.358562,-1.69543,-15.1979,27.5142,-12.3244,0.358562,16.8178,35.9642,9.09942,7.12877,5.79058,-10.239,-7.19831,25.295,39.7942,2.93764,5,-25.9111,-11.0095,-3.36321,1.27157,-0.191504,56,87,86,89,87,44,75,76,80,82,90,25
-0.772071,9.15061,-0.358557,-1.69538,-15.7065,27.5142,-11.8158,0.358557,-0.358557,-1.69538,-15.1979,27.5142,-12.3244,0.358557,16.8179,35.9643,9.09968,7.12856,5.79054,-10.2391,-7.19841,25.2948,39.7943,2.93786,5,-25.9108,-11.0096,-3.36315,1.27153,-0.191501,56,87,86,89,87,44,75,76,80,82,90,25
-0.771737,9.15121,-0.358551,-1.69532,-15.7065,27.5142,-11.8158,0.358551,-0.358551,-1.69532,-15.1979,27.5142,-12.3244,0.358551,16.8179,35.9644,9.09991,7.12834,5.79051,-10.2392,-7.19851,25.2946,39.7944,2.93806,5,-25.9106,-11.0096,-3.36309,1.27149,-0.191498,56,87,86,89,87,44,75,76,80,82,90,25
-0.771408,9.15181,-0.358546,-1.69527,-15.7065,27.5142,-11.8158,0.358546,-0.358546,-1.69527,-15.1979,27.5142,-12.3244,0.358546,16.818,35.9646,9.10011,7.12814,5.79049,-10.2392,-7.19861,25.2943,39.7945,2.93826,5,-25.9104,-11.0097,-3.36302,1.27145,-0.191495,56,87,86,89,87,44,75,76,80,82,90,25
-0.771081,9.15241,-0.358541,-1.69521,-15.7065,27.5142,-11.8158,0.358541,-0.358541,-1.69521,-15.1979,27.5142,-12.3244,0.358541,16.8181,35.9647,9.10029,7.12796,5.79048,-10.2393,-7.19869,25.2941,39.7946,2.93844,5,-25.9102,-11.0097,-3.36295,1.27141,-0.191492,56,87,86,89,87,44,75,76,80,82,90,25
-0.770755,9.15303,-0.358536,-1.69515,-15.7065,27.5142,-11.8158,0.358536,-0.358536,-1.69515,-15.1979,27.5142,-12.3244,0.358536,16.8182,35.9648,9.10045,7.12779,5.79049,-10.2394,-7.19875,25.2939,39.7946,2.93861,5,-25.91,-11.0098,-3.36289,1.27136,-0.19149,56,87,86,89,87,44,75,76,80,82,90,25
-0.770429,9.15366,-0.358531,-1.6951,-15.7065,27.5142,-11.8158,0.358531,-0.358531,-1.6951,-15.1979,27.5142,-12.3244,0.358531,16.8182,35.965,9.10059,7.12766,5.79049,-10.2395,-7.1988,25.2937,39.7947,2.93877,5,-25.9098,-11.0098,-3.36282,1.27132,-0.191487,56,88,86,89,87,44,75,76,80,82,90,25
-0.7701,9.15433,-0.358527,-1.69503,-15.7065,27.5142,-11.8158,0.358527,-0.358527,-1.69503,-15.1979,27.5142,-12.3244,0.358527,16.8183,35.9651,9.1007,7.12757,5.79051,-10.2395,-7.19881,25.2935,39.7948,2.93891,5,-25.9096,-11.0098,-3.36275,1.27128,-0.191485,56,88,86,89,87,44,75,76,80,82,90,25
-0.769769,9.15503,-0.358524,-1.69497,-15.7064,27.5142,-11.8159,0.358524,-0.358524,-1.69497,-15.1979,27.5142,-12.3243,0.358524,16.8184,35.9652,9.10078,7.12752,5.79054,-10.2395,-7.1988,25.2933,39.7949,2.93903,5,-25.9094,-11.0098,-3.36267,1.27123,-0.191483,56,88,86,89,87,44,75,76,80,82,90,25
-0.769435,9.15576,-0.358521,-1.69491,-15.7064,27.5142,-11.8159,0.358521,-0.358521,-1.69491,-15.198,27.5142,-12.3243,0.358521,16.8185,35.9653,9.10085,7.1275,5.79058,-10.2395,-7.19876,25.2931,39.7949,2.93915,5,-25.9093,-11.0098,-3.3626,1.27118,-0.191482,56,88,86,89,87,44,75,76,80,82,90,25
-0.769101,9.1565,-0.358519,-1.69484,-15.7064,27.5142,-11.8159,0.358519,-0.358519,-1.69484,-15.198,27.5142,-12.3243,0.358519,16.8186,35.9654,9.1009,7.12752,5.79061,-10.2395,-7.1987,25.2929,39.795,2.93924,5,-25.9091,-11.0098,-3.36252,1.27113,-0.191481,56,88,86,89,87,44,75,76,80,82,90,25
-0.768767,9.15726,-0.358517,-1.69478,-15.7064,27.5142,-11.8159,0.358517,-0.358517,-1.69478,-15.198,27.5142,-12.3243,0.358517,16.8188,35.9655,9.10093,7.12757,5.79065,-10.2395,-7.19863,25.2927,39.7951,2.93933,5,-25.9089,-11.0098,-3.36245,1.27109,-0.19148,56,88,86,89,87,44,75,76,80,82,90,25
-0.768433,9.15804,-0.358515,-1.69472,-15.7064,27.5142,-11.8159,0.358515,-0.358515,-1.69472,-15.198,27.5142,-12.3243,0.358515,16.8189,35.9655,9.10096,7.12764,5.79069,-10.2394,-7.19853,25.2924,39.7951,2.93941,5,-25.9088,-11.0098,-3.36237,1.27104,-0.191479,56,88,86,89,87,44,75,76,80,82,90,25
-0.7681,9.15882,-0.358514,-1.69465,-15.7066,27.5144,-11.816,0.358514,-0.358514,-1.69465,-15.1982,27.5144,-12.3244,0.358514,16.819,35.9656,9.10097,7.12774,5.79073,-10.2394,-7.19842,25.2922,39.7952,2.93947,5,-25.9087,-11.0098,-3.36229,1.27099,-0.191478,56,88,86,89,87,44,75,76,80,82,90,25
-0.76777,9.15961,-0.358512,-1.69459,-15.7066,27.5144,-11.816,0.358512,-0.358512,-1.69459,-15.1982,27.5144,-12.3244,0.358512,16.8191,35.9657,9.10098,7.12785,5.79077,-10.2393,-7.19831,25.292,39.7952,2.93953,5,-25.9085,-11.0098,-3.36222,1.27094,-0.191477,56,88,86,89,87,44,75,76,80,82,90,25
-0.767442,9.16039,-0.358511,-1.69452,-15.7066,27.5144,-11.816,0.358511,-0.358511,-1.69452,-15.1982,27.5144,-12.3244,0.358511,16.8192,35.9657,9.10099,7.12798,5.79081,-10.2392,-7.19818,25.2918,39.7953,2.93957,5,-25.9084,-11.0098,-3.36214,1.27089,-0.191477,56,88,86,89,87,44,75,76,80,82,90,25
-0.767118,9.16118,-0.35851,-1.69446,-15.7066,27.5144,-11.816,0.35851,-0.35851,-1.69446,-15.1982,27.5144,-12.3244,0.35851,16.8193,35.9658,9.10099,7.12812,5.79085,-10.2391,-7.19805,25.2916,39.7953,2.93961,5,-25.9083,-11.0098,-3.36206,1.27085,-0.191476,56,88,86,89,87,44,75,76,80,82,90,25
-0.766797,9.16198,-0.358509,-1.6944,-15.7066,27.5144,-11.816,0.358509,-0.358509,-1.6944,-15.1983,27.5144,-12.3244,0.358509,16.8194,35.9659,9.10099,7.12828,5.79089,-10.2391,-7.1979,25.2914,39.7954,2.93964,5,-25.9082,-11.0097,-3.36199,1.2708,-0.191476,56,88,86,89,87,44,75,76,80,82,90,25
-0.766481,9.16277,-0.358509,-1.69434,-15.7066,27.5144,-11.816,0.358509,-0.358509,-1.69434,-15.1983,27.5144,-12.3243,0.358509,16.8195,35.9659,9.10097,7.12846,5.79093,-10.239,-7.19775,25.2912,39.7954,2.93966,5,-25.9081,-11.0097,-3.36191,1.27075,-0.191475,56,88,86,89,87,44,75,76,80,82,90,25
-0.766169,9.16357,-0.358509,-1.69427,-15.7065,27.5144,-11.8161,0.358509,-0.358509,-1.69427,-15.1983,27.5144,-12.3243,0.358509,16.8197,35.966,9.10094,7.12864,5.79098,-10.2389,-7.19759,25.291,39.7955,2.93968,5,-25.908,-11.0097,-3.36184,1.27071,-0.191475,56,88,86,89,87,44,75,76,80,82,90,25
-0.765863,9.16437,-0.358509,-1.69421,-15.707,27.5147,-11.8162,0.358509,-0.358509,-1.69421,-15.1987,27.5147,-12.3244,0.358509,16.8198,35.966,9.10089,7.12884,5.79104,-10.2388,-7.19741,25.2908,39.7955,2.9397,5,-25.9079,-11.0096,-3.36176,1.27066,-0.191475,56,87,86,89,87,44,75,76,80,82,90,25
-0.76556,9.16517,-0.358509,-1.69415,-15.7069,27.5147,-11.8162,0.358509,-0.358509,-1.69415,-15.1987,27.5147,-12.3244,0.358509,16.8199,35.966,9.10083,7.12906,5.7911,-10.2386,-7.19723,25.2906,39.7955,2.93972,5,-25.9078,-11.0096,-3.36169,1.27061,-0.191475,56,87,86,89,87,44,75,76,80,82,90,25
-0.765263,9.16598,-0.35851,-1.69408,-15.7069,27.5147,-11.8162,0.35851,-0.35851,-1.69408,-15.1987,27.5147,-12.3244,0.35851,16.82,35.9661,9.10076,7.12929,5.79117,-10.2385,-7.19703,25.2904,39.7956,2.93973,5,-25.9077,-11.0095,-3.36162,1.27056,-0.191476,56,87,86,89,87,44,75,76,80,82,90,25
-0.764973,9.16679,-0.358511,-1.69402,-15.7069,27.5147,-11.8162,0.358511,-0.358511,-1.69402,-15.1987,27.5147,-12.3244,0.358511,16.8201,35.9661,9.10066,7.12952,5.79125,-10.2384,-7.19683,25.2902,39.7956,2.93974,5,-25.9076,-11.0095,-3.36154,1.27051,-0.191476,56,87,86,89,87,44,75,76,80,82,90,25
-0.764691,9.1676,-0.358512,-1.69395,-15.7069,27.5147,-11.8162,0.358512,-0.358512,-1.69395,-15.1987,27.5147,-12.3244,0.358512,16.8203,35.9661,9.10054,7.12977,5.79134,-10.2383,-7.19662,25.29,39.7956,2.93976,5,-25.9075,-11.0094,-3.36147,1.27046,-0.191477,56,87,86,89,87,44,75,76,80,82,90,25
-0.764417,9.16842,-0.358515,-1.69388,-15.7069,27.5147,-11.8162,0.358515,-0.358515,-1.69388,-15.1987,27.5147,-12.3244,0.358515,16.8204,35.9661,9.10039,7.13003,5.79145,-10.2381,-7.1964,25.2898,39.7957,2.93977,5,-25.9074,-11.0094,-3.3614,1.27041,-0.191479,56,87,86,89,87,44,75,76,80,82,90,25
-0.764154,9.16924,-0.358519,-1.69381,-15.7069,27.5147,-11.8162,0.358519,-0.358519,-1.69381,-15.1987,27.5147,-12.3244,0.358519,16.8206,35.9661,9.1002,7.13029,5.79157,-10.238,-7.19618,25.2896,39.7957,2.93977,5,-25.9072,-11.0093,-3.36133,1.27036,-0.191481,56,87,86,89,87,44,75,76,80,82,90,25
-0.763901,9.17008,-0.358524,-1.69373,-15.7081,27.5155,-11.8165,0.358524,-0.358524,-1.69373,-15.1999,27.5155,-12.3246,0.358524,16.8207,35.9661,9.09998,7.13056,5.79172,-10.2379,-7.19596,25.2894,39.7957,2.93978,5,-25.9071,-11.0092,-3.36126,1.2703,-0.191483,56,87,86,89,87,44,75,76,80,82,90,25
-0.763662,9.17092,-0.35853,-1.69365,-15.7081,27.5155,-11.8165,0.35853,-0.35853,-1.69365,-15.2,27.5155,-12.3246,0.35853,16.8209,35.966,9.09972,7.13083,5.79188,-10.2377,-7.19574,25.2892,39.7958,2.93978,5,-25.9069,-11.0091,-3.36119,1.27024,-0.191487,56,87,86,89,87,44,75,76,80,82,90,25
-0.763437,9.17178,-0.358538,-1.69357,-15.708,27.5155,-11.8165,0.358538,-0.358538,-1.69357,-15.2,27.5155,-12.3246,0.358538,16.8211,35.966,9.09942,7.13111,5.79207,-10.2376,-7.19552,25.289,39.7958,2.93978,5,-25.9068,-11.009,-3.36113,1.27018,-0.191491,56,87,86,89,87,44,75,76,80,82,90,25
-0.763225,9.17264,-0.358548,-1.69348,-15.708,27.5155,-11.8165,0.358548,-0.358548,-1.69348,-15.2,27.5155,-12.3246,0.358548,16.8214,35.9659,9.09907,7.13139,5.79227,-10.2375,-7.19529,25.2888,39.7959,2.93979,5,-25.9066,-11.0089,-3.36106,1.27011,-0.191496,56,87,86,89,87,44,75,76,80,82,90,25
-0.763024,9.17351,-0.358559,-1.69339,-15.708,27.5155,-11.8166,0.358559,-0.358559,-1.69339,-15.2,27.5155,-12.3246,0.358559,16.8216,35.9659,9.09869,7.13167,5.7925,-10.2373,-7.19507,25.2886,39.7959,2.93978,5,-25.9064,-11.0088,-3.36099,1.27004,-0.191502,56,87,86,89,87,44,75,76,80,82,90,25
-0.762836,9.17438,-0.358571,-1.6933,-15.708,27.5155,-11.8166,0.358571,-0.358571,-1.6933,-15.2,27.5155,-12.3246,0.358571,16.8219,35.9658,9.09826,7.13195,5.79275,-10.2372,-7.19486,25.2884,39.796,2.93978,5,-25.9061,-11.0087,-3.36093,1.26997,-0.191509,56,87,86,89,87,44,75,76,80,82,90,25
-0.762658,9.17526,-0.358584,-1.6932,-15.708,27.5155,-11.8166,0.358584,-0.358584,-1.6932,-15.2,27.5155,-12.3245,0.358584,16.8222,35.9657,9.09778,7.13223,5.79302,-10.2371,-7.19464,25.2882,39.796,2.93978,5,-25.9059,-11.0085,-3.36087,1.2699,-0.191516,56,87,86,89,87,44,75,76,80,82,90,25
-0.762492,9.17614,-0.358599,-1.6931,-15.7089,27.5162,-11.8168,0.358599,-0.358599,-1.6931,-15.2009,27.5162,-12.3247,0.358599,16.8225,35.9656,9.09727,7.1325,5.79331,-10.237,-7.19443,25.288,39.7961,2.93977,5,-25.9056,-11.0084,-3.3608,1.26983,-0.191524,56,87,86,89,87,44,75,76,80,82,90,25
-0.762333,9.17701,-0.358615,-1.693,-15.7088,27.5162,-11.8168,0.358615,-0.358615,-1.693,-15.2009,27.5162,-12.3247,0.358615,16.8228,35.9655,9.09669,7.13278,5.79364,-10.2369,-7.19423,25.2878,39.7962,2.93975,5,-25.9053,-11.0082,-3.36075,1.26975,-0.191533,56,87,86,89,87,44,75,76,80,82,90,25
-0.762182,9.17789,-0.358632,-1.6929,-15.7088,27.5162,-11.8168,0.358632,-0.358632,-1.6929,-15.201,27.5162,-12.3247,0.358632,16.8231,35.9654,9.09606,7.13306,5.79399,-10.2368,-7.19402,25.2876,39.7963,2.93973,5,-25.9049,-11.0081,-3.36069,1.26967,-0.191542,56,87,86,89,87,44,75,76,80,82,90,25
-0.762043,9.17876,-0.358651,-1.69279,-15.7088,27.5162,-11.8168,0.358651,-0.358651,-1.69279,-15.201,27.5162,-12.3246,0.358651,16.8235,35.9653,9.0954,7.13333,5.79435,-10.2367,-7.19383,25.2874,39.7963,2.93971,5,-25.9046,-11.0079,-3.36064,1.26959,-0.191552,56,87,86,89,87,44,75,76,80,82,90,25
-0.761916,9.17963,-0.35867,-1.69268,-15.7088,27.5162,-11.8168,0.35867,-0.35867,-1.69268,-15.201,27.5162,-12.3246,0.35867,16.8238,35.9652,9.09471,7.13359,5.79473,-10.2366,-7.19365,25.2873,39.7964,2.93969,5,-25.9042,-11.0078,-3.36059,1.26951,-0.191562,56,87,86,89,87,44,75,76,80,82,90,25
-0.761804,9.1805,-0.35869,-1.69257,-15.7088,27.5162,-11.8168,0.35869,-0.35869,-1.69257,-15.201,27.5162,-12.3246,0.35869,16.8242,35.9651,9.09401,7.13385,5.79513,-10.2365,-7.19348,25.2871,39.7965,2.93968,5,-25.9038,-11.0076,-3.36054,1.26943,-0.191573,56,87,86,89,87,44,75,76,80,82,90,25
-0.761707,9.18136,-0.35871,-1.69246,-15.7088,27.5162,-11.8168,0.35871,-0.35871,-1.69246,-15.2011,27.5162,-12.3246,0.35871,16.8246,35.9649,9.09329,7.13409,5.79552,-10.2365,-7.19332,25.2869,39.7966,2.93968,5,-25.9035,-11.0075,-3.3605,1.26935,-0.191584,56,87,86,89,87,44,75,76,80,82,90,25
-0.761627,9.18222,-0.35873,-1.69235,-15.7097,27.5168,-11.817,0.35873,-0.35873,-1.69235,-15.202,27.5168,-12.3247,0.35873,16.825,35.9648,9.09258,7.13433,5.79592,-10.2364,-7.19318,25.2867,39.7967,2.93968,5,-25.9031,-11.0073,-3.36045,1.26926,-0.191595,56,87,86,89,87,44,74,76,80,82,90,25
-0.761567,9.18307,-0.358751,-1.69223,-15.7097,27.5168,-11.817,0.358751,-0.358751,-1.69223,-15.202,27.5168,-12.3247,0.358751,16.8254,35.9647,9.09188,7.13456,5.79632,-10.2364,-7.19306,25.2866,39.7968,2.9397,5,-25.9027,-11.0071,-3.3604,1.26918,-0.191606,56,87,86,89,87,44,74,76,80,82,90,25
-0.761527,9.18391,-0.358772,-1.69212,-15.7097,27.5168,-11.817,0.358772,-0.358772,-1.69212,-15.202,27.5168,-12.3247,0.358772,16.8258,35.9646,9.09119,7.13477,5.79671,-10.2364,-7.19296,25.2864,39.7969,2.93973,5,-25.9023,-11.007,-3.36034,1.26909,-0.191618,56,87,86,89,87,44,74,76,80,82,90,25
-0.761504,9.18475,-0.358792,-1.692,-15.7097,27.5168,-11.8171,0.358792,-0.358792,-1.692,-15.2021,27.5168,-12.3247,0.358792,16.8262,35.9645,9.09053,7.13497,5.79709,-10.2364,-7.19288,25.2862,39.797,2.93977,5,-25.9019,-11.0068,-3.36029,1.269,-0.191629,56,87,86,89,87,44,74,76,80,82,90,25
-0.761499,9.18558,-0.358813,-1.69189,-15.7096,27.5168,-11.8171,0.358813,-0.358813,-1.69189,-15.2021,27.5168,-12.3246,0.358813,16.8266,35.9643,9.08988,7.13517,5.79746,-10.2364,-7.19281,25.286,39.7971,2.93983,5,-25.9016,-11.0067,-3.36024,1.26892,-0.19164,56,87,86,89,87,44,74,76,80,82,90,25
-0.761509,9.1864,-0.358834,-1.69177,-15.7096,27.5168,-11.8171,0.358834,-0.358834,-1.69177,-15.2021,27.5168,-12.3246,0.358834,16.827,35.9642,9.08926,7.13534,5.79781,-10.2364,-7.19277,25.2858,39.7973,2.9399,5,-25.9012,-11.0065,-3.36019,1.26883,-0.191652,56,87,86,89,87,44,74,76,80,82,90,25
-0.761534,9.18722,-0.358856,-1.69165,-15.7096,27.5168,-11.8171,0.358856,-0.358856,-1.69165,-15.2021,27.5168,-12.3246,0.358856,16.8274,35.9641,9.08867,7.13551,5.79814,-10.2365,-7.19275,25.2856,39.7974,2.93998,5,-25.9009,-11.0063,-3.36014,1.26874,-0.191663,56,87,86,89,87,44,74,76,80,82,90,25
-0.761573,9.18802,-0.358877,-1.69153,-15.7096,27.5168,-11.8171,0.358877,-0.358877,-1.69153,-15.2022,27.5168,-12.3245,0.358877,16.8278,35.964,9.0881,7.13567,5.79845,-10.2365,-7.19274,25.2854,39.7975,2.94008,5,-25.9005,-11.0062,-3.3601,1.26865,-0.191675,56,87,86,89,87,44,74,76,80,82,90,26
-0.761623,9.18882,-0.358899,-1.69141,-15.7096,27.5168,-11.8171,0.358899,-0.358899,-1.69141,-15.2022,27.5168,-12.3245,0.358899,16.8282,35.9639,9.08757,7.13582,5.79874,-10.2366,-7.19276,25.2852,39.7976,2.9402,5,-25.9002,-11.006,-3.36006,1.26856,-0.191686,56,87,86,89,87,44,74,76,80,82,90,26
-0.761685,9.1896,-0.358921,-1.69129,-15.7096,27.5168,-11.8171,0.358921,-0.358921,-1.69129,-15.2022,27.5168,-12.3245,0.358921,16.8286,35.9638,9.08707,7.13595,5.799,-10.2367,-7.19279,25.285,39.7977,2.94032,5,-25.8999,-11.0059,-3.36003,1.26847,-0.191698,56,87,86,89,87,44,74,76,80,82,90,26
-0.761759,9.19038,-0.358943,-1.69117,-15.7096,27.5168,-11.8171,0.358943,-0.358943,-1.69117,-15.2022,27.5168,-12.3245,0.358943,16.829,35.9637,9.0866,7.13608,5.79924,-10.2368,-7.19283,25.2848,39.7979,2.94046,5,-25.8996,-11.0057,-3.36001,1.26838,-0.191711,56,87,86,89,87,44,74,76,80,82,90,26
-0.761843,9.19114,-0.358966,-1.69105,-15.7096,27.5168,-11.8171,0.358966,-0.358966,-1.69105,-15.2023,27.5168,-12.3244,0.358966,16.8293,35.9636,9.08617,7.13619,5.79945,-10.237,-7.1929,25.2846,39.798,2.94061,5,-25.8994,-11.0056,-3.35999,1.26828,-0.191723,56,87,86,89,87,44,74,76,80,82,90,26
-0.761938,9.19189,-0.358988,-1.69092,-15.7096,27.5168,-11.8171,0.358988,-0.358988,-1.69092,-15.2023,27.5168,-12.3244,0.358988,16.8297,35.9635,9.08578,7.13629,5.79962,-10.2371,-7.19298,25.2843,39.7982,2.94077,5,-25.8991,-11.0055,-3.35998,1.26819,-0.191735,56,87,86,89,87,44,74,76,80,82,90,26
-0.762044,9.19263,-0.359011,-1.6908,-15.7095,27.5168,-11.8172,0.359011,-0.359011,-1.6908,-15.2023,27.5168,-12.3244,0.359011,16.8301,35.9634,9.08542,7.13639,5.79976,-10.2373,-7.19307,25.2841,39.7983,2.94094,5,-25.8989,-11.0054,-3.35997,1.2681,-0.191747,56,87,86,89,87,44,74,76,80,82,90,26
-0.762159,9.19335,-0.359033,-1.69068,-15.7106,27.5176,-11.8174,0.359033,-0.359033,-1.69068,-15.2034,27.5176,-12.3246,0.359033,16.8305,35.9633,9.08511,7.13647,5.79986,-10.2375,-7.19317,25.2838,39.7984,2.94112,5,-25.8987,-11.0052,-3.35997,1.26801,-0.191759,56,87,86,89,87,44,74,76,80,82,90,26
-0.762287,9.19405,-0.359055,-1.69055,-15.7106,27.5176,-11.8174,0.359055,-0.359055,-1.69055,-15.2035,27.5176,-12.3246,0.359055,16.8308,35.9632,9.08486,7.13654,5.79992,-10.2377,-7.19329,25.2836,39.7986,2.9413,5,-25.8986,-11.0052,-3.35997,1.26791,-0.191771,56,87,86,89,87,44,74,76,80,82,90,26
-0.762426,9.19474,-0.359077,-1.69043,-15.7106,27.5176,-11.8174,0.359077,-0.359077,-1.69043,-15.2035,27.5176,-12.3246,0.359077,16.8312,35.9631,9.08465,7.13661,5.79993,-10.2379,-7.19341,25.2833,39.7987,2.94149,5,-25.8985,-11.0051,-3.35998,1.26782,-0.191783,56,87,86,89,87,44,74,76,80,82,90,26
-0.762573,9.19541,-0.359098,-1.69031,-15.7106,27.5176,-11.8175,0.359098,-0.359098,-1.69031,-15.2035,27.5176,-12.3245,0.359098,16.8315,35.963,9.08448,7.13666,5.79991,-10.2381,-7.19355,25.283,39.7989,2.94168,5,-25.8984,-11.005,-3.36,1.26773,-0.191794,56,87,86,89,87,44,74,76,80,82,90,26
-0.762727,9.19607,-0.35912,-1.69018,-15.7106,27.5176,-11.8175,0.35912,-0.35912,-1.69018,-15.2035,27.5176,-12.3245,0.35912,16.8318,35.9629,9.08435,7.1367,5.79985,-10.2383,-7.1937,25.2827,39.799,2.94188,5,-25.8983,-11.0049,-3.36002,1.26764,-0.191806,56,87,86,89,87,44,74,76,80,82,90,26
-0.762888,9.19671,-0.359141,-1.69006,-15.7106,27.5176,-11.8175,0.359141,-0.359141,-1.69006,-15.2035,27.5176,-12.3245,0.359141,16.8321,35.9628,9.08425,7.13674,5.79977,-10.2385,-7.19385,25.2824,39.7991,2.94208,5,-25.8983,-11.0049,-3.36004,1.26755,-0.191817,56,87,86,89,87,44,74,76,80,82,90,26
-0.763053,9.19734,-0.359161,-1.68994,-15.7105,27.5176,-11.8175,0.359161,-0.359161,-1.68994,-15.2036,27.5176,-12.3245,0.359161,16.8324,35.9627,9.08418,7.13676,5.79967,-10.2388,-7.19401,25.2822,39.7993,2.94229,5,-25.8982,-11.0048,-3.36007,1.26746,-0.191829,56,87,86,89,87,44,74,76,80,82,90,26
-0.763222,9.19795,-0.359182,-1.68982,-15.7111,27.518,-11.8176,0.359182,-0.359182,-1.68982,-15.2041,27.518,-12.3246,0.359182,16.8328,35.9626,9.08413,7.13678,5.79954,-10.239,-7.19418,25.2819,39.7994,2.94249,5,-25.8982,-11.0048,-3.3601,1.26736,-0.19184,56,87,86,89,87,44,74,76,80,82,90,26
-0.763391,9.19855,-0.359202,-1.6897,-15.7111,27.518,-11.8177,0.359202,-0.359202,-1.6897,-15.2041,27.518,-12.3246,0.359202,16.8331,35.9625,9.08408,7.1368,5.79941,-10.2393,-7.19435,25.2816,39.7995,2.9427,5,-25.8982,-11.0047,-3.36013,1.26727,-0.191851,56,87,86,89,87,44,74,76,80,82,90,26
-0.76356,9.19914,-0.359223,-1.68958,-15.711,27.518,-11.8177,0.359223,-0.359223,-1.68958,-15.2042,27.518,-12.3246,0.359223,16.8334,35.9624,9.08405,7.1368,5.79927,-10.2395,-7.19452,25.2813,39.7997,2.94291,5,-25.8982,-11.0047,-3.36017,1.26718,-0.191862,56,87,86,89,87,44,74,76,80,82,90,26
-0.763732,9.19971,-0.359243,-1.68946,-15.711,27.518,-11.8177,0.359243,-0.359243,-1.68946,-15.2042,27.518,-12.3245,0.359243,16.8337,35.9623,9.08404,7.1368,5.79912,-10.2398,-7.1947,25.281,39.7998,2.94312,5,-25.8982,-11.0047,-3.3602,1.2671,-0.191873,56,87,86,89,87,44,74,76,80,82,90,26
-0.763905,9.20027,-0.359262,-1.68935,-15.711,27.518,-11.8177,0.359262,-0.359262,-1.68935,-15.2042,27.518,-12.3245,0.359262,16.8339,35.9623,9.08404,7.1368,5.79896,-10.2401,-7.19489,25.2807,39.7999,2.94333,5,-25.8983,-11.0046,-3.36024,1.26701,-0.191883,56,87,86,89,87,44,74,76,80,82,90,26
-0.764081,9.20081,-0.359281,-1.68923,-15.711,27.518,-11.8177,0.359281,-0.359281,-1.68923,-15.2042,27.518,-12.3245,0.359281,16.8342,35.9622,9.08407,7.13679,5.79877,-10.2403,-7.19507,25.2804,39.8001,2.94354,5,-25.8983,-11.0046,-3.36028,1.26692,-0.191894,56,87,86,89,87,44,74,76,80,82,90,26
-0.76426,9.20134,-0.3593,-1.68912,-15.711,27.518,-11.8178,0.3593,-0.3593,-1.68912,-15.2042,27.518,-12.3245,0.3593,16.8345,35.9621,9.08413,7.13679,5.79857,-10.2406,-7.19525,25.2801,39.8002,2.94375,5,-25.8984,-11.0046,-3.36032,1.26684,-0.191904,56,87,86,89,87,44,74,76,80,82,90,26
-0.764441,9.20185,-0.359318,-1.68901,-15.7109,27.518,-11.8178,0.359318,-0.359318,-1.68901,-15.2042,27.518,-12.3245,0.359318,16.8347,35.962,9.08421,7.13677,5.79834,-10.2408,-7.19543,25.2798,39.8003,2.94395,5,-25.8985,-11.0046,-3.36036,1.26676,-0.191913,56,87,86,89,87,44,74,76,80,82,90,26
-0.764627,9.20234,-0.359335,-1.6889,-15.7109,27.518,-11.8178,0.359335,-0.359335,-1.6889,-15.2043,27.518,-12.3245,0.359335,16.835,35.9619,9.08433,7.13676,5.79809,-10.2411,-7.19561,25.2795,39.8004,2.94415,5,-25.8986,-11.0046,-3.36041,1.26668,-0.191922,56,87,86,89,87,44,74,76,80,82,90,26
-0.764817,9.20281,-0.359351,-1.6888,-15.7109,27.518,-11.8178,0.359351,-0.359351,-1.6888,-15.2043,27.518,-12.3244,0.359351,16.8352,35.9619,9.08448,7.13674,5.79781,-10.2414,-7.19579,25.2792,39.8005,2.94435,5,-25.8987,-11.0046,-3.36045,1.2666,-0.191931,56,87,86,89,87,44,74,76,80,82,90,26
-0.765009,9.20326,-0.359367,-1.6887,-15.7109,27.518,-11.8178,0.359367,-0.359367,-1.6887,-15.2043,27.518,-12.3244,0.359367,16.8354,35.9618,9.08466,7.13672,5.7975,-10.2416,-7.19596,25.2789,39.8006,2.94455,5,-25.8988,-11.0046,-3.3605,1.26652,-0.19194,56,87,86,89,87,44,74,76,80,82,90,26
-0.765205,9.2037,-0.359381,-1.6886,-15.7109,27.518,-11.8178,0.359381,-0.359381,-1.6886,-15.2043,27.518,-12.3244,0.359381,16.8356,35.9617,9.08488,7.1367,5.79718,-10.2419,-7.19613,25.2786,39.8007,2.94473,5,-25.899,-11.0046,-3.36055,1.26645,-0.191948,56,87,86,89,87,44,74,76,80,82,90,26
-0.765402,9.20413,-0.359395,-1.68851,-15.7108,27.518,-11.8179,0.359395,-0.359395,-1.68851,-15.2043,27.518,-12.3244,0.359395,16.8357,35.9617,9.08512,7.13669,5.79684,-10.2422,-7.1963,25.2782,39.8008,2.94491,5,-25.8991,-11.0047,-3.36061,1.26638,-0.191955,56,87,86,89,87,44,74,76,80,82,90,26
-0.765602,9.20455,-0.359408,-1.68842,-15.7108,27.518,-11.8179,0.359408,-0.359408,-1.68842,-15.2043,27.518,-12.3244,0.359408,16.8358,35.9616,9.0854,7.13669,5.79648,-10.2425,-7.19646,25.2779,39.8008,2.94508,5,-25.8993,-11.0047,-3.36066,1.26632,-0.191962,56,87,86,89,87,44,74,76,80,82,90,26
-0.765803,9.20496,-0.35942,-1.68834,-15.7113,27.5184,-11.818,0.35942,-0.35942,-1.68834,-15.2048,27.5184,-12.3245,0.35942,16.8359,35.9615,9.0857,7.13669,5.7961,-10.2427,-7.19661,25.2776,39.8009,2.94524,5,-25.8994,-11.0048,-3.36072,1.26625,-0.191969,56,87,86,89,87,44,74,76,80,82,90,26
-0.766005,9.20537,-0.359431,-1.68826,-15.7113,27.5184,-11.818,0.359431,-0.359431,-1.68826,-15.2048,27.5184,-12.3245,0.359431,16.836,35.9615,9.08603,7.13671,5.79572,-10.243,-7.19676,25.2773,39.801,2.94537,5,-25.8996,-11.0048,-3.36079,1.26619,-0.191975,56,87,86,89,87,44,74,76,80,82,90,26
-0.766207,9.20577,-0.359442,-1.68819,-15.7113,27.5184,-11.8181,0.359442,-0.359442,-1.68819,-15.2048,27.5184,-12.3245,0.359442,16.836,35.9614,9.08639,7.13674,5.79532,-10.2433,-7.1969,25.277,39.801,2.94549,5,-25.8997,-11.0049,-3.36086,1.26614,-0.191981,56,87,86,89,87,44,74,76,80,82,90,26
-0.76641,9.20616,-0.359452,-1.68812,-15.7112,27.5184,-11.8181,0.359452,-0.359452,-1.68812,-15.2048,27.5184,-12.3245,0.359452,16.8361,35.9614,9.08676,7.13678,5.79492,-10.2436,-7.19703,25.2767,39.8011,2.9456,5,-25.8999,-11.005,-3.36094,1.26609,-0.191986,56,87,86,89,87,44,74,76,80,82,90,26
-0.766613,9.20656,-0.359461,-1.68806,-15.7112,27.5184,-11.8181,0.359461,-0.359461,-1.68806,-15.2048,27.5184,-12.3245,0.359461,16.836,35.9613,9.08716,7.13683,5.7945,-10.2439,-7.19715,25.2763,39.8011,2.94569,5,-25.9,-11.005,-3.36101,1.26604,-0.191991,56,87,86,89,87,44,74,76,80,82,90,26
-0.766815,9.20694,-0.35947,-1.688,-15.7112,27.5184,-11.8181,0.35947,-0.35947,-1.688,-15.2048,27.5184,-12.3245,0.35947,16.836,35.9613,9.08758,7.13689,5.79408,-10.2441,-7.19727,25.276,39.8012,2.94577,5,-25.9001,-11.0051,-3.36109,1.266,-0.191996,56,87,86,89,87,44,74,76,80,82,90,26
-0.767016,9.20732,-0.359477,-1.68795,-15.7112,27.5184,-11.8182,0.359477,-0.359477,-1.68795,-15.2048,27.5184,-12.3245,0.359477,16.836,35.9612,9.08802,7.13695,5.79364,-10.2444,-7.19739,25.2757,39.8012,2.94585,5,-25.9002,-11.0052,-3.36118,1.26596,-0.192,56,87,86,89,87,44,74,76,80,82,90,26
-0.767216,9.20769,-0.359484,-1.6879,-15.7111,27.5184,-11.8182,0.359484,-0.359484,-1.6879,-15.2047,27.5184,-12.3245,0.359484,16.8359,35.9612,9.08848,7.13702,5.79319,-10.2447,-7.1975,25.2754,39.8012,2.94592,5,-25.9003,-11.0053,-3.36126,1.26592,-0.192003,56,87,86,89,87,44,74,76,80,82,90,26
-0.767416,9.20806,-0.35949,-1.68785,-15.7111,27.5184,-11.8182,0.35949,-0.35949,-1.68785,-15.2047,27.5184,-12.3245,0.35949,16.8359,35.9611,9.08896,7.13708,5.79274,-10.245,-7.19761,25.2751,39.8013,2.94599,5,-25.9005,-11.0054,-3.36135,1.26588,-0.192007,56,87,86,89,87,44,74,76,80,82,90,26
-0.767613,9.20842,-0.359495,-1.6878,-15.7111,27.5184,-11.8182,0.359495,-0.359495,-1.6878,-15.2047,27.5184,-12.3245,0.359495,16.8358,35.9611,9.08945,7.13715,5.79227,-10.2452,-7.19772,25.2748,39.8013,2.94606,5,-25.9006,-11.0055,-3.36144,1.26585,-0.192009,56,87,86,89,87,44,74,76,80,82,90,26
-0.767809,9.20877,-0.359499,-1.68775,-15.711,27.5184,-11.8182,0.359499,-0.359499,-1.68775,-15.2047,27.5184,-12.3246,0.359499,16.8357,35.9611,9.08996,7.13721,5.7918,-10.2455,-7.19783,25.2745,39.8013,2.94613,5,-25.9008,-11.0056,-3.36153,1.26582,-0.192012,56,87,86,89,87,44,74,76,80,82,90,26
-0.768002,9.20911,-0.359504,-1.68771,-15.711,27.5184,-11.8183,0.359504,-0.359504,-1.68771,-15.2047,27.5184,-12.3246,0.359504,16.8356,35.961,9.09046,7.13729,5.79133,-10.2458,-7.19794,25.2742,39.8013,2.94619,5,-25.9009,-11.0057,-3.36162,1.26579,-0.192014,56,87,86,89,87,44,74,76,80,82,90,26
-0.768192,9.20945,-0.359507,-1.68768,-15.711,27.5184,-11.8183,0.359507,-0.359507,-1.68768,-15.2047,27.5184,-12.3246,0.359507,16.8355,35.961,9.09097,7.13737,5.79087,-10.246,-7.19804,25.2739,39.8013,2.94623,5,-25.901,-11.0058,-3.36171,1.26576,-0.192016,56,87,86,89,87,44,74,76,80,82,90,26
-0.768379,9.20978,-0.359511,-1.68764,-15.711,27.5184,-11.8183,0.359511,-0.359511,-1.68764,-15.2047,27.5184,-12.3246,0.359511,16.8354,35.961,9.09147,7.13745,5.79042,-10.2463,-7.19813,25.2736,39.8013,2.94627,5,-25.9012,-11.0059,-3.3618,1.26573,-0.192018,56,87,86,89,87,44,74,76,80,82,90,26
-0.768563,9.21011,-0.359515,-1.68761,-15.7111,27.5184,-11.8183,0.359515,-0.359515,-1.68761,-15.2048,27.5184,-12.3246,0.359515,16.8352,35.961,9.09196,7.13755,5.78998,-10.2465,-7.19821,25.2733,39.8014,2.94629,5,-25.9012,-11.006,-3.36189,1.26571,-0.19202,56,87,86,89,87,44,74,76,80,82,90,26
-0.768742,9.21043,-0.35952,-1.68758,-15.711,27.5184,-11.8184,0.35952,-0.35952,-1.68758,-15.2048,27.5184,-12.3246,0.35952,16.8351,35.9609,9.09245,7.13765,5.78956,-10.2468,-7.19828,25.273,39.8014,2.94629,5,-25.9013,-11.0061,-3.36198,1.26569,-0.192023,56,87,86,89,87,44,74,76,80,82,90,26
-0.768916,9.21075,-0.359525,-1.68756,-15.711,27.5184,-11.8184,0.359525,-0.359525,-1.68756,-15.2047,27.5184,-12.3246,0.359525,16.8349,35.9609,9.09291,7.13777,5.78916,-10.247,-7.19834,25.2727,39.8014,2.94627,5,-25.9013,-11.0062,-3.36207,1.26567,-0.192025,56,87,86,89,87,44,74,76,80,82,90,26
-0.769087,9.21107,-0.35953,-1.68754,-15.711,27.5184,-11.8184,0.35953,-0.35953,-1.68754,-15.2047,27.5184,-12.3247,0.35953,16.8348,35.9609,9.09336,7.1379,5.78878,-10.2473,-7.19839,25.2725,39.8014,2.94622,5,-25.9013,-11.0063,-3.36216,1.26566,-0.192028,56,87,86,89,87,44,74,76,80,82,90,26
-0.769254,9.21138,-0.359537,-1.68752,-15.711,27.5184,-11.8184,0.359537,-0.359537,-1.68752,-15.2047,27.5184,-12.3247,0.359537,16.8346,35.9608,9.09377,7.13804,5.78844,-10.2475,-7.19842,25.2722,39.8015,2.94616,5,-25.9013,-11.0064,-3.36225,1.26564,-0.192032,56,87,86,89,87,44,74,76,80,82,90,26
-0.769416,9.2117,-0.359543,-1.68751,-15.7109,27.5184,-11.8184,0.359543,-0.359543,-1.68751,-15.2047,27.5184,-12.3247,0.359543,16.8344,35.9608,9.09415,7.13819,5.78813,-10.2477,-7.19845,25.2719,39.8015,2.94607,5,-25.9012,-11.0066,-3.36233,1.26563,-0.192035,56,87,86,89,87,44,74,76,80,82,90,26
-0.769575,9.21201,-0.35955,-1.6875,-15.7109,27.5184,-11.8185,0.35955,-0.35955,-1.6875,-15.2047,27.5184,-12.3247,0.35955,16.8342,35.9607,9.09448,7.13835,5.78787,-10.2479,-7.19847,25.2717,39.8015,2.94595,5,-25.9011,-11.0067,-3.36241,1.26563,-0.192039,56,87,86,89,87,44,74,76,80,82,90,26
-0.769729,9.21231,-0.359558,-1.68749,-15.7108,27.5184,-11.8185,0.359558,-0.359558,-1.68749,-15.2046,27.5184,-12.3247,0.359558,16.834,35.9607,9.09478,7.13851,5.78765,-10.2482,-7.19848,25.2714,39.8016,2.94582,5,-25.9009,-11.0068,-3.36249,1.26562,-0.192043,56,87,86,89,87,44,74,76,80,82,90,26
-0.76988,9.21262,-0.359566,-1.68749,-15.7108,27.5184,-11.8185,0.359566,-0.359566,-1.68749,-15.2045,27.5184,-12.3247,0.359566,16.8338,35.9607,9.09501,7.13868,5.78747,-10.2484,-7.19848,25.2712,39.8016,2.94565,5,-25.9007,-11.0069,-3.36257,1.26561,-0.192048,56,87,86,89,87,44,74,76,80,82,90,26
-0.770026,9.21293,-0.359575,-1.68748,-15.7108,27.5184,-11.8185,0.359575,-0.359575,-1.68748,-15.2045,27.5184,-12.3247,0.359575,16.8336,35.9606,9.09519,7.13886,5.78735,-10.2486,-7.19847,25.271,39.8017,2.94546,5,-25.9005,-11.007,-3.36264,1.26561,-0.192053,56,87,86,89,87,44,74,76,80,82,90,26
-0.770169,9.21324,-0.359585,-1.68748,-15.7108,27.5184,-11.8185,0.359585,-0.359585,-1.68748,-15.2045,27.5184,-12.3248,0.359585,16.8334,35.9605,9.09532,7.13904,5.78729,-10.2487,-7.19846,25.2708,39.8017,2.94524,5,-25.9002,-11.0071,-3.36272,1.26561,-0.192058,56,87,86,89,87,44,74,76,80,82,90,26
-0.770308,9.21355,-0.359595,-1.68748,-15.7107,27.5184,-11.8185,0.359595,-0.359595,-1.68748,-15.2045,27.5184,-12.3248,0.359595,16.8332,35.9605,9.09539,7.13922,5.78727,-10.2489,-7.19844,25.2706,39.8018,2.945,5,-25.8999,-11.0072,-3.36278,1.26561,-0.192063,56,87,86,89,87,44,74,76,80,82,90,26
-0.770444,9.21387,-0.359605,-1.68747,-15.7107,27.5184,-11.8185,0.359605,-0.359605,-1.68747,-15.2045,27.5184,-12.3248,0.359605,16.833,35.9604,9.0954,7.13941,5.78732,-10.2491,-7.1984,25.2704,39.8018,2.94472,5,-25.8995,-11.0074,-3.36285,1.26561,-0.192069,56,87,86,89,87,44,74,76,80,82,90,26
-0.770577,9.21418,-0.359616,-1.68747,-15.7107,27.5184,-11.8186,0.359616,-0.359616,-1.68747,-15.2045,27.5184,-12.3248,0.359616,16.8328,35.9604,9.09535,7.13959,5.78742,-10.2492,-7.19836,25.2702,39.8019,2.94442,5,-25.8991,-11.0075,-3.36291,1.26561,-0.192075,56,87,86,89,87,44,74,76,80,82,90,26
-0.770706,9.2145,-0.359627,-1.68747,-15.7108,27.5184,-11.8186,0.359627,-0.359627,-1.68747,-15.2046,27.5184,-12.3248,0.359627,16.8326,35.9603,9.09524,7.13978,5.78758,-10.2494,-7.19831,25.27,39.8019,2.94409,5,-25.8987,-11.0076,-3.36296,1.2656,-0.192081,56,87,86,89,87,44,75,76,80,82,90,26
-0.770833,9.21483,-0.359638,-1.68747,-15.7108,27.5184,-11.8186,0.359638,-0.359638,-1.68747,-15.2046,27.5184,-12.3249,0.359638,16.8324,35.9602,9.09508,7.13997,5.78779,-10.2495,-7.19825,25.2698,39.802,2.94374,5,-25.8982,-11.0076,-3.36302,1.2656,-0.192087,56,87,86,89,87,44,75,76,80,82,90,26
-0.770958,9.21515,-0.35965,-1.68747,-15.7108,27.5184,-11.8186,0.35965,-0.35965,-1.68747,-15.2045,27.5184,-12.3249,0.35965,16.8323,35.9601,9.09486,7.14015,5.78807,-10.2496,-7.19818,25.2696,39.802,2.94336,5,-25.8977,-11.0077,-3.36306,1.26561,-0.192093,56,87,86,89,87,44,75,76,80,82,90,26
-0.771079,9.21549,-0.359661,-1.68747,-15.7108,27.5184,-11.8186,0.359661,-0.359661,-1.68747,-15.2045,27.5184,-12.3249,0.359661,16.8321,35.9601,9.09459,7.14033,5.7884,-10.2497,-7.1981,25.2695,39.8021,2.94296,5,-25.8971,-11.0078,-3.36311,1.2656,-0.192099,56,87,86,89,87,44,75,76,80,82,90,26
-0.771196,9.21583,-0.359673,-1.68747,-15.7108,27.5184,-11.8187,0.359673,-0.359673,-1.68747,-15.2045,27.5184,-12.3249,0.359673,16.8319,35.96,9.09425,7.1405,5.78879,-10.2498,-7.19801,25.2693,39.8021,2.94252,5,-25.8965,-11.0079,-3.36315,1.2656,-0.192105,56,87,86,89,87,44,75,76,80,82,90,26
-0.77131,9.21619,-0.359685,-1.68747,-15.7107,27.5184,-11.8187,0.359685,-0.359685,-1.68747,-15.2045,27.5184,-12.3249,0.359685,16.8318,35.9599,9.09384,7.14067,5.78924,-10.2499,-7.19792,25.2692,39.8022,2.94204,5,-25.8958,-11.008,-3.36319,1.2656,-0.192112,56,87,86,89,87,44,75,76,80,82,90,26
-0.77142,9.21656,-0.359697,-1.68747,-15.7107,27.5184,-11.8187,0.359697,-0.359697,-1.68747,-15.2045,27.5184,-12.3249,0.359697,16.8317,35.9598,9.09337,7.14082,5.78976,-10.2499,-7.19782,25.269,39.8022,2.94152,5,-25.8951,-11.008,-3.36323,1.2656,-0.192118,56,87,86,89,87,44,75,76,80,82,90,26
-0.771525,9.21694,-0.359709,-1.68746,-15.7107,27.5184,-11.8187,0.359709,-0.359709,-1.68746,-15.2045,27.5184,-12.3249,0.359709,16.8315,35.9598,9.09284,7.14097,5.79033,-10.25,-7.19772,25.2689,39.8023,2.94097,5,-25.8944,-11.0081,-3.36327,1.2656,-0.192125,56,87,86,89,87,44,75,76,80,82,90,25
-0.771625,9.21734,-0.35972,-1.68746,-15.7107,27.5184,-11.8187,0.35972,-0.35972,-1.68746,-15.2045,27.5184,-12.3249,0.35972,16.8314,35.9597,9.09223,7.1411,5.79098,-10.25,-7.19761,25.2687,39.8023,2.94036,5,-25.8936,-11.0082,-3.36331,1.26559,-0.192131,56,87,86,89,87,44,75,76,80,82,90,25
-0.771721,9.21775,-0.359732,-1.68745,-15.7107,27.5184,-11.8187,0.359732,-0.359732,-1.68745,-15.2045,27.5184,-12.3249,0.359732,16.8314,35.9596,9.09156,7.14122,5.79169,-10.25,-7.1975,25.2686,39.8024,2.9397,5,-25.8928,-11.0082,-3.36336,1.26559,-0.192138,56,87,86,89,87,44,75,76,80,82,90,25
-0.771812,9.21819,-0.359744,-1.68744,-15.7107,27.5184,-11.8187,0.359744,-0.359744,-1.68744,-15.2045,27.5184,-12.3249,0.359744,16.8313,35.9595,9.09082,7.14132,5.79246,-10.25,-7.19739,25.2685,39.8024,2.939,5,-25.8919,-11.0082,-3.3634,1.26558,-0.192144,56,87,86,89,87,44,75,76,80,82,90,25
-0.771898,9.21864,-0.359756,-1.68743,-15.7107,27.5184,-11.8187,0.359756,-0.359756,-1.68743,-15.2045,27.5184,-12.325,0.359756,16.8312,35.9594,9.09002,7.14141,5.79328,-10.25,-7.19729,25.2684,39.8025,2.93827,5,-25.891,-11.0083,-3.36344,1.26558,-0.192151,56,87,86,89,87,44,75,76,80,82,90,25
-0.771979,9.21911,-0.359769,-1.68742,-15.7107,27.5184,-11.8187,0.359769,-0.359769,-1.68742,-15.2044,27.5184,-12.325,0.359769,16.8312,35.9594,9.08916,7.14149,5.79415,-10.2499,-7.19719,25.2683,39.8025,2.93751,5,-25.8901,-11.0083,-3.36348,1.26557,-0.192157,56,87,86,89,87,44,75,76,80,82,90,25
-0.772054,9.21961,-0.359781,-1.68741,-15.7107,27.5184,-11.8187,0.359781,-0.359781,-1.68741,-15.2044,27.5184,-12.325,0.359781,16.8312,35.9593,9.08826,7.14154,5.79506,-10.2499,-7.19709,25.2682,39.8026,2.93671,5,-25.8892,-11.0083,-3.36351,1.26555,-0.192164,56,87,86,89,87,44,75,76,80,82,90,25
-0.772125,9.22012,-0.359794,-1.68739,-15.7112,27.5189,-11.8189,0.359794,-0.359794,-1.68739,-15.205,27.5189,-12.3251,0.359794,16.8312,35.9592,9.08732,7.14159,5.796,-10.2498,-7.19701,25.2681,39.8026,2.9359,5,-25.8882,-11.0083,-3.36354,1.26554,-0.192171,56,87,86,89,87,44,75,76,80,82,90,25
-0.772189,9.22068,-0.359807,-1.68737,-15.7112,27.5189,-11.8189,0.359807,-0.359807,-1.68737,-15.205,27.5189,-12.3251,0.359807,16.8312,35.9591,9.08634,7.14161,5.79696,-10.2498,-7.19694,25.268,39.8027,2.93508,5,-25.8873,-11.0083,-3.36355,1.26552,-0.192178,56,87,86,89,87,44,75,76,80,82,90,25
-0.772247,9.22126,-0.359821,-1.68734,-15.7112,27.5189,-11.8189,0.359821,-0.359821,-1.68734,-15.205,27.5189,-12.3251,0.359821,16.8312,35.9591,9.08533,7.14161,5.79794,-10.2497,-7.19689,25.2679,39.8028,2.93424,5,-25.8864,-11.0083,-3.36356,1.26551,-0.192186,56,87,86,89,87,44,75,76,80,82,90,25
-0.7723,9.22186,-0.359835,-1.68731,-15.7112,27.5189,-11.8189,0.359835,-0.359835,-1.68731,-15.205,27.5189,-12.3251,0.359835,16.8313,35.959,9.08429,7.1416,5.79894,-10.2496,-7.19685,25.2678,39.8029,2.9334,5,-25.8854,-11.0082,-3.36355,1.26549,-0.192194,56,87,86,89,87,44,75,76,80,82,90,25
-0.772349,9.22248,-0.35985,-1.68728,-15.7112,27.5189,-11.8189,0.35985,-0.35985,-1.68728,-15.205,27.5189,-12.3251,0.35985,16.8313,35.9589,9.08322,7.14158,5.79996,-10.2495,-7.19683,25.2678,39.8029,2.93255,5,-25.8845,-11.0082,-3.36354,1.26546,-0.192201,56,87,86,89,87,44,75,76,80,82,90,25
-0.772395,9.22311,-0.359864,-1.68725,-15.7112,27.5189,-11.8189,0.359864,-0.359864,-1.68725,-15.205,27.5189,-12.3251,0.359864,16.8314,35.9588,9.08213,7.14154,5.801,-10.2495,-7.19681,25.2677,39.803,2.93168,5,-25.8835,-11.0081,-3.36353,1.26544,-0.192209,56,87,86,89,87,44,75,76,80,82,90,25
-0.772437,9.22374,-0.359878,-1.68722,-15.7112,27.5189,-11.8189,0.359878,-0.359878,-1.68722,-15.205,27.5189,-12.3251,0.359878,16.8315,35.9588,9.08101,7.14149,5.80205,-10.2494,-7.19679,25.2676,39.8031,2.93081,5,-25.8826,-11.0081,-3.36351,1.26541,-0.192217,56,87,86,89,87,44,75,76,80,82,90,25
-0.772477,9.22437,-0.359892,-1.68718,-15.7115,27.5191,-11.819,0.359892,-0.359892,-1.68718,-15.2053,27.5191,-12.3251,0.359892,16.8316,35.9587,9.07987,7.14144,5.80312,-10.2493,-7.19679,25.2676,39.8032,2.92993,5,-25.8817,-11.008,-3.36348,1.26539,-0.192224,56,87,86,89,87,44,75,76,80,82,90,25
-0.772516,9.22498,-0.359905,-1.68715,-15.7115,27.5191,-11.819,0.359905,-0.359905,-1.68715,-15.2053,27.5191,-12.3251,0.359905,16.8318,35.9587,9.07871,7.14139,5.80423,-10.2492,-7.19678,25.2675,39.8033,2.92902,5,-25.8807,-11.008,-3.36346,1.26536,-0.192231,56,87,86,89,87,44,75,76,80,82,90,25
-0.772554,9.22558,-0.359918,-1.68711,-15.7115,27.5191,-11.819,0.359918,-0.359918,-1.68711,-15.2053,27.5191,-12.3251,0.359918,16.8319,35.9586,9.07752,7.14134,5.80535,-10.2491,-7.19678,25.2674,39.8034,2.9281,5,-25.8797,-11.0079,-3.36345,1.26533,-0.192238,56,87,86,89,87,44,75,76,80,82,90,25
-0.77259,9.22616,-0.35993,-1.68707,-15.7115,27.5191,-11.819,0.35993,-0.35993,-1.68707,-15.2053,27.5191,-12.3251,0.35993,16.832,35.9585,9.07633,7.14128,5.80648,-10.249,-7.19678,25.2674,39.8034,2.92719,5,-25.8787,-11.0078,-3.36342,1.2653,-0.192245,56,87,86,89,87,44,75,76,80,82,90,25
-0.772623,9.22676,-0.359942,-1.68703,-15.7114,27.5191,-11.819,0.359942,-0.359942,-1.68703,-15.2053,27.5191,-12.3251,0.359942,16.8321,35.9585,9.07514,7.14121,5.8076,-10.2489,-7.19678,25.2673,39.8035,2.92627,5,-25.8778,-11.0078,-3.3634,1.26528,-0.192251,56,87,86,89,87,44,75,76,80,82,90,25
-0.772653,9.22737,-0.359955,-1.68699,-15.7114,27.5191,-11.819,0.359955,-0.359955,-1.68699,-15.2053,27.5191,-12.3251,0.359955,16.8323,35.9584,9.07396,7.14114,5.8087,-10.2488,-7.1968,25.2672,39.8036,2.92538,5,-25.8768,-11.0077,-3.36337,1.26525,-0.192258,56,87,86,89,87,44,75,76,80,82,90,25
-0.772679,9.22799,-0.359968,-1.68695,-15.7114,27.5191,-11.819,0.359968,-0.359968,-1.68695,-15.2054,27.5191,-12.3251,0.359968,16.8324,35.9584,9.07281,7.14105,5.80978,-10.2487,-7.19682,25.2672,39.8037,2.92451,5,-25.8759,-11.0076,-3.36333,1.26522,-0.192265,56,87,86,89,87,44,75,76,80,82,90,25
-0.772701,9.22864,-0.359982,-1.68691,-15.7114,27.5191,-11.819,0.359982,-0.359982,-1.68691,-15.2054,27.5191,-12.3251,0.359982,16.8326,35.9583,9.07168,7.14095,5.81081,-10.2486,-7.19686,25.2671,39.8038,2.92368,5,-25.8751,-11.0075,-3.36328,1.26518,-0.192273,56,87,86,89,87,44,75,76,80,82,90,25
-0.772717,9.22933,-0.359996,-1.68687,-15.7114,27.5191,-11.819,0.359996,-0.359996,-1.68687,-15.2054,27.5191,-12.325,0.359996,16.8327,35.9583,9.07058,7.14084,5.8118,-10.2485,-7.19691,25.2671,39.8039,2.92288,5,-25.8743,-11.0075,-3.36322,1.26515,-0.192281,56,87,86,89,87,44,75,76,80,82,90,25
-0.772729,9.23005,-0.360012,-1.68682,-15.7114,27.5191,-11.819,0.360012,-0.360012,-1.68682,-15.2054,27.5191,-12.325,0.360012,16.8329,35.9582,9.06951,7.14071,5.81272,-10.2484,-7.19697,25.267,39.804,2.92213,5,-25.8735,-11.0074,-3.36315,1.26512,-0.192289,56,87,86,89,87,44,75,76,80,82,90,25
-0.772735,9.23081,-0.360029,-1.68678,-15.7114,27.5191,-11.819,0.360029,-0.360029,-1.68678,-15.2054,27.5191,-12.325,0.360029,16.8331,35.9582,9.0685,7.14056,5.81359,-10.2483,-7.19705,25.267,39.8041,2.92143,5,-25.8729,-11.0073,-3.36307,1.26508,-0.192298,56,87,86,89,87,44,75,76,80,82,90,25
-0.772736,9.2316,-0.360047,-1.68673,-15.7114,27.5191,-11.819,0.360047,-0.360047,-1.68673,-15.2054,27.5191,-12.325,0.360047,16.8333,35.9581,9.06753,7.14041,5.8144,-10.2483,-7.19714,25.267,39.8043,2.92078,5,-25.8723,-11.0072,-3.36298,1.26505,-0.192308,56,87,86,89,87,44,75,76,80,82,90,25
-0.772732,9.23243,-0.360067,-1.68669,-15.7114,27.5191,-11.819,0.360067,-0.360067,-1.68669,-15.2054,27.5191,-12.325,0.360067,16.8335,35.9581,9.06663,7.14024,5.81515,-10.2482,-7.19725,25.267,39.8045,2.92018,5,-25.8717,-11.0071,-3.36288,1.26502,-0.192319,56,87,86,89,87,44,75,76,80,82,90,25
-0.772724,9.23329,-0.360088,-1.68664,-15.7114,27.5191,-11.819,0.360088,-0.360088,-1.68664,-15.2055,27.5191,-12.325,0.360088,16.8338,35.9581,9.06579,7.14006,5.81584,-10.2481,-7.19736,25.267,39.8047,2.91964,5,-25.8712,-11.007,-3.36277,1.26498,-0.19233,56,87,86,89,87,44,75,76,80,82,90,25
-0.77271,9.23418,-0.360111,-1.6866,-15.7123,27.5196,-11.8191,0.360111,-0.360111,-1.6866,-15.2063,27.5196,-12.3251,0.360111,16.834,35.9581,9.06501,7.13988,5.81646,-10.248,-7.19748,25.267,39.8049,2.91915,5,-25.8708,-11.0069,-3.36266,1.26495,-0.192343,56,87,86,89,87,44,75,76,80,82,90,25
-0.77269,9.23511,-0.360135,-1.68656,-15.7123,27.5196,-11.8191,0.360135,-0.360135,-1.68656,-15.2063,27.5196,-12.3251,0.360135,16.8342,35.958,9.06433,7.13968,5.817,-10.248,-7.19761,25.267,39.8051,2.91874,5,-25.8704,-11.0068,-3.36255,1.26492,-0.192356,56,87,86,89,87,44,75,76,80,82,90,25
-0.772666,9.23607,-0.360161,-1.68652,-15.7123,27.5196,-11.8191,0.360161,-0.360161,-1.68652,-15.2063,27.5196,-12.3251,0.360161,16.8344,35.958,9.06374,7.13948,5.81747,-10.2479,-7.19775,25.267,39.8054,2.9184,5,-25.8701,-11.0068,-3.36243,1.26489,-0.19237,56,87,86,89,87,44,75,76,80,82,90,25
-0.772637,9.23705,-0.360189,-1.68648,-15.7123,27.5196,-11.8191,0.360189,-0.360189,-1.68648,-15.2063,27.5196,-12.3251,0.360189,16.8346,35.958,9.06323,7.13927,5.81787,-10.2478,-7.19789,25.267,39.8057,2.91811,5,-25.8699,-11.0067,-3.36231,1.26486,-0.192385,56,87,86,89,87,44,75,76,80,82,90,25
-0.772604,9.23806,-0.360217,-1.68645,-15.7123,27.5196,-11.8191,0.360217,-0.360217,-1.68645,-15.2063,27.5196,-12.3251,0.360217,16.8348,35.958,9.06277,7.13906,5.81822,-10.2477,-7.19804,25.267,39.806,2.91787,5,-25.8697,-11.0066,-3.36218,1.26484,-0.1924,56,87,86,89,87,44,75,76,80,82,90,25
-0.772568,9.23908,-0.360247,-1.68641,-15.7123,27.5196,-11.8191,0.360247,-0.360247,-1.68641,-15.2064,27.5196,-12.3251,0.360247,16.835,35.958,9.06237,7.13884,5.81852,-10.2477,-7.19819,25.267,39.8063,2.91768,5,-25.8695,-11.0066,-3.36205,1.26481,-0.192416,56,87,86,89,87,44,75,76,80,82,90,25
-0.77253,9.24011,-0.360277,-1.68638,-15.7123,27.5196,-11.8191,0.360277,-0.360277,-1.68638,-15.2064,27.5196,-12.325,0.360277,16.8352,35.958,9.06201,7.13863,5.81878,-10.2476,-7.19834,25.2671,39.8066,2.91752,5,-25.8694,-11.0065,-3.36192,1.26479,-0.192433,56,87,86,89,87,44,75,76,80,82,90,25
-0.77249,9.24114,-0.360308,-1.68635,-15.713,27.5202,-11.8193,0.360308,-0.360308,-1.68635,-15.2071,27.5202,-12.3252,0.360308,16.8354,35.958,9.06169,7.1384,5.819,-10.2475,-7.1985,25.2671,39.807,2.9174,5,-25.8693,-11.0064,-3.36179,1.26476,-0.192449,56,87,86,89,87,44,75,76,80,82,90,25
-0.77245,9.24216,-0.360338,-1.68632,-15.713,27.5202,-11.8193,0.360338,-0.360338,-1.68632,-15.2071,27.5202,-12.3252,0.360338,16.8356,35.958,9.06137,7.13818,5.8192,-10.2475,-7.19867,25.2671,39.8073,2.91729,5,-25.8693,-11.0064,-3.36166,1.26474,-0.192466,56,87,86,89,87,44,75,76,80,82,90,25
-0.772408,9.24318,-0.360369,-1.68629,-15.713,27.5202,-11.8193,0.360369,-0.360369,-1.68629,-15.2071,27.5202,-12.3251,0.360369,16.8358,35.958,9.06107,7.13796,5.81938,-10.2474,-7.19883,25.2672,39.8076,2.91721,5,-25.8693,-11.0063,-3.36152,1.26472,-0.192482,56,87,86,89,87,44,75,76,80,82,90,25
