565950964-design/kaipule_sdk/control/csv_file/jinli.csv
Head_1,Head_2,Joint_1,Joint_2,Joint_3,Joint_4,Joint_5,Joint_6,Joint_7,Joint_8,Joint_9,Joint_10,Joint_11,Joint_12,Joint_13,Joint_14,Joint_15,Joint_16,Joint_17,Joint_18,Joint_19,Joint_20,Joint_21,Joint_22,Joint_23,Joint_24,Joint_25,Joint_26,Joint_27,Joint_28,Finger_1,Finger_2,Finger_3,Finger_4,Finger_5,Finger_6,Finger_7,Finger_8,Finger_9,Finger_10,Finger_11,Finger_12
-0.0674215,10,-0.333206,-1.20507,-14.61,27.5259,-12.9317,0.333206,-0.333206,-1.20507,-14.2485,27.5259,-13.2932,0.333206,5.05627,12.7694,-9.33249,7.29261,-0.062783,-7.21864,-2.38283,11.0816,16.3253,0.799976,5,-15.3411,-13.5871,1.28618,0.903804,-0.177797,93,99,100,100,95,7,100,100,100,100,100,0
-0.0674368,10,-0.333205,-1.20508,-14.61,27.5259,-12.9317,0.333205,-0.333205,-1.20508,-14.2485,27.5259,-13.2932,0.333205,5.05628,12.7694,-9.33249,7.29262,-0.0627849,-7.21864,-2.38284,11.0817,16.3253,0.800002,5,-15.3411,-13.5871,1.28616,0.903808,-0.177796,93,99,100,100,95,7,100,100,100,100,100,0
-0.0674683,10,-0.333205,-1.20509,-14.61,27.5259,-12.9317,0.333205,-0.333205,-1.20509,-14.2485,27.5259,-13.2932,0.333205,5.05628,12.7694,-9.3325,7.29263,-0.06279,-7.21865,-2.38285,11.0817,16.3253,0.800051,5,-15.3412,-13.5872,1.28612,0.903816,-0.177796,93,99,100,100,95,7,100,100,100,100,100,0
-0.0675168,10,-0.333204,-1.2051,-14.61,27.5259,-12.9317,0.333204,-0.333204,-1.2051,-14.2485,27.5259,-13.2932,0.333204,5.05629,12.7693,-9.33251,7.29266,-0.0627992,-7.21865,-2.38287,11.0818,16.3252,0.800122,5,-15.3413,-13.5873,1.28605,0.903828,-0.177796,93,99,100,100,95,7,100,100,100,100,100,0
-0.0675829,10,-0.333202,-1.20513,-14.6101,27.5259,-12.9317,0.333202,-0.333202,-1.20513,-14.2485,27.5259,-13.2932,0.333202,5.0563,12.7693,-9.33251,7.29269,-0.0628136,-7.21866,-2.3829,11.0819,16.3252,0.800211,5,-15.3415,-13.5875,1.28596,0.903844,-0.177795,93,99,100,100,95,7,100,100,100,100,100,0
-0.067667,10,-0.3332,-1.20515,-14.6101,27.5259,-12.9317,0.3332,-0.3332,-1.20515,-14.2485,27.5259,-13.2932,0.3332,5.05631,12.7692,-9.33252,7.29274,-0.0628341,-7.21868,-2.38294,11.0821,16.3251,0.800317,5,-15.3417,-13.5876,1.28585,0.903864,-0.177794,93,99,100,100,95,7,100,100,100,100,100,0
-0.0677692,10,-0.333198,-1.20518,-14.6101,27.5259,-12.9317,0.333198,-0.333198,-1.20518,-14.2485,27.5259,-13.2932,0.333198,5.05631,12.7691,-9.33251,7.29279,-0.0628613,-7.21869,-2.38298,11.0822,16.325,0.800437,5,-15.3419,-13.5879,1.28572,0.903888,-0.177793,93,99,100,100,95,7,100,100,100,100,100,0
-0.0678895,10,-0.333196,-1.20522,-14.6094,27.5253,-12.9315,0.333196,-0.333196,-1.20522,-14.2478,27.5253,-13.2931,0.333196,5.05632,12.769,-9.33251,7.29286,-0.0628959,-7.2187,-2.38303,11.0824,16.3248,0.800569,5,-15.3422,-13.5881,1.28557,0.903916,-0.177791,93,99,100,100,95,7,100,100,100,100,100,0
-0.0680302,10,-0.333193,-1.20526,-14.6094,27.5253,-12.9315,0.333193,-0.333193,-1.20526,-14.2478,27.5253,-13.2931,0.333193,5.05633,12.7689,-9.33249,7.29293,-0.062941,-7.21871,-2.38309,11.0826,16.3247,0.800707,5,-15.3425,-13.5884,1.2854,0.903949,-0.177789,93,99,100,100,95,7,100,100,100,100,100,0
-0.0681899,10,-0.333189,-1.20531,-14.6094,27.5253,-12.9315,0.333189,-0.333189,-1.20531,-14.2478,27.5253,-13.2931,0.333189,5.05633,12.7688,-9.33246,7.29302,-0.0629959,-7.21872,-2.38316,11.0829,16.3246,0.800851,5,-15.3428,-13.5887,1.28521,0.903985,-0.177788,93,99,100,100,95,7,100,100,100,100,100,0
-0.0683672,10,-0.333185,-1.20537,-14.6094,27.5253,-12.9315,0.333185,-0.333185,-1.20537,-14.2478,27.5253,-13.2931,0.333185,5.05633,12.7687,-9.33242,7.29311,-0.0630598,-7.21873,-2.38324,11.0832,16.3244,0.801,5,-15.3431,-13.589,1.28501,0.904025,-0.177785,93,99,100,100,95,7,100,100,100,100,100,0
-0.0685609,10,-0.33318,-1.20542,-14.6094,27.5253,-12.9314,0.33318,-0.33318,-1.20542,-14.2478,27.5253,-13.2931,0.33318,5.05633,12.7686,-9.33237,7.29322,-0.0631322,-7.21875,-2.38332,11.0834,16.3242,0.801153,5,-15.3435,-13.5894,1.28479,0.904068,-0.177783,93,99,100,100,95,7,100,100,100,100,100,0
-0.0687696,10,-0.333175,-1.20549,-14.6095,27.5253,-12.9314,0.333175,-0.333175,-1.20549,-14.2478,27.5253,-13.2931,0.333175,5.05632,12.7684,-9.3323,7.29334,-0.0632126,-7.21876,-2.38341,11.0837,16.3241,0.801308,5,-15.3439,-13.5898,1.28455,0.904115,-0.17778,93,99,100,100,95,7,100,100,100,100,100,0
-0.0689924,10,-0.33317,-1.20555,-14.6095,27.5253,-12.9314,0.33317,-0.33317,-1.20555,-14.2478,27.5253,-13.2931,0.33317,5.05631,12.7683,-9.33223,7.29346,-0.0633008,-7.21877,-2.38351,11.0841,16.3239,0.801464,5,-15.3443,-13.5902,1.2843,0.904164,-0.177777,93,99,100,100,95,7,100,100,100,100,100,0
-0.0692278,10,-0.333164,-1.20562,-14.6076,27.524,-12.931,0.333164,-0.333164,-1.20562,-14.2459,27.524,-13.2927,0.333164,5.05629,12.7682,-9.33215,7.29359,-0.0633965,-7.21879,-2.38361,11.0844,16.3236,0.801619,5,-15.3447,-13.5906,1.28403,0.904217,-0.177774,93,99,100,100,95,7,100,100,100,100,100,0
-0.0694763,10,-0.333158,-1.2057,-14.6076,27.524,-12.9309,0.333158,-0.333158,-1.2057,-14.2459,27.524,-13.2927,0.333158,5.05627,12.768,-9.33206,7.29373,-0.0634967,-7.21881,-2.38372,11.0848,16.3234,0.801782,5,-15.3452,-13.591,1.28376,0.904272,-0.177771,93,99,100,100,95,7,100,100,100,100,100,0
-0.0697363,10,-0.333152,-1.20577,-14.6077,27.524,-12.9309,0.333152,-0.333152,-1.20577,-14.2459,27.524,-13.2927,0.333152,5.05625,12.7678,-9.33196,7.29388,-0.063603,-7.21883,-2.38383,11.0851,16.3232,0.801945,5,-15.3456,-13.5915,1.28347,0.904329,-0.177768,93,99,100,100,95,7,100,100,100,100,100,0
-0.0700061,10,-0.333145,-1.20585,-14.6077,27.524,-12.9309,0.333145,-0.333145,-1.20585,-14.2459,27.524,-13.2926,0.333145,5.05622,12.7677,-9.33185,7.29403,-0.0637168,-7.21885,-2.38394,11.0855,16.323,0.8021,5,-15.3461,-13.592,1.28317,0.904389,-0.177764,93,99,100,100,95,7,100,100,100,100,100,0
-0.0702843,10,-0.333138,-1.20594,-14.6077,27.524,-12.9309,0.333138,-0.333138,-1.20594,-14.2459,27.524,-13.2926,0.333138,5.05619,12.7675,-9.33173,7.29419,-0.0638394,-7.21887,-2.38406,11.0859,16.3227,0.802241,5,-15.3466,-13.5925,1.28286,0.904452,-0.17776,93,99,100,100,95,7,100,100,100,100,100,0
-0.0705697,10,-0.333129,-1.20602,-14.6078,27.524,-12.9308,0.333129,-0.333129,-1.20602,-14.2459,27.524,-13.2926,0.333129,5.05615,12.7673,-9.33158,7.29436,-0.0639719,-7.21889,-2.38418,11.0863,16.3224,0.802362,5,-15.3471,-13.593,1.28254,0.904517,-0.177755,93,99,100,100,95,7,100,100,100,100,100,0
-0.0708612,10,-0.33312,-1.20611,-14.6078,27.524,-12.9308,0.33312,-0.33312,-1.20611,-14.2459,27.524,-13.2926,0.33312,5.05611,12.7672,-9.33141,7.29454,-0.0641151,-7.21891,-2.38431,11.0867,16.3222,0.802456,5,-15.3476,-13.5935,1.28221,0.904585,-0.17775,93,99,100,100,95,7,100,100,100,100,100,0
-0.0711578,10,-0.333109,-1.20621,-14.6075,27.5238,-12.9307,0.333109,-0.333109,-1.20621,-14.2457,27.5238,-13.2926,0.333109,5.05606,12.767,-9.33122,7.29472,-0.0642699,-7.21892,-2.38445,11.0871,16.3219,0.802521,5,-15.348,-13.594,1.28188,0.904656,-0.177744,93,99,100,100,95,7,100,100,100,100,100,0
-0.0714553,10,-0.333097,-1.20631,-14.6076,27.5238,-12.9307,0.333097,-0.333097,-1.20631,-14.2457,27.5238,-13.2926,0.333097,5.056,12.7668,-9.33101,7.29492,-0.0644359,-7.21894,-2.38459,11.0875,16.3215,0.80255,5,-15.3485,-13.5946,1.28153,0.90473,-0.177738,93,99,100,100,95,7,100,100,100,100,100,0
-0.0717548,10,-0.333084,-1.20641,-14.6076,27.5238,-12.9307,0.333084,-0.333084,-1.20641,-14.2457,27.5238,-13.2926,0.333084,5.05593,12.7666,-9.33076,7.29512,-0.0646142,-7.21895,-2.38473,11.088,16.3212,0.802542,5,-15.3489,-13.5951,1.28118,0.904807,-0.177731,93,99,100,100,95,7,100,100,100,100,100,0
-0.0720573,10,-0.333069,-1.20652,-14.6076,27.5238,-12.9306,0.333069,-0.333069,-1.20652,-14.2457,27.5238,-13.2926,0.333069,5.05586,12.7664,-9.33049,7.29533,-0.0648056,-7.21895,-2.38489,11.0884,16.3209,0.802493,5,-15.3493,-13.5957,1.28083,0.904887,-0.177723,93,99,100,100,95,7,100,100,100,100,100,0
-0.0723633,10,-0.333053,-1.20663,-14.6077,27.5238,-12.9306,0.333053,-0.333053,-1.20663,-14.2457,27.5238,-13.2926,0.333053,5.05578,12.7662,-9.33019,7.29555,-0.0650105,-7.21895,-2.38504,11.0889,16.3205,0.802403,5,-15.3497,-13.5963,1.28047,0.904969,-0.177714,93,99,100,100,95,7,100,100,100,100,100,0
-0.0726736,10,-0.333035,-1.20674,-14.6077,27.5238,-12.9306,0.333035,-0.333035,-1.20674,-14.2457,27.5238,-13.2926,0.333035,5.05569,12.766,-9.32987,7.29578,-0.0652294,-7.21894,-2.38521,11.0894,16.3201,0.802271,5,-15.3501,-13.5968,1.28011,0.905054,-0.177704,93,99,100,100,95,7,100,100,100,100,100,0
-0.0729885,10,-0.333016,-1.20686,-14.6077,27.5238,-12.9305,0.333016,-0.333016,-1.20686,-14.2457,27.5238,-13.2926,0.333016,5.0556,12.7658,-9.32951,7.29602,-0.0654623,-7.21892,-2.38539,11.0899,16.3197,0.802097,5,-15.3504,-13.5974,1.27976,0.905141,-0.177694,93,99,100,100,95,7,100,100,100,100,100,0
-0.0733081,10,-0.332996,-1.20698,-14.6064,27.5227,-12.9302,0.332996,-0.332996,-1.20698,-14.2443,27.5227,-13.2923,0.332996,5.05549,12.7656,-9.32912,7.29626,-0.0657091,-7.21889,-2.38557,11.0904,16.3193,0.80188,5,-15.3506,-13.598,1.27941,0.905232,-0.177683,93,99,100,100,95,7,100,100,100,100,100,0
-0.0736362,10,-0.332973,-1.2071,-14.6064,27.5227,-12.9302,0.332973,-0.332973,-1.2071,-14.2443,27.5227,-13.2923,0.332973,5.05538,12.7655,-9.3287,7.2965,-0.0659781,-7.21885,-2.38576,11.0909,16.3189,0.801604,5,-15.3508,-13.5986,1.27907,0.905325,-0.177671,93,99,100,100,95,7,100,100,100,100,100,0
-0.073971,10,-0.332949,-1.20723,-14.6064,27.5227,-12.9301,0.332949,-0.332949,-1.20723,-14.2443,27.5227,-13.2923,0.332949,5.05525,12.7652,-9.32824,7.29676,-0.0662646,-7.21879,-2.38597,11.0914,16.3184,0.801278,5,-15.351,-13.5992,1.27874,0.905422,-0.177658,93,99,100,100,95,7,100,100,100,100,100,0
-0.0743108,10,-0.332924,-1.20736,-14.6065,27.5227,-12.9301,0.332924,-0.332924,-1.20736,-14.2443,27.5227,-13.2923,0.332924,5.05512,12.765,-9.32776,7.29701,-0.0665646,-7.21871,-2.38618,11.0919,16.3179,0.800911,5,-15.3511,-13.5998,1.27841,0.90552,-0.177644,93,99,100,100,95,7,100,100,100,100,100,0
-0.0746541,10,-0.332898,-1.20749,-14.6065,27.5227,-12.9301,0.332898,-0.332898,-1.20749,-14.2443,27.5227,-13.2923,0.332898,5.05498,12.7648,-9.32726,7.29727,-0.0668748,-7.21863,-2.38639,11.0924,16.3174,0.80051,5,-15.3511,-13.6004,1.2781,0.90562,-0.17763,93,99,100,100,95,7,100,100,100,100,100,0
-0.0749997,10,-0.332871,-1.20763,-14.6065,27.5227,-12.93,0.332871,-0.332871,-1.20763,-14.2443,27.5227,-13.2923,0.332871,5.05484,12.7646,-9.32674,7.29753,-0.0671924,-7.21854,-2.38661,11.093,16.317,0.800081,5,-15.3512,-13.601,1.27779,0.905721,-0.177616,93,99,100,100,95,7,100,100,100,100,100,0
-0.0753464,10,-0.332843,-1.20776,-14.6066,27.5227,-12.93,0.332843,-0.332843,-1.20776,-14.2442,27.5227,-13.2923,0.332843,5.05469,12.7644,-9.3262,7.2978,-0.067515,-7.21845,-2.38684,11.0935,16.3164,0.79963,5,-15.3511,-13.6016,1.27749,0.905822,-0.177601,93,99,100,100,95,7,100,100,100,100,100,0
-0.0756933,10,-0.332815,-1.2079,-14.6066,27.5227,-12.93,0.332815,-0.332815,-1.2079,-14.2442,27.5227,-13.2923,0.332815,5.05454,12.7642,-9.32565,7.29806,-0.0678407,-7.21835,-2.38706,11.094,16.3159,0.799161,5,-15.3511,-13.6022,1.2772,0.905924,-0.177586,93,99,100,100,95,7,100,100,100,100,100,0
-0.0760368,10,-0.332787,-1.20803,-14.6066,27.5227,-12.9299,0.332787,-0.332787,-1.20803,-14.2442,27.5227,-13.2923,0.332787,5.05439,12.764,-9.32511,7.29832,-0.0681591,-7.21826,-2.38729,11.0946,16.3154,0.798693,5,-15.3511,-13.6027,1.27691,0.906024,-0.177571,93,99,100,100,95,7,100,100,100,100,100,0
-0.0763776,10,-0.33276,-1.20816,-14.6067,27.5227,-12.9299,0.33276,-0.33276,-1.20816,-14.2442,27.5227,-13.2923,0.33276,5.05425,12.7638,-9.32456,7.29858,-0.068474,-7.21817,-2.38751,11.0951,16.315,0.798221,5,-15.351,-13.6033,1.27662,0.906123,-0.177556,93,99,100,100,95,7,100,100,100,100,100,0
-0.0767163,10,-0.332733,-1.20829,-14.6067,27.5227,-12.9299,0.332733,-0.332733,-1.20829,-14.2442,27.5227,-13.2923,0.332733,5.0541,12.7636,-9.32401,7.29884,-0.0687887,-7.21808,-2.38773,11.0956,16.3145,0.79774,5,-15.351,-13.6038,1.27635,0.906221,-0.177541,93,99,100,100,95,7,100,100,100,100,100,0
-0.0770534,10,-0.332705,-1.20843,-14.6068,27.5227,-12.9298,0.332705,-0.332705,-1.20843,-14.2442,27.5227,-13.2923,0.332705,5.05395,12.7635,-9.32346,7.2991,-0.0691063,-7.21798,-2.38795,11.0961,16.314,0.797244,5,-15.3509,-13.6044,1.27608,0.906319,-0.177526,93,99,100,100,95,7,100,100,100,100,100,0
-0.0773893,10,-0.332677,-1.20856,-14.6068,27.5227,-12.9298,0.332677,-0.332677,-1.20856,-14.2442,27.5227,-13.2924,0.332677,5.0538,12.7633,-9.3229,7.29936,-0.0694294,-7.21788,-2.38818,11.0966,16.3135,0.796731,5,-15.3508,-13.6049,1.27582,0.906417,-0.177511,93,99,100,100,95,7,100,100,100,100,100,0
-0.0777242,10,-0.332648,-1.20869,-14.6068,27.5227,-12.9298,0.332648,-0.332648,-1.20869,-14.2442,27.5227,-13.2924,0.332648,5.05364,12.7631,-9.32232,7.29961,-0.0697603,-7.21777,-2.3884,11.0971,16.313,0.796197,5,-15.3507,-13.6054,1.27557,0.906516,-0.177495,93,99,100,100,95,7,100,100,100,100,100,0
-0.0780584,10,-0.332618,-1.20882,-14.6057,27.5219,-12.9295,0.332618,-0.332618,-1.20882,-14.2431,27.5219,-13.2921,0.332618,5.05348,12.7629,-9.32174,7.29987,-0.070101,-7.21764,-2.38863,11.0976,16.3125,0.79564,5,-15.3505,-13.606,1.27533,0.906615,-0.177479,93,99,100,100,95,7,100,100,100,100,100,0
-0.0783945,10,-0.332587,-1.20895,-14.6057,27.5219,-12.9294,0.332587,-0.332587,-1.20895,-14.243,27.5219,-13.2921,0.332587,5.05331,12.7627,-9.32114,7.30013,-0.0704541,-7.2175,-2.38887,11.0981,16.3119,0.795053,5,-15.3503,-13.6065,1.2751,0.906716,-0.177463,93,99,100,100,95,7,100,100,100,100,100,0
-0.0787314,10,-0.332555,-1.20909,-14.6058,27.5219,-12.9294,0.332555,-0.332555,-1.20909,-14.243,27.5219,-13.2921,0.332555,5.05314,12.7625,-9.32053,7.30038,-0.0708205,-7.21734,-2.38911,11.0986,16.3114,0.794437,5,-15.35,-13.607,1.27488,0.906818,-0.177445,93,99,100,100,95,7,100,100,100,100,100,0
-0.0790678,10,-0.332522,-1.20923,-14.6058,27.5219,-12.9294,0.332522,-0.332522,-1.20923,-14.243,27.5219,-13.2921,0.332522,5.05296,12.7623,-9.31991,7.30064,-0.0712008,-7.21717,-2.38936,11.0991,16.3108,0.793792,5,-15.3497,-13.6076,1.27467,0.906922,-0.177428,93,99,100,100,95,7,100,100,100,100,100,0
-0.0794028,10,-0.332488,-1.20937,-14.6058,27.5219,-12.9293,0.332488,-0.332488,-1.20937,-14.243,27.5219,-13.2921,0.332488,5.05277,12.7621,-9.31928,7.30089,-0.0715955,-7.21697,-2.38961,11.0996,16.3103,0.793117,5,-15.3493,-13.6081,1.27448,0.907026,-0.177409,93,99,100,100,95,7,100,100,100,100,100,0
-0.0797355,10,-0.332453,-1.20951,-14.6059,27.5219,-12.9293,0.332453,-0.332453,-1.20951,-14.243,27.5219,-13.2922,0.332453,5.05258,12.7619,-9.31863,7.30114,-0.0720048,-7.21677,-2.38986,11.1001,16.3097,0.792413,5,-15.3488,-13.6087,1.27429,0.907132,-0.17739,93,99,100,100,95,7,100,100,100,100,100,0
-0.0800652,10,-0.332417,-1.20965,-14.6059,27.5219,-12.9293,0.332417,-0.332417,-1.20965,-14.243,27.5219,-13.2922,0.332417,5.05238,12.7617,-9.31798,7.30138,-0.0724287,-7.21654,-2.39012,11.1006,16.3091,0.791681,5,-15.3484,-13.6092,1.2741,0.907239,-0.177371,93,99,100,100,95,7,100,100,100,100,100,0
-0.0803913,10,-0.332381,-1.2098,-14.6057,27.5217,-12.9292,0.332381,-0.332381,-1.2098,-14.2428,27.5217,-13.2921,0.332381,5.05218,12.7615,-9.31732,7.30162,-0.0728669,-7.2163,-2.39038,11.1012,16.3085,0.790922,5,-15.3478,-13.6097,1.27392,0.907347,-0.177351,93,99,100,100,95,7,100,100,100,100,100,0
-0.0807117,10,-0.332343,-1.20994,-14.6057,27.5217,-12.9291,0.332343,-0.332343,-1.20994,-14.2427,27.5217,-13.2921,0.332343,5.05197,12.7613,-9.31666,7.30185,-0.0733206,-7.21605,-2.39063,11.1017,16.3079,0.790135,5,-15.3472,-13.6103,1.27375,0.907455,-0.177331,93,99,100,100,95,7,100,100,100,100,100,0
-0.081027,10,-0.332305,-1.21009,-14.6058,27.5217,-12.9291,0.332305,-0.332305,-1.21009,-14.2427,27.5217,-13.2921,0.332305,5.05176,12.7611,-9.31599,7.30207,-0.0737887,-7.21577,-2.39089,11.1022,16.3073,0.789323,5,-15.3466,-13.6108,1.27358,0.907565,-0.17731,93,99,100,100,95,7,100,100,100,100,100,0
-0.0813376,10,-0.332266,-1.21023,-14.6058,27.5217,-12.9291,0.332266,-0.332266,-1.21023,-14.2427,27.5217,-13.2922,0.332266,5.05154,12.7609,-9.31531,7.30228,-0.0742699,-7.21549,-2.39115,11.1027,16.3067,0.788485,5,-15.3459,-13.6114,1.27341,0.907676,-0.177289,93,99,100,100,95,7,100,100,100,100,100,0
-0.0816441,10,-0.332227,-1.21038,-14.6058,27.5217,-12.929,0.332227,-0.332227,-1.21038,-14.2427,27.5217,-13.2922,0.332227,5.05131,12.7607,-9.31463,7.30249,-0.0747628,-7.21519,-2.3914,11.1032,16.3061,0.787623,5,-15.3451,-13.6119,1.27325,0.907788,-0.177268,93,99,100,100,95,7,100,100,100,100,100,0
-0.081947,10,-0.332187,-1.21054,-14.6059,27.5217,-12.929,0.332187,-0.332187,-1.21054,-14.2427,27.5217,-13.2922,0.332187,5.05107,12.7606,-9.31395,7.30269,-0.0752662,-7.21488,-2.39166,11.1038,16.3055,0.78674,5,-15.3443,-13.6124,1.27309,0.907901,-0.177247,93,99,100,100,95,7,100,100,100,100,100,0
-0.0822466,10,-0.332147,-1.21069,-14.6059,27.5217,-12.929,0.332147,-0.332147,-1.21069,-14.2427,27.5217,-13.2922,0.332147,5.05083,12.7604,-9.31327,7.30288,-0.0757786,-7.21456,-2.39191,11.1043,16.3049,0.785835,5,-15.3435,-13.6129,1.27294,0.908016,-0.177225,93,99,100,100,95,7,100,100,100,100,100,0
-0.0825433,10,-0.332106,-1.21084,-14.6059,27.5217,-12.9289,0.332106,-0.332106,-1.21084,-14.2427,27.5217,-13.2922,0.332106,5.05059,12.7602,-9.31259,7.30307,-0.0762986,-7.21423,-2.39217,11.1048,16.3042,0.784911,5,-15.3426,-13.6134,1.27279,0.908132,-0.177203,93,99,100,100,95,7,100,100,100,100,100,0
-0.0828363,10,-0.332066,-1.211,-14.606,27.5217,-12.9289,0.332066,-0.332066,-1.211,-14.2427,27.5217,-13.2922,0.332066,5.05034,12.76,-9.3119,7.30325,-0.0768282,-7.2139,-2.39242,11.1053,16.3036,0.783966,5,-15.3417,-13.6139,1.27264,0.908248,-0.177181,93,99,100,100,95,7,100,100,100,100,100,0
-0.0831266,10,-0.332025,-1.21115,-14.606,27.5217,-12.9289,0.332025,-0.332025,-1.21115,-14.2427,27.5217,-13.2922,0.332025,5.05009,12.7598,-9.31121,7.30343,-0.0773643,-7.21355,-2.39268,11.1058,16.303,0.783003,5,-15.3408,-13.6144,1.27249,0.908364,-0.177159,93,99,100,100,95,7,100,100,100,100,100,0
-0.083415,10,-0.331984,-1.21131,-14.606,27.5217,-12.9288,0.331984,-0.331984,-1.21131,-14.2426,27.5217,-13.2922,0.331984,5.04983,12.7596,-9.31052,7.3036,-0.0779041,-7.21321,-2.39293,11.1064,16.3024,0.782026,5,-15.3398,-13.6149,1.27235,0.908482,-0.177137,93,99,100,100,95,7,100,100,100,100,100,0
-0.0837023,10,-0.331944,-1.21147,-14.6061,27.5217,-12.9288,0.331944,-0.331944,-1.21147,-14.2426,27.5217,-13.2922,0.331944,5.04956,12.7595,-9.30984,7.30377,-0.078445,-7.21285,-2.39318,11.1069,16.3018,0.781038,5,-15.3388,-13.6153,1.27222,0.908603,-0.177115,93,99,100,100,95,7,100,100,100,100,100,0
-0.0839891,10,-0.331902,-1.21163,-14.6061,27.5217,-12.9288,0.331902,-0.331902,-1.21163,-14.2426,27.5217,-13.2923,0.331902,5.04928,12.7593,-9.30917,7.30393,-0.0789847,-7.2125,-2.39343,11.1075,16.3012,0.780042,5,-15.3378,-13.6158,1.2721,0.908726,-0.177093,93,99,100,100,95,7,100,100,100,100,100,0
-0.0842759,10,-0.331861,-1.2118,-14.6061,27.5217,-12.9287,0.331861,-0.331861,-1.2118,-14.2426,27.5217,-13.2923,0.331861,5.04898,12.7591,-9.3085,7.30408,-0.0795211,-7.21214,-2.39368,11.108,16.3005,0.779041,5,-15.3368,-13.6162,1.27199,0.908853,-0.177071,93,99,100,100,95,7,100,100,100,100,100,0
-0.0845629,10,-0.331819,-1.21198,-14.6062,27.5218,-12.9287,0.331819,-0.331819,-1.21198,-14.2426,27.5218,-13.2923,0.331819,5.04867,12.759,-9.30785,7.30423,-0.0800524,-7.21178,-2.39392,11.1086,16.2999,0.778038,5,-15.3358,-13.6166,1.27188,0.908983,-0.177048,93,99,100,100,95,7,100,100,100,100,100,0
-0.0848523,10,-0.331777,-1.21216,-14.6062,27.5218,-12.9287,0.331777,-0.331777,-1.21216,-14.2426,27.5218,-13.2923,0.331777,5.04834,12.7588,-9.30721,7.30438,-0.0805714,-7.21142,-2.39417,11.1091,16.2993,0.777036,5,-15.3347,-13.617,1.2718,0.909119,-0.177025,93,99,100,100,95,7,100,100,100,100,100,0
-0.0851433,10,-0.331734,-1.21235,-14.6063,27.5218,-12.9286,0.331734,-0.331734,-1.21235,-14.2426,27.5218,-13.2923,0.331734,5.04798,12.7587,-9.30658,7.30452,-0.0810797,-7.21106,-2.39441,11.1097,16.2988,0.776037,5,-15.3337,-13.6174,1.27173,0.90926,-0.177002,93,99,100,100,95,7,100,100,100,100,100,0
-0.0854352,10,-0.331691,-1.21254,-14.6063,27.5218,-12.9286,0.331691,-0.331691,-1.21254,-14.2426,27.5218,-13.2924,0.331691,5.0476,12.7586,-9.30597,7.30465,-0.0815784,-7.21071,-2.39465,11.1103,16.2982,0.775043,5,-15.3327,-13.6178,1.27167,0.909405,-0.176979,93,99,100,100,95,7,100,100,100,100,100,0
-0.0857272,10,-0.331647,-1.21274,-14.6064,27.5218,-12.9286,0.331647,-0.331647,-1.21274,-14.2425,27.5218,-13.2924,0.331647,5.04722,12.7585,-9.30538,7.30477,-0.0820685,-7.21035,-2.39489,11.1109,16.2976,0.774054,5,-15.3317,-13.6182,1.27162,0.909554,-0.176955,93,99,100,100,95,7,100,100,100,100,100,0
-0.0860187,10,-0.331604,-1.21294,-14.6064,27.5218,-12.9285,0.331604,-0.331604,-1.21294,-14.2425,27.5218,-13.2924,0.331604,5.04682,12.7584,-9.3048,7.30489,-0.0825505,-7.21,-2.39512,11.1115,16.297,0.773071,5,-15.3307,-13.6185,1.27159,0.909704,-0.176932,93,99,100,100,95,7,100,100,100,100,100,0
-0.0863091,10,-0.331561,-1.21314,-14.6064,27.5218,-12.9285,0.331561,-0.331561,-1.21314,-14.2425,27.5218,-13.2924,0.331561,5.04641,12.7583,-9.30423,7.30501,-0.0830249,-7.20965,-2.39535,11.1121,16.2965,0.772097,5,-15.3297,-13.6188,1.27156,0.909856,-0.176909,93,99,100,100,95,7,100,100,100,100,100,0
-0.0865978,10,-0.331518,-1.21335,-14.6067,27.5219,-12.9285,0.331518,-0.331518,-1.21335,-14.2427,27.5219,-13.2925,0.331518,5.046,12.7582,-9.30368,7.30512,-0.0834918,-7.20931,-2.39558,11.1127,16.2959,0.771131,5,-15.3287,-13.6192,1.27154,0.91001,-0.176885,93,99,100,100,95,7,100,100,100,100,100,0
-0.0868862,10,-0.331475,-1.21355,-14.6067,27.5219,-12.9284,0.331475,-0.331475,-1.21355,-14.2426,27.5219,-13.2925,0.331475,5.04559,12.7581,-9.30313,7.30523,-0.0839536,-7.20897,-2.3958,11.1133,16.2954,0.770181,5,-15.3277,-13.6195,1.27153,0.910162,-0.176862,93,99,100,100,95,7,100,100,100,100,100,0
-0.0871729,10,-0.331433,-1.21375,-14.6067,27.5219,-12.9284,0.331433,-0.331433,-1.21375,-14.2426,27.5219,-13.2925,0.331433,5.04518,12.7581,-9.3026,7.30533,-0.0844088,-7.20864,-2.39602,11.1139,16.2948,0.769245,5,-15.3267,-13.6198,1.27152,0.910315,-0.17684,93,99,100,100,95,7,100,100,100,100,100,0
-0.0874568,10,-0.331391,-1.21396,-14.6068,27.5219,-12.9284,0.331391,-0.331391,-1.21396,-14.2426,27.5219,-13.2926,0.331391,5.04476,12.758,-9.30208,7.30543,-0.0848556,-7.20832,-2.39623,11.1145,16.2943,0.768323,5,-15.3257,-13.6201,1.27152,0.910467,-0.176817,93,99,100,100,95,7,100,100,100,100,100,0
-0.0877371,10,-0.33135,-1.21416,-14.6068,27.5219,-12.9283,0.33135,-0.33135,-1.21416,-14.2426,27.5219,-13.2926,0.33135,5.04435,12.7579,-9.30158,7.30552,-0.0852924,-7.208,-2.39644,11.1151,16.2938,0.767413,5,-15.3248,-13.6203,1.27153,0.91062,-0.176795,93,99,100,100,95,7,100,100,100,100,100,0
-0.0880131,10,-0.331309,-1.21436,-14.6069,27.5219,-12.9283,0.331309,-0.331309,-1.21436,-14.2425,27.5219,-13.2926,0.331309,5.04393,12.7579,-9.30108,7.30561,-0.0857175,-7.20769,-2.39665,11.1157,16.2933,0.766515,5,-15.3239,-13.6206,1.27154,0.910772,-0.176773,93,99,100,100,95,7,100,100,100,100,100,0
-0.0882844,10,-0.331268,-1.21457,-14.6069,27.5219,-12.9283,0.331268,-0.331268,-1.21457,-14.2425,27.5219,-13.2926,0.331268,5.04351,12.7578,-9.30061,7.3057,-0.0861293,-7.20738,-2.39685,11.1163,16.2928,0.765631,5,-15.3229,-13.6209,1.27156,0.910924,-0.176751,93,99,100,100,95,7,100,100,100,100,100,0
-0.0885505,10,-0.331228,-1.21477,-14.607,27.5219,-12.9282,0.331228,-0.331228,-1.21477,-14.2425,27.5219,-13.2927,0.331228,5.04308,12.7578,-9.30014,7.30578,-0.0865262,-7.20707,-2.39705,11.1169,16.2924,0.764761,5,-15.3221,-13.6211,1.27159,0.911076,-0.176729,93,99,100,100,95,7,100,100,100,100,100,0
-0.08881,10,-0.331188,-1.21497,-14.607,27.5219,-12.9282,0.331188,-0.331188,-1.21497,-14.2425,27.5219,-13.2927,0.331188,5.04264,12.7577,-9.29969,7.30586,-0.0869118,-7.20676,-2.39725,11.1175,16.2919,0.763899,5,-15.3212,-13.6214,1.27162,0.911228,-0.176708,93,99,100,100,95,7,100,100,100,100,100,0
-0.0890636,10,-0.331149,-1.21517,-14.607,27.5219,-12.9282,0.331149,-0.331149,-1.21517,-14.2425,27.5219,-13.2927,0.331149,5.0422,12.7577,-9.29925,7.30594,-0.0872819,-7.20644,-2.39745,11.1181,16.2914,0.763049,5,-15.3203,-13.6216,1.27165,0.91138,-0.176686,93,99,100,100,95,7,100,100,100,100,100,0
-0.089312,10,-0.33111,-1.21538,-14.6071,27.5219,-12.9281,0.33111,-0.33111,-1.21538,-14.2424,27.5219,-13.2927,0.33111,5.04176,12.7577,-9.29883,7.30602,-0.0876327,-7.20613,-2.39764,11.1186,16.291,0.762217,5,-15.3195,-13.6218,1.27169,0.911532,-0.176665,93,99,100,100,95,7,100,100,100,100,100,0
-0.0895559,10,-0.331071,-1.21558,-14.6071,27.5219,-12.9281,0.331071,-0.331071,-1.21558,-14.2424,27.5219,-13.2928,0.331071,5.0413,12.7577,-9.29843,7.3061,-0.0879611,-7.20582,-2.39783,11.1192,16.2905,0.761407,5,-15.3187,-13.622,1.27174,0.911685,-0.176644,93,99,100,100,95,7,100,100,100,100,100,0
-0.0897964,10,-0.331033,-1.21579,-14.6071,27.5219,-12.928,0.331033,-0.331033,-1.21579,-14.2424,27.5219,-13.2928,0.331033,5.04083,12.7576,-9.29805,7.30617,-0.0882641,-7.20551,-2.39802,11.1198,16.2901,0.760625,5,-15.318,-13.6222,1.27178,0.911839,-0.176624,93,99,100,100,95,7,100,100,100,100,100,0
-0.090034,10,-0.330994,-1.21599,-14.6072,27.5219,-12.928,0.330994,-0.330994,-1.21599,-14.2424,27.5219,-13.2928,0.330994,5.04035,12.7576,-9.29769,7.30623,-0.0885395,-7.20521,-2.3982,11.1203,16.2897,0.759873,5,-15.3173,-13.6224,1.27184,0.911995,-0.176603,93,99,100,100,95,7,100,100,100,100,100,0
-0.0902698,10,-0.330955,-1.2162,-14.6079,27.5224,-12.9281,0.330955,-0.330955,-1.2162,-14.2431,27.5224,-13.293,0.330955,5.03985,12.7576,-9.29736,7.3063,-0.0887855,-7.20491,-2.39838,11.1209,16.2893,0.759156,5,-15.3166,-13.6225,1.27189,0.912151,-0.176582,93,99,100,100,95,7,100,100,100,100,100,0
-0.0905026,10,-0.330916,-1.21641,-14.608,27.5224,-12.9281,0.330916,-0.330916,-1.21641,-14.243,27.5224,-13.293,0.330916,5.03934,12.7576,-9.29706,7.30635,-0.0889969,-7.20461,-2.39856,11.1214,16.2888,0.758478,5,-15.316,-13.6227,1.27195,0.91231,-0.176561,93,99,100,100,95,7,100,100,100,100,100,0
-0.0907344,10,-0.330877,-1.21663,-14.608,27.5224,-12.9281,0.330877,-0.330877,-1.21663,-14.243,27.5224,-13.2931,0.330877,5.0388,12.7576,-9.29679,7.3064,-0.0891746,-7.20432,-2.39873,11.1219,16.2884,0.757841,5,-15.3154,-13.6229,1.27201,0.912471,-0.17654,93,99,100,100,95,7,100,100,100,100,100,0
-0.0909668,10,-0.330837,-1.21684,-14.608,27.5224,-12.928,0.330837,-0.330837,-1.21684,-14.243,27.5224,-13.2931,0.330837,5.03826,12.7576,-9.29655,7.30645,-0.0893191,-7.20403,-2.39891,11.1225,16.288,0.757249,5,-15.3149,-13.623,1.27207,0.912633,-0.176518,93,99,100,100,95,7,100,100,100,100,100,0
-0.0912016,10,-0.330798,-1.21706,-14.6081,27.5224,-12.928,0.330798,-0.330798,-1.21706,-14.2429,27.5224,-13.2931,0.330798,5.03769,12.7576,-9.29633,7.30649,-0.0894314,-7.20375,-2.39908,11.123,16.2876,0.756702,5,-15.3144,-13.6232,1.27214,0.912798,-0.176497,93,99,100,100,95,7,100,100,100,100,100,0
-0.09144,10,-0.330758,-1.21728,-14.6081,27.5224,-12.928,0.330758,-0.330758,-1.21728,-14.2429,27.5224,-13.2932,0.330758,5.03711,12.7577,-9.29614,7.30652,-0.0895123,-7.20347,-2.39924,11.1235,16.2872,0.756203,5,-15.314,-13.6233,1.2722,0.912963,-0.176475,93,99,100,100,95,7,100,100,100,100,100,0
-0.0916835,10,-0.330718,-1.21751,-14.6081,27.5224,-12.9279,0.330718,-0.330718,-1.21751,-14.2429,27.5224,-13.2932,0.330718,5.03651,12.7577,-9.29597,7.30655,-0.0895628,-7.20321,-2.39941,11.124,16.2867,0.755754,5,-15.3136,-13.6234,1.27227,0.913131,-0.176454,93,99,100,100,95,7,100,100,100,100,100,0
-0.091933,10,-0.330677,-1.21773,-14.6082,27.5224,-12.9279,0.330677,-0.330677,-1.21773,-14.2428,27.5224,-13.2932,0.330677,5.03589,12.7577,-9.29582,7.30658,-0.0895841,-7.20294,-2.39957,11.1246,16.2863,0.755357,5,-15.3133,-13.6235,1.27233,0.913299,-0.176432,93,99,100,100,95,7,100,100,100,100,100,0
-0.0921877,10,-0.330637,-1.21796,-14.6082,27.5224,-12.9279,0.330637,-0.330637,-1.21796,-14.2428,27.5224,-13.2933,0.330637,5.03526,12.7577,-9.2957,7.3066,-0.0895764,-7.20269,-2.39973,11.1251,16.2859,0.755004,5,-15.313,-13.6236,1.2724,0.913469,-0.17641,93,99,100,100,95,7,100,100,100,100,100,0
-0.0924494,10,-0.330597,-1.21819,-14.6082,27.5224,-12.9279,0.330597,-0.330597,-1.21819,-14.2428,27.5224,-13.2933,0.330597,5.03462,12.7578,-9.2956,7.30662,-0.0895413,-7.20245,-2.39988,11.1255,16.2855,0.754701,5,-15.3128,-13.6238,1.27246,0.913639,-0.176389,93,99,100,100,95,7,100,100,100,100,100,0
-0.0927197,10,-0.330557,-1.21841,-14.6082,27.5224,-12.9278,0.330557,-0.330557,-1.21841,-14.2427,27.5224,-13.2934,0.330557,5.03396,12.7578,-9.29551,7.30663,-0.0894802,-7.20221,-2.40003,11.126,16.2851,0.754452,5,-15.3126,-13.6239,1.27253,0.91381,-0.176367,93,99,100,100,95,7,100,100,100,100,100,0
-0.093,10,-0.330517,-1.21864,-14.6083,27.5224,-12.9278,0.330517,-0.330517,-1.21864,-14.2427,27.5224,-13.2934,0.330517,5.03328,12.7578,-9.29544,7.30664,-0.0893947,-7.20197,-2.40018,11.1265,16.2847,0.75426,5,-15.3124,-13.624,1.2726,0.913983,-0.176345,93,99,100,100,95,7,100,100,100,100,100,0
-0.0932913,10,-0.330476,-1.21887,-14.6083,27.5224,-12.9278,0.330476,-0.330476,-1.21887,-14.2426,27.5224,-13.2934,0.330476,5.03259,12.7579,-9.29538,7.30664,-0.0892864,-7.20175,-2.40033,11.127,16.2843,0.754128,5,-15.3123,-13.6241,1.27266,0.914156,-0.176323,93,99,100,100,95,7,100,100,100,100,100,0
-0.0935942,10,-0.330434,-1.21911,-14.6083,27.5224,-12.9278,0.330434,-0.330434,-1.21911,-14.2426,27.5224,-13.2935,0.330434,5.03188,12.7579,-9.29532,7.30663,-0.0891569,-7.20152,-2.40047,11.1274,16.2839,0.754058,5,-15.3123,-13.6242,1.27273,0.91433,-0.176301,93,99,100,100,95,7,100,100,100,100,100,0
-0.093909,10,-0.330392,-1.21934,-14.6083,27.5224,-12.9277,0.330392,-0.330392,-1.21934,-14.2425,27.5224,-13.2935,0.330392,5.03116,12.7579,-9.29527,7.30661,-0.0890077,-7.2013,-2.40062,11.1279,16.2835,0.754049,5,-15.3123,-13.6242,1.27279,0.914506,-0.176278,93,99,100,100,95,7,100,100,100,100,100,0
-0.0942406,10,-0.330348,-1.21958,-14.6084,27.5224,-12.9277,0.330348,-0.330348,-1.21958,-14.2425,27.5224,-13.2936,0.330348,5.03041,12.758,-9.2952,7.30657,-0.0888456,-7.20108,-2.40076,11.1283,16.2831,0.754124,5,-15.3123,-13.6243,1.27286,0.914684,-0.176254,93,99,100,100,95,7,100,100,100,100,100,0
-0.0945865,10,-0.330303,-1.21982,-14.6084,27.5224,-12.9277,0.330303,-0.330303,-1.21982,-14.2424,27.5224,-13.2936,0.330303,5.02964,12.758,-9.29511,7.30653,-0.0886696,-7.20087,-2.40091,11.1287,16.2826,0.75427,5,-15.3124,-13.6244,1.27293,0.914863,-0.17623,93,99,100,100,95,7,100,100,100,100,100,0
-0.0949446,10,-0.330257,-1.22006,-14.6084,27.5224,-12.9277,0.330257,-0.330257,-1.22006,-14.2424,27.5224,-13.2937,0.330257,5.02886,12.7581,-9.29502,7.30647,-0.0884788,-7.20065,-2.40106,11.1292,16.2822,0.754479,5,-15.3125,-13.6244,1.273,0.915044,-0.176205,93,99,100,100,95,7,100,100,100,100,100,0
-0.0953131,10,-0.330211,-1.2203,-14.6084,27.5224,-12.9276,0.330211,-0.330211,-1.2203,-14.2423,27.5224,-13.2937,0.330211,5.02808,12.7582,-9.29493,7.3064,-0.0882731,-7.20044,-2.4012,11.1296,16.2818,0.75474,5,-15.3126,-13.6245,1.27306,0.915224,-0.17618,93,99,100,100,95,7,100,100,100,100,100,0
-0.09569,10,-0.330164,-1.22054,-14.6085,27.5224,-12.9276,0.330164,-0.330164,-1.22054,-14.2423,27.5224,-13.2938,0.330164,5.02729,12.7582,-9.29484,7.30633,-0.0880529,-7.20023,-2.40135,11.13,16.2813,0.755048,5,-15.3128,-13.6245,1.27313,0.915404,-0.176155,93,99,100,100,95,7,100,100,100,100,100,0
-0.0960736,10,-0.330118,-1.22078,-14.6085,27.5224,-12.9276,0.330118,-0.330118,-1.22078,-14.2422,27.5224,-13.2938,0.330118,5.0265,12.7583,-9.29477,7.30625,-0.0878187,-7.20002,-2.40149,11.1304,16.2809,0.755394,5,-15.313,-13.6245,1.27319,0.915582,-0.17613,93,99,100,100,95,7,100,100,100,100,100,0
-0.0964622,10,-0.330073,-1.22101,-14.6091,27.5229,-12.9277,0.330073,-0.330073,-1.22101,-14.2428,27.5229,-13.294,0.330073,5.02572,12.7583,-9.29469,7.30617,-0.0875719,-7.19982,-2.40163,11.1308,16.2804,0.755773,5,-15.3132,-13.6246,1.27325,0.915758,-0.176106,93,99,100,100,95,7,100,100,100,100,100,0
-0.0968585,10,-0.330031,-1.22124,-14.6091,27.5229,-12.9277,0.330031,-0.330031,-1.22124,-14.2427,27.5229,-13.2941,0.330031,5.02495,12.7584,-9.29467,7.30609,-0.087298,-7.19961,-2.40176,11.1312,16.28,0.756161,5,-15.3135,-13.6246,1.2733,0.91593,-0.176083,93,99,100,100,95,7,100,100,100,100,100,0
-0.0972592,10,-0.329991,-1.22146,-14.6091,27.5229,-12.9277,0.329991,-0.329991,-1.22146,-14.2427,27.5229,-13.2941,0.329991,5.02421,12.7584,-9.29467,7.30601,-0.0870068,-7.19942,-2.40188,11.1315,16.2796,0.756563,5,-15.3137,-13.6246,1.27334,0.916097,-0.176061,93,99,100,100,95,7,100,100,100,100,100,0
-0.0976617,10,-0.329951,-1.22168,-14.6092,27.5229,-12.9277,0.329951,-0.329951,-1.22168,-14.2426,27.5229,-13.2942,0.329951,5.02347,12.7585,-9.29469,7.30593,-0.0867071,-7.19922,-2.40201,11.1319,16.2793,0.756986,5,-15.314,-13.6247,1.27338,0.916262,-0.17604,93,99,100,100,95,7,100,100,100,100,100,0
-0.0980635,10,-0.329912,-1.2219,-14.6092,27.5229,-12.9276,0.329912,-0.329912,-1.2219,-14.2426,27.5229,-13.2942,0.329912,5.02273,12.7585,-9.29469,7.30585,-0.0864064,-7.19903,-2.40213,11.1322,16.2789,0.757433,5,-15.3143,-13.6247,1.27342,0.916426,-0.176019,93,99,100,100,95,7,100,100,100,100,100,0
-0.098463,10,-0.329871,-1.22212,-14.6092,27.5229,-12.9276,0.329871,-0.329871,-1.22212,-14.2425,27.5229,-13.2943,0.329871,5.02199,12.7586,-9.29468,7.30576,-0.0861114,-7.19885,-2.40225,11.1326,16.2785,0.757909,5,-15.3146,-13.6248,1.27346,0.916589,-0.175997,93,99,100,100,95,7,100,100,100,100,100,0
-0.0988587,10,-0.329829,-1.22234,-14.6092,27.5229,-12.9276,0.329829,-0.329829,-1.22234,-14.2425,27.5229,-13.2943,0.329829,5.02125,12.7586,-9.29463,7.30566,-0.0858278,-7.19866,-2.40238,11.1329,16.2781,0.758416,5,-15.315,-13.6248,1.27351,0.916752,-0.175974,93,99,100,100,95,7,100,100,100,100,100,0
-0.0992497,10,-0.329785,-1.22255,-14.6089,27.5227,-12.9275,0.329785,-0.329785,-1.22255,-14.2422,27.5227,-13.2943,0.329785,5.02049,12.7587,-9.29455,7.30555,-0.0855602,-7.19848,-2.4025,11.1333,16.2777,0.758956,5,-15.3153,-13.6248,1.27356,0.916916,-0.17595,93,99,100,100,95,7,100,100,100,100,100,0
-0.0996246,10,-0.329736,-1.22278,-14.609,27.5227,-12.9275,0.329736,-0.329736,-1.22278,-14.2421,27.5227,-13.2944,0.329736,5.0197,12.7587,-9.29438,7.30542,-0.0853296,-7.1983,-2.40264,11.1336,16.2772,0.759545,5,-15.3156,-13.6248,1.27364,0.917083,-0.175924,93,99,100,100,95,7,100,100,100,100,100,0
-0.0999886,10,-0.329683,-1.22301,-14.609,27.5227,-12.9275,0.329683,-0.329683,-1.22301,-14.2421,27.5227,-13.2944,0.329683,5.01889,12.7588,-9.29414,7.30528,-0.0851306,-7.19813,-2.40279,11.1339,16.2767,0.760175,5,-15.3159,-13.6247,1.27372,0.917254,-0.175895,93,99,100,100,95,7,100,100,100,100,100,0
-0.100346,10,-0.329627,-1.22324,-14.609,27.5227,-12.9275,0.329627,-0.329627,-1.22324,-14.242,27.5227,-13.2945,0.329627,5.01806,12.759,-9.29384,7.30512,-0.0849584,-7.19796,-2.40293,11.1342,16.2762,0.760842,5,-15.3162,-13.6247,1.27382,0.917427,-0.175865,93,99,100,100,95,7,100,100,100,100,100,0
-0.100702,10,-0.329568,-1.22347,-14.609,27.5227,-12.9275,0.329568,-0.329568,-1.22347,-14.242,27.5227,-13.2945,0.329568,5.01722,12.7591,-9.29349,7.30496,-0.0848087,-7.1978,-2.40309,11.1346,16.2757,0.761538,5,-15.3165,-13.6246,1.27393,0.9176,-0.175833,93,99,100,100,95,7,100,100,100,100,100,0
-0.101059,10,-0.329507,-1.2237,-14.609,27.5227,-12.9275,0.329507,-0.329507,-1.2237,-14.2419,27.5227,-13.2946,0.329507,5.01636,12.7592,-9.2931,7.30478,-0.0846782,-7.19763,-2.40324,11.1349,16.2752,0.76226,5,-15.3168,-13.6245,1.27405,0.917775,-0.1758,93,99,100,100,95,7,100,100,100,100,100,0
-0.10142,10,-0.329444,-1.22393,-14.609,27.5227,-12.9275,0.329444,-0.329444,-1.22393,-14.2418,27.5227,-13.2946,0.329444,5.0155,12.7593,-9.29268,7.30459,-0.0845642,-7.19747,-2.4034,11.1352,16.2746,0.763002,5,-15.3171,-13.6244,1.27417,0.917949,-0.175766,93,99,100,100,95,7,100,100,100,100,100,0
-0.101787,10,-0.32938,-1.22416,-14.609,27.5227,-12.9274,0.32938,-0.32938,-1.22416,-14.2418,27.5227,-13.2947,0.32938,5.01464,12.7595,-9.29222,7.3044,-0.0844643,-7.19731,-2.40356,11.1355,16.2741,0.763761,5,-15.3173,-13.6243,1.2743,0.918123,-0.175732,93,99,100,100,95,7,100,100,100,100,100,0
-0.102173,10,-0.329317,-1.22439,-14.609,27.5227,-12.9274,0.329317,-0.329317,-1.22439,-14.2417,27.5227,-13.2947,0.329317,5.01378,12.7596,-9.29176,7.3042,-0.084365,-7.19714,-2.40371,11.1357,16.2735,0.764524,5,-15.3176,-13.6241,1.27443,0.918294,-0.175697,93,99,100,100,95,7,100,100,100,100,100,0
-0.102575,10,-0.329253,-1.22462,-14.6091,27.5227,-12.9274,0.329253,-0.329253,-1.22462,-14.2417,27.5227,-13.2948,0.329253,5.01293,12.7597,-9.29129,7.304,-0.0842713,-7.19698,-2.40386,11.136,16.273,0.765292,5,-15.3179,-13.624,1.27456,0.918464,-0.175663,93,99,100,100,95,7,100,100,100,100,100,0
-0.102988,10,-0.329189,-1.22484,-14.6091,27.5227,-12.9274,0.329189,-0.329189,-1.22484,-14.2416,27.5227,-13.2949,0.329189,5.01208,12.7598,-9.2908,7.3038,-0.0841879,-7.19682,-2.40401,11.1363,16.2724,0.766067,5,-15.3182,-13.6238,1.27469,0.918632,-0.175629,93,99,100,100,95,7,100,100,100,100,100,0
-0.103409,10,-0.329124,-1.22507,-14.6091,27.5227,-12.9274,0.329124,-0.329124,-1.22507,-14.2416,27.5227,-13.2949,0.329124,5.01124,12.76,-9.29029,7.30359,-0.0841188,-7.19666,-2.40416,11.1366,16.2718,0.766849,5,-15.3185,-13.6237,1.27483,0.918799,-0.175594,93,99,100,100,95,7,100,100,100,100,100,0
-0.103836,10,-0.329058,-1.22529,-14.6091,27.5227,-12.9274,0.329058,-0.329058,-1.22529,-14.2415,27.5227,-13.295,0.329058,5.01039,12.7601,-9.28975,7.30338,-0.0840674,-7.1965,-2.40431,11.1368,16.2713,0.767639,5,-15.3187,-13.6235,1.27497,0.918965,-0.175558,93,99,100,100,95,7,100,100,100,100,100,0
-0.104267,10,-0.328991,-1.22551,-14.6091,27.5227,-12.9274,0.328991,-0.328991,-1.22551,-14.2414,27.5227,-13.295,0.328991,5.00955,12.7603,-9.28918,7.30316,-0.0840369,-7.19636,-2.40447,11.1371,16.2707,0.768436,5,-15.319,-13.6233,1.27512,0.919131,-0.175522,93,99,100,100,95,7,100,100,100,100,100,0
-0.1047,10,-0.328923,-1.22573,-14.6078,27.5217,-12.9271,0.328923,-0.328923,-1.22573,-14.24,27.5217,-13.2948,0.328923,5.0087,12.7604,-9.28857,7.30294,-0.0840296,-7.19622,-2.40463,11.1373,16.2701,0.76924,5,-15.3192,-13.6232,1.27527,0.919296,-0.175485,93,99,100,100,95,7,100,100,100,100,100,0
-0.105125,10,-0.328852,-1.22595,-14.6078,27.5217,-12.9271,0.328852,-0.328852,-1.22595,-14.24,27.5217,-13.2949,0.328852,5.00785,12.7606,-9.28793,7.30273,-0.084051,-7.1961,-2.4048,11.1376,16.2695,0.770053,5,-15.3194,-13.623,1.27544,0.919461,-0.175447,93,99,100,100,95,7,100,100,100,100,100,0
-0.105546,10,-0.328779,-1.22617,-14.6078,27.5217,-12.9271,0.328779,-0.328779,-1.22617,-14.2399,27.5217,-13.2949,0.328779,5.007,12.7608,-9.28724,7.30251,-0.084101,-7.19599,-2.40498,11.1378,16.2689,0.770873,5,-15.3196,-13.6228,1.27561,0.919626,-0.175407,93,99,100,100,95,7,100,100,100,100,100,0
-0.105965,10,-0.328704,-1.22639,-14.6078,27.5217,-12.9271,0.328704,-0.328704,-1.22639,-14.2399,27.5217,-13.295,0.328704,5.00615,12.761,-9.28651,7.30228,-0.0841796,-7.19588,-2.40516,11.1381,16.2683,0.771699,5,-15.3198,-13.6226,1.27579,0.919791,-0.175367,93,99,100,100,95,7,100,100,100,100,100,0
-0.106386,10,-0.328627,-1.22661,-14.6078,27.5217,-12.927,0.328627,-0.328627,-1.22661,-14.2398,27.5217,-13.295,0.328627,5.0053,12.7612,-9.28575,7.30206,-0.0842865,-7.19579,-2.40535,11.1383,16.2677,0.772527,5,-15.32,-13.6225,1.27598,0.919956,-0.175326,93,99,100,100,95,7,100,100,100,100,100,0
-0.106811,10,-0.328549,-1.22683,-14.6078,27.5217,-12.927,0.328549,-0.328549,-1.22683,-14.2398,27.5217,-13.2951,0.328549,5.00445,12.7614,-9.28496,7.30184,-0.0844212,-7.19571,-2.40555,11.1386,16.2671,0.773357,5,-15.3201,-13.6223,1.27618,0.920121,-0.175283,93,99,100,100,95,7,100,100,100,100,100,0
-0.10724,10,-0.328469,-1.22705,-14.6078,27.5217,-12.927,0.328469,-0.328469,-1.22705,-14.2397,27.5217,-13.2951,0.328469,5.0036,12.7617,-9.28413,7.30161,-0.0845832,-7.19563,-2.40575,11.1388,16.2665,0.774185,5,-15.3202,-13.6222,1.27639,0.920286,-0.17524,93,99,100,100,95,7,100,100,100,100,100,0
-0.107677,10,-0.328387,-1.22727,-14.6082,27.522,-12.9271,0.328387,-0.328387,-1.22727,-14.2401,27.522,-13.2953,0.328387,5.00276,12.762,-9.28328,7.30139,-0.0847717,-7.19557,-2.40596,11.1391,16.2659,0.775011,5,-15.3204,-13.622,1.27661,0.920452,-0.175196,93,99,100,100,95,7,100,100,100,100,100,0
-0.108125,10,-0.328304,-1.22749,-14.6083,27.522,-12.9271,0.328304,-0.328304,-1.22749,-14.24,27.522,-13.2953,0.328304,5.00192,12.7623,-9.28241,7.30116,-0.0849864,-7.1955,-2.40617,11.1394,16.2653,0.775832,5,-15.3204,-13.6219,1.27683,0.920617,-0.175151,93,99,100,100,95,7,100,100,100,100,100,0
-0.108583,10,-0.32822,-1.22771,-14.6083,27.522,-12.9271,0.32822,-0.32822,-1.22771,-14.2399,27.522,-13.2954,0.32822,5.00109,12.7626,-9.28151,7.30093,-0.0852262,-7.19545,-2.40639,11.1396,16.2647,0.776647,5,-15.3205,-13.6218,1.27705,0.920783,-0.175106,93,99,100,100,95,7,100,100,100,100,100,0
-0.109052,10,-0.328134,-1.22793,-14.6083,27.522,-12.9271,0.328134,-0.328134,-1.22793,-14.2399,27.522,-13.2955,0.328134,5.00026,12.7629,-9.2806,7.3007,-0.0854901,-7.19539,-2.40661,11.1399,16.2641,0.777452,5,-15.3206,-13.6217,1.27729,0.920948,-0.175059,93,99,100,100,95,7,100,100,100,100,100,0
-0.109531,10,-0.328046,-1.22815,-14.6083,27.522,-12.9271,0.328046,-0.328046,-1.22815,-14.2398,27.522,-13.2955,0.328046,4.99944,12.7632,-9.27967,7.30046,-0.0857767,-7.19534,-2.40683,11.1402,16.2635,0.778247,5,-15.3206,-13.6216,1.27753,0.921114,-0.175012,93,99,100,100,95,7,100,100,100,100,100,0
-0.11002,10,-0.327958,-1.22837,-14.6083,27.522,-12.927,0.327958,-0.327958,-1.22837,-14.2398,27.522,-13.2956,0.327958,4.99863,12.7636,-9.27872,7.30023,-0.0860848,-7.1953,-2.40705,11.1405,16.2628,0.779028,5,-15.3206,-13.6215,1.27777,0.921279,-0.174964,93,99,100,100,95,7,100,100,100,100,100,0
-0.110517,10,-0.327868,-1.22859,-14.6083,27.522,-12.927,0.327868,-0.327868,-1.22859,-14.2397,27.522,-13.2956,0.327868,4.99783,12.7639,-9.27776,7.3,-0.086413,-7.19525,-2.40728,11.1408,16.2622,0.779793,5,-15.3206,-13.6215,1.27802,0.921445,-0.174916,93,99,100,100,95,7,100,100,100,100,100,0
-0.111023,10,-0.327777,-1.22881,-14.6077,27.5215,-12.9269,0.327777,-0.327777,-1.22881,-14.239,27.5215,-13.2955,0.327777,4.99704,12.7643,-9.2768,7.29976,-0.0867597,-7.1952,-2.4075,11.1411,16.2616,0.780541,5,-15.3206,-13.6214,1.27827,0.92161,-0.174867,93,99,100,100,95,7,100,100,100,100,100,0
-0.111537,10,-0.327685,-1.22903,-14.6077,27.5215,-12.9269,0.327685,-0.327685,-1.22903,-14.239,27.5215,-13.2956,0.327685,4.99626,12.7647,-9.27582,7.29953,-0.0871243,-7.19515,-2.40773,11.1414,16.261,0.781274,5,-15.3206,-13.6214,1.27852,0.921774,-0.174817,93,99,100,100,95,7,100,100,100,100,100,0
-0.112059,10,-0.327593,-1.22925,-14.6077,27.5215,-12.9269,0.327593,-0.327593,-1.22925,-14.2389,27.5215,-13.2956,0.327593,4.9955,12.7651,-9.27485,7.29929,-0.0875049,-7.1951,-2.40795,11.1418,16.2605,0.781989,5,-15.3205,-13.6214,1.27878,0.921938,-0.174767,93,99,100,100,95,7,100,100,100,100,100,0
-0.112588,10,-0.327499,-1.22947,-14.6077,27.5215,-12.9268,0.327499,-0.327499,-1.22947,-14.2389,27.5215,-13.2957,0.327499,4.99474,12.7655,-9.27386,7.29906,-0.0878994,-7.19505,-2.40817,11.1421,16.2599,0.782681,5,-15.3204,-13.6215,1.27904,0.922102,-0.174717,93,99,100,100,95,7,100,100,100,100,100,0
-0.113123,10,-0.327404,-1.22969,-14.6077,27.5215,-12.9268,0.327404,-0.327404,-1.22969,-14.2388,27.5215,-13.2957,0.327404,4.99399,12.766,-9.27288,7.29882,-0.088306,-7.195,-2.40838,11.1424,16.2593,0.783347,5,-15.3203,-13.6215,1.2793,0.922265,-0.174666,93,99,100,100,95,7,100,100,100,100,100,0
-0.113664,10,-0.327307,-1.2299,-14.6077,27.5215,-12.9268,0.327307,-0.327307,-1.2299,-14.2388,27.5215,-13.2958,0.327307,4.99326,12.7664,-9.27191,7.29859,-0.0887225,-7.19494,-2.40859,11.1428,16.2587,0.783984,5,-15.3202,-13.6215,1.27955,0.922428,-0.174613,93,99,100,100,95,7,100,100,100,100,100,0
-0.114209,10,-0.327209,-1.23012,-14.6078,27.5215,-12.9268,0.327209,-0.327209,-1.23012,-14.2387,27.5215,-13.2958,0.327209,4.99254,12.7669,-9.27093,7.29835,-0.0891471,-7.19487,-2.4088,11.1431,16.2581,0.78459,5,-15.3201,-13.6216,1.2798,0.922591,-0.17456,93,99,100,100,95,7,100,100,100,100,100,0
-0.114759,10,-0.327108,-1.23034,-14.6083,27.5219,-12.9269,0.327108,-0.327108,-1.23034,-14.2392,27.5219,-13.296,0.327108,4.99183,12.7674,-9.26997,7.2981,-0.0895776,-7.19481,-2.409,11.1435,16.2575,0.785163,5,-15.32,-13.6217,1.28005,0.922753,-0.174506,93,99,100,100,95,7,100,100,100,100,100,0
-0.115313,10,-0.327004,-1.23055,-14.6083,27.5219,-12.9269,0.327004,-0.327004,-1.23055,-14.2392,27.5219,-13.296,0.327004,4.99113,12.7679,-9.26901,7.29786,-0.0900174,-7.19473,-2.4092,11.1439,16.2569,0.785698,5,-15.3199,-13.6218,1.2803,0.922915,-0.17445,93,99,100,100,95,7,100,100,100,100,100,0
-0.115869,10,-0.326898,-1.23077,-14.6084,27.5219,-12.9268,0.326898,-0.326898,-1.23077,-14.2391,27.5219,-13.2961,0.326898,4.99044,12.7685,-9.26806,7.29762,-0.090462,-7.19465,-2.40939,11.1443,16.2563,0.786195,5,-15.3197,-13.6219,1.28054,0.923077,-0.174393,93,99,100,100,95,7,100,100,100,100,100,0
-0.116427,10,-0.32679,-1.23098,-14.6084,27.5219,-12.9268,0.32679,-0.32679,-1.23098,-14.2391,27.5219,-13.2961,0.32679,4.98976,12.7691,-9.26712,7.29737,-0.0909074,-7.19456,-2.40958,11.1447,16.2558,0.786655,5,-15.3196,-13.6221,1.28078,0.923238,-0.174334,93,99,100,100,95,7,100,100,100,100,100,0
-0.116987,10,-0.326679,-1.2312,-14.6084,27.5219,-12.9268,0.326679,-0.326679,-1.2312,-14.239,27.5219,-13.2962,0.326679,4.9891,12.7697,-9.2662,7.29711,-0.0913499,-7.19447,-2.40977,11.1451,16.2552,0.78708,5,-15.3194,-13.6222,1.281,0.923398,-0.174274,93,99,100,100,95,7,100,100,100,100,100,0
-0.117548,10,-0.326566,-1.23141,-14.6084,27.5219,-12.9268,0.326566,-0.326566,-1.23141,-14.239,27.5219,-13.2962,0.326566,4.98844,12.7703,-9.26529,7.29686,-0.0917864,-7.19438,-2.40995,11.1455,16.2546,0.787471,5,-15.3193,-13.6224,1.28122,0.923558,-0.174214,93,99,100,100,95,7,100,100,100,100,100,0
-0.11811,10,-0.326452,-1.23162,-14.6084,27.5219,-12.9267,0.326452,-0.326452,-1.23162,-14.239,27.5219,-13.2962,0.326452,4.9878,12.771,-9.26441,7.29659,-0.0922143,-7.19428,-2.41013,11.1459,16.254,0.787828,5,-15.3192,-13.6226,1.28143,0.923717,-0.174152,93,99,100,100,95,7,100,100,100,100,100,0
-0.118672,10,-0.326336,-1.23183,-14.6091,27.5223,-12.9269,0.326336,-0.326336,-1.23183,-14.2395,27.5223,-13.2964,0.326336,4.98718,12.7716,-9.26355,7.29632,-0.0926312,-7.19418,-2.4103,11.1463,16.2534,0.788153,5,-15.319,-13.6228,1.28162,0.923874,-0.174089,93,99,100,100,95,7,100,100,100,100,100,0
-0.119234,10,-0.326217,-1.23204,-14.6091,27.5223,-12.9268,0.326217,-0.326217,-1.23204,-14.2395,27.5223,-13.2964,0.326217,4.98656,12.7723,-9.26272,7.29604,-0.093026,-7.19409,-2.41047,11.1468,16.2528,0.788444,5,-15.3189,-13.623,1.28181,0.92403,-0.174025,93,99,100,100,95,7,100,100,100,100,100,0
-0.119796,10,-0.326097,-1.23225,-14.6091,27.5223,-12.9268,0.326097,-0.326097,-1.23225,-14.2394,27.5223,-13.2965,0.326097,4.98597,12.773,-9.26192,7.29574,-0.0934019,-7.19399,-2.41065,11.1472,16.2522,0.788704,5,-15.3188,-13.6232,1.28198,0.924186,-0.17396,93,99,100,100,95,7,100,100,100,100,100,0
-0.120357,10,-0.325975,-1.23245,-14.6091,27.5223,-12.9268,0.325975,-0.325975,-1.23245,-14.2394,27.5223,-13.2965,0.325975,4.98538,12.7737,-9.26114,7.29544,-0.0937616,-7.19389,-2.41082,11.1476,16.2516,0.788935,5,-15.3188,-13.6234,1.28213,0.924339,-0.173895,93,99,100,100,95,7,100,100,100,100,100,0
-0.120914,10,-0.325853,-1.23266,-14.6092,27.5223,-12.9268,0.325853,-0.325853,-1.23266,-14.2394,27.5223,-13.2966,0.325853,4.98481,12.7744,-9.26039,7.29513,-0.0941071,-7.1938,-2.41098,11.1481,16.251,0.789141,5,-15.3187,-13.6237,1.28228,0.924491,-0.173829,93,99,100,100,95,7,100,100,100,100,100,0
-0.121467,10,-0.32573,-1.23286,-14.6092,27.5223,-12.9267,0.32573,-0.32573,-1.23286,-14.2393,27.5223,-13.2966,0.32573,4.98425,12.7752,-9.25967,7.29482,-0.0944404,-7.19371,-2.41115,11.1485,16.2504,0.789323,5,-15.3187,-13.6239,1.28242,0.924641,-0.173763,93,99,100,100,95,7,100,100,100,100,100,0
-0.122015,10,-0.325608,-1.23305,-14.6092,27.5223,-12.9267,0.325608,-0.325608,-1.23305,-14.2393,27.5223,-13.2966,0.325608,4.98371,12.7759,-9.25896,7.29451,-0.0947628,-7.19361,-2.4113,11.149,16.2498,0.789484,5,-15.3187,-13.6242,1.28255,0.92479,-0.173696,93,99,100,100,95,7,100,100,100,100,100,0
-0.122557,10,-0.325485,-1.23325,-14.6089,27.5221,-12.9266,0.325485,-0.325485,-1.23325,-14.2389,27.5221,-13.2966,0.325485,4.98317,12.7766,-9.25827,7.2942,-0.0950751,-7.19352,-2.41146,11.1494,16.2492,0.789626,5,-15.3187,-13.6244,1.28267,0.924936,-0.17363,93,99,100,100,95,7,100,100,100,100,100,0
-0.123091,10,-0.325364,-1.23344,-14.6089,27.5221,-12.9266,0.325364,-0.325364,-1.23344,-14.2389,27.5221,-13.2966,0.325364,4.98265,12.7774,-9.2576,7.2939,-0.0953865,-7.19342,-2.41161,11.1499,16.2486,0.789754,5,-15.3186,-13.6246,1.28278,0.92508,-0.173565,93,99,100,100,95,7,100,100,100,100,100,0
-0.123616,10,-0.325244,-1.23363,-14.6089,27.5221,-12.9265,0.325244,-0.325244,-1.23363,-14.2388,27.5221,-13.2966,0.325244,4.98214,12.7781,-9.25694,7.29361,-0.0956928,-7.19333,-2.41175,11.1503,16.2481,0.789867,5,-15.3186,-13.6249,1.2829,0.925221,-0.1735,93,99,100,100,95,7,100,100,100,100,100,0
-0.124133,10,-0.325124,-1.23381,-14.6089,27.5221,-12.9265,0.325124,-0.325124,-1.23381,-14.2388,27.5221,-13.2967,0.325124,4.98165,12.7788,-9.2563,7.29332,-0.0959904,-7.19323,-2.41189,11.1507,16.2475,0.789966,5,-15.3186,-13.6251,1.283,0.925361,-0.173436,93,99,100,100,95,7,100,100,100,100,100,0
-0.124642,10,-0.325006,-1.234,-14.609,27.5221,-12.9265,0.325006,-0.325006,-1.234,-14.2388,27.5221,-13.2967,0.325006,4.98117,12.7795,-9.25568,7.29302,-0.0962761,-7.19314,-2.41203,11.1511,16.247,0.79005,5,-15.3186,-13.6253,1.2831,0.925497,-0.173372,93,99,100,100,95,7,100,100,100,100,100,0
-0.125143,10,-0.324888,-1.23418,-14.609,27.5221,-12.9265,0.324888,-0.324888,-1.23418,-14.2387,27.5221,-13.2967,0.324888,4.9807,12.7802,-9.25509,7.29273,-0.0965469,-7.19305,-2.41216,11.1516,16.2464,0.79012,5,-15.3186,-13.6256,1.28319,0.925632,-0.173308,93,99,100,100,95,7,100,100,100,100,100,0
-0.125636,10,-0.324772,-1.23435,-14.609,27.5221,-12.9264,0.324772,-0.324772,-1.23435,-14.2387,27.5221,-13.2968,0.324772,4.98024,12.7809,-9.25452,7.29243,-0.0968004,-7.19297,-2.4123,11.152,16.2459,0.790176,5,-15.3186,-13.6258,1.28327,0.925763,-0.173246,93,99,100,100,95,7,100,100,100,100,100,0
-0.12612,10,-0.324656,-1.23452,-14.6095,27.5224,-12.9265,0.324656,-0.324656,-1.23452,-14.2391,27.5224,-13.2969,0.324656,4.97979,12.7816,-9.25397,7.29212,-0.0970345,-7.19288,-2.41243,11.1524,16.2453,0.790219,5,-15.3187,-13.6261,1.28335,0.925892,-0.173183,93,99,100,100,95,7,100,100,100,100,100,0
-0.126597,10,-0.324542,-1.23469,-14.6095,27.5224,-12.9265,0.324542,-0.324542,-1.23469,-14.2391,27.5224,-13.2969,0.324542,4.97936,12.7823,-9.25345,7.29181,-0.0972444,-7.1928,-2.41257,11.1528,16.2448,0.790245,5,-15.3187,-13.6263,1.28341,0.926019,-0.173121,93,99,100,100,95,7,100,100,100,100,100,0
-0.127066,10,-0.324428,-1.23486,-14.6095,27.5224,-12.9265,0.324428,-0.324428,-1.23486,-14.2391,27.5224,-13.2969,0.324428,4.97894,12.783,-9.25296,7.29148,-0.09743,-7.19273,-2.41271,11.1532,16.2442,0.790256,5,-15.3188,-13.6266,1.28346,0.926142,-0.17306,93,99,100,100,95,7,100,100,100,100,100,0
-0.127526,10,-0.324315,-1.23502,-14.6096,27.5224,-12.9264,0.324315,-0.324315,-1.23502,-14.2391,27.5224,-13.297,0.324315,4.97854,12.7837,-9.2525,7.29115,-0.0975915,-7.19266,-2.41285,11.1536,16.2437,0.790255,5,-15.319,-13.6269,1.28351,0.926263,-0.172999,93,99,100,100,95,7,100,100,100,100,100,0
-0.127976,10,-0.324203,-1.23518,-14.6096,27.5224,-12.9264,0.324203,-0.324203,-1.23518,-14.239,27.5224,-13.297,0.324203,4.97815,12.7844,-9.25207,7.2908,-0.0977288,-7.19259,-2.413,11.154,16.2432,0.790244,5,-15.3191,-13.6272,1.28354,0.926381,-0.172939,93,99,100,100,95,7,100,100,100,100,100,0
-0.128416,10,-0.324091,-1.23533,-14.6096,27.5224,-12.9264,0.324091,-0.324091,-1.23533,-14.239,27.5224,-13.297,0.324091,4.97776,12.7851,-9.25166,7.29044,-0.0978421,-7.19253,-2.41314,11.1544,16.2426,0.790222,5,-15.3193,-13.6275,1.28357,0.926497,-0.172879,93,99,100,100,95,7,100,100,100,100,100,0
-0.128844,10,-0.323981,-1.23548,-14.6096,27.5224,-12.9264,0.323981,-0.323981,-1.23548,-14.239,27.5224,-13.297,0.323981,4.97739,12.7857,-9.25129,7.29007,-0.0979315,-7.19248,-2.41329,11.1548,16.2421,0.790192,5,-15.3195,-13.6277,1.28358,0.926609,-0.172819,93,99,100,100,95,7,100,100,100,100,100,0
-0.129261,10,-0.323871,-1.23563,-14.6099,27.5226,-12.9264,0.323871,-0.323871,-1.23563,-14.2392,27.5226,-13.2971,0.323871,4.97704,12.7864,-9.25094,7.28968,-0.0979975,-7.19242,-2.41344,11.1552,16.2416,0.790155,5,-15.3197,-13.628,1.28359,0.926719,-0.17276,93,99,100,100,95,7,100,100,100,100,100,0
-0.129662,10,-0.323762,-1.23577,-14.61,27.5226,-12.9264,0.323762,-0.323762,-1.23577,-14.2392,27.5226,-13.2971,0.323762,4.97668,12.787,-9.25061,7.28928,-0.0980404,-7.19237,-2.4136,11.1555,16.241,0.790113,5,-15.3199,-13.6283,1.28359,0.926826,-0.172701,93,99,100,100,95,7,100,100,100,100,100,0
-0.130048,10,-0.323654,-1.23591,-14.61,27.5226,-12.9264,0.323654,-0.323654,-1.23591,-14.2392,27.5226,-13.2971,0.323654,4.97634,12.7877,-9.25032,7.28887,-0.0980604,-7.19232,-2.41375,11.1559,16.2405,0.790065,5,-15.3202,-13.6286,1.28358,0.926929,-0.172643,93,99,100,100,95,7,100,100,100,100,100,0
-0.130421,10,-0.323547,-1.23604,-14.61,27.5226,-12.9264,0.323547,-0.323547,-1.23604,-14.2392,27.5226,-13.2972,0.323547,4.97601,12.7883,-9.25004,7.28845,-0.0980578,-7.19228,-2.41391,11.1562,16.24,0.790013,5,-15.3204,-13.6289,1.28357,0.92703,-0.172585,93,99,100,100,95,7,100,100,100,100,100,0
-0.130781,10,-0.32344,-1.23617,-14.61,27.5226,-12.9263,0.32344,-0.32344,-1.23617,-14.2392,27.5226,-13.2972,0.32344,4.97569,12.7889,-9.2498,7.28801,-0.0980329,-7.19223,-2.41407,11.1565,16.2394,0.789956,5,-15.3207,-13.6292,1.28354,0.927128,-0.172527,93,99,100,100,95,7,100,100,100,100,100,0
-0.131129,10,-0.323334,-1.2363,-14.61,27.5226,-12.9263,0.323334,-0.323334,-1.2363,-14.2391,27.5226,-13.2972,0.323334,4.97537,12.7895,-9.24958,7.28756,-0.0979862,-7.19219,-2.41423,11.1569,16.2389,0.789894,5,-15.321,-13.6295,1.28351,0.927223,-0.17247,93,99,100,100,95,7,100,100,100,100,100,0
-0.131464,10,-0.323229,-1.23642,-14.6101,27.5226,-12.9263,0.323229,-0.323229,-1.23642,-14.2391,27.5226,-13.2972,0.323229,4.97507,12.7901,-9.24938,7.2871,-0.0979181,-7.19216,-2.41439,11.1572,16.2384,0.789828,5,-15.3213,-13.6298,1.28347,0.927315,-0.172414,93,99,100,100,95,7,100,100,100,100,100,0
-0.131788,10,-0.323125,-1.23654,-14.6101,27.5226,-12.9263,0.323125,-0.323125,-1.23654,-14.2391,27.5226,-13.2972,0.323125,4.97477,12.7907,-9.2492,7.28662,-0.0978294,-7.19212,-2.41455,11.1575,16.2378,0.789757,5,-15.3216,-13.6301,1.28343,0.927404,-0.172358,93,99,100,100,95,7,100,100,100,100,100,0
-0.132108,10,-0.323021,-1.23665,-14.6101,27.5226,-12.9263,0.323021,-0.323021,-1.23665,-14.2391,27.5226,-13.2973,0.323021,4.97449,12.7913,-9.24905,7.28614,-0.0977186,-7.1921,-2.41472,11.1578,16.2373,0.789682,5,-15.3219,-13.6304,1.28338,0.927491,-0.172302,93,99,100,100,95,7,100,100,100,100,100,0
-0.132419,10,-0.322918,-1.23677,-14.6101,27.5226,-12.9262,0.322918,-0.322918,-1.23677,-14.2391,27.5226,-13.2973,0.322918,4.97421,12.7919,-9.24893,7.28564,-0.0975874,-7.19207,-2.41489,11.158,16.2368,0.789604,5,-15.3222,-13.6307,1.28332,0.927574,-0.172246,93,99,100,100,95,7,100,100,100,100,100,0
-0.132719,10,-0.322816,-1.23687,-14.6101,27.5226,-12.9262,0.322816,-0.322816,-1.23687,-14.2391,27.5226,-13.2973,0.322816,4.97394,12.7924,-9.24882,7.28513,-0.0974371,-7.19205,-2.41505,11.1583,16.2363,0.789521,5,-15.3225,-13.631,1.28326,0.927654,-0.172191,93,99,100,100,95,7,100,100,100,100,100,0
-0.133003,10,-0.322715,-1.23698,-14.6101,27.5226,-12.9262,0.322715,-0.322715,-1.23698,-14.239,27.5226,-13.2973,0.322715,4.97368,12.793,-9.24873,7.28461,-0.097269,-7.19203,-2.41522,11.1586,16.2357,0.789432,5,-15.3228,-13.6312,1.28319,0.927732,-0.172137,93,99,100,100,95,7,100,100,100,100,100,0
-0.133268,10,-0.322616,-1.23708,-14.6102,27.5226,-12.9262,0.322616,-0.322616,-1.23708,-14.239,27.5226,-13.2973,0.322616,4.97341,12.7935,-9.24865,7.28408,-0.0970843,-7.19201,-2.41539,11.1588,16.2352,0.789338,5,-15.3231,-13.6315,1.28312,0.927807,-0.172083,93,99,100,100,95,7,100,100,100,100,100,0
-0.133513,10,-0.322518,-1.23717,-14.6102,27.5226,-12.9262,0.322518,-0.322518,-1.23717,-14.239,27.5226,-13.2973,0.322518,4.97315,12.7941,-9.24859,7.28353,-0.0968841,-7.192,-2.41556,11.159,16.2347,0.789237,5,-15.3233,-13.6318,1.28305,0.927879,-0.17203,93,99,100,100,95,7,100,100,100,100,100,0
-0.133736,10,-0.322421,-1.23726,-14.61,27.5225,-12.9261,0.322421,-0.322421,-1.23726,-14.2389,27.5225,-13.2973,0.322421,4.97288,12.7946,-9.24853,7.28297,-0.0966695,-7.19199,-2.41572,11.1592,16.2342,0.78913,5,-15.3236,-13.632,1.28297,0.927948,-0.171978,93,99,100,100,95,7,100,100,100,100,100,0
-0.133927,10,-0.322327,-1.23735,-14.61,27.5225,-12.9261,0.322327,-0.322327,-1.23735,-14.2388,27.5225,-13.2973,0.322327,4.97261,12.7951,-9.24849,7.2824,-0.0964442,-7.19197,-2.41589,11.1594,16.2337,0.789017,5,-15.3238,-13.6322,1.28289,0.928015,-0.171927,93,99,100,100,95,7,100,100,100,100,100,0
-0.134089,10,-0.322234,-1.23744,-14.61,27.5225,-12.9261,0.322234,-0.322234,-1.23744,-14.2388,27.5225,-13.2974,0.322234,4.97233,12.7956,-9.24845,7.28182,-0.0962075,-7.19196,-2.41605,11.1595,16.2332,0.788897,5,-15.324,-13.6324,1.28281,0.928079,-0.171877,93,99,100,100,95,7,100,100,100,100,100,0
-0.134225,10,-0.322143,-1.23752,-14.6101,27.5225,-12.9261,0.322143,-0.322143,-1.23752,-14.2388,27.5225,-13.2974,0.322143,4.97205,12.7961,-9.24841,7.28122,-0.0959591,-7.19196,-2.41621,11.1596,16.2327,0.78877,5,-15.3241,-13.6326,1.28273,0.92814,-0.171828,93,99,100,100,95,7,100,100,100,100,100,0
-0.134339,10,-0.322055,-1.2376,-14.6101,27.5225,-12.9261,0.322055,-0.322055,-1.2376,-14.2388,27.5225,-13.2974,0.322055,4.97175,12.7966,-9.24839,7.28062,-0.0956986,-7.19195,-2.41636,11.1597,16.2322,0.788636,5,-15.3242,-13.6328,1.28265,0.9282,-0.17178,93,99,100,100,95,7,100,100,100,100,100,0
-0.134432,10,-0.321968,-1.23768,-14.6101,27.5225,-12.9261,0.321968,-0.321968,-1.23768,-14.2388,27.5225,-13.2974,0.321968,4.97144,12.7971,-9.24837,7.28001,-0.0954261,-7.19195,-2.41652,11.1598,16.2317,0.788495,5,-15.3243,-13.633,1.28256,0.928257,-0.171734,93,99,100,100,95,7,100,100,100,100,100,0
-0.134506,10,-0.321884,-1.23775,-14.6101,27.5225,-12.9261,0.321884,-0.321884,-1.23775,-14.2387,27.5225,-13.2974,0.321884,4.97112,12.7975,-9.24835,7.27939,-0.0951415,-7.19196,-2.41667,11.1599,16.2313,0.788346,5,-15.3244,-13.6331,1.28248,0.928313,-0.171688,93,99,100,100,95,7,100,100,100,100,100,0
-0.134564,10,-0.321802,-1.23782,-14.61,27.5224,-12.9261,0.321802,-0.321802,-1.23782,-14.2386,27.5224,-13.2974,0.321802,4.97079,12.7979,-9.24834,7.27877,-0.0948453,-7.19198,-2.41681,11.1599,16.2308,0.788192,5,-15.3245,-13.6332,1.2824,0.928367,-0.171644,93,99,100,100,95,7,100,100,100,100,100,0
-0.13461,10,-0.321723,-1.23789,-14.61,27.5224,-12.9261,0.321723,-0.321723,-1.23789,-14.2386,27.5224,-13.2975,0.321723,4.97042,12.7984,-9.24834,7.27814,-0.0945315,-7.19201,-2.41696,11.1599,16.2304,0.78803,5,-15.3245,-13.6333,1.28232,0.928421,-0.171601,93,99,100,100,95,7,100,100,100,100,100,0
-0.134642,10,-0.321646,-1.23796,-14.61,27.5224,-12.9261,0.321646,-0.321646,-1.23796,-14.2386,27.5224,-13.2975,0.321646,4.97004,12.7988,-9.24834,7.27752,-0.0942037,-7.19205,-2.41711,11.1599,16.23,0.787862,5,-15.3245,-13.6334,1.28224,0.928474,-0.17156,93,99,100,100,95,7,100,100,100,100,100,0
-0.134663,10,-0.321571,-1.23803,-14.6099,27.5224,-12.9261,0.321571,-0.321571,-1.23803,-14.2385,27.5224,-13.2975,0.321571,4.96963,12.7991,-9.24835,7.27689,-0.093865,-7.1921,-2.41725,11.1598,16.2295,0.787689,5,-15.3244,-13.6334,1.28216,0.928525,-0.17152,93,99,100,100,95,7,100,100,100,100,100,0
-0.13467,10,-0.321499,-1.2381,-14.6099,27.5224,-12.9261,0.321499,-0.321499,-1.2381,-14.2385,27.5224,-13.2976,0.321499,4.96922,12.7995,-9.24837,7.27627,-0.0935182,-7.19216,-2.41739,11.1597,16.2291,0.78751,5,-15.3244,-13.6334,1.28208,0.928576,-0.171481,93,99,100,100,95,7,100,100,100,100,100,0
-0.134666,10,-0.321429,-1.23817,-14.6099,27.5224,-12.9261,0.321429,-0.321429,-1.23817,-14.2385,27.5224,-13.2976,0.321429,4.96879,12.7999,-9.24839,7.27564,-0.0931656,-7.19222,-2.41752,11.1596,16.2287,0.787326,5,-15.3243,-13.6334,1.28201,0.928626,-0.171443,93,99,100,100,95,7,100,100,100,100,100,0
-0.134649,10,-0.321362,-1.23823,-14.6099,27.5224,-12.9261,0.321362,-0.321362,-1.23823,-14.2384,27.5224,-13.2976,0.321362,4.96836,12.8002,-9.24841,7.27503,-0.0928092,-7.19229,-2.41765,11.1595,16.2284,0.787137,5,-15.3242,-13.6334,1.28194,0.928674,-0.171407,93,99,100,100,95,7,100,100,100,100,100,0
-0.134619,10,-0.321296,-1.23829,-14.6095,27.5221,-12.9261,0.321296,-0.321296,-1.23829,-14.238,27.5221,-13.2976,0.321296,4.96793,12.8006,-9.24843,7.27441,-0.0924506,-7.19236,-2.41778,11.1594,16.228,0.786945,5,-15.3242,-13.6334,1.28186,0.92872,-0.171371,93,99,100,100,95,7,100,100,100,100,100,0
-0.134582,10,-0.321233,-1.23835,-14.6095,27.5221,-12.9261,0.321233,-0.321233,-1.23835,-14.238,27.5221,-13.2976,0.321233,4.96751,12.8009,-9.24846,7.2738,-0.0920976,-7.19243,-2.41791,11.1593,16.2276,0.786749,5,-15.324,-13.6334,1.28179,0.928765,-0.171337,93,99,100,100,95,7,100,100,100,100,100,0
-0.134535,10,-0.321172,-1.23841,-14.6095,27.5221,-12.9261,0.321172,-0.321172,-1.23841,-14.238,27.5221,-13.2976,0.321172,4.96709,12.8012,-9.24849,7.2732,-0.0917477,-7.1925,-2.41803,11.1591,16.2273,0.78655,5,-15.3239,-13.6333,1.28173,0.928808,-0.171305,93,99,100,100,95,7,100,100,100,100,100,0
-0.134475,10,-0.321113,-1.23847,-14.6095,27.5221,-12.9261,0.321113,-0.321113,-1.23847,-14.2379,27.5221,-13.2977,0.321113,4.96667,12.8015,-9.24852,7.27261,-0.0913987,-7.19258,-2.41815,11.159,16.2269,0.786349,5,-15.3238,-13.6333,1.28166,0.92885,-0.171273,93,99,100,100,95,7,100,100,100,100,100,0
-0.134399,10,-0.321056,-1.23852,-14.6095,27.5221,-12.9261,0.321056,-0.321056,-1.23852,-14.2379,27.5221,-13.2977,0.321056,4.96624,12.8017,-9.24856,7.27202,-0.0910488,-7.19265,-2.41826,11.1589,16.2266,0.786149,5,-15.3237,-13.6332,1.28159,0.928891,-0.171242,93,99,100,100,95,7,100,100,100,100,100,0
-0.134307,10,-0.321001,-1.23858,-14.6094,27.5221,-12.9261,0.321001,-0.321001,-1.23858,-14.2379,27.5221,-13.2977,0.321001,4.96582,12.802,-9.2486,7.27144,-0.0906962,-7.19273,-2.41837,11.1587,16.2263,0.78595,5,-15.3235,-13.6332,1.28153,0.928932,-0.171212,93,99,100,100,95,7,100,100,100,100,100,0
-0.134197,10,-0.320947,-1.23863,-14.6094,27.5221,-12.9262,0.320947,-0.320947,-1.23863,-14.2378,27.5221,-13.2977,0.320947,4.96538,12.8023,-9.24863,7.27087,-0.0903394,-7.19282,-2.41849,11.1585,16.2259,0.785752,5,-15.3234,-13.6331,1.28147,0.928972,-0.171183,93,99,100,100,95,7,100,100,100,100,100,0
-0.134068,10,-0.320894,-1.23868,-14.6089,27.5218,-12.9261,0.320894,-0.320894,-1.23868,-14.2373,27.5218,-13.2977,0.320894,4.96493,12.8025,-9.24867,7.27031,-0.0899775,-7.19292,-2.41859,11.1583,16.2256,0.785558,5,-15.3232,-13.633,1.28141,0.929011,-0.171155,93,99,100,100,95,7,100,100,100,100,100,0
-0.13391,10,-0.320843,-1.23874,-14.6089,27.5218,-12.9261,0.320843,-0.320843,-1.23874,-14.2372,27.5218,-13.2977,0.320843,4.96446,12.8028,-9.24871,7.26975,-0.0896089,-7.19302,-2.4187,11.1581,16.2253,0.785369,5,-15.323,-13.6329,1.28135,0.929051,-0.171127,93,99,100,100,95,7,100,100,100,100,100,0
-0.133729,10,-0.320793,-1.23879,-14.6088,27.5218,-12.9261,0.320793,-0.320793,-1.23879,-14.2372,27.5218,-13.2977,0.320793,4.96397,12.8031,-9.24875,7.26921,-0.0892332,-7.19313,-2.41881,11.1579,16.2251,0.785184,5,-15.3229,-13.6328,1.28129,0.929092,-0.1711,93,99,100,100,95,7,100,100,100,100,100,0
-0.133528,10,-0.320745,-1.23884,-14.6088,27.5218,-12.9261,0.320745,-0.320745,-1.23884,-14.2372,27.5218,-13.2978,0.320745,4.96347,12.8033,-9.24879,7.26867,-0.0888499,-7.19326,-2.41892,11.1577,16.2248,0.785007,5,-15.3227,-13.6326,1.28123,0.929132,-0.171074,93,99,100,100,95,7,100,100,100,100,100,0
-0.133309,10,-0.320697,-1.2389,-14.6088,27.5218,-12.9261,0.320697,-0.320697,-1.2389,-14.2371,27.5218,-13.2978,0.320697,4.96295,12.8036,-9.24884,7.26815,-0.0884589,-7.19339,-2.41903,11.1574,16.2245,0.784839,5,-15.3225,-13.6325,1.28117,0.929173,-0.171048,93,99,100,100,95,7,100,100,100,100,100,0
-0.133075,10,-0.32065,-1.23895,-14.6088,27.5218,-12.9262,0.32065,-0.32065,-1.23895,-14.2371,27.5218,-13.2979,0.32065,4.96242,12.8038,-9.24888,7.26764,-0.0880602,-7.19353,-2.41914,11.1572,16.2243,0.78468,5,-15.3223,-13.6323,1.28112,0.929215,-0.171023,93,99,100,100,95,7,100,100,100,100,100,0
-0.132829,10,-0.320605,-1.23901,-14.6087,27.5218,-12.9262,0.320605,-0.320605,-1.23901,-14.237,27.5218,-13.2979,0.320605,4.96186,12.8041,-9.24892,7.26713,-0.0876538,-7.19369,-2.41925,11.1569,16.224,0.784533,5,-15.3221,-13.6322,1.28106,0.929257,-0.170998,93,99,100,100,95,7,100,100,100,100,100,0
-0.132572,10,-0.32056,-1.23907,-14.6076,27.5209,-12.926,0.32056,-0.32056,-1.23907,-14.2359,27.5209,-13.2977,0.32056,4.9613,12.8043,-9.24897,7.26664,-0.0872402,-7.19385,-2.41936,11.1566,16.2238,0.784398,5,-15.322,-13.632,1.28101,0.929299,-0.170974,93,99,100,100,95,7,100,100,100,100,100,0
-0.132308,10,-0.320516,-1.23912,-14.6076,27.5209,-12.926,0.320516,-0.320516,-1.23912,-14.2358,27.5209,-13.2977,0.320516,4.96072,12.8046,-9.24901,7.26616,-0.0868217,-7.19402,-2.41947,11.1563,16.2236,0.784279,5,-15.3218,-13.6318,1.28096,0.929342,-0.170951,93,99,100,100,95,7,100,100,100,100,100,0
-0.132037,10,-0.320473,-1.23918,-14.6075,27.5209,-12.926,0.320473,-0.320473,-1.23918,-14.2358,27.5209,-13.2978,0.320473,4.96012,12.8048,-9.24906,7.26569,-0.0863978,-7.19421,-2.41958,11.156,16.2234,0.784177,5,-15.3216,-13.6316,1.28091,0.929385,-0.170927,93,99,100,100,95,7,100,100,100,100,100,0
-0.13176,10,-0.32043,-1.23924,-14.6075,27.5209,-12.9261,0.32043,-0.32043,-1.23924,-14.2357,27.5209,-13.2978,0.32043,4.95952,12.8051,-9.2491,7.26523,-0.0859688,-7.1944,-2.4197,11.1557,16.2232,0.784092,5,-15.3214,-13.6314,1.28086,0.929428,-0.170904,93,99,100,100,95,7,100,100,100,100,100,0
-0.131476,10,-0.320388,-1.2393,-14.6075,27.5209,-12.9261,0.320388,-0.320388,-1.2393,-14.2357,27.5209,-13.2979,0.320388,4.9589,12.8053,-9.24914,7.26478,-0.0855349,-7.19461,-2.41981,11.1554,16.223,0.784023,5,-15.3212,-13.6312,1.28081,0.929472,-0.170882,93,99,100,100,95,7,100,100,100,100,100,0
-0.131188,10,-0.320347,-1.23936,-14.6075,27.5209,-12.9261,0.320347,-0.320347,-1.23936,-14.2356,27.5209,-13.2979,0.320347,4.95826,12.8056,-9.24918,7.26434,-0.0850967,-7.19482,-2.41993,11.155,16.2228,0.783971,5,-15.321,-13.631,1.28075,0.929517,-0.170859,93,99,100,100,95,7,100,100,100,100,100,0
-0.130894,10,-0.320305,-1.23942,-14.6074,27.5209,-12.9262,0.320305,-0.320305,-1.23942,-14.2356,27.5209,-13.298,0.320305,4.95762,12.8059,-9.24922,7.26391,-0.0846552,-7.19504,-2.42005,11.1547,16.2226,0.783937,5,-15.3208,-13.6308,1.2807,0.929562,-0.170837,93,99,100,100,95,7,100,100,100,100,100,0
-0.130594,10,-0.320263,-1.23948,-14.6074,27.5209,-12.9262,0.320263,-0.320263,-1.23948,-14.2355,27.5209,-13.298,0.320263,4.95697,12.8062,-9.24925,7.2635,-0.0842118,-7.19526,-2.42017,11.1544,16.2225,0.783922,5,-15.3206,-13.6306,1.28065,0.929608,-0.170814,93,99,100,100,95,7,100,100,100,100,100,0
-0.130297,10,-0.320221,-1.23954,-14.6074,27.5209,-12.9262,0.320221,-0.320221,-1.23954,-14.2355,27.5209,-13.2981,0.320221,4.95631,12.8065,-9.24929,7.26309,-0.0837609,-7.1955,-2.4203,11.154,16.2223,0.783919,5,-15.3204,-13.6304,1.28059,0.929654,-0.170792,93,99,100,100,95,7,100,100,100,100,100,0
-0.129999,10,-0.320179,-1.2396,-14.6073,27.5209,-12.9262,0.320179,-0.320179,-1.2396,-14.2354,27.5209,-13.2981,0.320179,4.95565,12.8068,-9.24932,7.2627,-0.0833076,-7.19574,-2.42043,11.1537,16.2221,0.783933,5,-15.3202,-13.6302,1.28054,0.929701,-0.170769,93,99,100,100,95,7,100,100,100,100,100,0
-0.129694,10,-0.320137,-1.23966,-14.6073,27.5209,-12.9263,0.320137,-0.320137,-1.23966,-14.2354,27.5209,-13.2982,0.320137,4.95497,12.8071,-9.24934,7.26232,-0.0828569,-7.19598,-2.42057,11.1533,16.222,0.783968,5,-15.32,-13.63,1.28048,0.929749,-0.170746,93,99,100,100,95,7,100,100,100,100,100,0
-0.12938,10,-0.320095,-1.23973,-14.6073,27.5209,-12.9263,0.320095,-0.320095,-1.23973,-14.2353,27.5209,-13.2982,0.320095,4.95429,12.8074,-9.24936,7.26195,-0.082413,-7.19624,-2.42071,11.1529,16.2218,0.784029,5,-15.3198,-13.6298,1.28041,0.929796,-0.170723,93,99,100,100,95,7,100,100,100,100,100,0
-0.129054,10,-0.320052,-1.23979,-14.6072,27.5209,-12.9263,0.320052,-0.320052,-1.23979,-14.2353,27.5209,-13.2983,0.320052,4.95361,12.8077,-9.24937,7.26159,-0.08198,-7.1965,-2.42085,11.1526,16.2217,0.784118,5,-15.3196,-13.6296,1.28034,0.929843,-0.170701,93,99,100,100,95,7,100,100,100,100,100,0
-0.128713,10,-0.320009,-1.23985,-14.6072,27.5209,-12.9264,0.320009,-0.320009,-1.23985,-14.2352,27.5209,-13.2983,0.320009,4.95293,12.8081,-9.24936,7.26124,-0.0815618,-7.19676,-2.421,11.1522,16.2216,0.784239,5,-15.3195,-13.6295,1.28025,0.929889,-0.170677,93,99,100,100,95,7,100,100,100,100,100,0
-0.128355,10,-0.319966,-1.23991,-14.6069,27.5207,-12.9263,0.319966,-0.319966,-1.23991,-14.2349,27.5207,-13.2983,0.319966,4.95225,12.8084,-9.24934,7.26089,-0.0811615,-7.19704,-2.42116,11.1518,16.2215,0.784393,5,-15.3193,-13.6294,1.28016,0.929935,-0.170654,93,99,100,100,95,7,100,100,100,100,100,0
-0.127971,10,-0.319923,-1.23997,-14.6068,27.5207,-12.9264,0.319923,-0.319923,-1.23997,-14.2348,27.5207,-13.2984,0.319923,4.95156,12.8088,-9.24931,7.26054,-0.0807779,-7.19732,-2.42132,11.1514,16.2214,0.784582,5,-15.3192,-13.6293,1.28005,0.92998,-0.170631,93,99,100,100,95,7,100,100,100,100,100,0
-0.127564,10,-0.31988,-1.24003,-14.6068,27.5207,-12.9264,0.31988,-0.31988,-1.24003,-14.2348,27.5207,-13.2984,0.31988,4.95088,12.8092,-9.24927,7.2602,-0.0804158,-7.19762,-2.42149,11.151,16.2213,0.784808,5,-15.3191,-13.6292,1.27993,0.930023,-0.170608,93,99,100,100,95,7,100,100,100,100,100,0
-0.127138,10,-0.319836,-1.24009,-14.6068,27.5207,-12.9264,0.319836,-0.319836,-1.24009,-14.2347,27.5207,-13.2985,0.319836,4.95021,12.8096,-9.2492,7.25987,-0.0800795,-7.19792,-2.42167,11.1506,16.2213,0.785073,5,-15.319,-13.6291,1.2798,0.930066,-0.170584,93,99,100,100,95,7,100,100,100,100,100,0
-0.126695,10,-0.319793,-1.24014,-14.6067,27.5207,-12.9265,0.319793,-0.319793,-1.24014,-14.2347,27.5207,-13.2985,0.319793,4.94953,12.81,-9.24912,7.25954,-0.0797726,-7.19822,-2.42185,11.1502,16.2212,0.785376,5,-15.3189,-13.6291,1.27965,0.930106,-0.170561,93,99,100,100,95,7,100,100,100,100,100,0
-0.126238,10,-0.31975,-1.24019,-14.6067,27.5207,-12.9265,0.31975,-0.31975,-1.24019,-14.2346,27.5207,-13.2986,0.31975,4.94887,12.8105,-9.24902,7.25921,-0.0794978,-7.19854,-2.42204,11.1498,16.2212,0.785719,5,-15.3189,-13.6292,1.2795,0.930145,-0.170538,93,99,100,100,95,7,100,100,100,100,100,0
-0.12577,10,-0.319708,-1.24024,-14.6067,27.5207,-12.9266,0.319708,-0.319708,-1.24024,-14.2346,27.5207,-13.2986,0.319708,4.94821,12.8109,-9.24889,7.25888,-0.0792575,-7.19885,-2.42223,11.1494,16.2212,0.7861,5,-15.3188,-13.6292,1.27933,0.930181,-0.170515,93,99,100,100,95,7,100,100,100,100,100,0
-0.125294,10,-0.319666,-1.24029,-14.6058,27.5201,-12.9264,0.319666,-0.319666,-1.24029,-14.2337,27.5201,-13.2985,0.319666,4.94757,12.8114,-9.24874,7.25856,-0.079053,-7.19918,-2.42242,11.149,16.2213,0.786521,5,-15.3188,-13.6293,1.27916,0.930216,-0.170492,93,99,100,100,95,7,100,100,100,100,100,0
-0.124814,10,-0.319625,-1.24033,-14.6057,27.5201,-12.9264,0.319625,-0.319625,-1.24033,-14.2336,27.5201,-13.2985,0.319625,4.94694,12.8119,-9.24856,7.25824,-0.0788982,-7.19951,-2.42261,11.1486,16.2213,0.786992,5,-15.3189,-13.6294,1.27898,0.930246,-0.17047,93,99,100,100,95,7,100,100,100,100,100,0
-0.12433,10,-0.319586,-1.24036,-14.6057,27.5201,-12.9265,0.319586,-0.319586,-1.24036,-14.2336,27.5201,-13.2986,0.319586,4.94633,12.8125,-9.24836,7.25792,-0.0787873,-7.19984,-2.42281,11.1482,16.2214,0.787506,5,-15.3189,-13.6295,1.27879,0.930274,-0.170449,93,99,100,100,95,7,100,100,100,100,100,0
-0.123843,10,-0.319547,-1.2404,-14.6057,27.5201,-12.9265,0.319547,-0.319547,-1.2404,-14.2335,27.5201,-13.2986,0.319547,4.94573,12.813,-9.24813,7.25761,-0.0787148,-7.20018,-2.423,11.1477,16.2216,0.788057,5,-15.319,-13.6297,1.2786,0.930299,-0.170428,93,99,100,100,95,7,100,100,100,100,100,0
-0.123353,10,-0.319509,-1.24043,-14.6056,27.5201,-12.9265,0.319509,-0.319509,-1.24043,-14.2335,27.5201,-13.2987,0.319509,4.94514,12.8136,-9.24788,7.2573,-0.078676,-7.20051,-2.4232,11.1473,16.2217,0.788637,5,-15.319,-13.6299,1.27841,0.930322,-0.170408,93,99,100,100,95,7,100,100,100,100,100,0
-0.12286,10,-0.319472,-1.24046,-14.6056,27.5201,-12.9266,0.319472,-0.319472,-1.24046,-14.2334,27.5201,-13.2987,0.319472,4.94456,12.8141,-9.24761,7.25699,-0.0786668,-7.20085,-2.4234,11.1468,16.2219,0.789242,5,-15.3191,-13.6301,1.2782,0.930342,-0.170388,93,99,100,100,95,7,100,100,100,100,100,0
-0.122366,10,-0.319436,-1.24048,-14.6056,27.5201,-12.9266,0.319436,-0.319436,-1.24048,-14.2334,27.5201,-13.2988,0.319436,4.944,12.8147,-9.24733,7.25669,-0.0786835,-7.20119,-2.42359,11.1464,16.2221,0.789866,5,-15.3192,-13.6303,1.278,0.930362,-0.170368,93,99,100,100,95,7,100,100,100,100,100,0
-0.121869,10,-0.3194,-1.24051,-14.6052,27.5199,-12.9266,0.3194,-0.3194,-1.24051,-14.2331,27.5199,-13.2988,0.3194,4.94344,12.8153,-9.24703,7.2564,-0.0787228,-7.20153,-2.42379,11.146,16.2222,0.790506,5,-15.3194,-13.6305,1.27779,0.93038,-0.170349,93,99,100,100,95,7,100,100,100,100,100,0
-0.121371,10,-0.319365,-1.24053,-14.6052,27.5199,-12.9266,0.319365,-0.319365,-1.24053,-14.2331,27.5199,-13.2988,0.319365,4.9429,12.8158,-9.24673,7.25611,-0.0787721,-7.20186,-2.42398,11.1455,16.2224,0.791145,5,-15.3195,-13.6307,1.27757,0.930398,-0.17033,93,99,100,100,95,7,100,100,100,100,100,0
-0.120871,10,-0.31933,-1.24055,-14.6052,27.5199,-12.9267,0.31933,-0.31933,-1.24055,-14.233,27.5199,-13.2988,0.31933,4.94236,12.8164,-9.24642,7.25582,-0.0788342,-7.20219,-2.42417,11.1451,16.2226,0.791787,5,-15.3196,-13.6309,1.27736,0.930415,-0.170311,93,99,100,100,95,7,100,100,100,100,100,0
-0.120371,10,-0.319296,-1.24057,-14.6051,27.5199,-12.9267,0.319296,-0.319296,-1.24057,-14.233,27.5199,-13.2989,0.319296,4.94183,12.8169,-9.24611,7.25555,-0.0789118,-7.20251,-2.42436,11.1447,16.2228,0.792436,5,-15.3197,-13.6312,1.27713,0.930431,-0.170293,93,99,100,100,95,7,100,100,100,100,100,0
-0.119872,10,-0.319263,-1.24059,-14.6051,27.5199,-12.9267,0.319263,-0.319263,-1.24059,-14.2329,27.5199,-13.2989,0.319263,4.94131,12.8175,-9.24579,7.25527,-0.0790068,-7.20283,-2.42455,11.1443,16.223,0.793093,5,-15.3199,-13.6314,1.27691,0.930446,-0.170275,93,99,100,100,95,7,100,100,100,100,100,0
-0.119374,10,-0.319231,-1.24061,-14.6051,27.5199,-12.9268,0.319231,-0.319231,-1.24061,-14.2329,27.5199,-13.299,0.319231,4.94081,12.818,-9.24546,7.25501,-0.0791211,-7.20315,-2.42473,11.1439,16.2232,0.793763,5,-15.32,-13.6317,1.2767,0.930459,-0.170258,93,99,100,100,95,7,100,100,100,100,100,0
-0.118879,10,-0.3192,-1.24063,-14.605,27.5199,-12.9268,0.3192,-0.3192,-1.24063,-14.2329,27.5199,-13.299,0.3192,4.94033,12.8186,-9.24513,7.25474,-0.0792557,-7.20347,-2.42492,11.1435,16.2234,0.794445,5,-15.3202,-13.632,1.27648,0.930469,-0.170241,93,99,100,100,95,7,100,100,100,100,100,0
-0.118386,10,-0.319171,-1.24064,-14.6057,27.5204,-12.927,0.319171,-0.319171,-1.24064,-14.2335,27.5204,-13.2992,0.319171,4.93987,12.8192,-9.24478,7.25448,-0.0794113,-7.20379,-2.42509,11.1431,16.2237,0.795142,5,-15.3204,-13.6322,1.27627,0.930478,-0.170225,93,99,100,100,95,7,100,100,100,100,100,0
-0.1179,10,-0.319143,-1.24064,-14.6057,27.5204,-12.927,0.319143,-0.319143,-1.24064,-14.2335,27.5204,-13.2992,0.319143,4.93943,12.8198,-9.24443,7.25422,-0.079593,-7.2041,-2.42527,11.1426,16.224,0.795859,5,-15.3206,-13.6325,1.27607,0.930483,-0.17021,93,99,100,100,95,7,100,100,100,100,100,0
-0.117419,10,-0.319116,-1.24065,-14.6057,27.5204,-12.9271,0.319116,-0.319116,-1.24065,-14.2335,27.5204,-13.2993,0.319116,4.93901,12.8203,-9.24407,7.25397,-0.0797987,-7.20442,-2.42544,11.1422,16.2243,0.796594,5,-15.3208,-13.6328,1.27588,0.930486,-0.170196,93,99,100,100,95,7,100,100,100,100,100,0
-0.116943,10,-0.319091,-1.24065,-14.6056,27.5204,-12.9271,0.319091,-0.319091,-1.24065,-14.2334,27.5204,-13.2993,0.319091,4.93861,12.8209,-9.2437,7.25371,-0.0800259,-7.20473,-2.42561,11.1418,16.2246,0.797347,5,-15.321,-13.6332,1.2757,0.930485,-0.170183,93,99,100,100,95,7,100,100,100,100,100,0
-0.116471,10,-0.319068,-1.24064,-14.6056,27.5204,-12.9271,0.319068,-0.319068,-1.24064,-14.2334,27.5204,-13.2993,0.319068,4.93824,12.8215,-9.24333,7.25346,-0.0802727,-7.20505,-2.42578,11.1414,16.2249,0.798114,5,-15.3212,-13.6335,1.27552,0.930481,-0.17017,93,99,100,100,95,7,100,100,100,100,100,0
-0.116005,10,-0.319046,-1.24063,-14.6056,27.5204,-12.9272,0.319046,-0.319046,-1.24063,-14.2334,27.5204,-13.2993,0.319046,4.93789,12.8222,-9.24296,7.25322,-0.0805368,-7.20536,-2.42595,11.141,16.2253,0.798894,5,-15.3214,-13.6339,1.27536,0.930474,-0.170158,93,99,100,100,95,7,100,100,100,100,100,0
-0.115544,10,-0.319025,-1.24062,-14.6055,27.5204,-12.9272,0.319025,-0.319025,-1.24062,-14.2334,27.5204,-13.2994,0.319025,4.93756,12.8228,-9.24258,7.25297,-0.0808162,-7.20567,-2.42612,11.1407,16.2257,0.799685,5,-15.3216,-13.6342,1.2752,0.930464,-0.170147,93,99,100,100,95,7,100,100,100,100,100,0
-0.115089,10,-0.319006,-1.2406,-14.6055,27.5204,-12.9272,0.319006,-0.319006,-1.2406,-14.2333,27.5204,-13.2994,0.319006,4.93726,12.8234,-9.24221,7.25273,-0.0811086,-7.20598,-2.42628,11.1403,16.2261,0.800487,5,-15.3218,-13.6346,1.27505,0.93045,-0.170137,93,99,100,100,95,7,100,100,100,100,100,0
-0.114634,10,-0.318988,-1.24058,-14.6055,27.5204,-12.9272,0.318988,-0.318988,-1.24058,-14.2333,27.5204,-13.2994,0.318988,4.93698,12.824,-9.24183,7.25249,-0.0814155,-7.20628,-2.42644,11.1399,16.2266,0.801297,5,-15.3221,-13.635,1.27492,0.930433,-0.170127,93,99,100,100,95,7,100,100,100,100,100,0
-0.114182,10,-0.318971,-1.24055,-14.6054,27.5204,-12.9273,0.318971,-0.318971,-1.24055,-14.2333,27.5204,-13.2994,0.318971,4.93672,12.8247,-9.24145,7.25225,-0.0817333,-7.20659,-2.42661,11.1395,16.227,0.802114,5,-15.3223,-13.6354,1.27478,0.930413,-0.170118,93,99,100,100,95,7,100,100,100,100,100,0
-0.113737,10,-0.318955,-1.24052,-14.6054,27.5204,-12.9273,0.318955,-0.318955,-1.24052,-14.2333,27.5204,-13.2995,0.318955,4.93649,12.8253,-9.24108,7.25202,-0.0820588,-7.20689,-2.42677,11.1391,16.2275,0.802937,5,-15.3225,-13.6358,1.27466,0.93039,-0.170109,93,99,100,100,95,7,100,100,100,100,100,0
-0.113301,10,-0.31894,-1.24048,-14.6054,27.5204,-12.9273,0.31894,-0.31894,-1.24048,-14.2332,27.5204,-13.2995,0.31894,4.93628,12.8259,-9.24072,7.25179,-0.082389,-7.20719,-2.42694,11.1387,16.228,0.803763,5,-15.3227,-13.6362,1.27455,0.930363,-0.170101,93,99,100,100,95,7,100,100,100,100,100,0
-0.112876,10,-0.318927,-1.24044,-14.6054,27.5204,-12.9274,0.318927,-0.318927,-1.24044,-14.2332,27.5204,-13.2995,0.318927,4.9361,12.8266,-9.24036,7.25157,-0.0827212,-7.20749,-2.42711,11.1383,16.2285,0.804591,5,-15.323,-13.6366,1.27444,0.930332,-0.170094,93,99,100,100,95,7,100,100,100,100,100,0
-0.112463,10,-0.318915,-1.24039,-14.6053,27.5204,-12.9274,0.318915,-0.318915,-1.24039,-14.2332,27.5204,-13.2995,0.318915,4.93595,12.8272,-9.24002,7.25135,-0.0830533,-7.2078,-2.42729,11.1379,16.229,0.805418,5,-15.3232,-13.637,1.27435,0.930296,-0.170087,93,99,100,100,95,7,100,100,100,100,100,0
-0.112065,10,-0.318903,-1.24034,-14.6064,27.5212,-12.9277,0.318903,-0.318903,-1.24034,-14.2343,27.5212,-13.2998,0.318903,4.93582,12.8279,-9.2397,7.25114,-0.0833831,-7.20811,-2.42747,11.1375,16.2295,0.806245,5,-15.3234,-13.6375,1.27426,0.930256,-0.170081,93,99,100,100,95,7,100,100,100,100,100,0
-0.111689,10,-0.318894,-1.24028,-14.6063,27.5212,-12.9277,0.318894,-0.318894,-1.24028,-14.2343,27.5212,-13.2998,0.318894,4.93574,12.8286,-9.23941,7.25093,-0.0837107,-7.20844,-2.42768,11.1371,16.2301,0.807061,5,-15.3236,-13.6379,1.2742,0.930208,-0.170076,93,99,100,100,95,7,100,100,100,100,100,0
-0.111333,10,-0.318885,-1.24021,-14.6063,27.5212,-12.9277,0.318885,-0.318885,-1.24021,-14.2343,27.5212,-13.2998,0.318885,4.93569,12.8292,-9.23915,7.25073,-0.084034,-7.20878,-2.4279,11.1367,16.2306,0.807869,5,-15.3237,-13.6383,1.27414,0.930154,-0.170071,93,99,100,100,95,7,100,100,100,100,100,0
-0.110995,10,-0.318877,-1.24013,-14.6063,27.5212,-12.9277,0.318877,-0.318877,-1.24013,-14.2342,27.5212,-13.2998,0.318877,4.93567,12.8299,-9.23891,7.25053,-0.0843509,-7.20912,-2.42813,11.1363,16.2312,0.808671,5,-15.3239,-13.6387,1.2741,0.930096,-0.170067,93,99,100,100,95,7,100,100,100,100,100,0
-0.110672,10,-0.31887,-1.24004,-14.6063,27.5212,-12.9278,0.31887,-0.31887,-1.24004,-14.2342,27.5212,-13.2998,0.31887,4.93567,12.8306,-9.23868,7.25034,-0.0846601,-7.20947,-2.42836,11.1359,16.2318,0.809468,5,-15.324,-13.6392,1.27406,0.930034,-0.170063,93,99,100,100,95,7,100,100,100,100,100,0
-0.110362,10,-0.318864,-1.23996,-14.6062,27.5212,-12.9278,0.318864,-0.318864,-1.23996,-14.2342,27.5212,-13.2998,0.318864,4.93569,12.8312,-9.23846,7.25016,-0.0849606,-7.20981,-2.42859,11.1355,16.2324,0.81026,5,-15.3241,-13.6396,1.27403,0.929969,-0.17006,93,99,100,100,95,7,100,100,100,100,100,0
-0.110064,10,-0.318859,-1.23987,-14.6062,27.5212,-12.9278,0.318859,-0.318859,-1.23987,-14.2342,27.5212,-13.2998,0.318859,4.93573,12.8319,-9.23826,7.24998,-0.0852518,-7.21016,-2.42883,11.1351,16.233,0.811049,5,-15.3243,-13.64,1.274,0.929902,-0.170057,93,99,100,100,95,7,100,100,100,100,100,0
-0.109778,10,-0.318854,-1.23978,-14.6067,27.5216,-12.928,0.318854,-0.318854,-1.23978,-14.2348,27.5216,-13.2999,0.318854,4.93578,12.8326,-9.23806,7.2498,-0.0855333,-7.21049,-2.42906,11.1347,16.2336,0.811833,5,-15.3244,-13.6405,1.27397,0.929834,-0.170055,93,99,100,100,95,7,100,100,100,100,100,0
-0.109495,10,-0.318849,-1.23969,-14.6067,27.5216,-12.928,0.318849,-0.318849,-1.23969,-14.2348,27.5216,-13.2999,0.318849,4.93582,12.8332,-9.23784,7.24963,-0.0858022,-7.2108,-2.42927,11.1343,16.2342,0.812626,5,-15.3245,-13.6409,1.27392,0.929768,-0.170052,93,99,100,100,95,7,100,100,100,100,100,0
-0.109218,10,-0.318845,-1.2396,-14.6067,27.5216,-12.928,0.318845,-0.318845,-1.2396,-14.2348,27.5216,-13.2999,0.318845,4.93587,12.8338,-9.23762,7.24945,-0.0860605,-7.2111,-2.42947,11.1339,16.2348,0.81342,5,-15.3246,-13.6413,1.27386,0.929703,-0.17005,93,99,100,100,95,7,100,100,100,100,100,0
-0.10895,10,-0.318842,-1.23952,-14.6066,27.5216,-12.928,0.318842,-0.318842,-1.23952,-14.2348,27.5216,-13.2999,0.318842,4.93592,12.8345,-9.23741,7.24928,-0.0863102,-7.21139,-2.42967,11.1335,16.2354,0.814206,5,-15.3248,-13.6417,1.27381,0.929638,-0.170048,93,99,100,100,95,7,100,100,100,100,100,0
-0.108695,10,-0.318838,-1.23943,-14.6066,27.5216,-12.9281,0.318838,-0.318838,-1.23943,-14.2348,27.5216,-13.2999,0.318838,4.93599,12.8351,-9.23721,7.24912,-0.0865538,-7.21168,-2.42987,11.1331,16.236,0.814979,5,-15.3249,-13.6422,1.27376,0.929571,-0.170046,93,99,100,100,95,7,100,100,100,100,100,0
-0.108454,10,-0.318836,-1.23934,-14.6066,27.5216,-12.9281,0.318836,-0.318836,-1.23934,-14.2348,27.5216,-13.2999,0.318836,4.93608,12.8357,-9.23703,7.24896,-0.0867933,-7.21198,-2.43008,11.1328,16.2366,0.81573,5,-15.325,-13.6426,1.27372,0.929501,-0.170045,93,99,100,100,95,7,100,100,100,100,100,0
-0.108228,10,-0.318834,-1.23924,-14.6066,27.5216,-12.9281,0.318834,-0.318834,-1.23924,-14.2348,27.5216,-13.2999,0.318834,4.93619,12.8363,-9.23688,7.24881,-0.087031,-7.21229,-2.4303,11.1324,16.2372,0.816455,5,-15.3251,-13.643,1.27371,0.929428,-0.170044,93,99,100,100,95,7,100,100,100,100,100,0
-0.108021,10,-0.318833,-1.23913,-14.6065,27.5216,-12.9281,0.318833,-0.318833,-1.23913,-14.2348,27.5216,-13.2999,0.318833,4.93633,12.8369,-9.23676,7.24867,-0.0872693,-7.21262,-2.43054,11.132,16.2378,0.81715,5,-15.3251,-13.6434,1.27371,0.929351,-0.170043,93,99,100,100,95,7,100,100,100,100,100,0
-0.107833,10,-0.318832,-1.23902,-14.6065,27.5216,-12.9282,0.318832,-0.318832,-1.23902,-14.2348,27.5216,-13.2999,0.318832,4.93649,12.8375,-9.23669,7.24854,-0.0874988,-7.21298,-2.43081,11.1316,16.2384,0.817805,5,-15.3252,-13.6438,1.27375,0.929268,-0.170043,93,99,100,100,95,7,100,100,100,100,100,0
-0.107666,10,-0.318833,-1.23891,-14.6065,27.5216,-12.9282,0.318833,-0.318833,-1.23891,-14.2348,27.5216,-13.2999,0.318833,4.93669,12.8381,-9.23666,7.24842,-0.0877276,-7.21336,-2.43111,11.1312,16.239,0.818421,5,-15.3252,-13.6441,1.27381,0.92918,-0.170043,93,99,100,100,95,7,100,100,100,100,100,0
-0.10752,10,-0.318834,-1.23878,-14.6065,27.5216,-12.9282,0.318834,-0.318834,-1.23878,-14.2348,27.5216,-13.2999,0.318834,4.93692,12.8388,-9.23668,7.2483,-0.087963,-7.21377,-2.43144,11.1308,16.2396,0.818995,5,-15.3252,-13.6445,1.27391,0.929085,-0.170044,93,99,100,100,95,7,100,100,100,100,100,0
-0.107396,10,-0.318836,-1.23865,-14.6064,27.5216,-12.9283,0.318836,-0.318836,-1.23865,-14.2348,27.5216,-13.2998,0.318836,4.93718,12.8394,-9.23674,7.2482,-0.0882111,-7.21421,-2.4318,11.1304,16.2403,0.81953,5,-15.3252,-13.6449,1.27404,0.928985,-0.170045,93,99,100,100,95,7,100,100,100,100,100,0
-0.107293,10,-0.318838,-1.23851,-14.6064,27.5216,-12.9283,0.318838,-0.318838,-1.23851,-14.2348,27.5216,-13.2998,0.318838,4.93747,12.84,-9.23686,7.2481,-0.0884769,-7.21468,-2.4322,11.13,16.2409,0.820023,5,-15.3251,-13.6452,1.2742,0.928879,-0.170046,93,99,100,100,95,7,100,100,100,100,100,0
-0.107211,10,-0.318842,-1.23836,-14.6064,27.5216,-12.9283,0.318842,-0.318842,-1.23836,-14.2349,27.5216,-13.2998,0.318842,4.93779,12.8406,-9.23702,7.24801,-0.0887646,-7.21518,-2.43262,11.1296,16.2416,0.820476,5,-15.325,-13.6455,1.27439,0.928768,-0.170048,93,99,100,100,95,7,100,100,100,100,100,0
-0.10715,10,-0.318846,-1.2382,-14.6071,27.5222,-12.9285,0.318846,-0.318846,-1.2382,-14.2357,27.5222,-13.3,0.318846,4.93813,12.8412,-9.23724,7.24792,-0.0890774,-7.21571,-2.43308,11.1291,16.2423,0.82089,5,-15.3249,-13.6459,1.27461,0.92865,-0.170051,93,99,100,100,95,7,100,100,100,100,100,0
-0.107114,10,-0.318852,-1.23803,-14.6071,27.5222,-12.9285,0.318852,-0.318852,-1.23803,-14.2357,27.5222,-13.2999,0.318852,4.9385,12.8419,-9.23751,7.24784,-0.0894349,-7.21628,-2.43358,11.1287,16.2429,0.821259,5,-15.3247,-13.6462,1.27486,0.928526,-0.170053,93,99,100,100,95,7,100,100,100,100,100,0
-0.107099,10,-0.318858,-1.23786,-14.6071,27.5222,-12.9286,0.318858,-0.318858,-1.23786,-14.2357,27.5222,-13.2999,0.318858,4.9389,12.8425,-9.23784,7.24776,-0.0898302,-7.21689,-2.43412,11.1282,16.2436,0.821587,5,-15.3245,-13.6465,1.27515,0.928395,-0.170057,93,99,100,100,95,7,100,100,100,100,100,0
-0.107104,10,-0.318864,-1.23768,-14.607,27.5222,-12.9286,0.318864,-0.318864,-1.23768,-14.2357,27.5222,-13.2999,0.318864,4.93932,12.8431,-9.23821,7.24769,-0.0902571,-7.21752,-2.43469,11.1277,16.2443,0.821878,5,-15.3243,-13.6468,1.27545,0.92826,-0.17006,93,99,100,100,95,7,100,100,100,100,100,0
-0.107127,10,-0.318872,-1.23749,-14.607,27.5222,-12.9286,0.318872,-0.318872,-1.23749,-14.2358,27.5222,-13.2999,0.318872,4.93977,12.8437,-9.23863,7.24762,-0.0907102,-7.21818,-2.43528,11.1272,16.245,0.822136,5,-15.3241,-13.647,1.27578,0.928121,-0.170064,93,99,100,100,95,7,100,100,100,100,100,0
-0.107166,10,-0.31888,-1.2373,-14.607,27.5222,-12.9286,0.31888,-0.31888,-1.2373,-14.2358,27.5222,-13.2998,0.31888,4.94022,12.8444,-9.23908,7.24755,-0.0911847,-7.21886,-2.43589,11.1267,16.2457,0.822362,5,-15.3238,-13.6473,1.27613,0.927978,-0.170069,93,99,100,100,95,7,100,100,100,100,100,0
-0.107219,10,-0.318888,-1.23711,-14.6069,27.5222,-12.9287,0.318888,-0.318888,-1.23711,-14.2358,27.5222,-13.2998,0.318888,4.94069,12.845,-9.23956,7.24748,-0.0916766,-7.21956,-2.43652,11.1262,16.2464,0.822561,5,-15.3235,-13.6476,1.27649,0.927832,-0.170073,93,99,100,100,95,7,100,100,100,100,100,0
-0.107285,10,-0.318897,-1.23691,-14.6074,27.5225,-12.9288,0.318897,-0.318897,-1.23691,-14.2363,27.5225,-13.2999,0.318897,4.94117,12.8456,-9.24007,7.24742,-0.0921822,-7.22026,-2.43716,11.1257,16.2471,0.822734,5,-15.3232,-13.6478,1.27687,0.927685,-0.170078,93,99,100,100,95,7,100,100,100,100,100,0
-0.107365,10,-0.318906,-1.23672,-14.6074,27.5225,-12.9288,0.318906,-0.318906,-1.23672,-14.2363,27.5225,-13.2998,0.318906,4.94166,12.8462,-9.24059,7.24736,-0.0926885,-7.22097,-2.4378,11.1252,16.2478,0.82289,5,-15.3229,-13.648,1.27725,0.927538,-0.170083,93,99,100,100,95,7,100,100,100,100,100,0
-0.107457,10,-0.318916,-1.23652,-14.6073,27.5225,-12.9289,0.318916,-0.318916,-1.23652,-14.2364,27.5225,-13.2998,0.318916,4.94216,12.8468,-9.24113,7.2473,-0.0931986,-7.22169,-2.43845,11.1248,16.2485,0.823027,5,-15.3225,-13.6483,1.27764,0.92739,-0.170088,93,99,100,100,95,7,100,100,100,100,100,0
-0.107558,10,-0.318926,-1.23632,-14.6073,27.5225,-12.9289,0.318926,-0.318926,-1.23632,-14.2364,27.5225,-13.2998,0.318926,4.94265,12.8474,-9.24169,7.24725,-0.0937149,-7.22241,-2.4391,11.1243,16.2492,0.823146,5,-15.3222,-13.6485,1.27803,0.927241,-0.170093,93,99,100,100,95,7,100,100,100,100,100,0
-0.107667,10,-0.318936,-1.23612,-14.6073,27.5225,-12.9289,0.318936,-0.318936,-1.23612,-14.2364,27.5225,-13.2998,0.318936,4.94316,12.8479,-9.24226,7.2472,-0.0942398,-7.22313,-2.43976,11.1238,16.2499,0.823245,5,-15.3218,-13.6487,1.27844,0.927092,-0.170099,93,99,100,100,95,7,100,100,100,100,100,0
-0.10778,10,-0.318946,-1.23592,-14.6072,27.5225,-12.9289,0.318946,-0.318946,-1.23592,-14.2365,27.5225,-13.2997,0.318946,4.94366,12.8485,-9.24284,7.24715,-0.0947752,-7.22386,-2.44042,11.1233,16.2506,0.823325,5,-15.3215,-13.6489,1.27885,0.926943,-0.170104,93,99,100,100,95,7,100,100,100,100,100,0
-0.107897,10,-0.318957,-1.23572,-14.6072,27.5225,-12.929,0.318957,-0.318957,-1.23572,-14.2365,27.5225,-13.2997,0.318957,4.94417,12.8491,-9.24343,7.2471,-0.0953226,-7.22459,-2.44109,11.1228,16.2513,0.823387,5,-15.3211,-13.6491,1.27926,0.926793,-0.17011,93,99,100,100,95,7,100,100,100,100,100,0
-0.108017,10,-0.318967,-1.23552,-14.6073,27.5226,-12.929,0.318967,-0.318967,-1.23552,-14.2367,27.5226,-13.2997,0.318967,4.94468,12.8496,-9.24404,7.24705,-0.095883,-7.22533,-2.44177,11.1223,16.2519,0.82343,5,-15.3208,-13.6493,1.27968,0.926643,-0.170116,93,99,100,100,95,7,100,100,100,100,100,0
-0.10813,10,-0.318977,-1.23532,-14.6073,27.5226,-12.9291,0.318977,-0.318977,-1.23532,-14.2367,27.5226,-13.2997,0.318977,4.94519,12.8502,-9.24466,7.24701,-0.0964612,-7.22607,-2.44246,11.1218,16.2526,0.823457,5,-15.3204,-13.6495,1.28011,0.926493,-0.170121,93,99,100,100,95,7,100,100,100,100,100,0
-0.108241,10,-0.318987,-1.23512,-14.6073,27.5226,-12.9291,0.318987,-0.318987,-1.23512,-14.2367,27.5226,-13.2996,0.318987,4.9457,12.8507,-9.24528,7.24697,-0.0970561,-7.22682,-2.44315,11.1213,16.2532,0.823468,5,-15.32,-13.6496,1.28054,0.926342,-0.170126,93,99,100,100,95,7,100,100,100,100,100,0
-0.108352,10,-0.318997,-1.23492,-14.6072,27.5226,-12.9291,0.318997,-0.318997,-1.23492,-14.2368,27.5226,-13.2996,0.318997,4.94621,12.8512,-9.24592,7.24693,-0.0976666,-7.22757,-2.44386,11.1208,16.2539,0.823464,5,-15.3196,-13.6498,1.28098,0.926191,-0.170132,93,99,100,100,95,7,100,100,100,100,100,0
-0.108467,10,-0.319007,-1.23472,-14.6072,27.5226,-12.9292,0.319007,-0.319007,-1.23472,-14.2368,27.5226,-13.2996,0.319007,4.94672,12.8517,-9.24657,7.2469,-0.0982916,-7.22833,-2.44457,11.1203,16.2545,0.823446,5,-15.3192,-13.65,1.28143,0.92604,-0.170137,93,99,100,100,95,7,100,100,100,100,100,0
-0.108588,10,-0.319017,-1.23452,-14.6072,27.5226,-12.9292,0.319017,-0.319017,-1.23452,-14.2368,27.5226,-13.2995,0.319017,4.94723,12.8523,-9.24722,7.24687,-0.09893,-7.22908,-2.4453,11.1198,16.2551,0.823415,5,-15.3189,-13.6501,1.28188,0.925889,-0.170143,93,99,100,100,95,7,100,100,100,100,100,0
-0.108717,10,-0.319027,-1.23432,-14.6072,27.5226,-12.9292,0.319027,-0.319027,-1.23432,-14.2369,27.5226,-13.2995,0.319027,4.94773,12.8528,-9.24789,7.24684,-0.0995809,-7.22985,-2.44603,11.1193,16.2557,0.823374,5,-15.3185,-13.6502,1.28234,0.925738,-0.170148,93,99,100,100,95,7,100,100,100,100,100,0
-0.108857,10,-0.319036,-1.23412,-14.6071,27.5226,-12.9293,0.319036,-0.319036,-1.23412,-14.2369,27.5226,-13.2995,0.319036,4.94822,12.8533,-9.24856,7.24682,-0.100243,-7.23061,-2.44678,11.1188,16.2563,0.823325,5,-15.3181,-13.6504,1.2828,0.925588,-0.170153,93,99,100,100,95,7,100,100,100,100,100,0
-0.109014,10,-0.319046,-1.23392,-14.6071,27.5226,-12.9293,0.319046,-0.319046,-1.23392,-14.2369,27.5226,-13.2995,0.319046,4.94871,12.8538,-9.24924,7.2468,-0.100916,-7.23137,-2.44753,11.1183,16.2569,0.823261,5,-15.3178,-13.6505,1.28327,0.925438,-0.170158,93,99,100,100,95,7,100,100,100,100,100,0
-0.109188,10,-0.319055,-1.23372,-14.6071,27.5226,-12.9293,0.319055,-0.319055,-1.23372,-14.2369,27.5226,-13.2994,0.319055,4.94918,12.8542,-9.24993,7.24679,-0.101598,-7.23213,-2.4483,11.1178,16.2575,0.823189,5,-15.3174,-13.6506,1.28374,0.92529,-0.170163,93,99,100,100,95,7,100,100,100,100,100,0
-0.109375,10,-0.319064,-1.23352,-14.607,27.5226,-12.9293,0.319064,-0.319064,-1.23352,-14.237,27.5226,-13.2994,0.319064,4.94965,12.8547,-9.25062,7.24678,-0.102289,-7.2329,-2.44908,11.1173,16.2581,0.823115,5,-15.3171,-13.6507,1.28422,0.925142,-0.170168,93,99,100,100,95,7,100,100,100,100,100,0
-0.109573,10,-0.319073,-1.23333,-14.607,27.5226,-12.9294,0.319073,-0.319073,-1.23333,-14.237,27.5226,-13.2994,0.319073,4.95011,12.8552,-9.25132,7.24678,-0.102988,-7.23367,-2.44987,11.1167,16.2586,0.823044,5,-15.3167,-13.6508,1.28471,0.924995,-0.170173,93,99,100,100,95,7,100,100,100,100,100,0
-0.109781,10,-0.319082,-1.23313,-14.607,27.5226,-12.9294,0.319082,-0.319082,-1.23313,-14.237,27.5226,-13.2993,0.319082,4.95057,12.8556,-9.25201,7.2468,-0.103694,-7.23445,-2.45067,11.1162,16.2592,0.822981,5,-15.3164,-13.6509,1.2852,0.924848,-0.170178,93,99,100,100,95,7,100,100,100,100,100,0
-0.109996,10,-0.319091,-1.23294,-14.6069,27.5226,-12.9294,0.319091,-0.319091,-1.23294,-14.2371,27.5226,-13.2993,0.319091,4.95102,12.856,-9.25271,7.24682,-0.104407,-7.23524,-2.45149,11.1157,16.2597,0.822932,5,-15.3161,-13.651,1.2857,0.924703,-0.170183,93,99,100,100,95,7,100,100,100,100,100,0
-0.110218,10,-0.3191,-1.23274,-14.6069,27.5226,-12.9295,0.3191,-0.3191,-1.23274,-14.237,27.5226,-13.2993,0.3191,4.95146,12.8565,-9.2534,7.24686,-0.105126,-7.23605,-2.45231,11.1152,16.2602,0.8229,5,-15.3158,-13.6511,1.28621,0.924558,-0.170187,93,99,100,100,95,7,100,100,100,100,100,0
-0.110441,10,-0.319108,-1.23255,-14.6068,27.5226,-12.9295,0.319108,-0.319108,-1.23255,-14.2371,27.5226,-13.2993,0.319108,4.95189,12.8569,-9.25409,7.24691,-0.105849,-7.23688,-2.45316,11.1147,16.2608,0.822885,5,-15.3156,-13.6512,1.28672,0.924414,-0.170192,93,99,100,100,95,7,100,100,100,100,100,0
-0.110666,10,-0.319116,-1.23236,-14.6068,27.5226,-12.9295,0.319116,-0.319116,-1.23236,-14.2371,27.5226,-13.2992,0.319116,4.95232,12.8574,-9.25478,7.24697,-0.106577,-7.23772,-2.45401,11.1141,16.2613,0.822892,5,-15.3154,-13.6513,1.28723,0.924271,-0.170196,93,99,100,100,95,7,100,100,100,100,100,0
-0.110895,10,-0.319124,-1.23217,-14.6068,27.5226,-12.9296,0.319124,-0.319124,-1.23217,-14.2371,27.5226,-13.2992,0.319124,4.95274,12.8578,-9.25546,7.24704,-0.107308,-7.23858,-2.45487,11.1136,16.2618,0.822925,5,-15.3152,-13.6514,1.28775,0.92413,-0.1702,93,99,100,100,95,7,100,100,100,100,100,0
-0.111127,10,-0.319132,-1.23199,-14.6067,27.5226,-12.9296,0.319132,-0.319132,-1.23199,-14.2371,27.5226,-13.2992,0.319132,4.95316,12.8582,-9.25612,7.24713,-0.108042,-7.23946,-2.45575,11.1131,16.2623,0.822987,5,-15.315,-13.6514,1.28828,0.923989,-0.170204,93,99,100,100,95,7,100,100,100,100,100,0
-0.111363,10,-0.319139,-1.2318,-14.6067,27.5226,-12.9296,0.319139,-0.319139,-1.2318,-14.2371,27.5226,-13.2992,0.319139,4.95356,12.8586,-9.25677,7.24724,-0.10878,-7.24036,-2.45662,11.1126,16.2628,0.82308,5,-15.3149,-13.6515,1.28883,0.92385,-0.170208,93,99,100,100,95,7,100,100,100,100,100,0
-0.111605,10,-0.319147,-1.23162,-14.6067,27.5226,-12.9297,0.319147,-0.319147,-1.23162,-14.2372,27.5226,-13.2991,0.319147,4.95396,12.8591,-9.2574,7.24738,-0.109519,-7.24127,-2.4575,11.112,16.2633,0.823207,5,-15.3148,-13.6516,1.28939,0.923713,-0.170212,93,99,100,100,95,7,100,100,100,100,100,0
-0.111851,10,-0.319154,-1.23144,-14.6067,27.5227,-12.9297,0.319154,-0.319154,-1.23144,-14.2373,27.5227,-13.2991,0.319154,4.95435,12.8595,-9.258,7.24753,-0.110259,-7.24219,-2.45839,11.1115,16.2638,0.823368,5,-15.3147,-13.6516,1.28997,0.923578,-0.170216,93,99,100,100,95,7,100,100,100,100,100,0
-0.112104,10,-0.319162,-1.23126,-14.6067,27.5227,-12.9297,0.319162,-0.319162,-1.23126,-14.2373,27.5227,-13.2991,0.319162,4.95473,12.8599,-9.25857,7.24771,-0.111006,-7.24314,-2.45927,11.111,16.2643,0.823581,5,-15.3147,-13.6516,1.29058,0.923445,-0.170221,93,99,100,100,95,7,100,100,100,100,100,0
-0.112363,10,-0.31917,-1.23109,-14.6067,27.5227,-12.9298,0.31917,-0.31917,-1.23109,-14.2373,27.5227,-13.2991,0.31917,4.9551,12.8603,-9.2591,7.24792,-0.111755,-7.24411,-2.46015,11.1105,16.2648,0.823837,5,-15.3147,-13.6516,1.29121,0.923314,-0.170225,93,99,100,100,95,7,100,100,100,100,100,0
-0.112627,10,-0.319178,-1.23091,-14.6066,27.5227,-12.9298,0.319178,-0.319178,-1.23091,-14.2374,27.5227,-13.2991,0.319178,4.95546,12.8607,-9.25961,7.24815,-0.112503,-7.24509,-2.46102,11.11,16.2653,0.824129,5,-15.3148,-13.6515,1.29187,0.923186,-0.170229,93,99,100,100,95,7,100,100,100,100,100,0
-0.112897,10,-0.319186,-1.23075,-14.6066,27.5227,-12.9298,0.319186,-0.319186,-1.23075,-14.2374,27.5227,-13.2991,0.319186,4.95582,12.8611,-9.26009,7.2484,-0.113249,-7.24607,-2.46189,11.1095,16.2658,0.824451,5,-15.3149,-13.6515,1.29253,0.923059,-0.170234,93,99,100,100,95,7,100,100,100,100,100,0
-0.11317,10,-0.319194,-1.23058,-14.6066,27.5227,-12.9299,0.319194,-0.319194,-1.23058,-14.2374,27.5227,-13.299,0.319194,4.95616,12.8615,-9.26055,7.24866,-0.113989,-7.24706,-2.46276,11.1091,16.2663,0.824798,5,-15.315,-13.6514,1.29321,0.922936,-0.170238,93,99,100,100,95,7,100,100,100,100,100,0
-0.113448,10,-0.319203,-1.23042,-14.6065,27.5227,-12.9299,0.319203,-0.319203,-1.23042,-14.2374,27.5227,-13.299,0.319203,4.9565,12.8619,-9.26099,7.24893,-0.114724,-7.24804,-2.46362,11.1086,16.2667,0.825164,5,-15.3151,-13.6514,1.29389,0.922814,-0.170243,93,99,100,100,95,7,100,100,100,100,100,0
-0.113729,10,-0.319211,-1.23026,-14.6052,27.5217,-12.9297,0.319211,-0.319211,-1.23026,-14.2362,27.5217,-13.2987,0.319211,4.95682,12.8623,-9.26142,7.24921,-0.11545,-7.24902,-2.46447,11.1081,16.2672,0.825547,5,-15.3153,-13.6513,1.29457,0.922695,-0.170247,93,99,100,100,95,7,100,100,100,100,100,0
-0.114012,10,-0.319218,-1.23011,-14.6052,27.5217,-12.9297,0.319218,-0.319218,-1.23011,-14.2362,27.5217,-13.2987,0.319218,4.95714,12.8626,-9.26183,7.24948,-0.11616,-7.24999,-2.46531,11.1077,16.2677,0.825927,5,-15.3154,-13.6512,1.29523,0.922579,-0.170251,93,99,100,100,95,7,100,100,100,100,100,0
-0.114297,10,-0.319226,-1.22995,-14.6052,27.5217,-12.9297,0.319226,-0.319226,-1.22995,-14.2362,27.5217,-13.2987,0.319226,4.95745,12.863,-9.26224,7.24975,-0.116858,-7.25094,-2.46615,11.1072,16.2681,0.82631,5,-15.3156,-13.6511,1.29589,0.922466,-0.170255,93,99,100,100,95,7,100,100,100,100,100,0
-0.114584,10,-0.319233,-1.22981,-14.6051,27.5217,-12.9297,0.319233,-0.319233,-1.22981,-14.2362,27.5217,-13.2987,0.319233,4.95776,12.8634,-9.26263,7.25003,-0.117545,-7.25188,-2.46697,11.1068,16.2685,0.826702,5,-15.3158,-13.6511,1.29654,0.922355,-0.170259,93,99,100,100,95,7,100,100,100,100,100,0
-0.114872,10,-0.31924,-1.22966,-14.6051,27.5217,-12.9298,0.31924,-0.31924,-1.22966,-14.2362,27.5217,-13.2987,0.31924,4.95805,12.8637,-9.26301,7.25031,-0.118224,-7.25281,-2.46779,11.1064,16.269,0.827107,5,-15.316,-13.651,1.29719,0.922246,-0.170263,93,99,100,100,95,7,100,100,100,100,100,0
-0.115161,10,-0.319247,-1.22952,-14.6051,27.5217,-12.9298,0.319247,-0.319247,-1.22952,-14.2362,27.5217,-13.2986,0.319247,4.95834,12.864,-9.26336,7.2506,-0.118896,-7.25375,-2.46859,11.1059,16.2694,0.827528,5,-15.3162,-13.6509,1.29785,0.92214,-0.170267,93,99,100,100,95,7,100,100,100,100,100,0
-0.11545,10,-0.319255,-1.22938,-14.6051,27.5217,-12.9298,0.319255,-0.319255,-1.22938,-14.2363,27.5217,-13.2986,0.319255,4.95862,12.8644,-9.26368,7.25091,-0.119563,-7.25468,-2.46937,11.1055,16.2698,0.827969,5,-15.3164,-13.6508,1.29852,0.922036,-0.170271,93,99,100,100,95,7,100,100,100,100,100,0
-0.115739,10,-0.319263,-1.22925,-14.6049,27.5216,-12.9298,0.319263,-0.319263,-1.22925,-14.2361,27.5216,-13.2986,0.319263,4.95889,12.8647,-9.26398,7.25123,-0.120226,-7.25561,-2.47013,11.1051,16.2702,0.828431,5,-15.3166,-13.6507,1.2992,0.921935,-0.170275,93,99,100,100,95,7,100,100,100,100,100,0
-0.116029,10,-0.319271,-1.22911,-14.6049,27.5216,-12.9298,0.319271,-0.319271,-1.22911,-14.2361,27.5216,-13.2986,0.319271,4.95915,12.865,-9.26424,7.25157,-0.120889,-7.25656,-2.47088,11.1047,16.2706,0.828922,5,-15.3169,-13.6505,1.2999,0.921835,-0.170279,93,99,100,100,95,7,100,100,100,100,100,0
-0.116319,10,-0.319279,-1.22898,-14.6048,27.5216,-12.9299,0.319279,-0.319279,-1.22898,-14.2361,27.5216,-13.2986,0.319279,4.9594,12.8654,-9.26447,7.25194,-0.121551,-7.25751,-2.4716,11.1043,16.2711,0.829441,5,-15.3172,-13.6503,1.30063,0.921738,-0.170284,93,99,100,100,95,7,100,100,100,100,100,0
