565950964-design/kaipule_sdk/control/csv_file/kenan.csv
Head_1,Head_2,Joint_1,Joint_2,Joint_3,Joint_4,Joint_5,Joint_6,Joint_7,Joint_8,Joint_9,Joint_10,Joint_11,Joint_12,Joint_13,Joint_14,Joint_15,Joint_16,Joint_17,Joint_18,Joint_19,Joint_20,Joint_21,Joint_22,Joint_23,Joint_24,Joint_25,Joint_26,Joint_27,Joint_28,Finger_1,Finger_2,Finger_3,Finger_4,Finger_5,Finger_6,Finger_7,Finger_8,Finger_9,Finger_10,Finger_11,Finger_12
3.09185,10,-1.12489,-4.58879,-16.1252,28.5478,-13.1198,1.12489,-1.12489,-4.58879,-14.7486,28.5478,-14.4964,1.12489,-2.75897,10.5057,-2.48823,8.71427,3.99208,-10.8179,-2.15825,2.12269,13.5443,16.9222,5,-14.8908,-10.2463,0.804564,0.732249,-0.151929,67,81,82,85,91,33,65,75,78,77,83,35
3.03099,10,-1.12188,-4.57838,-16.1236,28.5478,-13.1214,1.12188,-1.12188,-4.57838,-14.7501,28.5478,-14.4949,1.12188,-2.7339,10.5283,-2.49326,8.68826,3.9511,-10.8002,-2.14871,2.09571,13.5345,16.7226,5,-14.8655,-10.1555,0.818138,0.724442,-0.150311,67,81,82,85,91,33,65,75,78,77,83,35
2.96644,10,-1.11869,-4.56734,-16.1219,28.5478,-13.1231,1.11869,-1.11869,-4.56734,-14.7517,28.5478,-14.4934,1.11869,-2.70732,10.5522,-2.49871,8.6607,3.90779,-10.7815,-2.1386,2.06709,13.5242,16.5115,5,-14.8387,-10.0593,0.83254,0.716162,-0.148601,67,81,82,85,91,33,65,75,78,77,83,35
2.89868,10,-1.11535,-4.55575,-16.12,28.5478,-13.125,1.11535,-1.11535,-4.55575,-14.7533,28.5478,-14.4917,1.11535,-2.67943,10.5772,-2.50455,8.6318,3.86246,-10.7619,-2.12801,2.03704,13.5134,16.2903,5,-14.8106,-9.9584,0.847663,0.707471,-0.146809,67,81,82,85,91,33,65,75,78,77,83,35
2.82817,10,-1.11189,-4.54369,-16.1181,28.5478,-13.1269,1.11189,-1.11189,-4.54369,-14.755,28.5478,-14.49,1.11189,-2.65041,10.6032,-2.51071,8.60174,3.8154,-10.7416,-2.117,2.00576,13.5022,16.0605,5,-14.7813,-9.85338,0.863405,0.698426,-0.144948,67,81,82,85,91,33,65,75,78,77,83,35
2.75532,10,-1.10831,-4.53123,-16.1162,28.5478,-13.1288,1.10831,-1.10831,-4.53123,-14.7568,28.5478,-14.4882,1.10831,-2.62044,10.6301,-2.51716,8.5707,3.76689,-10.7205,-2.10563,1.97344,13.4907,15.8233,5,-14.7511,-9.7449,0.879673,0.689082,-0.143028,67,81,82,85,91,33,65,75,78,77,83,35
2.68053,10,-1.10464,-4.51844,-16.1142,28.5478,-13.1309,1.10464,-1.10464,-4.51844,-14.7586,28.5478,-14.4864,1.10464,-2.58966,10.6576,-2.52385,8.53885,3.71716,-10.699,-2.09396,1.94026,13.4788,15.5802,5,-14.7201,-9.63355,0.896381,0.679488,-0.141059,67,81,82,85,91,33,65,75,78,77,83,35
2.60418,10,-1.1009,-4.50538,-16.1118,28.5476,-13.1328,1.1009,-1.1009,-4.50538,-14.7602,28.5476,-14.4845,1.1009,-2.55826,10.6857,-2.53076,8.50635,3.66647,-10.677,-2.08206,1.90638,13.4668,15.3322,5,-14.6884,-9.5199,0.913441,0.669695,-0.139052,67,82,82,85,91,33,65,74,78,76,83,35
2.52666,10,-1.0971,-4.49213,-16.1097,28.5476,-13.1349,1.0971,-1.0971,-4.49213,-14.7621,28.5476,-14.4826,1.0971,-2.52637,10.7142,-2.53783,8.47336,3.61507,-10.6546,-2.06997,1.87198,13.4545,15.0806,5,-14.6563,-9.40453,0.930766,0.659753,-0.137016,67,82,82,85,91,33,65,74,78,76,83,35
2.44823,10,-1.09326,-4.47872,-16.1076,28.5476,-13.137,1.09326,-1.09326,-4.47872,-14.764,28.5476,-14.4807,1.09326,-2.49412,10.743,-2.54504,8.44,3.56314,-10.6321,-2.05775,1.83718,13.4422,14.8263,5,-14.6238,-9.28783,0.948297,0.649695,-0.134958,67,82,82,85,91,33,65,74,78,76,83,35
2.36915,10,-1.08939,-4.46519,-16.1055,28.5476,-13.1392,1.08939,-1.08939,-4.46519,-14.7659,28.5476,-14.4787,1.08939,-2.4616,10.7721,-2.55237,8.40638,3.51083,-10.6093,-2.04543,1.80208,13.4298,14.57,5,-14.591,-9.17016,0.96598,0.639553,-0.132884,67,82,82,85,91,33,65,74,78,76,83,35
2.28965,10,-1.0855,-4.4516,-16.1033,28.5476,-13.1413,1.0855,-1.0855,-4.4516,-14.7678,28.5476,-14.4768,1.0855,-2.42891,10.8013,-2.55979,8.37258,3.45829,-10.5864,-2.03304,1.76679,13.4173,14.3125,5,-14.558,-9.05186,0.983763,0.629356,-0.130801,67,82,82,85,91,33,65,74,78,76,83,35
2.20992,10,-1.0816,-4.43797,-16.1012,28.5476,-13.1435,1.0816,-1.0816,-4.43797,-14.7698,28.5476,-14.4749,1.0816,-2.39614,10.8305,-2.56729,8.3387,3.40565,-10.5635,-2.02062,1.73141,13.4048,14.0545,5,-14.525,-8.93323,1.0016,0.619132,-0.128714,67,82,82,85,91,33,65,74,78,76,83,35
2.13018,10,-1.0777,-4.42433,-16.099,28.5476,-13.1456,1.0777,-1.0777,-4.42433,-14.7717,28.5476,-14.4729,1.0777,-2.36337,10.8597,-2.57484,8.30482,3.35305,-10.5406,-2.0082,1.69601,13.3923,13.7965,5,-14.492,-8.81456,1.01945,0.608906,-0.126627,67,82,82,85,91,33,65,74,78,76,83,35
2.05061,10,-1.07381,-4.41073,-16.0964,28.5472,-13.1477,1.07381,-1.07381,-4.41073,-14.7732,28.5472,-14.4709,1.07381,-2.33067,10.8889,-2.58243,8.27103,3.30061,-10.5177,-1.9958,1.66068,13.3798,13.5392,5,-14.459,-8.69614,1.03726,0.598703,-0.124545,66,82,82,85,91,34,64,73,77,75,82,36
1.97142,10,-1.06994,-4.39719,-16.0943,28.5472,-13.1498,1.06994,-1.06994,-4.39719,-14.7751,28.5472,-14.469,1.06994,-2.29814,10.9179,-2.59004,8.23741,3.24846,-10.495,-1.98346,1.62552,13.3674,13.2833,5,-14.4263,-8.57825,1.055,0.588548,-0.122475,66,82,82,85,91,34,64,73,77,75,82,36
1.89273,10,-1.0661,-4.38373,-16.0921,28.5472,-13.1519,1.0661,-1.0661,-4.38373,-14.777,28.5472,-14.467,1.0661,-2.26581,10.9467,-2.59766,8.20401,3.19667,-10.4724,-1.9712,1.59057,13.3551,13.029,5,-14.3937,-8.46109,1.07263,0.578457,-0.120418,66,82,82,85,91,34,64,73,77,75,82,36
1.81466,10,-1.06228,-4.37038,-16.09,28.5472,-13.154,1.06228,-1.06228,-4.37038,-14.7789,28.5472,-14.4651,1.06228,-2.23375,10.9753,-2.60526,8.17088,3.14533,-10.4499,-1.95903,1.55589,13.3429,12.7768,5,-14.3614,-8.34481,1.09013,0.568445,-0.118378,66,82,82,85,91,34,64,73,77,75,82,36
1.73729,10,-1.0585,-4.35716,-16.0879,28.5472,-13.1561,1.0585,-1.0585,-4.35716,-14.7808,28.5472,-14.4633,1.0585,-2.20198,11.0036,-2.61284,8.13807,3.09449,-10.4277,-1.94697,1.52152,13.3307,12.527,5,-14.3295,-8.22958,1.10748,0.558526,-0.116357,66,82,82,85,91,34,64,73,77,75,82,36
1.66075,10,-1.05476,-4.34407,-16.0859,28.5472,-13.1582,1.05476,-1.05476,-4.34407,-14.7826,28.5472,-14.4614,1.05476,-2.17056,11.0316,-2.62039,8.10561,3.04421,-10.4057,-1.93504,1.48751,13.3188,12.2799,5,-14.2979,-8.11554,1.12465,0.54871,-0.114358,66,82,82,85,91,34,64,73,77,75,82,36
1.5851,10,-1.05106,-4.33114,-16.0838,28.5472,-13.1602,1.05106,-1.05106,-4.33114,-14.7845,28.5472,-14.4596,1.05106,-2.13951,11.0593,-2.62789,8.07353,2.99456,-10.3839,-1.92324,1.45389,13.307,12.0358,5,-14.2667,-8.00281,1.14162,0.539011,-0.112383,66,82,82,85,91,34,64,73,77,75,82,36
1.51043,10,-1.04741,-4.31837,-16.0818,28.5472,-13.1622,1.04741,-1.04741,-4.31837,-14.7863,28.5472,-14.4578,1.04741,-2.10888,11.0866,-2.63532,8.04189,2.94558,-10.3625,-1.9116,1.42071,13.2953,11.7949,5,-14.2359,-7.89153,1.15837,0.529438,-0.110435,66,82,82,85,91,34,64,73,77,75,82,36
1.43685,10,-1.04382,-4.30579,-16.0798,28.5472,-13.1642,1.04382,-1.04382,-4.30579,-14.7881,28.5472,-14.456,1.04382,-2.07869,11.1135,-2.64269,8.0107,2.89733,-10.3413,-1.90012,1.38799,13.2838,11.5576,5,-14.2055,-7.78183,1.17489,0.520003,-0.108514,66,82,82,85,91,34,64,73,77,75,82,36
1.36438,10,-1.04028,-4.29341,-16.0779,28.5472,-13.1662,1.04028,-1.04028,-4.29341,-14.7898,28.5472,-14.4542,1.04028,-2.04897,11.14,-2.64998,7.97999,2.84985,-10.3205,-1.88881,1.35577,13.2725,11.3239,5,-14.1757,-7.67377,1.19115,0.510712,-0.106624,66,82,82,85,91,34,64,73,77,75,82,36
1.29309,10,-1.0368,-4.28122,-16.0759,28.5472,-13.1681,1.0368,-1.0368,-4.28122,-14.7916,28.5472,-14.4525,1.0368,-2.01974,11.166,-2.65719,7.94979,2.80316,-10.3,-1.87768,1.32407,13.2613,11.094,5,-14.1463,-7.56743,1.20716,0.501571,-0.104765,66,82,82,85,91,34,64,73,77,75,82,36
1.22299,10,-1.03337,-4.26924,-16.074,28.5472,-13.17,1.03337,-1.03337,-4.26924,-14.7933,28.5472,-14.4508,1.03337,-1.991,11.1916,-2.6643,7.92009,2.75727,-10.2798,-1.86673,1.29289,13.2504,10.868,5,-14.1175,-7.46286,1.2229,0.492584,-0.102937,66,82,82,85,91,34,64,73,77,75,82,36
1.15413,10,-1.03001,-4.25747,-16.0722,28.5472,-13.1719,1.03001,-1.03001,-4.25747,-14.7949,28.5472,-14.4491,1.03001,-1.96279,11.2168,-2.67131,7.89092,2.71221,-10.26,-1.85597,1.26226,13.2396,10.646,5,-14.0892,-7.36011,1.23836,0.483757,-0.101143,66,82,82,85,91,34,64,73,77,75,82,36
1.08652,10,-1.02671,-4.24591,-16.0704,28.5472,-13.1737,1.02671,-1.02671,-4.24591,-14.7966,28.5472,-14.4475,1.02671,-1.9351,11.2415,-2.67822,7.86229,2.66799,-10.2405,-1.8454,1.23218,13.2291,10.4281,5,-14.0615,-7.25921,1.25355,0.475092,-0.0993815,66,82,82,85,91,34,64,73,77,75,82,36
1.02021,10,-1.02347,-4.23458,-16.0681,28.5469,-13.1754,1.02347,-1.02347,-4.23458,-14.7977,28.5469,-14.4458,1.02347,-1.90795,11.2657,-2.68503,7.83421,2.62463,-10.2214,-1.83503,1.20268,13.2188,10.2144,5,-14.0343,-7.16022,1.26844,0.466594,-0.0976547,66,82,82,85,91,34,64,73,76,75,82,36
0.955224,10,-1.0203,-4.22348,-16.0663,28.5469,-13.1771,1.0203,-1.0203,-4.22348,-14.7992,28.5469,-14.4442,1.0203,-1.88135,11.2894,-2.69172,7.80669,2.58215,-10.2027,-1.82486,1.17376,13.2087,10.005,5,-14.0076,-7.06317,1.28303,0.458267,-0.0959635,66,82,82,85,91,34,64,73,76,75,82,36
0.891563,10,-1.01719,-4.21261,-16.0646,28.5469,-13.1789,1.01719,-1.01719,-4.21261,-14.8008,28.5469,-14.4427,1.01719,-1.85531,11.3126,-2.69829,7.77973,2.54055,-10.1844,-1.81488,1.14543,13.1988,9.79995,5,-13.9816,-6.96809,1.29732,0.450112,-0.0943079,66,82,82,85,91,34,64,73,76,75,82,36
0.829234,10,-1.01415,-4.20196,-16.0629,28.5469,-13.1806,1.01415,-1.01415,-4.20196,-14.8023,28.5469,-14.4411,1.01415,-1.82983,11.3353,-2.70475,7.75334,2.49983,-10.1664,-1.80511,1.1177,13.1891,9.59917,5,-13.9561,-6.87497,1.31131,0.442129,-0.0926877,66,82,82,85,91,34,64,73,76,75,82,36
0.768239,10,-1.01118,-4.19155,-16.0612,28.5469,-13.1822,1.01118,-1.01118,-4.19155,-14.8038,28.5469,-14.4397,1.01118,-1.80491,11.3576,-2.71108,7.72752,2.45999,-10.1488,-1.79553,1.09055,13.1796,9.4027,5,-13.9312,-6.78383,1.325,0.434319,-0.0911028,66,82,82,85,91,34,64,73,76,75,82,36
0.708578,10,-1.00827,-4.18136,-16.0596,28.5469,-13.1838,1.00827,-1.00827,-4.18136,-14.8052,28.5469,-14.4382,1.00827,-1.78054,11.3793,-2.71729,7.70226,2.42104,-10.1316,-1.78617,1.064,13.1704,9.21055,5,-13.9069,-6.69466,1.33839,0.42668,-0.0895532,66,82,82,85,91,34,64,73,76,75,82,36
0.650248,10,-1.00543,-4.17141,-16.058,28.5469,-13.1854,1.00543,-1.00543,-4.17141,-14.8066,28.5469,-14.4368,1.00543,-1.75672,11.4006,-2.72338,7.67757,2.38296,-10.1148,-1.777,1.03803,13.1614,9.0227,5,-13.8832,-6.60746,1.35147,0.419213,-0.0880387,66,82,82,85,91,34,64,73,76,75,82,36
0.593248,10,-1.00265,-4.16168,-16.0567,28.547,-13.187,1.00265,-1.00265,-4.16168,-14.8082,28.547,-14.4355,1.00265,-1.73345,11.4213,-2.72935,7.65345,2.34576,-10.0983,-1.76803,1.01266,13.1525,8.83916,5,-13.86,-6.52224,1.36426,0.411917,-0.086559,66,82,82,85,91,34,64,73,76,75,82,36
0.537576,10,-0.999938,-4.15218,-16.0552,28.547,-13.1885,0.999938,-0.999938,-4.15218,-14.8095,28.547,-14.4341,0.999938,-1.71073,11.4416,-2.73519,7.62989,2.30944,-10.0823,-1.75927,0.987878,13.1439,8.65991,5,-13.8373,-6.43899,1.37676,0.404791,-0.0851138,66,82,82,85,91,34,64,73,76,75,82,36
0.483222,10,-0.997289,-4.1429,-16.0537,28.547,-13.19,0.997289,-0.997289,-4.1429,-14.8108,28.547,-14.4328,0.997289,-1.68855,11.4614,-2.74091,7.60689,2.27399,-10.0666,-1.75072,0.96368,13.1355,8.48491,5,-13.8152,-6.35771,1.38895,0.397834,-0.083703,66,82,82,85,91,34,64,73,76,75,82,36
0.430171,10,-0.994703,-4.13385,-16.0523,28.547,-13.1914,0.994703,-0.994703,-4.13385,-14.8121,28.547,-14.4316,0.994703,-1.66691,11.4808,-2.7465,7.58444,2.2394,-10.0513,-1.74236,0.940061,13.1273,8.31413,5,-13.7936,-6.27836,1.40086,0.391045,-0.0823262,66,82,82,85,91,34,64,73,76,75,82,36
0.378409,10,-0.992181,-4.12502,-16.0508,28.547,-13.1928,0.992181,-0.992181,-4.12502,-14.8133,28.547,-14.4303,0.992181,-1.6458,11.4996,-2.75196,7.56254,2.20565,-10.0363,-1.7342,0.917016,13.1193,8.14751,5,-13.7726,-6.20093,1.41247,0.384422,-0.0809833,66,82,82,85,91,34,64,73,76,75,82,36
0.327921,10,-0.989722,-4.11641,-16.0495,28.547,-13.1942,0.989722,-0.989722,-4.11641,-14.8146,28.547,-14.4291,0.989722,-1.62521,11.518,-2.7573,7.54118,2.17274,-10.0217,-1.72624,0.894537,13.1115,7.98499,5,-13.7521,-6.12539,1.4238,0.377963,-0.0796741,66,82,82,85,91,34,64,73,76,75,82,36
0.278692,10,-0.987325,-4.10801,-16.0481,28.547,-13.1955,0.987325,-0.987325,-4.10801,-14.8157,28.547,-14.4279,0.987325,-1.60515,11.5359,-2.76252,7.52035,2.14065,-10.0075,-1.71847,0.872617,13.1039,7.82653,5,-13.7321,-6.05172,1.43484,0.371665,-0.0783982,66,82,82,85,91,34,64,73,76,75,82,36
0.230705,10,-0.98499,-4.09983,-16.0468,28.547,-13.1968,0.98499,-0.98499,-4.09983,-14.8169,28.547,-14.4268,0.98499,-1.5856,11.5534,-2.7676,7.50004,2.10937,-9.99362,-1.7109,0.851251,13.0965,7.67208,5,-13.7127,-5.9799,1.4456,0.365528,-0.0771553,66,82,82,85,91,34,64,72,76,75,82,36
0.183952,10,-0.982717,-4.09186,-16.0456,28.547,-13.1981,0.982717,-0.982717,-4.09186,-14.818,28.547,-14.4256,0.982717,-1.56657,11.5704,-2.77256,7.48026,2.07889,-9.9801,-1.70352,0.830434,13.0893,7.5216,5,-13.6938,-5.90991,1.45608,0.35955,-0.0759453,66,82,82,85,91,34,64,72,76,75,82,36
0.13841,10,-0.980504,-4.0841,-16.0443,28.547,-13.1993,0.980504,-0.980504,-4.0841,-14.8191,28.547,-14.4245,0.980504,-1.54804,11.5869,-2.77739,7.46099,2.04919,-9.96692,-1.69633,0.810155,13.0823,7.375,5,-13.6754,-5.84172,1.46629,0.353729,-0.0747675,66,82,82,85,91,34,64,72,76,75,82,36
0.094054,10,-0.97835,-4.07654,-16.0431,28.547,-13.2005,0.97835,-0.97835,-4.07654,-14.8202,28.547,-14.4235,0.97835,-1.52999,11.603,-2.7821,7.44222,2.02027,-9.95408,-1.68933,0.790406,13.0755,7.23223,5,-13.6575,-5.77529,1.47623,0.34806,-0.0736216,66,82,82,85,91,34,64,72,76,75,82,36
0.0508612,10,-0.976255,-4.06918,-16.042,28.547,-13.2017,0.976255,-0.976255,-4.06918,-14.8212,28.547,-14.4224,0.976255,-1.51244,11.6187,-2.78668,7.42394,1.99211,-9.94158,-1.68251,0.771174,13.0689,7.09321,5,-13.6402,-5.7106,1.4859,0.342542,-0.072507,66,82,82,85,91,34,64,72,76,75,82,36
0.00880793,10,-0.974218,-4.06202,-16.0408,28.547,-13.2028,0.974218,-0.974218,-4.06202,-14.8222,28.547,-14.4214,0.974218,-1.49535,11.634,-2.79115,7.40614,1.96469,-9.9294,-1.67586,0.752451,13.0625,6.95787,5,-13.6233,-5.64762,1.49532,0.33717,-0.071423,66,82,82,85,91,34,64,72,76,75,82,36
-0.0321288,10,-0.972237,-4.05505,-16.0397,28.547,-13.2039,0.972237,-0.972237,-4.05505,-14.8232,28.547,-14.4204,0.972237,-1.47872,11.6489,-2.7955,7.3888,1.93799,-9.91755,-1.6694,0.734226,13.0562,6.82615,5,-13.6069,-5.58631,1.50449,0.331942,-0.0703692,66,82,82,85,91,34,64,72,76,75,82,36
-0.0719707,10,-0.970312,-4.04827,-16.039,28.5472,-13.2051,0.970312,-0.970312,-4.04827,-14.8245,28.5472,-14.4196,0.970312,-1.46255,11.6633,-2.79973,7.37192,1.91202,-9.90602,-1.66311,0.71649,13.0502,6.69798,5,-13.5909,-5.52664,1.5134,0.326856,-0.0693449,66,82,82,85,91,34,64,72,76,75,82,36
-0.110747,10,-0.968441,-4.04167,-16.0379,28.5472,-13.2061,0.968441,-0.968441,-4.04167,-14.8254,28.5472,-14.4186,0.968441,-1.44682,11.6774,-2.80384,7.35548,1.88675,-9.8948,-1.657,0.699229,13.0444,6.57329,5,-13.5755,-5.46859,1.52208,0.321907,-0.0683502,66,82,82,85,91,34,64,72,76,75,82,36
-0.148478,10,-0.966625,-4.03525,-16.0369,28.5472,-13.2072,0.966625,-0.966625,-4.03525,-14.8263,28.5472,-14.4177,0.966625,-1.43152,11.691,-2.80784,7.33947,1.86216,-9.88391,-1.65105,0.682435,13.0387,6.45202,5,-13.5604,-5.41212,1.53051,0.317093,-0.0673842,66,82,82,85,91,34,64,72,76,75,82,36
-0.185183,10,-0.964861,-4.029,-16.0359,28.5472,-13.2081,0.964861,-0.964861,-4.029,-14.8272,28.5472,-14.4168,0.964861,-1.41664,11.7043,-2.81174,7.32389,1.83825,-9.87331,-1.64527,0.666098,13.0332,6.33409,5,-13.5459,-5.3572,1.53872,0.31241,-0.066446,66,82,82,85,91,34,64,72,76,75,82,36
-0.220884,10,-0.963148,-4.02293,-16.035,28.5472,-13.2091,0.963148,-0.963148,-4.02293,-14.8281,28.5472,-14.416,0.963148,-1.40217,11.7172,-2.81552,7.30873,1.815,-9.86301,-1.63965,0.650211,13.0279,6.21941,5,-13.5317,-5.3038,1.54669,0.307857,-0.0655348,66,82,82,85,91,34,64,72,76,75,82,36
-0.255599,10,-0.961483,-4.01703,-16.034,28.5472,-13.2101,0.961483,-0.961483,-4.01703,-14.8289,28.5472,-14.4152,0.961483,-1.38811,11.7298,-2.8192,7.29398,1.79238,-9.853,-1.63419,0.634764,13.0228,6.10791,5,-13.518,-5.25187,1.55445,0.303431,-0.0646499,66,82,82,85,91,34,64,72,76,75,82,36
-0.289352,10,-0.959867,-4.0113,-16.0331,28.5472,-13.211,0.959867,-0.959867,-4.0113,-14.8297,28.5472,-14.4144,0.959867,-1.37444,11.742,-2.82279,7.27963,1.7704,-9.84326,-1.62888,0.619747,13.0178,5.99953,5,-13.5046,-5.20138,1.56199,0.299128,-0.0637904,66,82,82,85,91,34,64,72,76,75,82,36
-0.322161,10,-0.958297,-4.00572,-16.0322,28.5472,-13.2119,0.958297,-0.958297,-4.00572,-14.8305,28.5472,-14.4136,0.958297,-1.36116,11.7538,-2.82627,7.26569,1.74902,-9.8338,-1.62371,0.605151,13.013,5.89418,5,-13.4917,-5.1523,1.56932,0.294947,-0.0629558,66,82,82,85,91,34,64,72,76,74,82,36
-0.354032,10,-0.956772,-4.00031,-16.0314,28.5472,-13.2127,0.956772,-0.956772,-4.00031,-14.8313,28.5472,-14.4128,0.956772,-1.34826,11.7654,-2.82967,7.25214,1.72824,-9.82459,-1.61869,0.590976,13.0083,5.7918,5,-13.4791,-5.1046,1.57644,0.290886,-0.0621448,66,82,82,85,91,34,64,72,76,74,82,36
-0.384996,10,-0.95529,-3.99505,-16.0305,28.5472,-13.2136,0.95529,-0.95529,-3.99505,-14.832,28.5472,-14.4121,0.95529,-1.33573,11.7766,-2.83297,7.23899,1.70805,-9.81564,-1.6138,0.577207,13.0037,5.69232,5,-13.4669,-5.05825,1.58336,0.286941,-0.0613569,66,82,82,85,91,34,64,72,76,74,82,36
-0.41508,10,-0.953851,-3.98994,-16.0297,28.5472,-13.2144,0.953851,-0.953851,-3.98994,-14.8327,28.5472,-14.4114,0.953851,-1.32356,11.7874,-2.83618,7.2262,1.68842,-9.80693,-1.60905,0.563831,12.9993,5.59566,5,-13.4551,-5.0132,1.59009,0.283109,-0.0605919,66,82,82,85,91,34,64,72,76,74,82,36
-0.444314,10,-0.952454,-3.98497,-16.0289,28.5472,-13.2152,0.952454,-0.952454,-3.98497,-14.8334,28.5472,-14.4107,0.952454,-1.31174,11.798,-2.83931,7.21378,1.66936,-9.79848,-1.60444,0.550834,12.995,5.50176,5,-13.4436,-4.96944,1.59662,0.279386,-0.0598495,66,82,82,85,91,34,64,72,76,74,82,36
-0.472723,10,-0.951099,-3.98015,-16.0281,28.5472,-13.2159,0.951099,-0.951099,-3.98015,-14.8341,28.5472,-14.41,0.951099,-1.30026,11.8083,-2.84234,7.20169,1.65084,-9.79028,-1.59996,0.538203,12.9909,5.41056,5,-13.4325,-4.92693,1.60296,0.275769,-0.0591293,66,82,82,85,91,34,64,72,76,74,82,36
-0.500332,10,-0.949785,-3.97546,-16.0274,28.5472,-13.2167,0.949785,-0.949785,-3.97546,-14.8347,28.5472,-14.4093,0.949785,-1.2891,11.8182,-2.84527,7.18994,1.63285,-9.78233,-1.59562,0.525928,12.9869,5.32198,5,-13.4217,-4.88565,1.60913,0.272254,-0.0584309,66,82,82,85,91,34,64,72,76,74,82,36
-0.527164,10,-0.948511,-3.97091,-16.0269,28.5474,-13.2175,0.948511,-0.948511,-3.97091,-14.8356,28.5474,-14.4087,0.948511,-1.27826,11.8279,-2.84812,7.1785,1.61539,-9.77461,-1.59141,0.513997,12.983,5.23597,5,-13.4112,-4.84556,1.61511,0.268839,-0.0577539,66,82,82,85,91,34,64,72,76,74,82,36
-0.553256,10,-0.947278,-3.96648,-16.0262,28.5474,-13.2182,0.947278,-0.947278,-3.96648,-14.8363,28.5474,-14.4081,0.947278,-1.26773,11.8373,-2.85087,7.16736,1.59844,-9.76715,-1.58733,0.502393,12.9793,5.15247,5,-13.401,-4.80665,1.62092,0.265519,-0.0570984,66,82,82,85,91,34,64,72,76,74,82,36
-0.578621,10,-0.946084,-3.96218,-16.0255,28.5474,-13.2189,0.946084,-0.946084,-3.96218,-14.8369,28.5474,-14.4075,0.946084,-1.2575,11.8464,-2.85352,7.15651,1.58199,-9.75992,-1.58339,0.491109,12.9757,5.07141,5,-13.3911,-4.76887,1.62655,0.262292,-0.0564637,66,82,82,85,91,34,64,72,76,74,82,36
-0.603277,10,-0.944927,-3.958,-16.0249,28.5474,-13.2195,0.944927,-0.944927,-3.958,-14.8375,28.5474,-14.4069,0.944927,-1.24756,11.8552,-2.85608,7.14595,1.56603,-9.75292,-1.57957,0.480138,12.9722,4.99273,5,-13.3815,-4.7322,1.63203,0.259155,-0.0558491,66,82,82,85,91,34,64,72,76,74,82,36
-0.62724,10,-0.943807,-3.95393,-16.0242,28.5474,-13.2202,0.943807,-0.943807,-3.95393,-14.838,28.5474,-14.4064,0.943807,-1.23791,11.8638,-2.85856,7.13568,1.55054,-9.74615,-1.57587,0.469473,12.9689,4.91636,5,-13.3722,-4.69662,1.63734,0.256107,-0.0552538,66,82,82,85,91,34,64,72,76,74,82,36
-0.650525,10,-0.942722,-3.94999,-16.0236,28.5474,-13.2208,0.942722,-0.942722,-3.94999,-14.8386,28.5474,-14.4058,0.942722,-1.22853,11.8721,-2.86096,7.12567,1.53552,-9.73959,-1.57229,0.459108,12.9657,4.84224,5,-13.3632,-4.66208,1.64249,0.253146,-0.0546773,66,82,82,85,91,34,64,72,76,74,82,36
-0.673149,10,-0.941672,-3.94615,-16.023,28.5474,-13.2214,0.941672,-0.941672,-3.94615,-14.8391,28.5474,-14.4053,0.941672,-1.21943,11.8802,-2.86328,7.11594,1.52093,-9.73324,-1.56882,0.449036,12.9626,4.7703,5,-13.3544,-4.62856,1.64749,0.250269,-0.0541189,66,82,82,85,91,34,64,72,76,74,82,36
-0.695127,10,-0.940654,-3.94242,-16.0229,28.5478,-13.2221,0.940654,-0.940654,-3.94242,-14.8402,28.5478,-14.4049,0.940654,-1.21058,11.888,-2.86552,7.10648,1.50679,-9.72709,-1.56546,0.439251,12.9596,4.70048,5,-13.3459,-4.59603,1.65235,0.247475,-0.0535781,66,82,82,85,91,34,64,72,76,74,82,36
-0.716467,10,-0.939667,-3.93881,-16.0223,28.5478,-13.2227,0.939667,-0.939667,-3.93881,-14.8407,28.5478,-14.4044,0.939667,-1.202,11.8956,-2.8677,7.09728,1.49306,-9.72113,-1.56221,0.429745,12.9567,4.63273,5,-13.3377,-4.56446,1.65706,0.244761,-0.053054,66,82,82,85,91,34,64,72,76,74,82,36
-0.737189,10,-0.938712,-3.93529,-16.0218,28.5478,-13.2233,0.938712,-0.938712,-3.93529,-14.8412,28.5478,-14.4039,0.938712,-1.19366,11.9029,-2.86981,7.08833,1.47974,-9.71536,-1.55906,0.420513,12.9539,4.56698,5,-13.3297,-4.53384,1.66162,0.242126,-0.0525463,66,82,82,85,91,34,64,72,76,74,82,36
-0.757312,10,-0.937786,-3.93188,-16.0212,28.5478,-13.2238,0.937786,-0.937786,-3.93188,-14.8417,28.5478,-14.4034,0.937786,-1.18557,11.9101,-2.87184,7.07964,1.46682,-9.70977,-1.55602,0.411545,12.9512,4.50319,5,-13.3219,-4.50412,1.66606,0.239567,-0.0520544,66,82,82,85,91,34,64,72,76,74,82,36
-0.776855,10,-0.936889,-3.92857,-16.0207,28.5478,-13.2244,0.936889,-0.936889,-3.92857,-14.8421,28.5478,-14.4029,0.936889,-1.17771,11.917,-2.87382,7.07118,1.45428,-9.70436,-1.55307,0.402836,12.9486,4.4413,5,-13.3144,-4.47529,1.67036,0.237082,-0.051578,66,82,82,85,91,34,64,72,76,74,82,36
-0.795835,10,-0.936021,-3.92535,-16.0202,28.5478,-13.2249,0.936021,-0.936021,-3.92535,-14.8426,28.5478,-14.4025,0.936021,-1.17009,11.9237,-2.87572,7.06297,1.44212,-9.69912,-1.55021,0.394377,12.9461,4.38126,5,-13.3071,-4.44733,1.67453,0.234669,-0.0511167,66,82,82,85,91,34,64,72,76,74,82,36
-0.814269,10,-0.93518,-3.92223,-16.0197,28.5478,-13.2254,0.93518,-0.93518,-3.92223,-14.843,28.5478,-14.402,0.93518,-1.16268,11.9302,-2.87756,7.05498,1.43034,-9.69404,-1.54744,0.386162,12.9436,4.32302,5,-13.3,-4.4202,1.67857,0.232327,-0.0506699,66,82,82,85,91,34,64,72,76,74,82,36
-0.832174,10,-0.934366,-3.91919,-16.0193,28.5479,-13.2259,0.934366,-0.934366,-3.91919,-14.8435,28.5479,-14.4016,0.934366,-1.1555,11.9366,-2.87934,7.04721,1.4189,-9.68913,-1.54476,0.378183,12.9413,4.26652,5,-13.2931,-4.39388,1.6825,0.230052,-0.0502374,66,82,82,85,91,34,64,72,76,74,82,36
-0.849571,10,-0.933578,-3.91625,-16.0188,28.5479,-13.2264,0.933578,-0.933578,-3.91625,-14.8439,28.5479,-14.4012,0.933578,-1.14853,11.9427,-2.88106,7.03965,1.40782,-9.68438,-1.54216,0.370437,12.939,4.21172,5,-13.2865,-4.36836,1.68631,0.227845,-0.0498186,66,82,82,85,91,34,64,72,76,74,82,36
-0.866473,10,-0.932814,-3.91339,-16.0183,28.5479,-13.2268,0.932814,-0.932814,-3.91339,-14.8443,28.5479,-14.4008,0.932814,-1.14176,11.9486,-2.88272,7.0323,1.39708,-9.67978,-1.53964,0.362916,12.9369,4.15858,5,-13.28,-4.3436,1.69001,0.225701,-0.0494132,66,82,82,85,91,34,64,72,76,74,82,36
-0.88289,10,-0.932076,-3.91062,-16.0179,28.5479,-13.2273,0.932076,-0.932076,-3.91062,-14.8447,28.5479,-14.4004,0.932076,-1.13519,11.9544,-2.88431,7.02516,1.38666,-9.67533,-1.5372,0.35561,12.9348,4.10704,5,-13.2737,-4.31959,1.69359,0.223621,-0.0490208,66,82,82,85,91,34,64,72,76,74,82,36
-0.898835,10,-0.931361,-3.90792,-16.0175,28.5479,-13.2277,0.931361,-0.931361,-3.90792,-14.8451,28.5479,-14.4001,0.931361,-1.12882,11.9599,-2.88584,7.01822,1.37656,-9.67103,-1.53484,0.348511,12.9328,4.05706,5,-13.2676,-4.29631,1.69707,0.2216,-0.0486412,66,82,82,85,91,34,64,72,76,74,82,36
-0.914318,10,-0.93067,-3.90531,-16.017,28.5479,-13.2281,0.93067,-0.93067,-3.90531,-14.8454,28.5479,-14.3997,0.93067,-1.12265,11.9653,-2.88731,7.01147,1.36676,-9.66686,-1.53255,0.341612,12.9308,4.00861,5,-13.2617,-4.27373,1.70044,0.219639,-0.0482739,66,82,82,85,91,34,64,72,76,74,82,36
-0.929352,10,-0.930001,-3.90277,-16.0166,28.5479,-13.2285,0.930001,-0.930001,-3.90277,-14.8458,28.5479,-14.3993,0.930001,-1.11665,11.9706,-2.8887,7.00491,1.35726,-9.66283,-1.53033,0.334905,12.929,3.96164,5,-13.256,-4.25183,1.70371,0.217734,-0.0479186,66,82,82,85,91,34,64,72,76,74,82,36
-0.943948,10,-0.929354,-3.9003,-16.0178,28.549,-13.2293,0.929354,-0.929354,-3.9003,-14.8477,28.549,-14.3993,0.929354,-1.11085,11.9756,-2.89003,6.99853,1.34805,-9.65893,-1.52818,0.328383,12.9271,3.9161,5,-13.2504,-4.23059,1.70688,0.215884,-0.047575,66,82,82,85,91,34,64,72,76,74,82,36
-0.958118,10,-0.928729,-3.89791,-16.0174,28.549,-13.2296,0.928729,-0.928729,-3.89791,-14.848,28.549,-14.399,0.928729,-1.10522,11.9806,-2.89128,6.99234,1.3391,-9.65515,-1.52609,0.322037,12.9254,3.87197,5,-13.245,-4.21,1.70996,0.214088,-0.0472428,66,82,82,85,91,34,64,72,76,74,82,36
-0.971872,10,-0.928124,-3.89558,-16.017,28.549,-13.23,0.928124,-0.928124,-3.89558,-14.8484,28.549,-14.3987,0.928124,-1.09976,11.9853,-2.89246,6.98633,1.33042,-9.65149,-1.52407,0.315862,12.9237,3.8292,5,-13.2398,-4.19002,1.71293,0.212344,-0.0469216,66,82,82,85,91,34,64,72,76,74,82,36
-0.985223,10,-0.927539,-3.89332,-16.0167,28.549,-13.2304,0.927539,-0.927539,-3.89332,-14.8487,28.549,-14.3984,0.927539,-1.09448,11.9899,-2.89357,6.98049,1.322,-9.64794,-1.5221,0.309852,12.9221,3.78774,5,-13.2347,-4.17066,1.71581,0.21065,-0.046611,66,82,82,85,91,34,64,72,76,74,82,36
-0.998182,10,-0.926974,-3.89113,-16.0163,28.549,-13.2307,0.926974,-0.926974,-3.89113,-14.849,28.549,-14.3981,0.926974,-1.08936,11.9944,-2.89461,6.97483,1.31383,-9.64451,-1.5202,0.304004,12.9206,3.74757,5,-13.2298,-4.15188,1.71861,0.209005,-0.0463109,66,82,82,85,91,34,64,72,76,74,82,36
-1.01076,10,-0.926428,-3.889,-16.016,28.549,-13.2311,0.926428,-0.926428,-3.889,-14.8493,28.549,-14.3978,0.926428,-1.0844,11.9987,-2.89558,6.96932,1.30589,-9.64118,-1.51835,0.298311,12.9191,3.70865,5,-13.225,-4.13367,1.72131,0.207407,-0.0460208,66,82,82,85,91,34,64,72,76,74,82,36
-1.02297,10,-0.9259,-3.88693,-16.0156,28.549,-13.2314,0.9259,-0.9259,-3.88693,-14.8495,28.549,-14.3975,0.9259,-1.07959,12.0029,-2.89648,6.96398,1.29819,-9.63795,-1.51656,0.292771,12.9177,3.67092,5,-13.2204,-4.11602,1.72394,0.205855,-0.0457404,66,82,82,85,91,34,64,72,76,74,82,36
-1.03482,10,-0.92539,-3.88492,-16.0159,28.5495,-13.2319,0.92539,-0.92539,-3.88492,-14.8504,28.5495,-14.3974,0.92539,-1.07494,12.0069,-2.89732,6.95879,1.29071,-9.63482,-1.51482,0.287377,12.9163,3.63437,5,-13.2159,-4.0989,1.72648,0.204347,-0.0454695,66,82,82,85,91,34,64,72,76,74,82,36
-1.0463,10,-0.924897,-3.88297,-16.0156,28.5495,-13.2322,0.924897,-0.924897,-3.88297,-14.8507,28.5495,-14.3971,0.924897,-1.07042,12.0108,-2.8981,6.95375,1.28345,-9.63178,-1.51313,0.28213,12.915,3.59896,5,-13.2116,-4.0823,1.72894,0.202882,-0.0452077,66,82,82,85,91,34,64,72,76,74,82,36
-1.05745,10,-0.924421,-3.88107,-16.0152,28.5495,-13.2325,0.924421,-0.924421,-3.88107,-14.8509,28.5495,-14.3969,0.924421,-1.06604,12.0146,-2.89882,6.94886,1.27641,-9.62883,-1.51149,0.277023,12.9137,3.56464,5,-13.2074,-4.06621,1.73133,0.201459,-0.0449549,66,82,82,85,91,34,64,72,76,74,82,36
-1.06826,10,-0.923961,-3.87923,-16.0149,28.5495,-13.2328,0.923961,-0.923961,-3.87923,-14.8512,28.5495,-14.3966,0.923961,-1.0618,12.0183,-2.89948,6.94412,1.26957,-9.62597,-1.50989,0.27205,12.9125,3.5314,5,-13.2033,-4.0506,1.73365,0.200077,-0.0447106,66,82,82,85,91,34,64,72,76,74,82,36
-1.07877,10,-0.923516,-3.87744,-16.0146,28.5495,-13.2331,0.923516,-0.923516,-3.87744,-14.8514,28.5495,-14.3964,0.923516,-1.05769,12.0218,-2.90007,6.93952,1.26292,-9.62318,-1.50834,0.267207,12.9113,3.49918,5,-13.1994,-4.03548,1.73589,0.198735,-0.0444744,66,82,82,85,91,34,64,72,76,74,82,36
-1.08898,10,-0.923086,-3.8757,-16.0144,28.5495,-13.2334,0.923086,-0.923086,-3.8757,-14.8516,28.5495,-14.3961,0.923086,-1.05373,12.0252,-2.9006,6.93506,1.25646,-9.62047,-1.50683,0.262486,12.9102,3.46796,5,-13.1955,-4.02081,1.73807,0.197432,-0.0442461,66,82,82,85,91,34,64,72,76,74,82,36
-1.09892,10,-0.922671,-3.87401,-16.0141,28.5495,-13.2337,0.922671,-0.922671,-3.87401,-14.8519,28.5495,-14.3959,0.922671,-1.04989,12.0286,-2.90106,6.93073,1.25017,-9.61784,-1.50536,0.257885,12.9091,3.43771,5,-13.1918,-4.0066,1.74018,0.196167,-0.0440253,66,82,82,85,91,34,64,72,76,74,82,36
-1.10858,10,-0.922269,-3.87238,-16.0138,28.5495,-13.234,0.922269,-0.922269,-3.87238,-14.8521,28.5495,-14.3957,0.922269,-1.0462,12.0318,-2.90146,6.92654,1.24405,-9.61527,-1.50393,0.253399,12.908,3.4084,5,-13.1882,-3.99282,1.74222,0.19494,-0.0438118,66,82,82,85,91,34,64,72,76,74,82,36
-1.11799,10,-0.921879,-3.87079,-16.0135,28.5495,-13.2343,0.921879,-0.921879,-3.87079,-14.8523,28.5495,-14.3955,0.921879,-1.04264,12.0349,-2.90177,6.92249,1.23808,-9.61276,-1.50253,0.249021,12.907,3.38,5,-13.1847,-3.97947,1.74419,0.193748,-0.0436051,66,82,82,85,91,34,64,72,76,74,82,36
-1.12717,10,-0.921503,-3.86925,-16.0133,28.5495,-13.2345,0.921503,-0.921503,-3.86925,-14.8525,28.5495,-14.3953,0.921503,-1.0392,12.038,-2.90202,6.91856,1.23227,-9.61031,-1.50116,0.244748,12.9061,3.35247,5,-13.1813,-3.96653,1.74611,0.192593,-0.0434051,66,82,82,85,91,34,64,72,76,74,82,36
-1.1361,10,-0.921138,-3.86775,-16.013,28.5495,-13.2348,0.921138,-0.921138,-3.86775,-14.8527,28.5495,-14.3951,0.921138,-1.0359,12.0409,-2.9022,6.91476,1.22661,-9.60792,-1.49983,0.240578,12.9051,3.32579,5,-13.178,-3.95399,1.74797,0.191472,-0.0432115,66,82,82,85,91,34,64,72,76,74,82,36
-1.1448,10,-0.920785,-3.8663,-16.0127,28.5495,-13.235,0.920785,-0.920785,-3.8663,-14.8529,28.5495,-14.3949,0.920785,-1.03272,12.0438,-2.90232,6.91109,1.22109,-9.60559,-1.49852,0.236511,12.9042,3.29993,5,-13.1748,-3.94184,1.74976,0.190385,-0.0430241,66,82,82,85,91,34,64,72,76,74,82,36
-1.15328,10,-0.920444,-3.8649,-16.0125,28.5495,-13.2353,0.920444,-0.920444,-3.8649,-14.853,28.5495,-14.3947,0.920444,-1.02967,12.0465,-2.90237,6.90754,1.21572,-9.60332,-1.49725,0.232544,12.9034,3.27487,5,-13.1717,-3.93007,1.75151,0.189332,-0.0428427,66,82,82,85,91,34,64,72,76,74,82,36
-1.16152,10,-0.920113,-3.86354,-16.0123,28.5495,-13.2355,0.920113,-0.920113,-3.86354,-14.8532,28.5495,-14.3946,0.920113,-1.02674,12.0492,-2.90238,6.90411,1.21048,-9.6011,-1.49601,0.228675,12.9026,3.25056,5,-13.1687,-3.91866,1.75319,0.188312,-0.0426669,66,82,82,85,91,34,64,72,76,74,82,36
-1.16954,10,-0.919792,-3.86222,-16.0126,28.5499,-13.2359,0.919792,-0.919792,-3.86222,-14.8539,28.5499,-14.3945,0.919792,-1.02392,12.0518,-2.90232,6.9008,1.20538,-9.59894,-1.4948,0.224902,12.9018,3.227,5,-13.1658,-3.90761,1.75483,0.187323,-0.0424967,66,82,82,85,91,34,64,72,76,74,82,36
-1.17734,10,-0.919482,-3.86095,-16.0123,28.5499,-13.2361,0.919482,-0.919482,-3.86095,-14.854,28.5499,-14.3944,0.919482,-1.02122,12.0544,-2.90222,6.89761,1.20041,-9.59682,-1.49361,0.221225,12.901,3.20415,5,-13.1629,-3.8969,1.75642,0.186367,-0.0423318,66,82,82,85,91,34,64,72,76,74,82,36
-1.18493,10,-0.919181,-3.85971,-16.0121,28.5499,-13.2363,0.919181,-0.919181,-3.85971,-14.8542,28.5499,-14.3942,0.919181,-1.01864,12.0568,-2.90207,6.89453,1.19556,-9.59476,-1.49246,0.21764,12.9003,3.18198,5,-13.1601,-3.88653,1.75795,0.185442,-0.0421721,66,82,82,85,91,34,64,72,76,74,82,36
-1.19231,10,-0.918889,-3.85852,-16.0119,28.5499,-13.2365,0.918889,-0.918889,-3.85852,-14.8543,28.5499,-14.3941,0.918889,-1.01617,12.0592,-2.90188,6.89156,1.19084,-9.59275,-1.49134,0.214147,12.8996,3.16048,5,-13.1574,-3.87648,1.75944,0.184547,-0.0420173,66,82,82,85,91,34,64,72,76,74,82,36
-1.19948,10,-0.918607,-3.85737,-16.0117,28.5499,-13.2368,0.918607,-0.918607,-3.85737,-14.8545,28.5499,-14.394,0.918607,-1.0138,12.0615,-2.90165,6.8887,1.18624,-9.59078,-1.49024,0.210744,12.8989,3.13964,5,-13.1548,-3.86675,1.76089,0.183681,-0.0418672,66,82,82,85,91,34,64,72,76,74,82,36
-1.20646,10,-0.918333,-3.85625,-16.0115,28.5499,-13.237,0.918333,-0.918333,-3.85625,-14.8546,28.5499,-14.3938,0.918333,-1.01152,12.0638,-2.90139,6.88593,1.18176,-9.58887,-1.48917,0.207428,12.8982,3.11942,5,-13.1523,-3.85732,1.76229,0.182843,-0.0417219,66,82,82,85,91,34,64,72,76,74,82,36
-1.21325,10,-0.918068,-3.85517,-16.0113,28.5499,-13.2372,0.918068,-0.918068,-3.85517,-14.8547,28.5499,-14.3937,0.918068,-1.00934,12.066,-2.9011,6.88326,1.17741,-9.587,-1.48813,0.2042,12.8976,3.09982,5,-13.1498,-3.84818,1.76364,0.182031,-0.041581,66,82,82,85,91,34,64,72,76,74,82,36
-1.21986,10,-0.917811,-3.85412,-16.0121,28.5506,-13.2376,0.917811,-0.917811,-3.85412,-14.8559,28.5506,-14.3938,0.917811,-1.00724,12.0681,-2.90078,6.88068,1.17317,-9.58518,-1.48711,0.201057,12.897,3.08081,5,-13.1474,-3.83933,1.76496,0.181245,-0.0414445,66,82,82,85,91,34,64,72,76,74,82,36
-1.22628,10,-0.917562,-3.8531,-16.0119,28.5506,-13.2378,0.917562,-0.917562,-3.8531,-14.856,28.5506,-14.3937,0.917562,-1.00523,12.0701,-2.90045,6.87819,1.16904,-9.58341,-1.48612,0.197996,12.8964,3.06239,5,-13.145,-3.83075,1.76624,0.180484,-0.0413122,66,82,82,85,91,34,64,72,76,74,82,36
-1.23253,10,-0.91732,-3.85212,-16.0117,28.5506,-13.238,0.91732,-0.91732,-3.85212,-14.8561,28.5506,-14.3936,0.91732,-1.00329,12.0721,-2.90009,6.87578,1.16503,-9.58169,-1.48516,0.195016,12.8958,3.04453,5,-13.1428,-3.82244,1.76748,0.179747,-0.0411838,66,82,82,85,91,34,64,72,76,74,82,36
-1.23862,10,-0.917086,-3.85117,-16.0115,28.5506,-13.2382,0.917086,-0.917086,-3.85117,-14.8562,28.5506,-14.3935,0.917086,-1.00143,12.0741,-2.89973,6.87345,1.16113,-9.58001,-1.48422,0.192117,12.8953,3.02722,5,-13.1406,-3.81439,1.76868,0.179033,-0.0410595,66,82,82,85,91,34,64,72,76,74,82,36
-1.24454,10,-0.916859,-3.85025,-16.0113,28.5506,-13.2383,0.916859,-0.916859,-3.85025,-14.8563,28.5506,-14.3934,0.916859,-0.999647,12.076,-2.89934,6.8712,1.15734,-9.57838,-1.48331,0.189297,12.8948,3.01043,5,-13.1384,-3.80659,1.76984,0.178342,-0.040939,66,82,82,85,91,34,64,72,76,74,82,36
-1.2503,10,-0.916639,-3.84935,-16.0112,28.5506,-13.2385,0.916639,-0.916639,-3.84935,-14.8564,28.5506,-14.3933,0.916639,-0.99793,12.0778,-2.89895,6.86903,1.15365,-9.57679,-1.48242,0.186555,12.8942,2.99415,5,-13.1363,-3.79904,1.77097,0.177673,-0.0408222,66,82,82,85,91,34,64,72,76,74,82,36
-1.25591,10,-0.916426,-3.84849,-16.011,28.5506,-13.2387,0.916426,-0.916426,-3.84849,-14.8565,28.5506,-14.3932,0.916426,-0.99628,12.0796,-2.89854,6.86693,1.15006,-9.57524,-1.48156,0.183889,12.8938,2.97836,5,-13.1343,-3.79172,1.77207,0.177025,-0.0407092,66,82,82,85,91,34,64,72,76,74,82,36
-1.26138,10,-0.91622,-3.84766,-16.0105,28.5504,-13.2388,0.91622,-0.91622,-3.84766,-14.8562,28.5504,-14.3931,0.91622,-0.994695,12.0813,-2.89813,6.86491,1.14657,-9.57373,-1.48072,0.181298,12.8933,2.96305,5,-13.1324,-3.78463,1.77312,0.176399,-0.0405997,66,82,82,85,91,34,64,72,76,74,82,36
-1.2667,10,-0.91602,-3.84685,-16.0103,28.5504,-13.2389,0.91602,-0.91602,-3.84685,-14.8563,28.5504,-14.393,0.91602,-0.993169,12.0829,-2.89771,6.86296,1.14317,-9.57226,-1.4799,0.17878,12.8928,2.9482,5,-13.1304,-3.77776,1.77414,0.175792,-0.0404938,66,82,82,85,91,34,64,72,76,74,82,36
-1.27188,10,-0.915827,-3.84606,-16.0102,28.5504,-13.2391,0.915827,-0.915827,-3.84606,-14.8563,28.5504,-14.3929,0.915827,-0.991701,12.0846,-2.89728,6.86109,1.13987,-9.57083,-1.47911,0.176335,12.8924,2.9338,5,-13.1286,-3.77111,1.77513,0.175205,-0.0403913,66,82,82,85,91,34,64,72,76,74,82,36
-1.27693,10,-0.91564,-3.84531,-16.01,28.5504,-13.2392,0.91564,-0.91564,-3.84531,-14.8564,28.5504,-14.3928,0.91564,-0.990294,12.0861,-2.89685,6.85928,1.13666,-9.56943,-1.47834,0.17396,12.892,2.91983,5,-13.1268,-3.76467,1.77609,0.174638,-0.040292,66,82,82,85,91,34,64,72,76,74,82,36
-1.28185,10,-0.91546,-3.84458,-16.0099,28.5504,-13.2394,0.91546,-0.91546,-3.84458,-14.8565,28.5504,-14.3928,0.91546,-0.988947,12.0876,-2.8964,6.85753,1.13353,-9.56808,-1.4776,0.171653,12.8915,2.90628,5,-13.125,-3.75843,1.77701,0.17409,-0.040196,66,82,82,85,91,34,64,72,76,74,82,36
-1.28665,10,-0.915284,-3.84387,-16.0097,28.5504,-13.2395,0.915284,-0.915284,-3.84387,-14.8566,28.5504,-14.3927,0.915284,-0.98766,12.0891,-2.89596,6.85586,1.13049,-9.56676,-1.47687,0.169413,12.8911,2.89313,5,-13.1233,-3.75239,1.7779,0.173561,-0.0401029,66,82,82,85,91,34,64,72,76,74,82,36
-1.29133,10,-0.915115,-3.84319,-16.0096,28.5504,-13.2397,0.915115,-0.915115,-3.84319,-14.8566,28.5504,-14.3926,0.915115,-0.986434,12.0905,-2.8955,6.85424,1.12754,-9.56548,-1.47616,0.167238,12.8908,2.88036,5,-13.1217,-3.74653,1.77877,0.173051,-0.0400128,66,82,82,85,91,34,64,72,76,74,82,36
-1.2959,10,-0.91495,-3.84254,-16.0097,28.5505,-13.2399,0.91495,-0.91495,-3.84254,-14.8569,28.5505,-14.3926,0.91495,-0.985267,12.0919,-2.89503,6.85269,1.12466,-9.56424,-1.47548,0.165125,12.8904,2.86797,5,-13.12,-3.74085,1.77961,0.172559,-0.0399256,66,82,82,85,91,34,64,72,76,74,82,36
-1.30036,10,-0.914791,-3.84191,-16.0096,28.5505,-13.24,0.914791,-0.914791,-3.84191,-14.857,28.5505,-14.3926,0.914791,-0.984164,12.0933,-2.89455,6.8512,1.12185,-9.56305,-1.47481,0.163077,12.8901,2.85594,5,-13.1185,-3.73535,1.78042,0.172086,-0.0398409,66,82,82,85,91,34,64,72,76,74,82,36
-1.30473,10,-0.914636,-3.8413,-16.0094,28.5505,-13.2401,0.914636,-0.914636,-3.8413,-14.857,28.5505,-14.3925,0.914636,-0.98312,12.0946,-2.89406,6.84977,1.11912,-9.56189,-1.47416,0.16109,12.8898,2.84426,5,-13.1169,-3.73001,1.78121,0.171632,-0.0397588,66,82,82,85,91,34,64,72,76,74,82,36
-1.30899,10,-0.914486,-3.84072,-16.0093,28.5505,-13.2403,0.914486,-0.914486,-3.84072,-14.8571,28.5505,-14.3925,0.914486,-0.982136,12.0959,-2.89356,6.8484,1.11647,-9.56077,-1.47353,0.15916,12.8895,2.83291,5,-13.1154,-3.72484,1.78198,0.171194,-0.0396792,66,82,82,85,91,34,64,72,76,74,82,36
-1.31315,10,-0.914341,-3.84016,-16.0092,28.5505,-13.2404,0.914341,-0.914341,-3.84016,-14.8571,28.5505,-14.3924,0.914341,-0.981208,12.0971,-2.89304,6.84708,1.11388,-9.55969,-1.47292,0.157285,12.8892,2.8219,5,-13.1139,-3.71982,1.78273,0.170774,-0.039602,66,82,82,85,91,34,64,72,76,74,82,36
-1.31722,10,-0.9142,-3.83962,-16.0091,28.5505,-13.2405,0.9142,-0.9142,-3.83962,-14.8572,28.5505,-14.3924,0.9142,-0.980335,12.0984,-2.89252,6.84582,1.11137,-9.55865,-1.47232,0.155462,12.8889,2.81121,5,-13.1125,-3.71495,1.78346,0.17037,-0.039527,66,82,82,85,91,34,64,72,76,74,82,36
-1.32119,10,-0.914062,-3.8391,-16.009,28.5505,-13.2406,0.914062,-0.914062,-3.8391,-14.8572,28.5505,-14.3923,0.914062,-0.979516,12.0996,-2.892,6.8446,1.10892,-9.55764,-1.47174,0.153689,12.8887,2.80083,5,-13.1111,-3.71023,1.78416,0.169981,-0.0394542,66,82,82,85,91,34,64,72,76,74,82,36
-1.32507,10,-0.913929,-3.8386,-16.009,28.5506,-13.2408,0.913929,-0.913929,-3.8386,-14.8574,28.5506,-14.3923,0.913929,-0.978749,12.1008,-2.89146,6.84343,1.10654,-9.55667,-1.47117,0.151964,12.8884,2.79075,5,-13.1097,-3.70565,1.78485,0.169607,-0.0393834,66,82,82,85,91,34,64,72,76,74,82,36
-1.32886,10,-0.9138,-3.83812,-16.0089,28.5506,-13.2409,0.9138,-0.9138,-3.83812,-14.8574,28.5506,-14.3923,0.9138,-0.978031,12.1019,-2.89092,6.84231,1.10423,-9.55572,-1.47062,0.150281,12.8882,2.78097,5,-13.1084,-3.7012,1.78552,0.169247,-0.0393148,66,82,82,85,91,34,64,72,76,74,82,36
-1.33255,10,-0.913674,-3.83766,-16.0088,28.5506,-13.241,0.913674,-0.913674,-3.83766,-14.8575,28.5506,-14.3923,0.913674,-0.977362,12.103,-2.89037,6.84123,1.10198,-9.55481,-1.47007,0.14864,12.888,2.77148,5,-13.1071,-3.69688,1.78618,0.1689,-0.0392481,66,82,82,85,91,34,64,72,76,74,82,36
-1.33617,10,-0.913552,-3.83721,-16.0086,28.5506,-13.2411,0.913552,-0.913552,-3.83721,-14.8575,28.5506,-14.3922,0.913552,-0.976739,12.1041,-2.88981,6.84019,1.09979,-9.55393,-1.46955,0.147042,12.8878,2.76227,5,-13.1059,-3.69269,1.78682,0.168567,-0.0391831,66,82,82,85,91,34,64,72,76,74,82,36
-1.3397,10,-0.913433,-3.83679,-16.0085,28.5506,-13.2412,0.913433,-0.913433,-3.83679,-14.8575,28.5506,-14.3922,0.913433,-0.976163,12.1052,-2.88925,6.8392,1.09766,-9.55308,-1.46904,0.145486,12.8876,2.75333,5,-13.1047,-3.68862,1.78744,0.168247,-0.0391198,66,82,82,85,91,34,64,72,76,74,82,36
-1.34315,10,-0.913316,-3.83638,-16.0084,28.5506,-13.2413,0.913316,-0.913316,-3.83638,-14.8575,28.5506,-14.3922,0.913316,-0.975631,12.1063,-2.88868,6.83824,1.0956,-9.55227,-1.46854,0.143972,12.8875,2.74466,5,-13.1035,-3.68466,1.78805,0.16794,-0.0390578,66,82,82,85,91,34,64,72,76,74,82,36
-1.34652,10,-0.913202,-3.83599,-16.0083,28.5506,-13.2414,0.913202,-0.913202,-3.83599,-14.8575,28.5506,-14.3922,0.913202,-0.975143,12.1073,-2.8881,6.83732,1.0936,-9.55148,-1.46805,0.142499,12.8873,2.73625,5,-13.1023,-3.68082,1.78865,0.167646,-0.0389972,66,82,82,85,91,34,64,72,76,74,82,36
-1.34982,10,-0.91309,-3.83561,-16.0084,28.5507,-13.2415,0.91309,-0.91309,-3.83561,-14.8577,28.5507,-14.3922,0.91309,-0.974696,12.1084,-2.88751,6.83643,1.09166,-9.55074,-1.46758,0.141067,12.8871,2.7281,5,-13.1012,-3.67708,1.78924,0.167364,-0.0389377,66,82,82,85,91,34,64,72,76,74,82,36
-1.35304,10,-0.91298,-3.83525,-16.0083,28.5507,-13.2416,0.91298,-0.91298,-3.83525,-14.8577,28.5507,-14.3922,0.91298,-0.974291,12.1094,-2.8869,6.83557,1.08978,-9.55002,-1.46713,0.139676,12.887,2.72019,5,-13.1002,-3.67345,1.78981,0.167095,-0.0388792,66,82,82,85,91,34,64,72,76,74,82,36
-1.3562,10,-0.912871,-3.83491,-16.0082,28.5507,-13.2417,0.912871,-0.912871,-3.83491,-14.8577,28.5507,-14.3922,0.912871,-0.973927,12.1104,-2.88629,6.83475,1.08796,-9.54934,-1.46669,0.138326,12.8868,2.71253,5,-13.0991,-3.66991,1.79038,0.166838,-0.0388216,66,82,82,85,91,34,64,72,76,74,82,36
-1.35929,10,-0.912764,-3.83458,-16.0081,28.5507,-13.2418,0.912764,-0.912764,-3.83458,-14.8577,28.5507,-14.3922,0.912764,-0.9736,12.1114,-2.88566,6.83396,1.08619,-9.5487,-1.46627,0.137016,12.8867,2.7051,5,-13.0982,-3.66648,1.79093,0.166592,-0.0387649,66,82,82,85,91,34,64,72,76,74,82,36
-1.36231,10,-0.912659,-3.83427,-16.008,28.5507,-13.2419,0.912659,-0.912659,-3.83427,-14.8578,28.5507,-14.3921,0.912659,-0.97331,12.1123,-2.88502,6.83319,1.08449,-9.54808,-1.46586,0.135744,12.8865,2.6979,5,-13.0972,-3.66314,1.79148,0.166358,-0.0387089,66,82,82,85,91,34,64,72,76,74,82,36
-1.36526,10,-0.912555,-3.83397,-16.008,28.5507,-13.2419,0.912555,-0.912555,-3.83397,-14.8578,28.5507,-14.3921,0.912555,-0.973055,12.1133,-2.88438,6.83245,1.08283,-9.54749,-1.46546,0.134509,12.8864,2.69093,5,-13.0963,-3.65989,1.79201,0.166135,-0.0386537,66,82,82,85,91,34,64,72,76,74,82,36
-1.36815,10,-0.912452,-3.83369,-16.0079,28.5507,-13.242,0.912452,-0.912452,-3.83369,-14.8578,28.5507,-14.3921,0.912452,-0.972833,12.1142,-2.88372,6.83173,1.08123,-9.54693,-1.46508,0.13331,12.8862,2.68419,5,-13.0954,-3.65674,1.79255,0.165921,-0.0385991,66,82,82,85,91,34,64,72,76,74,82,36
-1.37098,10,-0.912351,-3.83342,-16.0073,28.5504,-13.242,0.912351,-0.912351,-3.83342,-14.8573,28.5504,-14.392,0.912351,-0.972643,12.1151,-2.88306,6.83104,1.07967,-9.5464,-1.46471,0.132147,12.886,2.67766,5,-13.0946,-3.65367,1.79307,0.165718,-0.0385452,66,82,82,85,91,34,64,72,76,74,82,36
-1.37375,10,-0.91225,-3.83316,-16.0072,28.5504,-13.2421,0.91225,-0.91225,-3.83316,-14.8573,28.5504,-14.392,0.91225,-0.97248,12.1161,-2.88239,6.83037,1.07816,-9.54588,-1.46436,0.131018,12.8859,2.67133,5,-13.0938,-3.65069,1.79359,0.165525,-0.0384919,66,82,82,85,91,34,64,72,76,74,82,36
-1.37646,10,-0.912151,-3.83291,-16.0072,28.5504,-13.2422,0.912151,-0.912151,-3.83291,-14.8573,28.5504,-14.392,0.912151,-0.972345,12.1169,-2.88172,6.82972,1.0767,-9.54539,-1.46402,0.129923,12.8857,2.66522,5,-13.093,-3.6478,1.7941,0.16534,-0.0384393,66,82,82,85,91,34,64,72,76,74,82,36
-1.37911,10,-0.912053,-3.83268,-16.0071,28.5504,-13.2422,0.912053,-0.912053,-3.83268,-14.8573,28.5504,-14.392,0.912053,-0.972238,12.1178,-2.88103,6.82909,1.07529,-9.54493,-1.46369,0.128861,12.8856,2.6593,5,-13.0922,-3.645,1.79461,0.165165,-0.0383871,66,82,82,85,91,34,64,72,76,74,82,36
-1.3817,10,-0.911955,-3.83246,-16.007,28.5504,-13.2423,0.911955,-0.911955,-3.83246,-14.8573,28.5504,-14.392,0.911955,-0.972157,12.1187,-2.88035,6.82848,1.07391,-9.54448,-1.46338,0.12783,12.8854,2.65358,5,-13.0915,-3.64227,1.79511,0.164998,-0.0383354,66,82,82,85,91,34,64,72,76,74,82,36
-1.38423,10,-0.911859,-3.83224,-16.007,28.5504,-13.2424,0.911859,-0.911859,-3.83224,-14.8573,28.5504,-14.3921,0.911859,-0.972104,12.1196,-2.87966,6.82788,1.07257,-9.54405,-1.46308,0.126832,12.8852,2.64806,5,-13.0909,-3.63963,1.7956,0.16484,-0.0382842,66,82,82,85,91,34,64,72,76,74,82,36
-1.3867,10,-0.911763,-3.83205,-16.0069,28.5504,-13.2424,0.911763,-0.911763,-3.83205,-14.8573,28.5504,-14.3921,0.911763,-0.972076,12.1204,-2.87896,6.8273,1.07127,-9.54364,-1.46279,0.125865,12.8851,2.64272,5,-13.0902,-3.63706,1.79609,0.164691,-0.0382334,66,82,82,85,91,34,64,72,76,74,82,36
-1.38911,10,-0.911668,-3.83186,-16.0061,28.5499,-13.2424,0.911668,-0.911668,-3.83186,-14.8565,28.5499,-14.3919,0.911668,-0.972073,12.1212,-2.87826,6.82673,1.07,-9.54325,-1.46251,0.124928,12.8849,2.63756,5,-13.0896,-3.63457,1.79658,0.16455,-0.038183,66,82,82,85,91,34,64,72,76,74,82,36
-1.39146,10,-0.911574,-3.83168,-16.006,28.5499,-13.2424,0.911574,-0.911574,-3.83168,-14.8565,28.5499,-14.3919,0.911574,-0.972099,12.1221,-2.87755,6.82618,1.06876,-9.54288,-1.46225,0.124022,12.8847,2.63259,5,-13.089,-3.63215,1.79706,0.164418,-0.0381328,66,82,82,85,91,34,64,72,76,74,82,36
-1.39375,10,-0.91148,-3.83152,-16.0059,28.5499,-13.2425,0.91148,-0.91148,-3.83152,-14.8565,28.5499,-14.3919,0.91148,-0.97215,12.1229,-2.87684,6.82563,1.06755,-9.54253,-1.462,0.123145,12.8846,2.62779,5,-13.0885,-3.62981,1.79754,0.164294,-0.0380829,66,82,82,85,91,34,64,72,76,74,82,36
-1.39599,10,-0.911387,-3.83136,-16.0059,28.5499,-13.2425,0.911387,-0.911387,-3.83136,-14.8565,28.5499,-14.3919,0.911387,-0.972224,12.1237,-2.87612,6.8251,1.06637,-9.54219,-1.46177,0.122297,12.8844,2.62317,5,-13.088,-3.62754,1.79801,0.164178,-0.0380334,66,82,82,85,91,34,64,72,76,74,82,36
-1.39817,10,-0.911294,-3.83122,-16.0058,28.5499,-13.2426,0.911294,-0.911294,-3.83122,-14.8565,28.5499,-14.392,0.911294,-0.972317,12.1245,-2.87541,6.82458,1.06523,-9.54187,-1.46154,0.121476,12.8842,2.6187,5,-13.0875,-3.62533,1.79848,0.164069,-0.0379844,66,82,82,85,91,34,64,72,76,74,82,36
-1.40029,10,-0.911203,-3.83108,-16.0058,28.5499,-13.2427,0.911203,-0.911203,-3.83108,-14.8565,28.5499,-14.392,0.911203,-0.972428,12.1253,-2.87469,6.82407,1.06411,-9.54157,-1.46132,0.120682,12.884,2.61439,5,-13.0871,-3.6232,1.79893,0.163966,-0.0379358,66,82,82,85,91,34,64,72,76,74,82,36
-1.40236,10,-0.911113,-3.83095,-16.0057,28.5499,-13.2427,0.911113,-0.911113,-3.83095,-14.8564,28.5499,-14.392,0.911113,-0.972554,12.1261,-2.87399,6.82357,1.06302,-9.54128,-1.46112,0.119912,12.8838,2.61023,5,-13.0866,-3.62112,1.79939,0.16387,-0.0378879,66,82,82,85,91,34,64,72,76,74,82,36
-1.40438,10,-0.911023,-3.83083,-16.0056,28.5498,-13.2427,0.911023,-0.911023,-3.83083,-14.8563,28.5498,-14.392,0.911023,-0.972693,12.1268,-2.87328,6.8231,1.06196,-9.541,-1.46092,0.119167,12.8836,2.60621,5,-13.0862,-3.61911,1.79983,0.163779,-0.0378406,66,82,82,85,91,34,64,72,76,74,82,36
-1.40635,10,-0.910936,-3.83071,-16.0055,28.5498,-13.2428,0.910936,-0.910936,-3.83071,-14.8563,28.5498,-14.392,0.910936,-0.97284,12.1276,-2.8726,6.82263,1.06094,-9.54073,-1.46073,0.118445,12.8835,2.60233,5,-13.0859,-3.61717,1.80027,0.163693,-0.0377941,66,82,82,85,91,34,64,72,76,74,82,36
-1.40827,10,-0.91085,-3.83061,-16.0055,28.5498,-13.2428,0.91085,-0.91085,-3.83061,-14.8563,28.5498,-14.392,0.91085,-0.972997,12.1283,-2.87193,6.82219,1.05996,-9.54048,-1.46055,0.117744,12.8833,2.59856,5,-13.0855,-3.61528,1.80069,0.163611,-0.0377483,66,82,82,85,91,34,64,72,76,74,82,36
-1.41014,10,-0.910765,-3.8305,-16.0054,28.5498,-13.2429,0.910765,-0.910765,-3.8305,-14.8563,28.5498,-14.392,0.910765,-0.973162,12.129,-2.87128,6.82176,1.059,-9.54023,-1.46037,0.117066,12.8831,2.59493,5,-13.0852,-3.61345,1.80111,0.163534,-0.0377033,66,82,82,85,91,34,64,72,76,74,82,36
-1.41197,10,-0.910681,-3.83041,-16.0054,28.5498,-13.2429,0.910681,-0.910681,-3.83041,-14.8563,28.5498,-14.3921,0.910681,-0.973335,12.1297,-2.87063,6.82133,1.05807,-9.54,-1.4602,0.116409,12.8829,2.59142,5,-13.0848,-3.61168,1.80152,0.163462,-0.037659,66,82,82,85,91,34,64,72,76,74,82,36
-1.41374,10,-0.910599,-3.83032,-16.0053,28.5498,-13.243,0.910599,-0.910599,-3.83032,-14.8562,28.5498,-14.3921,0.910599,-0.973516,12.1304,-2.86997,6.82092,1.05715,-9.53978,-1.46004,0.115773,12.8827,2.58803,5,-13.0845,-3.60996,1.80193,0.163393,-0.0376154,66,82,82,85,91,34,64,72,76,74,82,36
-1.41547,10,-0.910519,-3.83023,-16.0053,28.5498,-13.243,0.910519,-0.910519,-3.83023,-14.8562,28.5498,-14.3921,0.910519,-0.973705,12.1311,-2.86932,6.82051,1.05626,-9.53957,-1.45989,0.115159,12.8826,2.58476,5,-13.0842,-3.60829,1.80232,0.16333,-0.0375727,66,82,82,85,91,34,64,72,76,74,82,36
-1.41716,10,-0.91044,-3.83015,-16.0057,28.5501,-13.2432,0.91044,-0.91044,-3.83015,-14.8566,28.5501,-14.3922,0.91044,-0.973901,12.1318,-2.86867,6.82011,1.05539,-9.53936,-1.45975,0.114565,12.8824,2.58161,5,-13.084,-3.60667,1.80271,0.16327,-0.0375306,66,82,82,85,91,34,64,72,76,74,82,36
-1.4188,10,-0.910362,-3.83008,-16.0056,28.5501,-13.2432,0.910362,-0.910362,-3.83008,-14.8566,28.5501,-14.3922,0.910362,-0.974105,12.1324,-2.86799,6.81971,1.05451,-9.53917,-1.45961,0.113991,12.8822,2.57858,5,-13.0837,-3.60509,1.8031,0.163214,-0.0374895,66,82,82,85,91,34,64,72,76,74,82,36
-1.4204,10,-0.910286,-3.83001,-16.0056,28.5501,-13.2432,0.910286,-0.910286,-3.83001,-14.8566,28.5501,-14.3922,0.910286,-0.974315,12.1331,-2.86729,6.81931,1.05365,-9.53898,-1.45948,0.113437,12.8821,2.57566,5,-13.0835,-3.60356,1.80347,0.163163,-0.0374492,66,82,82,85,91,34,64,72,76,74,82,36
-1.42196,10,-0.910212,-3.82994,-16.0055,28.5501,-13.2433,0.910212,-0.910212,-3.82994,-14.8565,28.5501,-14.3923,0.910212,-0.974533,12.1337,-2.8666,6.81891,1.0528,-9.5388,-1.45936,0.112903,12.8819,2.57285,5,-13.0832,-3.60207,1.80385,0.163115,-0.0374097,66,82,82,85,91,34,64,72,76,74,82,36
-1.42347,10,-0.910139,-3.82989,-16.0055,28.5501,-13.2433,0.910139,-0.910139,-3.82989,-14.8565,28.5501,-14.3923,0.910139,-0.974755,12.1343,-2.86591,6.81851,1.05197,-9.53863,-1.45925,0.112388,12.8817,2.57015,5,-13.083,-3.60062,1.80421,0.163072,-0.0373709,66,82,82,85,91,34,64,72,76,74,82,36
-1.42495,10,-0.910067,-3.82983,-16.0055,28.5501,-13.2434,0.910067,-0.910067,-3.82983,-14.8565,28.5501,-14.3923,0.910067,-0.974983,12.1349,-2.86524,6.81811,1.05115,-9.53846,-1.45914,0.111893,12.8816,2.56753,5,-13.0828,-3.59922,1.80458,0.163031,-0.0373327,66,82,82,85,91,34,64,72,76,74,82,36
-1.42639,10,-0.909996,-3.82978,-16.0054,28.5501,-13.2434,0.909996,-0.909996,-3.82978,-14.8565,28.5501,-14.3923,0.909996,-0.975215,12.1355,-2.86459,6.81771,1.05036,-9.5383,-1.45904,0.111416,12.8814,2.565,5,-13.0825,-3.59786,1.80495,0.162995,-0.0372952,66,82,82,85,91,34,64,72,76,74,82,36
-1.42779,10,-0.909927,-3.82974,-16.0052,28.55,-13.2434,0.909927,-0.909927,-3.82974,-14.8563,28.55,-14.3923,0.909927,-0.97545,12.1361,-2.86399,6.8173,1.04959,-9.53815,-1.45894,0.110959,12.8813,2.56255,5,-13.0823,-3.59654,1.80531,0.162961,-0.0372582,66,82,82,85,91,34,64,72,76,74,82,36
-1.42915,10,-0.909857,-3.8297,-16.0052,28.55,-13.2434,0.909857,-0.909857,-3.8297,-14.8563,28.55,-14.3923,0.909857,-0.975688,12.1367,-2.86343,6.8169,1.04885,-9.538,-1.45885,0.110519,12.8811,2.56018,5,-13.0821,-3.59527,1.80567,0.162931,-0.0372215,66,82,82,85,91,34,64,72,76,74,82,36
-1.43048,10,-0.909789,-3.82966,-16.0052,28.55,-13.2435,0.909789,-0.909789,-3.82966,-14.8563,28.55,-14.3924,0.909789,-0.975929,12.1373,-2.86293,6.8165,1.04814,-9.53787,-1.45877,0.110098,12.881,2.55788,5,-13.0819,-3.59403,1.80603,0.162904,-0.0371853,66,82,82,85,91,34,64,72,76,74,82,36
-1.43177,10,-0.909722,-3.82963,-16.0051,28.55,-13.2435,0.909722,-0.909722,-3.82963,-14.8562,28.55,-14.3924,0.909722,-0.976171,12.1378,-2.86248,6.81609,1.04745,-9.53773,-1.45868,0.109694,12.8808,2.55565,5,-13.0817,-3.59284,1.8064,0.16288,-0.0371496,66,82,82,85,91,34,64,72,76,74,82,36
-1.43303,10,-0.909656,-3.8296,-16.0051,28.55,-13.2435,0.909656,-0.909656,-3.8296,-14.8562,28.55,-14.3924,0.909656,-0.976415,12.1383,-2.86208,6.81567,1.0468,-9.5376,-1.45861,0.109307,12.8806,2.55348,5,-13.0815,-3.59169,1.80676,0.162858,-0.0371147,66,82,82,85,91,34,64,72,76,74,82,36
-1.43426,10,-0.909592,-3.82958,-16.0051,28.55,-13.2435,0.909592,-0.909592,-3.82958,-14.8562,28.55,-14.3924,0.909592,-0.97666,12.1389,-2.86171,6.81525,1.04617,-9.53747,-1.45853,0.108936,12.8805,2.55137,5,-13.0813,-3.59058,1.80713,0.162839,-0.0370807,66,82,82,85,91,34,64,72,76,74,82,36
-1.43545,10,-0.90953,-3.82955,-16.005,28.55,-13.2436,0.90953,-0.90953,-3.82955,-14.8562,28.55,-14.3924,0.90953,-0.976906,12.1394,-2.86139,6.81482,1.04557,-9.53734,-1.45846,0.10858,12.8803,2.54931,5,-13.0811,-3.58951,1.80749,0.162823,-0.0370477,66,82,82,85,91,34,64,72,76,74,82,36
-1.43662,10,-0.90947,-3.82954,-16.0057,28.5505,-13.2437,0.90947,-0.90947,-3.82954,-14.8568,28.5505,-14.3926,0.90947,-0.977152,12.1399,-2.8611,6.81437,1.04499,-9.53721,-1.45839,0.108239,12.8802,2.54732,5,-13.0808,-3.58847,1.80785,0.162809,-0.0370158,66,82,82,85,91,34,64,72,76,74,82,36
-1.43775,10,-0.909412,-3.82952,-16.0057,28.5505,-13.2438,0.909412,-0.909412,-3.82952,-14.8568,28.5505,-14.3926,0.909412,-0.977398,12.1404,-2.86084,6.81392,1.04445,-9.53708,-1.45832,0.107913,12.8801,2.54537,5,-13.0806,-3.58748,1.80821,0.162797,-0.0369853,66,82,82,85,91,34,64,72,76,74,82,36
-1.43885,10,-0.909357,-3.82951,-16.0056,28.5505,-13.2438,0.909357,-0.909357,-3.82951,-14.8568,28.5505,-14.3926,0.909357,-0.977644,12.1408,-2.86061,6.81345,1.04392,-9.53695,-1.45826,0.107601,12.8799,2.54347,5,-13.0803,-3.58651,1.80857,0.162787,-0.036956,66,82,82,85,91,34,64,72,76,74,82,36
-1.43992,10,-0.909305,-3.8295,-16.0056,28.5505,-13.2438,0.909305,-0.909305,-3.8295,-14.8568,28.5505,-14.3927,0.909305,-0.977889,12.1413,-2.86041,6.81296,1.04342,-9.53681,-1.45819,0.107301,12.8798,2.54162,5,-13.08,-3.58558,1.80893,0.162778,-0.036928,66,82,82,85,91,34,64,72,76,74,82,36
-1.44097,10,-0.909254,-3.82949,-16.0056,28.5505,-13.2438,0.909254,-0.909254,-3.82949,-14.8567,28.5505,-14.3927,0.909254,-0.978133,12.1417,-2.86023,6.81246,1.04295,-9.53667,-1.45812,0.107012,12.8797,2.53981,5,-13.0797,-3.58469,1.80929,0.162772,-0.0369014,66,82,82,85,91,34,64,72,76,74,82,36
-1.44198,10,-0.909207,-3.82948,-16.0056,28.5505,-13.2439,0.909207,-0.909207,-3.82948,-14.8567,28.5505,-14.3927,0.909207,-0.978376,12.1421,-2.86008,6.81196,1.0425,-9.53652,-1.45806,0.106733,12.8797,2.53805,5,-13.0793,-3.58383,1.80965,0.162766,-0.036876,66,82,82,85,91,34,64,72,76,74,82,36
-1.44297,10,-0.909161,-3.82947,-16.0055,28.5505,-13.2439,0.909161,-0.909161,-3.82947,-14.8567,28.5505,-14.3927,0.909161,-0.978618,12.1425,-2.85994,6.81143,1.04208,-9.53637,-1.45799,0.106462,12.8796,2.53633,5,-13.079,-3.583,1.81001,0.162762,-0.0368519,66,82,82,85,91,34,64,72,76,74,82,36
-1.44392,10,-0.909118,-3.82947,-16.0054,28.5504,-13.2439,0.909118,-0.909118,-3.82947,-14.8566,28.5504,-14.3927,0.909118,-0.978857,12.1429,-2.85983,6.8109,1.04168,-9.53621,-1.45792,0.106198,12.8795,2.53465,5,-13.0787,-3.58221,1.81037,0.162758,-0.036829,66,82,82,85,91,34,64,72,76,74,82,36
-1.44485,10,-0.909077,-3.82946,-16.0054,28.5504,-13.2439,0.909077,-0.909077,-3.82946,-14.8565,28.5504,-14.3927,0.909077,-0.979094,12.1433,-2.85973,6.81036,1.0413,-9.53605,-1.45785,0.105942,12.8795,2.53301,5,-13.0783,-3.58145,1.81073,0.162755,-0.0368073,66,82,82,85,91,34,64,72,76,74,82,36
-1.44575,10,-0.909039,-3.82946,-16.0054,28.5504,-13.2439,0.909039,-0.909039,-3.82946,-14.8565,28.5504,-14.3928,0.909039,-0.979329,12.1437,-2.85965,6.80982,1.04094,-9.53588,-1.45777,0.10569,12.8794,2.53141,5,-13.0779,-3.58073,1.8111,0.162753,-0.0367868,66,82,82,85,91,34,64,72,76,74,82,36
-1.44662,10,-0.909002,-3.82946,-16.0053,28.5504,-13.2439,0.909002,-0.909002,-3.82946,-14.8565,28.5504,-14.3928,0.909002,-0.979561,12.144,-2.85959,6.80926,1.04061,-9.5357,-1.4577,0.105444,12.8794,2.52985,5,-13.0775,-3.58004,1.81146,0.162751,-0.0367676,66,82,82,85,91,34,64,72,76,74,82,36
-1.44747,10,-0.908968,-3.82946,-16.0053,28.5504,-13.244,0.908968,-0.908968,-3.82946,-14.8565,28.5504,-14.3928,0.908968,-0.97979,12.1444,-2.85953,6.80869,1.0403,-9.53552,-1.45762,0.105202,12.8794,2.52833,5,-13.0771,-3.57938,1.81183,0.162749,-0.0367495,66,82,82,85,91,34,64,72,76,74,82,36
-1.44829,10,-0.908936,-3.82945,-16.0053,28.5504,-13.244,0.908936,-0.908936,-3.82945,-14.8565,28.5504,-14.3928,0.908936,-0.980016,12.1447,-2.85948,6.80812,1.04001,-9.53534,-1.45753,0.104964,12.8794,2.52684,5,-13.0767,-3.57875,1.81221,0.162747,-0.0367326,66,82,82,85,91,34,64,72,76,74,82,36
-1.44908,10,-0.908907,-3.82945,-16.0053,28.5504,-13.244,0.908907,-0.908907,-3.82945,-14.8564,28.5504,-14.3928,0.908907,-0.980239,12.145,-2.85943,6.80753,1.03975,-9.53515,-1.45745,0.104728,12.8794,2.52539,5,-13.0763,-3.57815,1.81258,0.162745,-0.0367169,66,82,82,85,91,34,64,72,76,74,82,36
-1.44985,10,-0.908879,-3.82945,-16.0053,28.5504,-13.244,0.908879,-0.908879,-3.82945,-14.8564,28.5504,-14.3928,0.908879,-0.980459,12.1453,-2.85939,6.80694,1.03951,-9.53495,-1.45736,0.104496,12.8794,2.52397,5,-13.0758,-3.57758,1.81296,0.162743,-0.0367023,66,82,82,85,91,34,64,72,76,74,82,36
-1.4506,10,-0.908855,-3.82945,-16.0052,28.5504,-13.244,0.908855,-0.908855,-3.82945,-14.8564,28.5504,-14.3929,0.908855,-0.980677,12.1456,-2.85934,6.80632,1.03931,-9.53475,-1.45726,0.104264,12.8794,2.52259,5,-13.0754,-3.57703,1.81335,0.162741,-0.0366891,66,82,82,85,91,34,64,72,76,74,82,36
-1.45132,10,-0.908832,-3.82944,-16.0052,28.5504,-13.2441,0.908832,-0.908832,-3.82944,-14.8564,28.5504,-14.3929,0.908832,-0.980892,12.1459,-2.85929,6.8057,1.03913,-9.53454,-1.45716,0.104033,12.8794,2.52124,5,-13.075,-3.57652,1.81374,0.162739,-0.0366771,66,82,82,85,91,34,64,72,76,74,82,36
-1.45202,10,-0.908812,-3.82944,-16.0052,28.5504,-13.2441,0.908812,-0.908812,-3.82944,-14.8564,28.5504,-14.3929,0.908812,-0.981104,12.1462,-2.85923,6.80507,1.03897,-9.53432,-1.45705,0.103804,12.8795,2.51992,5,-13.0746,-3.57603,1.81414,0.162736,-0.0366663,66,82,82,85,91,34,64,72,76,74,82,36
-1.45269,10,-0.908793,-3.82944,-16.0052,28.5504,-13.2441,0.908793,-0.908793,-3.82944,-14.8564,28.5504,-14.3929,0.908793,-0.981312,12.1464,-2.85918,6.80443,1.03884,-9.5341,-1.45695,0.103578,12.8795,2.51864,5,-13.0741,-3.57557,1.81453,0.162733,-0.0366564,66,82,82,85,91,34,64,72,76,74,82,36
-1.45334,10,-0.908776,-3.82943,-16.0052,28.5504,-13.2441,0.908776,-0.908776,-3.82943,-14.8563,28.5504,-14.3929,0.908776,-0.981515,12.1467,-2.85912,6.80379,1.03873,-9.53388,-1.45684,0.103353,12.8796,2.51739,5,-13.0737,-3.57513,1.81493,0.16273,-0.0366474,66,82,82,85,91,34,64,72,76,74,82,36
-1.45397,10,-0.90876,-3.82943,-16.0052,28.5504,-13.2441,0.90876,-0.90876,-3.82943,-14.8563,28.5504,-14.3929,0.90876,-0.981714,12.1469,-2.85907,6.80315,1.03863,-9.53366,-1.45672,0.103131,12.8797,2.51617,5,-13.0733,-3.57471,1.81533,0.162727,-0.0366391,66,82,82,85,91,34,64,72,76,74,82,36
-1.45457,10,-0.908746,-3.82942,-16.0061,28.551,-13.2443,0.908746,-0.908746,-3.82942,-14.8572,28.551,-14.3932,0.908746,-0.981907,12.1471,-2.85902,6.80251,1.03855,-9.53344,-1.45661,0.102912,12.8797,2.51499,5,-13.0728,-3.57432,1.81572,0.162723,-0.0366316,66,82,82,85,91,34,64,72,76,74,82,36
-1.45515,10,-0.908733,-3.82942,-16.006,28.551,-13.2444,0.908733,-0.908733,-3.82942,-14.8572,28.551,-14.3932,0.908733,-0.982094,12.1473,-2.85898,6.80188,1.03847,-9.53322,-1.4565,0.102696,12.8798,2.51383,5,-13.0724,-3.57394,1.81611,0.162718,-0.0366247,66,82,82,85,91,34,64,72,76,74,82,36
-1.4557,10,-0.908721,-3.82941,-16.006,28.551,-13.2444,0.908721,-0.908721,-3.82941,-14.8572,28.551,-14.3932,0.908721,-0.982274,12.1475,-2.85895,6.80125,1.03841,-9.53301,-1.4564,0.102484,12.8799,2.51271,5,-13.072,-3.57358,1.81649,0.162714,-0.0366182,66,82,82,85,91,34,64,72,76,74,82,36
-1.45623,10,-0.90871,-3.8294,-16.006,28.551,-13.2444,0.90871,-0.90871,-3.8294,-14.8572,28.551,-14.3932,0.90871,-0.98245,12.1477,-2.85892,6.80063,1.03835,-9.53279,-1.45629,0.102275,12.88,2.51162,5,-13.0715,-3.57323,1.81687,0.162709,-0.0366123,66,82,82,85,91,34,64,72,76,74,82,36
-1.45674,10,-0.9087,-3.8294,-16.006,28.551,-13.2444,0.9087,-0.9087,-3.8294,-14.8572,28.551,-14.3932,0.9087,-0.982622,12.1479,-2.8589,6.80002,1.03831,-9.53258,-1.45618,0.10207,12.8801,2.51056,5,-13.0711,-3.57291,1.81725,0.162704,-0.036607,66,82,82,85,91,34,64,72,76,74,82,36
-1.45723,10,-0.908691,-3.82939,-16.006,28.551,-13.2444,0.908691,-0.908691,-3.82939,-14.8572,28.551,-14.3932,0.908691,-0.982792,12.1481,-2.85886,6.7994,1.03828,-9.53236,-1.45607,0.101867,12.8802,2.50953,5,-13.0707,-3.5726,1.81762,0.162699,-0.0366022,66,82,82,85,91,34,64,72,76,74,82,36
-1.4577,10,-0.908683,-3.82938,-16.006,28.551,-13.2444,0.908683,-0.908683,-3.82938,-14.8571,28.551,-14.3932,0.908683,-0.982959,12.1483,-2.85882,6.79879,1.03827,-9.53215,-1.45596,0.101669,12.8803,2.50852,5,-13.0703,-3.5723,1.81799,0.162694,-0.0365981,66,82,82,85,91,34,64,72,76,74,82,36
-1.45816,10,-0.908677,-3.82938,-16.0065,28.5514,-13.2446,0.908677,-0.908677,-3.82938,-14.8577,28.5514,-14.3934,0.908677,-0.983126,12.1485,-2.85877,6.79818,1.03827,-9.53193,-1.45585,0.101474,12.8804,2.50754,5,-13.0699,-3.57202,1.81836,0.16269,-0.0365947,66,82,82,85,91,34,64,72,76,74,82,36
-1.4586,10,-0.908671,-3.82937,-16.0065,28.5514,-13.2446,0.908671,-0.908671,-3.82937,-14.8577,28.5514,-14.3934,0.908671,-0.983291,12.1486,-2.8587,6.79757,1.03829,-9.53172,-1.45573,0.101281,12.8804,2.50658,5,-13.0695,-3.57175,1.81873,0.162686,-0.0365918,66,82,82,85,91,34,64,72,76,74,82,36
-1.45903,10,-0.908667,-3.82937,-16.0065,28.5514,-13.2446,0.908667,-0.908667,-3.82937,-14.8576,28.5514,-14.3934,0.908667,-0.983455,12.1488,-2.85863,6.79695,1.03832,-9.5315,-1.4556,0.101091,12.8805,2.50564,5,-13.0691,-3.5715,1.81911,0.162682,-0.0365896,66,82,82,85,91,34,64,72,76,74,82,36
-1.45945,10,-0.908664,-3.82936,-16.0064,28.5514,-13.2446,0.908664,-0.908664,-3.82936,-14.8576,28.5514,-14.3934,0.908664,-0.983621,12.1489,-2.85853,6.79634,1.03837,-9.53128,-1.45548,0.100904,12.8806,2.50472,5,-13.0687,-3.57126,1.81948,0.162679,-0.036588,66,82,82,85,91,34,64,72,76,74,82,36
-1.45985,10,-0.908662,-3.82936,-16.0064,28.5514,-13.2446,0.908662,-0.908662,-3.82936,-14.8576,28.5514,-14.3934,0.908662,-0.983789,12.149,-2.85842,6.79572,1.03843,-9.53106,-1.45535,0.100722,12.8807,2.50383,5,-13.0684,-3.57103,1.81986,0.162677,-0.036587,66,82,82,85,91,34,64,72,76,74,82,36
-1.46023,10,-0.908662,-3.82936,-16.0064,28.5514,-13.2446,0.908662,-0.908662,-3.82936,-14.8576,28.5514,-14.3934,0.908662,-0.983961,12.1491,-2.85828,6.79511,1.0385,-9.53084,-1.45521,0.100545,12.8809,2.50296,5,-13.068,-3.57081,1.82024,0.162676,-0.0365868,66,82,82,85,91,34,64,72,76,74,82,36
-1.46059,10,-0.908663,-3.82936,-16.0064,28.5514,-13.2447,0.908663,-0.908663,-3.82936,-14.8576,28.5514,-14.3935,0.908663,-0.984137,12.1492,-2.85812,6.79449,1.03859,-9.53061,-1.45507,0.100373,12.881,2.50211,5,-13.0677,-3.5706,1.82062,0.162677,-0.0365872,66,82,82,85,91,34,64,72,76,74,82,36
-1.46094,10,-0.908665,-3.82936,-16.0069,28.5518,-13.2448,0.908665,-0.908665,-3.82936,-14.8581,28.5518,-14.3936,0.908665,-0.984317,12.1493,-2.85794,6.79388,1.03869,-9.53038,-1.45493,0.100207,12.8811,2.50129,5,-13.0673,-3.5704,1.821,0.162679,-0.0365883,66,82,82,85,91,34,64,72,76,74,82,36
-1.46126,10,-0.908668,-3.82937,-16.0069,28.5518,-13.2448,0.908668,-0.908668,-3.82937,-14.8581,28.5518,-14.3936,0.908668,-0.984508,12.1494,-2.85772,6.79327,1.03879,-9.53015,-1.45478,0.100048,12.8812,2.50048,5,-13.067,-3.57021,1.8214,0.162683,-0.0365903,66,82,82,85,91,34,64,72,76,74,82,36
-1.46156,10,-0.908673,-3.82938,-16.0069,28.5518,-13.2448,0.908673,-0.908673,-3.82938,-14.8581,28.5518,-14.3936,0.908673,-0.984707,12.1494,-2.85747,6.79265,1.03891,-9.52992,-1.45464,0.099896,12.8813,2.4997,5,-13.0667,-3.57003,1.82179,0.162691,-0.0365929,66,82,82,85,91,34,64,72,76,74,82,36
-1.46184,10,-0.90868,-3.82939,-16.0069,28.5518,-13.2448,0.90868,-0.90868,-3.82939,-14.858,28.5518,-14.3936,0.90868,-0.984913,12.1495,-2.8572,6.79204,1.03903,-9.52968,-1.45448,0.0997504,12.8814,2.49894,5,-13.0664,-3.56985,1.82219,0.162699,-0.0365962,66,82,82,85,91,34,64,72,76,74,82,36
-1.4621,10,-0.908687,-3.8294,-16.0068,28.5518,-13.2448,0.908687,-0.908687,-3.8294,-14.858,28.5518,-14.3936,0.908687,-0.985122,12.1495,-2.85691,6.79143,1.03916,-9.52944,-1.45433,0.0996104,12.8815,2.49821,5,-13.0662,-3.56969,1.82258,0.16271,-0.0366,66,82,82,85,91,34,64,72,76,74,82,36
-1.46235,10,-0.908695,-3.82942,-16.0068,28.5518,-13.2448,0.908695,-0.908695,-3.82942,-14.858,28.5518,-14.3937,0.908695,-0.985334,12.1495,-2.85659,6.79083,1.03929,-9.5292,-1.45417,0.0994755,12.8816,2.49749,5,-13.0659,-3.56952,1.82298,0.162721,-0.0366044,66,82,82,85,91,34,64,72,76,74,82,36
-1.46257,10,-0.908704,-3.82944,-16.0068,28.5518,-13.2448,0.908704,-0.908704,-3.82944,-14.858,28.5518,-14.3937,0.908704,-0.985547,12.1495,-2.85627,6.79024,1.03944,-9.52896,-1.45402,0.0993454,12.8817,2.49679,5,-13.0657,-3.56937,1.82338,0.162734,-0.0366091,66,82,82,85,91,34,64,72,76,74,82,36
-1.46278,10,-0.908714,-3.82945,-16.007,28.5519,-13.2449,0.908714,-0.908714,-3.82945,-14.8581,28.5519,-14.3937,0.908714,-0.985762,12.1496,-2.85593,6.78965,1.03958,-9.52873,-1.45386,0.0992197,12.8818,2.49611,5,-13.0655,-3.56923,1.82377,0.162747,-0.0366143,66,82,82,85,91,34,64,72,76,74,82,36
-1.46298,10,-0.908724,-3.82947,-16.007,28.5519,-13.2449,0.908724,-0.908724,-3.82947,-14.8581,28.5519,-14.3937,0.908724,-0.98597,12.1496,-2.85559,6.78908,1.03974,-9.52849,-1.4537,0.0990971,12.882,2.49544,5,-13.0652,-3.56909,1.82415,0.16276,-0.0366197,66,82,82,85,91,34,64,72,76,74,82,36
-1.46317,10,-0.908735,-3.82949,-16.007,28.5519,-13.2449,0.908735,-0.908735,-3.82949,-14.8581,28.5519,-14.3938,0.908735,-0.986175,12.1496,-2.85525,6.78851,1.03989,-9.52825,-1.45354,0.0989781,12.8821,2.49479,5,-13.065,-3.56897,1.82453,0.162773,-0.0366253,66,82,82,85,91,34,64,72,76,74,82,36
-1.46334,10,-0.908746,-3.82951,-16.0069,28.5519,-13.2449,0.908746,-0.908746,-3.82951,-14.8581,28.5519,-14.3938,0.908746,-0.986379,12.1496,-2.8549,6.78795,1.04005,-9.52802,-1.45338,0.098863,12.8822,2.49415,5,-13.0648,-3.56885,1.8249,0.162786,-0.0366312,66,82,82,85,91,34,64,72,76,74,82,36
-1.46349,10,-0.908757,-3.82952,-16.0069,28.5519,-13.2449,0.908757,-0.908757,-3.82952,-14.8581,28.5519,-14.3938,0.908757,-0.986584,12.1495,-2.85455,6.7874,1.04022,-9.52778,-1.45322,0.0987523,12.8823,2.49353,5,-13.0646,-3.56874,1.82526,0.1628,-0.0366373,66,82,82,85,91,34,64,72,76,74,82,36
-1.46363,10,-0.908769,-3.82954,-16.0069,28.5519,-13.2449,0.908769,-0.908769,-3.82954,-14.8581,28.5519,-14.3938,0.908769,-0.98679,12.1495,-2.85418,6.78686,1.04038,-9.52755,-1.45307,0.0986462,12.8824,2.49293,5,-13.0644,-3.56863,1.82563,0.162815,-0.0366437,66,82,82,85,91,34,64,72,76,74,82,36
-1.46376,10,-0.908781,-3.82957,-16.0069,28.5519,-13.245,0.908781,-0.908781,-3.82957,-14.8581,28.5519,-14.3938,0.908781,-0.987001,12.1495,-2.85381,6.78633,1.04054,-9.52733,-1.45291,0.0985452,12.8825,2.49236,5,-13.0643,-3.56852,1.826,0.162832,-0.0366502,66,82,82,85,91,34,64,72,76,74,82,36
-1.46386,10,-0.908794,-3.82959,-16.0067,28.5518,-13.2449,0.908794,-0.908794,-3.82959,-14.8578,28.5518,-14.3938,0.908794,-0.987216,12.1495,-2.85342,6.7858,1.0407,-9.5271,-1.45276,0.0984495,12.8826,2.4918,5,-13.0641,-3.56841,1.82636,0.16285,-0.0366568,66,82,82,85,91,34,64,72,76,74,82,36
-1.46396,10,-0.908807,-3.82962,-16.0067,28.5518,-13.2449,0.908807,-0.908807,-3.82962,-14.8578,28.5518,-14.3938,0.908807,-0.987439,12.1494,-2.85301,6.78527,1.04085,-9.52688,-1.45261,0.0983582,12.8827,2.49127,5,-13.064,-3.5683,1.82673,0.16287,-0.0366637,66,82,82,85,91,34,64,72,76,74,82,36
-1.46404,10,-0.90882,-3.82965,-16.0067,28.5518,-13.2449,0.90882,-0.90882,-3.82965,-14.8578,28.5518,-14.3938,0.90882,-0.987669,12.1494,-2.8526,6.78475,1.041,-9.52666,-1.45246,0.0982723,12.8828,2.49077,5,-13.0639,-3.56818,1.82711,0.162891,-0.0366707,66,82,82,85,91,34,64,72,76,74,82,36
-1.4641,10,-0.908833,-3.82968,-16.0067,28.5518,-13.2449,0.908833,-0.908833,-3.82968,-14.8578,28.5518,-14.3938,0.908833,-0.987906,12.1494,-2.85216,6.78424,1.04114,-9.52645,-1.45232,0.0981927,12.8829,2.49029,5,-13.0638,-3.56807,1.82748,0.162915,-0.0366778,66,82,82,85,91,34,64,72,76,74,82,36
-1.46415,10,-0.908847,-3.82971,-16.0067,28.5518,-13.2449,0.908847,-0.908847,-3.82971,-14.8578,28.5518,-14.3939,0.908847,-0.98815,12.1493,-2.85172,6.78373,1.04127,-9.52624,-1.45218,0.0981201,12.883,2.48983,5,-13.0637,-3.56794,1.82786,0.16294,-0.036685,66,82,82,85,91,34,64,72,76,74,82,36
-1.46418,10,-0.908861,-3.82975,-16.0067,28.5518,-13.245,0.908861,-0.908861,-3.82975,-14.8577,28.5518,-14.3939,0.908861,-0.988399,12.1493,-2.85126,6.78322,1.0414,-9.52603,-1.45205,0.0980552,12.8831,2.48939,5,-13.0636,-3.56782,1.82823,0.162968,-0.0366923,66,82,82,85,91,34,64,72,76,74,82,36
-1.46421,10,-0.908874,-3.82979,-16.0067,28.5518,-13.245,0.908874,-0.908874,-3.82979,-14.8577,28.5518,-14.3939,0.908874,-0.988654,12.1492,-2.85079,6.78272,1.04152,-9.52583,-1.45191,0.0979986,12.8832,2.48897,5,-13.0636,-3.56769,1.82861,0.162998,-0.0366996,66,82,82,85,91,34,64,72,76,74,82,36
-1.46422,10,-0.908888,-3.82983,-16.0064,28.5516,-13.2449,0.908888,-0.908888,-3.82983,-14.8574,28.5516,-14.3939,0.908888,-0.988914,12.1491,-2.8503,6.78222,1.04163,-9.52564,-1.45179,0.0979506,12.8833,2.48856,5,-13.0636,-3.56755,1.82898,0.16303,-0.036707,66,82,82,85,91,34,64,72,76,74,82,36
-1.46422,10,-0.908902,-3.82988,-16.0064,28.5516,-13.2449,0.908902,-0.908902,-3.82988,-14.8574,28.5516,-14.3939,0.908902,-0.989179,12.1491,-2.84981,6.78172,1.04173,-9.52545,-1.45166,0.0979126,12.8834,2.48816,5,-13.0636,-3.56741,1.82934,0.163064,-0.0367142,66,82,82,85,91,34,64,72,76,74,82,36
-1.46421,10,-0.908915,-3.82992,-16.0064,28.5516,-13.2449,0.908915,-0.908915,-3.82992,-14.8574,28.5516,-14.3939,0.908915,-0.98945,12.149,-2.84931,6.78124,1.04182,-9.52527,-1.45154,0.0978843,12.8834,2.48778,5,-13.0636,-3.56726,1.82971,0.1631,-0.0367214,66,82,82,85,91,34,64,72,76,74,82,36
-1.46419,10,-0.908929,-3.82998,-16.0064,28.5516,-13.2449,0.908929,-0.908929,-3.82998,-14.8574,28.5516,-14.3939,0.908929,-0.989724,12.1489,-2.8488,6.78075,1.0419,-9.52509,-1.45143,0.0978653,12.8835,2.48741,5,-13.0636,-3.56711,1.83006,0.163138,-0.0367285,66,82,82,85,91,34,64,72,76,74,82,36
-1.46416,10,-0.908942,-3.83003,-16.0064,28.5516,-13.2449,0.908942,-0.908942,-3.83003,-14.8574,28.5516,-14.3939,0.908942,-0.990001,12.1489,-2.84828,6.78027,1.04197,-9.52492,-1.45132,0.0978553,12.8836,2.48705,5,-13.0636,-3.56696,1.83041,0.163178,-0.0367356,66,82,82,85,91,34,64,72,76,74,82,36
-1.46413,10,-0.908955,-3.83008,-16.0064,28.5516,-13.2449,0.908955,-0.908955,-3.83008,-14.8573,28.5516,-14.394,0.908955,-0.990279,12.1488,-2.84775,6.77979,1.04202,-9.52475,-1.45122,0.0978538,12.8836,2.4867,5,-13.0637,-3.5668,1.83076,0.16322,-0.0367427,66,82,82,85,91,34,64,72,76,74,82,36
-1.46409,10,-0.908969,-3.83014,-16.0064,28.5516,-13.2449,0.908969,-0.908969,-3.83014,-14.8573,28.5516,-14.394,0.908969,-0.990559,12.1487,-2.84721,6.77932,1.04207,-9.52459,-1.45112,0.0978605,12.8837,2.48637,5,-13.0637,-3.56663,1.8311,0.163263,-0.0367497,66,82,82,85,91,34,64,72,76,74,82,36
-1.46404,10,-0.908982,-3.8302,-16.0061,28.5514,-13.2449,0.908982,-0.908982,-3.8302,-14.8571,28.5514,-14.3939,0.908982,-0.990839,12.1486,-2.84667,6.77884,1.04209,-9.52443,-1.45103,0.0978749,12.8838,2.48604,5,-13.0638,-3.56646,1.83143,0.163307,-0.0367566,66,82,82,85,91,34,64,72,76,74,82,36
-1.46398,10,-0.908995,-3.83026,-16.0061,28.5514,-13.2449,0.908995,-0.908995,-3.83026,-14.857,28.5514,-14.394,0.908995,-0.991117,12.1486,-2.84612,6.77837,1.0421,-9.52428,-1.45094,0.0978963,12.8838,2.48572,5,-13.0639,-3.56629,1.83176,0.163352,-0.0367636,66,82,82,85,91,34,64,72,76,74,82,36
-1.46392,10,-0.909008,-3.83032,-16.0061,28.5514,-13.2449,0.909008,-0.909008,-3.83032,-14.857,28.5514,-14.394,0.909008,-0.991394,12.1485,-2.84557,6.77791,1.0421,-9.52413,-1.45085,0.0979243,12.8839,2.48542,5,-13.064,-3.56611,1.83208,0.163398,-0.0367707,66,82,82,85,91,34,64,72,76,74,82,36
-1.46386,10,-0.909021,-3.83038,-16.0061,28.5514,-13.2449,0.909021,-0.909021,-3.83038,-14.857,28.5514,-14.394,0.909021,-0.991671,12.1484,-2.84501,6.77744,1.04209,-9.52399,-1.45077,0.097959,12.884,2.48512,5,-13.0641,-3.56593,1.8324,0.163444,-0.0367776,66,82,82,85,91,34,64,72,76,74,82,36
-1.46379,10,-0.909034,-3.83045,-16.0061,28.5514,-13.2449,0.909034,-0.909034,-3.83045,-14.857,28.5514,-14.394,0.909034,-0.991947,12.1483,-2.84445,6.77698,1.04205,-9.52385,-1.4507,0.098,12.884,2.48483,5,-13.0642,-3.56574,1.8327,0.163492,-0.0367844,66,82,82,85,91,34,64,72,76,74,82,36
-1.46372,10,-0.909046,-3.83051,-16.0061,28.5514,-13.2449,0.909046,-0.909046,-3.83051,-14.857,28.5514,-14.394,0.909046,-0.992224,12.1483,-2.84389,6.77652,1.04199,-9.52372,-1.45064,0.098047,12.8841,2.48456,5,-13.0643,-3.56555,1.833,0.163541,-0.0367909,66,82,82,85,91,34,64,72,76,74,82,36
-1.46364,10,-0.909058,-3.83058,-16.0061,28.5514,-13.2449,0.909058,-0.909058,-3.83058,-14.8569,28.5514,-14.3941,0.909058,-0.992502,12.1482,-2.84333,6.77606,1.04192,-9.5236,-1.45058,0.0980999,12.8841,2.4843,5,-13.0644,-3.56537,1.83328,0.16359,-0.036797,66,82,82,85,91,34,64,72,76,74,82,36
-1.46356,10,-0.909069,-3.83065,-16.0061,28.5514,-13.2449,0.909069,-0.909069,-3.83065,-14.8569,28.5514,-14.3941,0.909069,-0.99278,12.1481,-2.84277,6.7756,1.04182,-9.52349,-1.45052,0.098158,12.8842,2.48404,5,-13.0645,-3.56518,1.83355,0.163641,-0.0368027,66,82,82,85,91,34,64,72,76,74,82,36
-1.46347,10,-0.909078,-3.83071,-16.0061,28.5514,-13.2449,0.909078,-0.909078,-3.83071,-14.8569,28.5514,-14.3941,0.909078,-0.99306,12.1481,-2.84221,6.77515,1.0417,-9.52338,-1.45048,0.098223,12.8842,2.4838,5,-13.0646,-3.56499,1.8338,0.163692,-0.0368079,66,82,82,85,91,34,64,72,76,74,82,36
-1.46337,10,-0.909087,-3.83078,-16.0061,28.5514,-13.2449,0.909087,-0.909087,-3.83078,-14.8569,28.5514,-14.3941,0.909087,-0.993341,12.148,-2.84165,6.7747,1.04155,-9.52328,-1.45044,0.0982935,12.8842,2.48358,5,-13.0648,-3.5648,1.83405,0.163745,-0.0368126,66,82,82,85,91,34,64,72,76,74,82,36
-1.46328,10,-0.909095,-3.83086,-16.0061,28.5514,-13.2449,0.909095,-0.909095,-3.83086,-14.8569,28.5514,-14.3941,0.909095,-0.993624,12.1479,-2.8411,6.77425,1.04138,-9.5232,-1.45041,0.0983681,12.8843,2.48336,5,-13.0649,-3.56462,1.83427,0.163799,-0.0368168,66,82,82,85,91,34,64,72,76,74,82,36
-1.46318,10,-0.909102,-3.83093,-16.0061,28.5514,-13.2449,0.909102,-0.909102,-3.83093,-14.8568,28.5514,-14.3942,0.909102,-0.993909,12.1479,-2.84056,6.7738,1.0412,-9.52312,-1.45038,0.0984459,12.8843,2.48316,5,-13.065,-3.56443,1.83448,0.163853,-0.0368205,66,82,82,85,91,34,64,72,76,74,82,36
-1.46308,10,-0.909108,-3.831,-16.0061,28.5514,-13.2449,0.909108,-0.909108,-3.831,-14.8568,28.5514,-14.3942,0.909108,-0.994196,12.1479,-2.84003,6.77336,1.04099,-9.52306,-1.45037,0.0985257,12.8843,2.48298,5,-13.0652,-3.56425,1.83467,0.163908,-0.0368236,66,82,82,85,91,34,64,72,76,74,82,36
-1.46299,10,-0.909113,-3.83108,-16.0061,28.5514,-13.2449,0.909113,-0.909113,-3.83108,-14.8568,28.5514,-14.3942,0.909113,-0.994485,12.1478,-2.83951,6.77293,1.04077,-9.52301,-1.45035,0.0986067,12.8843,2.48281,5,-13.0653,-3.56407,1.83485,0.163964,-0.0368263,66,82,82,85,91,34,64,72,76,74,82,36
-1.4629,10,-0.909117,-3.83115,-16.0072,28.5522,-13.2451,0.909117,-0.909117,-3.83115,-14.8579,28.5522,-14.3944,0.909117,-0.994775,12.1478,-2.83901,6.77249,1.04054,-9.52297,-1.45035,0.0986881,12.8844,2.48266,5,-13.0655,-3.5639,1.83501,0.16402,-0.0368284,66,82,82,85,91,34,64,72,76,74,82,36
-1.46283,10,-0.90912,-3.83122,-16.0072,28.5522,-13.2451,0.90912,-0.90912,-3.83122,-14.8579,28.5522,-14.3945,0.90912,-0.995069,12.1478,-2.83853,6.77207,1.04029,-9.52295,-1.45035,0.0987662,12.8844,2.48254,5,-13.0656,-3.56373,1.83515,0.164075,-0.0368301,66,82,82,85,91,34,64,72,76,74,82,36
-1.46276,10,-0.909122,-3.8313,-16.0072,28.5522,-13.2451,0.909122,-0.909122,-3.8313,-14.8578,28.5522,-14.3945,0.909122,-0.995364,12.1477,-2.83807,6.77165,1.04004,-9.52294,-1.45036,0.0988419,12.8844,2.48244,5,-13.0658,-3.56358,1.83527,0.164131,-0.0368313,66,82,82,85,91,34,64,72,76,74,82,36
-1.4627,10,-0.909124,-3.83137,-16.0072,28.5522,-13.2451,0.909124,-0.909124,-3.83137,-14.8578,28.5522,-14.3945,0.909124,-0.995661,12.1477,-2.83764,6.77124,1.03978,-9.52294,-1.45037,0.0989161,12.8844,2.48236,5,-13.0659,-3.56342,1.83537,0.164187,-0.0368321,66,82,82,85,91,34,64,72,76,74,82,36
-1.46265,10,-0.909125,-3.83145,-16.0072,28.5522,-13.2451,0.909125,-0.909125,-3.83145,-14.8578,28.5522,-14.3945,0.909125,-0.995959,12.1477,-2.83722,6.77083,1.03951,-9.52295,-1.45038,0.0989892,12.8843,2.4823,5,-13.0661,-3.56328,1.83546,0.164242,-0.0368324,66,82,82,85,91,34,64,72,76,74,82,36
-1.4626,10,-0.909125,-3.83152,-16.0072,28.5522,-13.2451,0.909125,-0.909125,-3.83152,-14.8578,28.5522,-14.3945,0.909125,-0.996256,12.1477,-2.83681,6.77043,1.03924,-9.52298,-1.4504,0.0990618,12.8843,2.48224,5,-13.0662,-3.56313,1.83553,0.164298,-0.0368324,66,82,82,85,91,34,64,72,76,74,82,36
-1.46255,10,-0.909124,-3.8316,-16.0072,28.5522,-13.2451,0.909124,-0.909124,-3.8316,-14.8578,28.5522,-14.3946,0.909124,-0.996554,12.1477,-2.83641,6.77003,1.03895,-9.52301,-1.45043,0.0991341,12.8843,2.4822,5,-13.0664,-3.563,1.83559,0.164353,-0.0368321,66,82,82,85,91,34,64,72,76,74,82,36
-1.46251,10,-0.909123,-3.83167,-16.0067,28.5518,-13.245,0.909123,-0.909123,-3.83167,-14.8572,28.5518,-14.3945,0.909123,-0.996851,12.1476,-2.83603,6.76965,1.03866,-9.52305,-1.45045,0.0992061,12.8843,2.48216,5,-13.0666,-3.56286,1.83563,0.164408,-0.0368315,66,82,82,85,91,34,64,72,76,74,82,36
-1.46246,10,-0.909121,-3.83174,-16.0067,28.5518,-13.245,0.909121,-0.909121,-3.83174,-14.8572,28.5518,-14.3945,0.909121,-0.997147,12.1476,-2.83563,6.76927,1.03834,-9.5231,-1.45048,0.0992825,12.8843,2.48211,5,-13.0667,-3.56272,1.83567,0.164464,-0.0368307,66,82,82,85,91,34,64,72,76,74,82,36
-1.4624,10,-0.909119,-3.83182,-16.0067,28.5518,-13.245,0.909119,-0.909119,-3.83182,-14.8572,28.5518,-14.3945,0.909119,-0.997441,12.1476,-2.83523,6.76889,1.03802,-9.52316,-1.45051,0.0993609,12.8842,2.48206,5,-13.0669,-3.56259,1.83569,0.16452,-0.0368296,66,82,82,85,91,34,64,72,76,74,82,36
-1.46235,10,-0.909117,-3.83189,-16.0067,28.5518,-13.245,0.909117,-0.909117,-3.83189,-14.8572,28.5518,-14.3945,0.909117,-0.997734,12.1476,-2.83485,6.76853,1.03769,-9.52321,-1.45054,0.099439,12.8842,2.48201,5,-13.067,-3.56245,1.8357,0.164576,-0.0368282,66,82,82,85,91,34,64,72,76,74,82,36
-1.4623,10,-0.909114,-3.83197,-16.0067,28.5518,-13.245,0.909114,-0.909114,-3.83197,-14.8571,28.5518,-14.3946,0.909114,-0.998023,12.1476,-2.83448,6.76817,1.03737,-9.52328,-1.45057,0.0995149,12.8842,2.48198,5,-13.0672,-3.56232,1.8357,0.164631,-0.0368268,66,82,82,85,91,34,64,72,76,74,82,36
-1.46226,10,-0.909111,-3.83204,-16.0067,28.5518,-13.245,0.909111,-0.909111,-3.83204,-14.8571,28.5518,-14.3946,0.909111,-0.998308,12.1476,-2.83413,6.76782,1.03705,-9.52335,-1.4506,0.0995867,12.8841,2.48196,5,-13.0673,-3.5622,1.8357,0.164684,-0.0368251,66,82,82,85,91,34,64,72,76,74,82,36
-1.46223,10,-0.909107,-3.83211,-16.0067,28.5518,-13.245,0.909107,-0.909107,-3.83211,-14.8571,28.5518,-14.3946,0.909107,-0.998588,12.1476,-2.8338,6.76748,1.03674,-9.52342,-1.45064,0.0996533,12.8841,2.48196,5,-13.0675,-3.56209,1.83569,0.164736,-0.0368233,66,82,82,85,91,34,64,72,76,74,82,36
-1.46222,10,-0.909104,-3.83217,-16.0068,28.5519,-13.245,0.909104,-0.909104,-3.83217,-14.8571,28.5519,-14.3946,0.909104,-0.998863,12.1476,-2.83351,6.76715,1.03644,-9.5235,-1.45068,0.0997133,12.884,2.48198,5,-13.0676,-3.56198,1.83568,0.164786,-0.0368215,66,82,82,85,91,34,64,72,76,74,82,36
-1.46222,10,-0.9091,-3.83224,-16.0068,28.5519,-13.245,0.9091,-0.9091,-3.83224,-14.8571,28.5519,-14.3946,0.9091,-0.99913,12.1476,-2.83327,6.76682,1.03618,-9.52358,-1.45072,0.0997624,12.884,2.48205,5,-13.0678,-3.56189,1.83567,0.164834,-0.0368196,66,82,82,85,91,34,64,72,76,74,82,36
-1.46224,10,-0.909097,-3.8323,-16.0068,28.5519,-13.245,0.909097,-0.909097,-3.8323,-14.8571,28.5519,-14.3947,0.909097,-0.999391,12.1476,-2.83306,6.7665,1.03594,-9.52366,-1.45076,0.0998017,12.884,2.48215,5,-13.0679,-3.56181,1.83566,0.164879,-0.0368177,66,82,82,85,91,34,64,72,76,74,82,36
-1.46227,10,-0.909093,-3.83235,-16.0068,28.5519,-13.245,0.909093,-0.909093,-3.83235,-14.8571,28.5519,-14.3947,0.909093,-0.999645,12.1476,-2.8329,6.76619,1.03572,-9.52374,-1.45081,0.0998321,12.8839,2.48228,5,-13.068,-3.56174,1.83565,0.164922,-0.0368157,66,82,82,85,91,34,64,72,76,74,82,36
-1.46232,10,-0.909089,-3.83241,-16.0068,28.5519,-13.245,0.909089,-0.909089,-3.83241,-14.8571,28.5519,-14.3947,0.909089,-0.999892,12.1476,-2.83277,6.76589,1.03552,-9.52383,-1.45087,0.0998546,12.8839,2.48244,5,-13.0682,-3.56169,1.83563,0.164962,-0.0368137,66,82,82,85,91,34,64,72,76,74,82,36
-1.46239,10,-0.909085,-3.83246,-16.0068,28.5519,-13.245,0.909085,-0.909085,-3.83246,-14.857,28.5519,-14.3947,0.909085,-1.00013,12.1476,-2.83268,6.76559,1.03534,-9.52392,-1.45092,0.09987,12.8838,2.48263,5,-13.0683,-3.56164,1.83562,0.165001,-0.0368116,66,82,82,85,91,34,64,72,76,74,82,36
-1.46246,10,-0.909081,-3.83251,-16.0068,28.5519,-13.245,0.909081,-0.909081,-3.83251,-14.857,28.5519,-14.3947,0.909081,-1.00037,12.1476,-2.83261,6.76531,1.03518,-9.52401,-1.45098,0.099879,12.8838,2.48283,5,-13.0684,-3.5616,1.8356,0.165037,-0.0368095,66,82,82,85,91,34,64,72,76,74,82,36
-1.46254,10,-0.909077,-3.83255,-16.007,28.552,-13.245,0.909077,-0.909077,-3.83255,-14.8572,28.552,-14.3948,0.909077,-1.0006,12.1476,-2.83256,6.76503,1.03503,-9.5241,-1.45104,0.0998824,12.8838,2.48305,5,-13.0685,-3.56156,1.83559,0.165073,-0.0368073,66,82,82,85,91,34,64,72,76,74,82,36
-1.46263,10,-0.909073,-3.8326,-16.007,28.552,-13.245,0.909073,-0.909073,-3.8326,-14.8572,28.552,-14.3948,0.909073,-1.00083,12.1476,-2.83254,6.76476,1.03489,-9.5242,-1.45111,0.0998799,12.8837,2.48327,5,-13.0686,-3.56153,1.83557,0.165106,-0.036805,66,82,82,85,91,34,64,72,76,74,82,36
-1.46273,10,-0.909069,-3.83264,-16.007,28.552,-13.245,0.909069,-0.909069,-3.83264,-14.8572,28.552,-14.3948,0.909069,-1.00105,12.1476,-2.83253,6.7645,1.03475,-9.52429,-1.45117,0.0998724,12.8837,2.48351,5,-13.0688,-3.56151,1.83555,0.165138,-0.0368027,66,82,82,85,91,34,64,72,76,74,82,36
-1.46284,10,-0.909064,-3.83268,-16.0069,28.552,-13.245,0.909064,-0.909064,-3.83268,-14.8571,28.552,-14.3948,0.909064,-1.00126,12.1476,-2.83253,6.76424,1.03463,-9.52438,-1.45124,0.0998606,12.8836,2.48376,5,-13.0689,-3.56149,1.83553,0.165169,-0.0368004,66,82,82,85,91,34,64,72,76,74,82,36
-1.46295,10,-0.90906,-3.83272,-16.0069,28.552,-13.245,0.90906,-0.90906,-3.83272,-14.8571,28.552,-14.3948,0.90906,-1.00147,12.1476,-2.83256,6.76399,1.03452,-9.52448,-1.45131,0.0998453,12.8836,2.48402,5,-13.069,-3.56148,1.83551,0.165198,-0.036798,66,82,82,85,91,34,64,72,76,74,82,36
-1.46307,10,-0.909055,-3.83276,-16.0069,28.552,-13.245,0.909055,-0.909055,-3.83276,-14.8571,28.552,-14.3949,0.909055,-1.00168,12.1476,-2.8326,6.76375,1.03442,-9.52457,-1.45138,0.0998268,12.8835,2.4843,5,-13.0691,-3.56147,1.83549,0.165226,-0.0367958,66,82,82,85,91,34,64,72,76,74,82,36
-1.46318,10,-0.909051,-3.83279,-16.0069,28.552,-13.245,0.909051,-0.909051,-3.83279,-14.8571,28.552,-14.3949,0.909051,-1.00188,12.1476,-2.83267,6.76352,1.03434,-9.52466,-1.45144,0.0998055,12.8835,2.48458,5,-13.0691,-3.56147,1.83547,0.165252,-0.0367935,66,82,82,85,91,34,64,72,76,74,82,36
-1.4633,10,-0.909047,-3.83283,-16.0071,28.5521,-13.2451,0.909047,-0.909047,-3.83283,-14.8572,28.5521,-14.3949,0.909047,-1.00207,12.1476,-2.83274,6.76329,1.03427,-9.52476,-1.45151,0.0997817,12.8835,2.48487,5,-13.0692,-3.56147,1.83546,0.165277,-0.0367914,66,82,82,85,91,34,64,72,76,74,82,36
-1.46342,10,-0.909043,-3.83286,-16.0071,28.5521,-13.2451,0.909043,-0.909043,-3.83286,-14.8572,28.5521,-14.3949,0.909043,-1.00225,12.1477,-2.83284,6.76306,1.03421,-9.52485,-1.45158,0.0997578,12.8834,2.48518,5,-13.0693,-3.56148,1.83544,0.165301,-0.0367893,66,82,82,85,91,34,64,72,76,74,82,36
-1.46355,10,-0.909039,-3.83289,-16.0071,28.5521,-13.2451,0.909039,-0.909039,-3.83289,-14.8572,28.5521,-14.3949,0.909039,-1.00243,12.1477,-2.83295,6.76284,1.03417,-9.52495,-1.45164,0.0997326,12.8834,2.48549,5,-13.0694,-3.5615,1.83542,0.165324,-0.0367873,66,82,82,85,91,34,64,72,76,74,82,36
-1.46367,10,-0.909036,-3.83292,-16.0071,28.5521,-13.2451,0.909036,-0.909036,-3.83292,-14.8572,28.5521,-14.395,0.909036,-1.0026,12.1477,-2.83307,6.76262,1.03415,-9.52504,-1.4517,0.0997051,12.8834,2.48582,5,-13.0695,-3.56151,1.83541,0.165346,-0.0367854,66,82,82,85,91,34,64,72,76,74,82,36
-1.46379,10,-0.909033,-3.83294,-16.0071,28.5521,-13.2451,0.909033,-0.909033,-3.83294,-14.8572,28.5521,-14.395,0.909033,-1.00276,12.1477,-2.83321,6.76241,1.03415,-9.52513,-1.45176,0.0996742,12.8833,2.48616,5,-13.0696,-3.56154,1.8354,0.165365,-0.0367838,66,82,82,85,91,34,64,72,76,74,82,36
-1.46392,10,-0.90903,-3.83297,-16.0071,28.5521,-13.2451,0.90903,-0.90903,-3.83297,-14.8572,28.5521,-14.395,0.90903,-1.00291,12.1477,-2.83338,6.76221,1.03417,-9.52522,-1.45181,0.0996391,12.8833,2.48652,5,-13.0697,-3.56157,1.8354,0.165383,-0.0367825,66,82,82,85,91,34,64,72,76,74,82,36
-1.46404,10,-0.909029,-3.83299,-16.0071,28.5521,-13.2451,0.909029,-0.909029,-3.83299,-14.8572,28.5521,-14.395,0.909029,-1.00306,12.1477,-2.83355,6.762,1.03421,-9.5253,-1.45186,0.099599,12.8833,2.4869,5,-13.0698,-3.56161,1.8354,0.165398,-0.0367815,66,82,82,85,91,34,64,72,76,74,82,36
-1.46417,10,-0.909028,-3.83301,-16.0071,28.5521,-13.2451,0.909028,-0.909028,-3.83301,-14.8572,28.5521,-14.395,0.909028,-1.00319,12.1477,-2.83375,6.76181,1.03427,-9.52537,-1.4519,0.0995533,12.8833,2.48729,5,-13.0699,-3.56166,1.8354,0.165411,-0.0367809,66,82,82,85,91,34,64,72,76,74,82,36
-1.46429,10,-0.909027,-3.83302,-16.007,28.5521,-13.2451,0.909027,-0.909027,-3.83302,-14.8571,28.5521,-14.395,0.909027,-1.00331,12.1477,-2.83396,6.76162,1.03436,-9.52544,-1.45193,0.0995022,12.8833,2.48771,5,-13.07,-3.56171,1.83541,0.165421,-0.0367808,66,82,82,85,91,34,64,72,76,74,82,36
-1.46441,10,-0.909028,-3.83303,-16.007,28.5521,-13.2451,0.909028,-0.909028,-3.83303,-14.8571,28.5521,-14.395,0.909028,-1.00342,12.1476,-2.8342,6.76143,1.03448,-9.5255,-1.45195,0.0994447,12.8833,2.48815,5,-13.0702,-3.56177,1.83542,0.165429,-0.0367812,66,82,82,85,91,34,64,72,76,74,82,36
-1.46454,10,-0.90903,-3.83304,-16.007,28.5521,-13.2451,0.90903,-0.90903,-3.83304,-14.8571,28.5521,-14.395,0.90903,-1.00351,12.1476,-2.83444,6.76125,1.03461,-9.52555,-1.45197,0.0993802,12.8833,2.48861,5,-13.0703,-3.56184,1.83544,0.165434,-0.036782,66,82,82,85,91,34,64,72,76,74,82,36
-1.46467,10,-0.909032,-3.83304,-16.007,28.5521,-13.2451,0.909032,-0.909032,-3.83304,-14.8571,28.5521,-14.395,0.909032,-1.0036,12.1476,-2.83471,6.76107,1.03478,-9.52559,-1.45198,0.0993078,12.8833,2.48909,5,-13.0705,-3.56191,1.83546,0.165436,-0.0367833,66,82,82,85,91,34,64,72,76,74,82,36
-1.46482,10,-0.909035,-3.83304,-16.007,28.5521,-13.2451,0.909035,-0.909035,-3.83304,-14.8571,28.5521,-14.395,0.909035,-1.00367,12.1476,-2.83499,6.7609,1.03497,-9.52563,-1.45198,0.0992271,12.8833,2.48959,5,-13.0706,-3.56199,1.83549,0.165434,-0.036785,66,82,82,85,91,34,64,72,76,74,82,36
-1.46498,10,-0.909039,-3.83303,-16.007,28.5521,-13.2451,0.909039,-0.909039,-3.83303,-14.8571,28.5521,-14.395,0.909039,-1.00372,12.1475,-2.83529,6.76073,1.03518,-9.52565,-1.45197,0.0991378,12.8833,2.49011,5,-13.0708,-3.56208,1.83552,0.165429,-0.036787,66,82,82,85,91,34,64,72,76,74,82,36
-1.46515,10,-0.909043,-3.83302,-16.007,28.5521,-13.2451,0.909043,-0.909043,-3.83302,-14.8571,28.5521,-14.395,0.909043,-1.00377,12.1475,-2.8356,6.76057,1.03542,-9.52568,-1.45196,0.0990397,12.8833,2.49064,5,-13.071,-3.56217,1.83555,0.165421,-0.0367893,66,82,82,85,91,34,64,72,76,74,82,36
-1.46536,10,-0.909048,-3.833,-16.007,28.5521,-13.2451,0.909048,-0.909048,-3.833,-14.8571,28.5521,-14.395,0.909048,-1.00378,12.1474,-2.83593,6.76041,1.03568,-9.52569,-1.45194,0.0989291,12.8833,2.49119,5,-13.0712,-3.56228,1.83559,0.165407,-0.036792,66,82,82,85,91,34,64,72,76,74,82,36
-1.46559,10,-0.909054,-3.83297,-16.007,28.5521,-13.2451,0.909054,-0.909054,-3.83297,-14.8571,28.5521,-14.395,0.909054,-1.00378,12.1474,-2.83627,6.76025,1.03598,-9.5257,-1.45192,0.0988079,12.8833,2.49174,5,-13.0714,-3.56239,1.83563,0.165388,-0.0367949,66,82,82,85,91,34,64,72,76,74,82,36
-1.46584,10,-0.90906,-3.83294,-16.007,28.5521,-13.2452,0.90906,-0.90906,-3.83294,-14.8571,28.5521,-14.395,0.90906,-1.00376,12.1474,-2.83663,6.7601,1.03629,-9.52569,-1.45189,0.0986779,12.8833,2.49231,5,-13.0717,-3.56251,1.83567,0.165365,-0.0367981,66,82,82,85,91,34,64,72,76,74,82,36
-1.46611,10,-0.909066,-3.83291,-16.007,28.5521,-13.2452,0.909066,-0.909066,-3.83291,-14.8571,28.5521,-14.395,0.909066,-1.00373,12.1473,-2.837,6.75995,1.03662,-9.52569,-1.45185,0.0985404,12.8833,2.49289,5,-13.0719,-3.56263,1.83572,0.16534,-0.0368016,66,82,82,85,91,34,64,72,76,74,82,36
-1.46639,10,-0.909073,-3.83287,-16.007,28.5521,-13.2452,0.909073,-0.909073,-3.83287,-14.8571,28.5521,-14.395,0.909073,-1.00369,12.1473,-2.83737,6.7598,1.03697,-9.52568,-1.45182,0.0983969,12.8834,2.49347,5,-13.0722,-3.56276,1.83577,0.165312,-0.0368052,66,82,82,85,91,34,64,72,76,74,82,36
-1.46668,10,-0.909081,-3.83283,-16.0069,28.5521,-13.2452,0.909081,-0.909081,-3.83283,-14.8571,28.5521,-14.395,0.909081,-1.00364,12.1472,-2.83775,6.75966,1.03732,-9.52567,-1.45178,0.0982485,12.8834,2.49407,5,-13.0725,-3.56289,1.83581,0.165283,-0.0368091,66,82,82,85,91,34,64,72,76,74,82,36
-1.46699,10,-0.909088,-3.83279,-16.0069,28.5521,-13.2452,0.909088,-0.909088,-3.83279,-14.8571,28.5521,-14.395,0.909088,-1.00359,12.1471,-2.83813,6.75952,1.03769,-9.52565,-1.45173,0.0980961,12.8834,2.49466,5,-13.0727,-3.56302,1.83586,0.165252,-0.0368131,66,82,82,85,91,34,64,72,76,74,82,36
-1.46729,10,-0.909096,-3.83276,-16.0069,28.5521,-13.2452,0.909096,-0.909096,-3.83276,-14.8571,28.5521,-14.395,0.909096,-1.00355,12.1471,-2.83851,6.75939,1.03805,-9.52563,-1.45169,0.097944,12.8834,2.49528,5,-13.073,-3.56316,1.8359,0.165224,-0.0368174,66,82,82,85,91,34,64,72,76,74,82,36
-1.46759,10,-0.909105,-3.83272,-16.0069,28.5521,-13.2452,0.909105,-0.909105,-3.83272,-14.8571,28.5521,-14.395,0.909105,-1.00352,12.147,-2.83887,6.75927,1.03842,-9.52561,-1.45166,0.097791,12.8835,2.4959,5,-13.0733,-3.56329,1.83594,0.165196,-0.0368218,66,82,82,85,91,34,64,72,76,74,82,36
-1.4679,10,-0.909113,-3.83268,-16.0069,28.5521,-13.2452,0.909113,-0.909113,-3.83268,-14.8571,28.5521,-14.395,0.909113,-1.00348,12.147,-2.83924,6.75915,1.03879,-9.52559,-1.45162,0.0976363,12.8835,2.49652,5,-13.0736,-3.56343,1.83597,0.165167,-0.0368264,66,82,82,85,91,34,64,72,76,74,82,36
-1.46822,10,-0.909122,-3.83264,-16.0069,28.5521,-13.2452,0.909122,-0.909122,-3.83264,-14.8571,28.5521,-14.395,0.909122,-1.00344,12.1469,-2.83961,6.75903,1.03917,-9.52556,-1.45158,0.0974793,12.8835,2.49714,5,-13.0739,-3.56357,1.83601,0.165137,-0.036831,66,82,82,85,91,34,64,72,76,74,82,36
-1.46854,10,-0.909131,-3.8326,-16.0069,28.5521,-13.2452,0.909131,-0.909131,-3.8326,-14.8571,28.5521,-14.395,0.909131,-1.00338,12.1468,-2.83998,6.75891,1.03955,-9.52554,-1.45153,0.0973193,12.8835,2.49775,5,-13.0742,-3.56371,1.83605,0.165105,-0.0368356,66,82,82,85,91,34,64,72,76,74,82,36
-1.46887,10,-0.909139,-3.83255,-16.0069,28.5521,-13.2453,0.909139,-0.909139,-3.83255,-14.8571,28.5521,-14.395,0.909139,-1.0033,12.1468,-2.84036,6.7588,1.03994,-9.52551,-1.45148,0.0971559,12.8836,2.49835,5,-13.0745,-3.56385,1.8361,0.165069,-0.0368402,66,82,82,85,91,34,64,72,76,74,82,36
-1.46921,10,-0.909148,-3.8325,-16.0068,28.552,-13.2452,0.909148,-0.909148,-3.8325,-14.857,28.552,-14.395,0.909148,-1.0032,12.1467,-2.84075,6.75868,1.04034,-9.52547,-1.45143,0.096989,12.8836,2.49893,5,-13.0748,-3.56399,1.83615,0.165029,-0.0368446,66,82,82,85,91,34,64,72,76,74,82,36
-1.46956,10,-0.909156,-3.83243,-16.0067,28.552,-13.2453,0.909156,-0.909156,-3.83243,-14.857,28.552,-14.395,0.909156,-1.00307,12.1467,-2.84115,6.75857,1.04076,-9.52543,-1.45136,0.0968165,12.8836,2.49948,5,-13.0751,-3.56413,1.83621,0.164983,-0.0368489,66,82,82,85,91,34,64,72,76,74,82,36
-1.46993,10,-0.909163,-3.83236,-16.0067,28.552,-13.2453,0.909163,-0.909163,-3.83236,-14.857,28.552,-14.395,0.909163,-1.0029,12.1466,-2.84157,6.75845,1.04119,-9.52538,-1.45129,0.0966393,12.8837,2.5,5,-13.0754,-3.56428,1.83628,0.16493,-0.036853,66,82,82,85,91,34,64,72,76,74,82,36
-1.4703,10,-0.909171,-3.83229,-16.0067,28.552,-13.2453,0.909171,-0.909171,-3.83229,-14.857,28.552,-14.395,0.909171,-1.0027,12.1466,-2.842,6.75832,1.04163,-9.52533,-1.4512,0.096458,12.8837,2.50049,5,-13.0757,-3.56443,1.83636,0.164873,-0.0368569,66,82,82,85,91,34,64,72,76,74,82,36
-1.47069,10,-0.909178,-3.83221,-16.0067,28.552,-13.2453,0.909178,-0.909178,-3.83221,-14.8571,28.552,-14.395,0.909178,-1.00247,12.1465,-2.84243,6.7582,1.04208,-9.52528,-1.45112,0.0962735,12.8837,2.50097,5,-13.076,-3.56457,1.83644,0.164812,-0.0368607,66,82,82,85,91,34,64,72,76,74,82,36
-1.47108,10,-0.909185,-3.83212,-16.0067,28.552,-13.2453,0.909185,-0.909185,-3.83212,-14.8571,28.552,-14.3949,0.909185,-1.00222,12.1465,-2.84287,6.75807,1.04253,-9.52522,-1.45102,0.0960863,12.8838,2.50142,5,-13.0763,-3.56472,1.83653,0.164746,-0.0368643,66,82,82,85,91,34,64,72,76,74,82,36
-1.47147,10,-0.909191,-3.83203,-16.0067,28.552,-13.2453,0.909191,-0.909191,-3.83203,-14.8571,28.552,-14.3949,0.909191,-1.00196,12.1465,-2.84332,6.75795,1.04299,-9.52516,-1.45092,0.095897,12.8838,2.50186,5,-13.0766,-3.56487,1.83662,0.164678,-0.0368677,66,82,82,85,91,34,64,72,76,74,82,36
-1.47187,10,-0.909197,-3.83193,-16.0067,28.552,-13.2453,0.909197,-0.909197,-3.83193,-14.8571,28.552,-14.3949,0.909197,-1.00167,12.1464,-2.84377,6.75782,1.04346,-9.52509,-1.45082,0.0957063,12.8838,2.50228,5,-13.0769,-3.56503,1.83672,0.164607,-0.0368711,66,82,82,85,91,34,64,72,76,74,82,36
-1.47226,10,-0.909203,-3.83184,-16.0067,28.552,-13.2453,0.909203,-0.909203,-3.83184,-14.8571,28.552,-14.3949,0.909203,-1.00138,12.1464,-2.84422,6.7577,1.04393,-9.52502,-1.45071,0.0955146,12.8839,2.50268,5,-13.0772,-3.56518,1.83682,0.164534,-0.0368743,66,82,82,85,91,34,64,72,76,74,82,36
-1.47266,10,-0.909209,-3.83174,-16.0067,28.552,-13.2453,0.909209,-0.909209,-3.83174,-14.8571,28.552,-14.3949,0.909209,-1.00107,12.1464,-2.84467,6.75757,1.0444,-9.52495,-1.45061,0.0953224,12.8839,2.50308,5,-13.0775,-3.56533,1.83692,0.164459,-0.0368775,66,82,82,85,91,34,64,72,76,74,82,36
-1.47306,10,-0.909215,-3.83164,-16.0067,28.552,-13.2454,0.909215,-0.909215,-3.83164,-14.8572,28.552,-14.3948,0.909215,-1.00076,12.1464,-2.84513,6.75745,1.04487,-9.52488,-1.4505,0.0951303,12.884,2.50346,5,-13.0778,-3.56548,1.83702,0.164384,-0.0368805,66,82,82,85,91,34,64,72,76,74,82,36
-1.47345,10,-0.909221,-3.83153,-16.0066,28.552,-13.2454,0.909221,-0.909221,-3.83153,-14.8572,28.552,-14.3948,0.909221,-1.00044,12.1463,-2.84558,6.75732,1.04534,-9.52481,-1.45039,0.0949389,12.884,2.50382,5,-13.0781,-3.56563,1.83713,0.164306,-0.0368834,66,82,82,85,91,34,64,72,76,74,82,36
-1.47384,10,-0.909226,-3.83143,-16.0066,28.552,-13.2454,0.909226,-0.909226,-3.83143,-14.8572,28.552,-14.3948,0.909226,-1.0001,12.1463,-2.84603,6.7572,1.04581,-9.52473,-1.45027,0.0947488,12.884,2.50417,5,-13.0784,-3.56578,1.83723,0.164228,-0.0368862,66,82,82,85,91,34,64,72,76,74,82,36
-1.47424,10,-0.909231,-3.83132,-16.0066,28.552,-13.2454,0.909231,-0.909231,-3.83132,-14.8572,28.552,-14.3948,0.909231,-0.999762,12.1463,-2.84647,6.75708,1.04627,-9.52466,-1.45016,0.0945602,12.8841,2.50449,5,-13.0787,-3.56593,1.83734,0.164148,-0.0368888,66,82,82,85,91,34,64,72,76,74,82,36
-1.47463,10,-0.909236,-3.83121,-16.0068,28.5521,-13.2454,0.909236,-0.909236,-3.83121,-14.8574,28.5521,-14.3948,0.909236,-0.999412,12.1463,-2.84692,6.75695,1.04673,-9.52459,-1.45004,0.0943738,12.8841,2.5048,5,-13.079,-3.56607,1.83745,0.164068,-0.0368913,66,82,82,85,91,34,64,72,76,74,82,36
-1.47502,10,-0.90924,-3.83111,-16.0068,28.5521,-13.2454,0.90924,-0.90924,-3.83111,-14.8574,28.5521,-14.3948,0.90924,-0.999055,12.1463,-2.84737,6.75683,1.04719,-9.52451,-1.44992,0.0941896,12.8842,2.50509,5,-13.0793,-3.56621,1.83756,0.163987,-0.0368936,66,82,82,85,91,34,64,72,76,74,82,36
-1.4754,10,-0.909244,-3.831,-16.0068,28.5521,-13.2454,0.909244,-0.909244,-3.831,-14.8575,28.5521,-14.3947,0.909244,-0.998691,12.1463,-2.84782,6.75671,1.04765,-9.52445,-1.4498,0.0940081,12.8842,2.50535,5,-13.0796,-3.56634,1.83768,0.163905,-0.0368956,66,82,82,85,91,34,64,72,76,74,82,36
-1.47579,10,-0.909247,-3.83089,-16.0068,28.5521,-13.2455,0.909247,-0.909247,-3.83089,-14.8575,28.5521,-14.3947,0.909247,-0.998319,12.1463,-2.84827,6.75659,1.04809,-9.52438,-1.44968,0.0938297,12.8842,2.50559,5,-13.0798,-3.56647,1.8378,0.163822,-0.0368975,66,82,82,85,91,34,64,72,76,74,82,36
-1.47617,10,-0.90925,-3.83078,-16.0067,28.5521,-13.2455,0.90925,-0.90925,-3.83078,-14.8575,28.5521,-14.3947,0.90925,-0.99794,12.1463,-2.84872,6.75648,1.04853,-9.52431,-1.44955,0.0936546,12.8843,2.50581,5,-13.0801,-3.5666,1.83792,0.163739,-0.0368992,66,82,82,85,91,34,64,72,76,74,82,36
-1.47656,10,-0.909254,-3.83066,-16.0067,28.5521,-13.2455,0.909254,-0.909254,-3.83066,-14.8575,28.5521,-14.3947,0.909254,-0.997554,12.1463,-2.84916,6.75636,1.04896,-9.52425,-1.44943,0.0934833,12.8843,2.506,5,-13.0803,-3.56672,1.83804,0.163656,-0.036901,66,82,82,85,91,34,64,72,76,74,82,36
-1.47693,10,-0.909257,-3.83055,-16.0067,28.5521,-13.2455,0.909257,-0.909257,-3.83055,-14.8576,28.5521,-14.3946,0.909257,-0.99716,12.1463,-2.84959,6.75625,1.04937,-9.52419,-1.4493,0.0933159,12.8843,2.50617,5,-13.0805,-3.56684,1.83818,0.163571,-0.0369027,66,82,82,85,91,34,64,72,76,74,82,36
-1.47731,10,-0.90926,-3.83044,-16.0069,28.5522,-13.2455,0.90926,-0.90926,-3.83044,-14.8577,28.5522,-14.3946,0.90926,-0.99676,12.1463,-2.85001,6.75615,1.04976,-9.52413,-1.44917,0.0931526,12.8843,2.5063,5,-13.0807,-3.56695,1.83832,0.163487,-0.0369044,66,82,82,85,91,34,64,72,76,74,82,36
-1.47767,10,-0.909264,-3.83033,-16.0068,28.5522,-13.2455,0.909264,-0.909264,-3.83033,-14.8578,28.5522,-14.3946,0.909264,-0.996353,12.1462,-2.85039,6.75605,1.05013,-9.52407,-1.44904,0.0929943,12.8844,2.50642,5,-13.0809,-3.56706,1.83846,0.163402,-0.0369065,66,82,82,85,91,34,64,72,76,74,82,36
-1.47804,10,-0.909268,-3.83021,-16.0068,28.5522,-13.2455,0.909268,-0.909268,-3.83021,-14.8578,28.5522,-14.3946,0.909268,-0.99594,12.1462,-2.85075,6.75596,1.05047,-9.52401,-1.44891,0.0928406,12.8844,2.5065,5,-13.081,-3.56715,1.83862,0.163317,-0.0369086,66,82,82,85,91,34,64,72,76,74,82,36
-1.4784,10,-0.909272,-3.8301,-16.0068,28.5522,-13.2455,0.909272,-0.909272,-3.8301,-14.8578,28.5522,-14.3946,0.909272,-0.995521,12.1462,-2.8511,6.75587,1.05079,-9.52395,-1.44878,0.0926914,12.8844,2.50655,5,-13.0812,-3.56724,1.83878,0.163232,-0.0369109,66,82,82,85,91,34,64,72,76,74,82,36
-1.47875,10,-0.909276,-3.82999,-16.0068,28.5522,-13.2455,0.909276,-0.909276,-3.82999,-14.8578,28.5522,-14.3945,0.909276,-0.995095,12.1462,-2.85146,6.75578,1.05109,-9.5239,-1.44865,0.0925465,12.8845,2.50658,5,-13.0812,-3.56733,1.83895,0.163146,-0.036913,66,82,82,85,91,34,64,72,76,74,82,36
-1.4791,10,-0.90928,-3.82987,-16.0068,28.5522,-13.2455,0.90928,-0.90928,-3.82987,-14.8579,28.5522,-14.3945,0.90928,-0.994665,12.1462,-2.85182,6.75571,1.05139,-9.52384,-1.44852,0.0924055,12.8845,2.50659,5,-13.0813,-3.56742,1.83913,0.163061,-0.036915,66,82,82,85,91,34,64,72,76,74,82,36
-1.47944,10,-0.909283,-3.82976,-16.0068,28.5522,-13.2456,0.909283,-0.909283,-3.82976,-14.8579,28.5522,-14.3945,0.909283,-0.994229,12.1462,-2.85221,6.75564,1.05167,-9.52379,-1.44838,0.0922684,12.8845,2.50656,5,-13.0813,-3.56752,1.83933,0.162975,-0.0369167,66,82,82,85,91,34,64,72,76,74,82,36
-1.47977,10,-0.909286,-3.82964,-16.0071,28.5524,-13.2456,0.909286,-0.909286,-3.82964,-14.8582,28.5524,-14.3945,0.909286,-0.99379,12.1462,-2.85262,6.75558,1.05195,-9.52374,-1.44824,0.092135,12.8845,2.50652,5,-13.0814,-3.56762,1.83955,0.162889,-0.0369181,66,82,82,85,91,34,64,72,76,74,82,36
-1.4801,10,-0.909288,-3.82953,-16.0071,28.5524,-13.2456,0.909288,-0.909288,-3.82953,-14.8582,28.5524,-14.3945,0.909288,-0.993343,12.1461,-2.85309,6.75553,1.05224,-9.52369,-1.44809,0.0920055,12.8845,2.50645,5,-13.0813,-3.56774,1.83979,0.162802,-0.0369191,66,82,82,85,91,34,64,72,76,74,82,36
-1.48042,10,-0.909289,-3.82941,-16.0071,28.5524,-13.2456,0.909289,-0.909289,-3.82941,-14.8583,28.5524,-14.3944,0.909289,-0.992891,12.1461,-2.85362,6.75549,1.05254,-9.52363,-1.44794,0.0918795,12.8845,2.50636,5,-13.0813,-3.56787,1.84004,0.162716,-0.0369196,66,82,82,85,91,34,64,72,76,74,82,36
-1.48073,10,-0.909289,-3.8293,-16.0071,28.5524,-13.2456,0.909289,-0.909289,-3.8293,-14.8583,28.5524,-14.3944,0.909289,-0.992437,12.1461,-2.85418,6.75546,1.05284,-9.52358,-1.44779,0.0917568,12.8845,2.50625,5,-13.0812,-3.56801,1.84032,0.162629,-0.0369197,66,82,82,85,91,34,64,72,76,74,82,36
-1.48103,10,-0.909288,-3.82918,-16.0071,28.5524,-13.2456,0.909288,-0.909288,-3.82918,-14.8583,28.5524,-14.3944,0.909288,-0.991981,12.1461,-2.85477,6.75543,1.05314,-9.52353,-1.44763,0.0916372,12.8845,2.50613,5,-13.0811,-3.56817,1.84061,0.162543,-0.0369194,66,82,82,85,91,34,64,72,76,74,82,36
