565950964-design/kaipule_sdk/control/csv_file/mobizi.csv
Head_1,Head_2,Joint_1,Joint_2,Joint_3,Joint_4,Joint_5,Joint_6,Joint_7,Joint_8,Joint_9,Joint_10,Joint_11,Joint_12,Joint_13,Joint_14,Joint_15,Joint_16,Joint_17,Joint_18,Joint_19,Joint_20,Joint_21,Joint_22,Joint_23,Joint_24,Joint_25,Joint_26,Joint_27,Joint_28,Finger_1,Finger_2,Finger_3,Finger_4,Finger_5,Finger_6,Finger_7,Finger_8,Finger_9,Finger_10,Finger_11,Finger_12
-0.107252,8.00811,-0.00339711,-0.115669,-14.0286,27.5102,-13.487,0.00339711,-0.00339711,-0.115669,-13.9939,27.5102,-13.5217,0.00339711,2.82406,15.098,3.06167,5,5.739,-7.18352,-5.4205,3.40241,15.134,7.36898,5,-18.5398,-5.32264,1.41305,0.0867521,-0.00180222,62,89,82,85,82,38,78,85,82,81,88,22
-0.107245,8.00811,-0.00339688,-0.115668,-14.0286,27.5102,-13.487,0.00339688,-0.00339688,-0.115668,-13.9939,27.5102,-13.5217,0.00339688,2.82407,15.098,3.06168,5,5.73898,-7.18351,-5.4205,3.40241,15.134,7.36899,5,-18.5398,-5.32264,1.41305,0.0867513,-0.0018021,62,89,82,85,82,38,78,85,82,81,88,22
-0.107233,8.00812,-0.00339659,-0.115666,-14.0286,27.5102,-13.487,0.00339659,-0.00339659,-0.115666,-13.9939,27.5102,-13.5217,0.00339659,2.82408,15.098,3.06171,5,5.73895,-7.18351,-5.42051,3.40242,15.134,7.36901,5,-18.5398,-5.32264,1.41306,0.0867496,-0.00180195,62,89,82,85,82,38,78,85,82,81,88,22
-0.107217,8.00813,-0.0033964,-0.115663,-14.0286,27.5102,-13.487,0.0033964,-0.0033964,-0.115663,-13.9939,27.5102,-13.5217,0.0033964,2.82411,15.098,3.06176,5,5.7389,-7.18351,-5.42051,3.40242,15.134,7.36903,5,-18.5398,-5.32265,1.41306,0.0867471,-0.00180185,62,89,82,85,82,38,78,85,82,81,88,22
-0.107199,8.00814,-0.00339643,-0.115658,-14.0286,27.5102,-13.487,0.00339643,-0.00339643,-0.115658,-13.9939,27.5102,-13.5217,0.00339643,2.82414,15.098,3.06181,5,5.73883,-7.18352,-5.42052,3.40243,15.134,7.36904,5,-18.5399,-5.32267,1.41307,0.0867438,-0.00180186,62,89,82,85,82,38,78,85,82,81,88,22
-0.107181,8.00815,-0.0033968,-0.115653,-14.0286,27.5102,-13.487,0.0033968,-0.0033968,-0.115653,-13.9939,27.5102,-13.5217,0.0033968,2.82418,15.098,3.06187,5,5.73876,-7.18352,-5.42054,3.40244,15.134,7.36904,5,-18.5399,-5.32269,1.41309,0.0867396,-0.00180206,62,89,82,85,82,38,78,85,82,81,88,22
-0.107163,8.00817,-0.0033976,-0.115646,-14.0286,27.5102,-13.487,0.0033976,-0.0033976,-0.115646,-13.9939,27.5102,-13.5217,0.0033976,2.82423,15.098,3.06194,5,5.73868,-7.18354,-5.42055,3.40246,15.134,7.36904,5,-18.54,-5.32273,1.4131,0.0867346,-0.00180249,62,89,82,85,82,38,78,85,82,81,88,22
-0.107145,8.00818,-0.00339891,-0.115639,-14.0275,27.5093,-13.4867,0.00339891,-0.00339891,-0.115639,-13.9928,27.5093,-13.5214,0.00339891,2.82429,15.0979,3.06201,5,5.73859,-7.18355,-5.42057,3.40248,15.134,7.36902,5,-18.54,-5.32277,1.41312,0.0867289,-0.00180318,62,89,82,85,82,38,78,85,82,81,88,22
-0.107132,8.0082,-0.00340105,-0.11563,-14.0275,27.5093,-13.4867,0.00340105,-0.00340105,-0.11563,-13.9928,27.5093,-13.5214,0.00340105,2.82436,15.0979,3.06208,5,5.7385,-7.18358,-5.42059,3.40251,15.134,7.36898,5,-18.54,-5.32282,1.41315,0.0867224,-0.00180431,62,89,82,85,82,38,78,85,82,81,88,22
-0.107122,8.00821,-0.00340392,-0.11562,-14.0275,27.5093,-13.4867,0.00340392,-0.00340392,-0.11562,-13.9928,27.5093,-13.5214,0.00340392,2.82444,15.0979,3.06216,5,5.73841,-7.18361,-5.42061,3.40254,15.134,7.36892,5,-18.54,-5.32288,1.41317,0.0867152,-0.00180584,62,89,82,85,82,38,78,85,82,81,88,22
-0.107116,8.00822,-0.00340747,-0.11561,-14.0275,27.5093,-13.4867,0.00340747,-0.00340747,-0.11561,-13.9928,27.5093,-13.5214,0.00340747,2.82453,15.0978,3.06223,5,5.73832,-7.18365,-5.42064,3.40258,15.134,7.36884,5,-18.54,-5.32295,1.4132,0.0867072,-0.00180772,62,89,82,85,82,38,78,85,82,81,88,22
-0.107112,8.00823,-0.00341161,-0.115598,-14.0275,27.5093,-13.4867,0.00341161,-0.00341161,-0.115598,-13.9928,27.5093,-13.5214,0.00341161,2.82463,15.0978,3.0623,5,5.73822,-7.1837,-5.42066,3.40262,15.134,7.36875,5,-18.54,-5.32303,1.41324,0.0866986,-0.00180992,62,89,82,85,82,38,78,85,82,81,88,22
-0.10711,8.00824,-0.0034163,-0.115586,-14.0275,27.5093,-13.4867,0.0034163,-0.0034163,-0.115586,-13.9928,27.5093,-13.5214,0.0034163,2.82474,15.0977,3.06238,5,5.73813,-7.18375,-5.4207,3.40267,15.134,7.36865,5,-18.5399,-5.32312,1.41327,0.0866893,-0.00181241,62,89,82,85,82,38,78,85,82,81,88,22
-0.107112,8.00825,-0.00342148,-0.115573,-14.0275,27.5093,-13.4867,0.00342148,-0.00342148,-0.115573,-13.9928,27.5093,-13.5214,0.00342148,2.82485,15.0977,3.06245,5,5.73803,-7.1838,-5.42073,3.40271,15.134,7.36854,5,-18.5399,-5.32321,1.41331,0.0866794,-0.00181515,62,89,82,85,82,38,78,85,82,81,88,22
-0.107115,8.00826,-0.00342709,-0.115559,-14.027,27.5089,-13.4866,0.00342709,-0.00342709,-0.115559,-13.9923,27.5089,-13.5213,0.00342709,2.82497,15.0976,3.06251,5,5.73793,-7.18387,-5.42077,3.40276,15.134,7.36842,5,-18.5398,-5.3233,1.41334,0.086669,-0.00181813,62,89,82,85,82,38,78,85,82,81,88,22
-0.107119,8.00827,-0.00343305,-0.115544,-14.027,27.5089,-13.4866,0.00343305,-0.00343305,-0.115544,-13.9923,27.5089,-13.5212,0.00343305,2.82509,15.0975,3.06258,5,5.73783,-7.18393,-5.42081,3.40281,15.1339,7.3683,5,-18.5397,-5.3234,1.41338,0.086658,-0.00182129,62,89,82,85,82,38,78,85,82,81,88,22
-0.107126,8.00827,-0.00343935,-0.115529,-14.027,27.5089,-13.4866,0.00343935,-0.00343935,-0.115529,-13.9923,27.5089,-13.5212,0.00343935,2.82522,15.0974,3.06264,5,5.73772,-7.184,-5.42086,3.40286,15.1339,7.36817,5,-18.5396,-5.32349,1.41341,0.0866466,-0.00182463,62,89,82,85,82,38,78,85,82,81,88,22
-0.107133,8.00828,-0.00344598,-0.115513,-14.027,27.5089,-13.4866,0.00344598,-0.00344598,-0.115513,-13.9923,27.5089,-13.5212,0.00344598,2.82535,15.0974,3.0627,5,5.73761,-7.18408,-5.42091,3.40291,15.1339,7.36804,5,-18.5395,-5.32359,1.41344,0.0866348,-0.00182815,62,89,82,85,82,38,78,85,82,81,88,22
-0.107142,8.00828,-0.00345293,-0.115497,-14.027,27.5089,-13.4866,0.00345293,-0.00345293,-0.115497,-13.9923,27.5089,-13.5212,0.00345293,2.82548,15.0973,3.06275,5,5.73751,-7.18415,-5.42096,3.40297,15.1339,7.36791,5,-18.5393,-5.32369,1.41347,0.0866227,-0.00183184,62,89,82,85,82,38,78,85,82,81,88,22
-0.107153,8.00829,-0.0034602,-0.11548,-14.027,27.5089,-13.4866,0.0034602,-0.0034602,-0.11548,-13.9923,27.5089,-13.5212,0.0034602,2.82562,15.0972,3.06279,5,5.7374,-7.18424,-5.42101,3.40302,15.1339,7.36778,5,-18.5391,-5.32378,1.41351,0.0866102,-0.00183569,62,89,82,85,82,38,78,85,82,81,88,22
-0.107164,8.00829,-0.00346778,-0.115463,-14.027,27.5089,-13.4866,0.00346778,-0.00346778,-0.115463,-13.9924,27.5089,-13.5212,0.00346778,2.82576,15.0971,3.06283,5,5.73729,-7.18432,-5.42105,3.40307,15.1339,7.36765,5,-18.5389,-5.32386,1.41354,0.0865974,-0.00183971,62,89,82,85,82,38,78,85,82,81,88,22
-0.107177,8.00829,-0.00347566,-0.115446,-14.027,27.5089,-13.4866,0.00347566,-0.00347566,-0.115446,-13.9924,27.5089,-13.5212,0.00347566,2.8259,15.0969,3.06287,5,5.73718,-7.18442,-5.4211,3.40313,15.1338,7.36752,5,-18.5387,-5.32394,1.41357,0.0865844,-0.0018439,62,89,82,85,82,38,78,85,82,81,88,22
-0.107191,8.00829,-0.00348376,-0.115428,-14.027,27.5089,-13.4866,0.00348376,-0.00348376,-0.115428,-13.9924,27.5089,-13.5212,0.00348376,2.82604,15.0968,3.06289,5,5.73707,-7.18451,-5.42114,3.40318,15.1338,7.3674,5,-18.5384,-5.32401,1.4136,0.0865708,-0.00184819,62,89,82,85,82,38,78,85,82,81,88,22
-0.107206,8.00829,-0.00349212,-0.115409,-14.027,27.5089,-13.4865,0.00349212,-0.00349212,-0.115409,-13.9924,27.5089,-13.5212,0.00349212,2.82619,15.0967,3.06291,5,5.73695,-7.18461,-5.42118,3.40324,15.1337,7.36728,5,-18.5382,-5.32406,1.41363,0.0865568,-0.00185263,62,89,82,85,82,38,78,85,82,81,88,22
-0.107223,8.00828,-0.00350076,-0.11539,-14.027,27.5089,-13.4865,0.00350076,-0.00350076,-0.11539,-13.9924,27.5089,-13.5212,0.00350076,2.82634,15.0965,3.06292,5,5.73684,-7.18472,-5.42121,3.40329,15.1337,7.36716,5,-18.5378,-5.32411,1.41365,0.0865429,-0.00185721,62,89,82,85,82,38,78,85,82,81,88,22
-0.107239,8.00827,-0.00350971,-0.115372,-14.027,27.5089,-13.4865,0.00350971,-0.00350971,-0.115372,-13.9924,27.5089,-13.5211,0.00350971,2.82648,15.0964,3.06292,5,5.73674,-7.18482,-5.42123,3.40335,15.1336,7.36705,5,-18.5375,-5.32415,1.41368,0.0865292,-0.00186196,62,89,82,85,82,38,78,85,82,81,88,22
-0.107256,8.00826,-0.00351898,-0.115355,-14.027,27.5089,-13.4865,0.00351898,-0.00351898,-0.115355,-13.9924,27.5089,-13.5211,0.00351898,2.82663,15.0962,3.06292,5,5.73663,-7.18494,-5.42125,3.4034,15.1335,7.36694,5,-18.5371,-5.32418,1.41371,0.0865161,-0.00186688,62,89,82,85,82,38,78,85,82,81,88,22
-0.107272,8.00826,-0.00352859,-0.115338,-14.027,27.5089,-13.4865,0.00352859,-0.00352859,-0.115338,-13.9924,27.5089,-13.5211,0.00352859,2.82677,15.096,3.0629,5,5.73654,-7.18505,-5.42127,3.40346,15.1334,7.36684,5,-18.5367,-5.32419,1.41374,0.0865037,-0.00187198,62,89,82,85,82,38,78,85,82,81,88,22
-0.107288,8.00824,-0.00353854,-0.115323,-14.0268,27.5088,-13.4865,0.00353854,-0.00353854,-0.115323,-13.9922,27.5088,-13.5211,0.00353854,2.8269,15.0958,3.06288,5,5.73645,-7.18517,-5.42128,3.40352,15.1333,7.36674,5,-18.5363,-5.32419,1.41377,0.0864922,-0.00187725,62,89,82,85,82,38,78,85,82,81,88,22
-0.107302,8.00823,-0.00354911,-0.11531,-14.0268,27.5088,-13.4865,0.00354911,-0.00354911,-0.11531,-13.9922,27.5088,-13.5211,0.00354911,2.82703,15.0955,3.06284,5,5.73638,-7.18529,-5.42128,3.40357,15.1332,7.36665,5,-18.5359,-5.32418,1.41379,0.0864823,-0.00188286,62,89,82,85,82,38,78,85,82,81,88,22
-0.107315,8.00822,-0.00356015,-0.115299,-14.0268,27.5088,-13.4865,0.00356015,-0.00356015,-0.115299,-13.9922,27.5088,-13.5211,0.00356015,2.82714,15.0953,3.06279,5,5.73632,-7.18541,-5.42128,3.40363,15.133,7.36655,5,-18.5354,-5.32416,1.41382,0.0864739,-0.00188872,62,89,82,85,82,38,78,85,82,81,88,22
-0.107326,8.00821,-0.00357153,-0.115289,-14.0268,27.5088,-13.4865,0.00357153,-0.00357153,-0.115289,-13.9922,27.5088,-13.521,0.00357153,2.82725,15.095,3.06273,5,5.73627,-7.18553,-5.42128,3.40369,15.1329,7.36646,5,-18.535,-5.32412,1.41385,0.0864667,-0.00189476,62,89,82,85,82,38,78,85,82,81,88,22
-0.107337,8.00819,-0.00358315,-0.115281,-14.0268,27.5088,-13.4865,0.00358315,-0.00358315,-0.115281,-13.9923,27.5088,-13.521,0.00358315,2.82735,15.0947,3.06266,5,5.73623,-7.18566,-5.42127,3.40376,15.1327,7.36638,5,-18.5345,-5.32407,1.41387,0.0864606,-0.00190092,62,89,82,85,82,38,78,85,82,81,88,22
-0.107348,8.00818,-0.0035949,-0.115274,-14.0268,27.5088,-13.4864,0.0035949,-0.0035949,-0.115274,-13.9923,27.5088,-13.521,0.0035949,2.82745,15.0944,3.06258,5,5.7362,-7.18579,-5.42125,3.40382,15.1325,7.3663,5,-18.534,-5.32402,1.4139,0.0864555,-0.00190716,62,89,82,85,82,38,78,85,82,81,88,22
-0.107358,8.00816,-0.00360673,-0.115268,-14.0268,27.5088,-13.4864,0.00360673,-0.00360673,-0.115268,-13.9923,27.5088,-13.521,0.00360673,2.82754,15.0941,3.0625,5,5.73617,-7.18591,-5.42123,3.40388,15.1323,7.36621,5,-18.5335,-5.32396,1.41393,0.0864513,-0.00191343,62,89,82,85,82,38,78,85,82,81,88,22
-0.107368,8.00815,-0.00361856,-0.115264,-14.0274,27.5092,-13.4865,0.00361856,-0.00361856,-0.115264,-13.9928,27.5092,-13.5211,0.00361856,2.82762,15.0937,3.06242,5,5.73615,-7.18604,-5.42121,3.40394,15.1321,7.36614,5,-18.533,-5.32389,1.41395,0.0864479,-0.00191971,62,89,82,85,82,38,78,85,82,81,88,22
-0.107377,8.00813,-0.00363031,-0.11526,-14.0274,27.5092,-13.4865,0.00363031,-0.00363031,-0.11526,-13.9928,27.5092,-13.5211,0.00363031,2.82771,15.0934,3.06233,5,5.73613,-7.18617,-5.42119,3.404,15.1319,7.36606,5,-18.5325,-5.32382,1.41398,0.0864447,-0.00192594,62,89,82,85,82,38,78,85,82,81,88,22
-0.107386,8.00811,-0.003642,-0.115256,-14.0274,27.5092,-13.4865,0.003642,-0.003642,-0.115256,-13.9928,27.5092,-13.5211,0.003642,2.82779,15.0931,3.06224,5,5.73612,-7.1863,-5.42116,3.40407,15.1317,7.36599,5,-18.532,-5.32376,1.41401,0.086442,-0.00193214,62,89,82,85,82,38,78,85,82,81,88,22
-0.107394,8.0081,-0.00365364,-0.115253,-14.0274,27.5092,-13.4865,0.00365364,-0.00365364,-0.115253,-13.9928,27.5092,-13.5211,0.00365364,2.82786,15.0928,3.06215,5,5.7361,-7.18643,-5.42113,3.40413,15.1315,7.36592,5,-18.5315,-5.32369,1.41403,0.0864398,-0.00193832,62,89,82,85,82,38,78,85,82,81,88,22
-0.107403,8.00808,-0.00366526,-0.115251,-14.0274,27.5092,-13.4865,0.00366526,-0.00366526,-0.115251,-13.9928,27.5092,-13.5211,0.00366526,2.82793,15.0924,3.06205,5,5.7361,-7.18656,-5.4211,3.40419,15.1313,7.36586,5,-18.531,-5.32362,1.41406,0.0864383,-0.00194448,62,89,82,85,82,38,78,85,82,81,88,22
-0.10741,8.00806,-0.00367691,-0.11525,-14.0274,27.5092,-13.4865,0.00367691,-0.00367691,-0.11525,-13.9928,27.5092,-13.5211,0.00367691,2.828,15.0921,3.06195,5,5.73609,-7.18669,-5.42107,3.40425,15.1311,7.36579,5,-18.5305,-5.32354,1.41409,0.0864375,-0.00195066,62,89,82,85,82,38,78,85,82,81,88,22
-0.107418,8.00805,-0.00368862,-0.11525,-14.0274,27.5092,-13.4865,0.00368862,-0.00368862,-0.11525,-13.9928,27.5092,-13.5211,0.00368862,2.82806,15.0918,3.06185,5,5.7361,-7.18681,-5.42103,3.40431,15.1309,7.36573,5,-18.53,-5.32345,1.41411,0.0864375,-0.00195688,62,89,82,85,82,38,78,85,82,81,88,22
-0.107424,8.00803,-0.00370047,-0.115251,-14.0274,27.5092,-13.4865,0.00370047,-0.00370047,-0.115251,-13.9928,27.5092,-13.5211,0.00370047,2.82811,15.0914,3.06174,5,5.73611,-7.18694,-5.421,3.40437,15.1307,7.36566,5,-18.5295,-5.32335,1.41413,0.0864383,-0.00196316,62,89,82,85,82,38,78,85,82,81,88,22
-0.107433,8.00801,-0.00371184,-0.115254,-14.0274,27.5092,-13.4865,0.00371184,-0.00371184,-0.115254,-13.9929,27.5092,-13.5211,0.00371184,2.82816,15.0911,3.06165,5,5.73612,-7.18706,-5.42096,3.40443,15.1305,7.36559,5,-18.5289,-5.32323,1.41416,0.0864405,-0.0019692,62,89,82,85,82,38,78,85,82,81,88,22
-0.107443,8.00799,-0.00372316,-0.115258,-14.0274,27.5092,-13.4865,0.00372316,-0.00372316,-0.115258,-13.9929,27.5092,-13.5211,0.00372316,2.82821,15.0907,3.06156,5,5.73613,-7.18718,-5.42093,3.4045,15.1302,7.36552,5,-18.5284,-5.3231,1.41418,0.0864438,-0.0019752,62,89,82,85,82,38,78,85,82,81,88,22
-0.10745,8.00797,-0.00373479,-0.115264,-14.0274,27.5092,-13.4865,0.00373479,-0.00373479,-0.115264,-13.9929,27.5092,-13.5211,0.00373479,2.82825,15.0904,3.06146,5,5.73615,-7.18729,-5.4209,3.40456,15.13,7.36545,5,-18.5278,-5.32295,1.4142,0.0864479,-0.00198137,62,89,82,85,82,38,78,85,82,81,88,22
-0.107455,8.00795,-0.00374706,-0.11527,-14.0274,27.5092,-13.4865,0.00374706,-0.00374706,-0.11527,-13.9929,27.5092,-13.5211,0.00374706,2.82828,15.09,3.06135,5,5.73619,-7.18741,-5.42086,3.40463,15.1298,7.36539,5,-18.5273,-5.3228,1.41422,0.0864526,-0.00198788,62,89,82,85,82,38,78,85,82,81,88,22
-0.107454,8.00793,-0.00376021,-0.115277,-14.0274,27.5092,-13.4865,0.00376021,-0.00376021,-0.115277,-13.9929,27.5092,-13.5211,0.00376021,2.8283,15.0896,3.06122,5,5.73625,-7.18752,-5.42083,3.40468,15.1295,7.36534,5,-18.5268,-5.32265,1.41424,0.0864577,-0.00199486,62,89,82,85,82,38,78,85,82,81,88,22
-0.107446,8.00792,-0.00377448,-0.115284,-14.0275,27.5092,-13.4865,0.00377448,-0.00377448,-0.115284,-13.9929,27.5092,-13.5211,0.00377448,2.82831,15.0893,3.06106,5,5.73634,-7.18762,-5.42079,3.40473,15.1293,7.3653,5,-18.5263,-5.3225,1.41426,0.086463,-0.00200242,62,89,82,85,82,38,78,85,82,81,88,22
-0.107431,8.00791,-0.00379001,-0.115291,-14.0275,27.5092,-13.4865,0.00379001,-0.00379001,-0.115291,-13.9929,27.5092,-13.5211,0.00379001,2.82832,15.0888,3.06088,5,5.73645,-7.18772,-5.42075,3.40478,15.1291,7.36527,5,-18.5259,-5.32235,1.41427,0.0864683,-0.00201067,62,89,82,85,82,38,78,85,82,81,88,22
-0.107405,8.00791,-0.00380757,-0.115298,-14.0275,27.5092,-13.4865,0.00380757,-0.00380757,-0.115298,-13.9929,27.5092,-13.5211,0.00380757,2.82832,15.0884,3.06066,5,5.73661,-7.18781,-5.4207,3.4048,15.1288,7.36527,5,-18.5255,-5.32221,1.41428,0.0864733,-0.00201998,62,89,82,85,82,38,78,85,82,81,88,22
-0.107367,8.00791,-0.00382692,-0.115304,-14.0275,27.5092,-13.4865,0.00382692,-0.00382692,-0.115304,-13.9929,27.5092,-13.5211,0.00382692,2.8283,15.0879,3.06041,5,5.7368,-7.1879,-5.42065,3.40482,15.1285,7.36528,5,-18.5253,-5.32209,1.41428,0.086478,-0.00203024,62,89,82,85,82,38,78,85,82,81,88,22
-0.107321,8.00793,-0.00384785,-0.11531,-14.0275,27.5092,-13.4865,0.00384785,-0.00384785,-0.11531,-13.9929,27.5092,-13.5211,0.00384785,2.82828,15.0874,3.06011,5,5.73703,-7.18798,-5.42059,3.40483,15.1283,7.36532,5,-18.525,-5.32197,1.41428,0.0864824,-0.00204135,62,89,82,85,82,38,78,85,82,81,88,22
-0.107266,8.00794,-0.00387018,-0.115315,-14.0275,27.5092,-13.4865,0.00387018,-0.00387018,-0.115315,-13.9929,27.5092,-13.5211,0.00387018,2.82825,15.0869,3.05979,5,5.7373,-7.18806,-5.42053,3.40482,15.128,7.36538,5,-18.5249,-5.32186,1.41428,0.0864865,-0.0020532,62,89,82,85,82,38,78,85,82,81,88,22
-0.107203,8.00796,-0.00389371,-0.11532,-14.0275,27.5092,-13.4865,0.00389371,-0.00389371,-0.11532,-13.9929,27.5092,-13.5211,0.00389371,2.82821,15.0864,3.05944,5,5.73758,-7.18814,-5.42047,3.40481,15.1277,7.36545,5,-18.5247,-5.32176,1.41427,0.0864903,-0.00206568,62,89,82,85,82,38,78,85,82,81,88,22
-0.107134,8.00799,-0.00391828,-0.115325,-14.0275,27.5092,-13.4865,0.00391828,-0.00391828,-0.115325,-13.9929,27.5092,-13.5211,0.00391828,2.82816,15.0858,3.05907,5,5.73789,-7.18821,-5.42041,3.40479,15.1274,7.36553,5,-18.5247,-5.32167,1.41426,0.0864939,-0.00207871,62,89,82,85,82,38,78,85,82,81,88,22
-0.10706,8.00802,-0.00394371,-0.11533,-14.0288,27.5101,-13.4868,0.00394371,-0.00394371,-0.11533,-13.9942,27.5101,-13.5214,0.00394371,2.82811,15.0853,3.05868,5,5.73823,-7.18827,-5.42034,3.40476,15.1271,7.36562,5,-18.5246,-5.32159,1.41426,0.0864973,-0.0020922,62,89,82,85,82,38,78,85,82,81,88,22
-0.106979,8.00805,-0.0039696,-0.115334,-14.0288,27.5101,-13.4868,0.0039696,-0.0039696,-0.115334,-13.9942,27.5101,-13.5214,0.0039696,2.82806,15.0847,3.05828,5,5.73857,-7.18833,-5.42028,3.40473,15.1268,7.36573,5,-18.5246,-5.32152,1.41424,0.0865005,-0.00210594,62,89,82,85,82,38,78,85,82,81,88,22
-0.106893,8.00809,-0.00399594,-0.115338,-14.0288,27.5101,-13.4868,0.00399594,-0.00399594,-0.115338,-13.9942,27.5101,-13.5214,0.00399594,2.828,15.0841,3.05786,5,5.73893,-7.18839,-5.42021,3.40469,15.1265,7.36584,5,-18.5247,-5.32146,1.41423,0.0865036,-0.00211991,62,89,82,85,82,38,78,85,82,81,88,22
-0.106803,8.00813,-0.00402273,-0.115342,-14.0288,27.5101,-13.4868,0.00402273,-0.00402273,-0.115342,-13.9942,27.5101,-13.5214,0.00402273,2.82794,15.0835,3.05743,5,5.73931,-7.18845,-5.42014,3.40465,15.1262,7.36596,5,-18.5247,-5.32141,1.41422,0.0865065,-0.00213412,62,89,82,85,82,38,78,85,82,81,88,22
-0.10671,8.00817,-0.00404993,-0.115346,-14.0288,27.5101,-13.4868,0.00404993,-0.00404993,-0.115346,-13.9942,27.5101,-13.5214,0.00404993,2.82787,15.083,3.05699,5,5.73969,-7.1885,-5.42007,3.4046,15.1259,7.36609,5,-18.5248,-5.32136,1.4142,0.0865092,-0.00214855,62,89,82,85,82,38,78,85,82,81,88,22
-0.106616,8.00822,-0.0040775,-0.115349,-14.0288,27.5101,-13.4868,0.0040775,-0.0040775,-0.115349,-13.9942,27.5101,-13.5214,0.0040775,2.8278,15.0824,3.05655,5,5.74009,-7.18855,-5.42,3.40455,15.1256,7.36622,5,-18.525,-5.32131,1.41418,0.0865117,-0.00216318,62,89,82,85,82,38,78,85,82,81,88,22
-0.106521,8.00826,-0.0041054,-0.115352,-14.0288,27.5101,-13.4868,0.0041054,-0.0041054,-0.115352,-13.9941,27.5101,-13.5214,0.0041054,2.82773,15.0818,3.05609,5,5.74049,-7.1886,-5.41993,3.40449,15.1253,7.36636,5,-18.5251,-5.32126,1.41416,0.086514,-0.00217798,62,89,82,85,82,38,78,85,82,81,88,22
-0.106426,8.0083,-0.00413354,-0.115355,-14.0292,27.5105,-13.4869,0.00413354,-0.00413354,-0.115355,-13.9946,27.5105,-13.5215,0.00413354,2.82766,15.0812,3.05563,5,5.7409,-7.18864,-5.41986,3.40443,15.1251,7.36651,5,-18.5252,-5.32121,1.41414,0.0865162,-0.00219291,62,89,82,85,82,38,78,85,82,81,88,22
-0.106335,8.00833,-0.00416232,-0.115357,-14.0292,27.5105,-13.4869,0.00416232,-0.00416232,-0.115357,-13.9946,27.5105,-13.5215,0.00416232,2.82758,15.0806,3.05517,5,5.74131,-7.18868,-5.41979,3.40437,15.1248,7.36666,5,-18.5254,-5.32115,1.41412,0.0865181,-0.00220818,62,89,82,85,82,38,78,85,82,81,88,22
-0.106246,8.00836,-0.00419141,-0.11536,-14.0292,27.5105,-13.4869,0.00419141,-0.00419141,-0.11536,-13.9946,27.5105,-13.5215,0.00419141,2.82751,15.08,3.05471,5,5.74172,-7.18872,-5.41971,3.4043,15.1245,7.36682,5,-18.5256,-5.32107,1.4141,0.0865198,-0.00222362,62,89,82,85,82,38,78,85,82,81,88,22
-0.106158,8.00839,-0.00422054,-0.115362,-14.0292,27.5105,-13.4869,0.00422054,-0.00422054,-0.115362,-13.9946,27.5105,-13.5215,0.00422054,2.82743,15.0795,3.05424,5,5.74214,-7.18876,-5.41964,3.40424,15.1243,7.36697,5,-18.5257,-5.32099,1.41408,0.0865215,-0.00223907,62,89,82,85,82,38,78,85,82,81,88,22
-0.106069,8.00842,-0.00424945,-0.115364,-14.0292,27.5105,-13.4869,0.00424945,-0.00424945,-0.115364,-13.9946,27.5105,-13.5215,0.00424945,2.82735,15.0789,3.05378,5,5.74255,-7.18879,-5.41957,3.40417,15.124,7.36713,5,-18.5259,-5.32092,1.41406,0.086523,-0.0022544,62,89,82,85,82,38,78,85,82,81,88,22
-0.105978,8.00845,-0.0042779,-0.115366,-14.0292,27.5105,-13.4869,0.0042779,-0.0042779,-0.115366,-13.9946,27.5105,-13.5215,0.0042779,2.82727,15.0784,3.05331,5,5.74297,-7.18882,-5.4195,3.4041,15.1238,7.36729,5,-18.5261,-5.32086,1.41403,0.0865244,-0.0022695,62,89,82,85,82,38,78,85,82,81,88,22
-0.105883,8.00849,-0.0043057,-0.115368,-14.0292,27.5105,-13.4869,0.0043057,-0.0043057,-0.115368,-13.9946,27.5105,-13.5215,0.0043057,2.82719,15.0778,3.05285,5,5.74338,-7.18885,-5.41943,3.40403,15.1235,7.36745,5,-18.5263,-5.32082,1.41401,0.0865258,-0.00228425,62,89,82,85,82,38,78,85,82,81,88,22
-0.105784,8.00854,-0.00433268,-0.11537,-14.0292,27.5105,-13.4869,0.00433268,-0.00433268,-0.11537,-13.9946,27.5105,-13.5215,0.00433268,2.82711,15.0773,3.0524,5,5.74379,-7.18888,-5.41936,3.40396,15.1232,7.36761,5,-18.5266,-5.3208,1.41399,0.0865272,-0.00229856,62,89,82,85,82,38,78,85,82,81,88,22
-0.10568,8.0086,-0.00435854,-0.115371,-14.0292,27.5105,-13.4869,0.00435854,-0.00435854,-0.115371,-13.9946,27.5105,-13.5216,0.00435854,2.82704,15.0767,3.05194,5,5.74421,-7.18891,-5.4193,3.40389,15.123,7.36776,5,-18.5268,-5.32081,1.41397,0.0865285,-0.00231228,62,89,82,85,82,38,78,85,82,81,88,22
-0.105569,8.00867,-0.00438323,-0.115373,-14.0292,27.5105,-13.4869,0.00438323,-0.00438323,-0.115373,-13.9945,27.5105,-13.5216,0.00438323,2.82696,15.0762,3.05149,5,5.74462,-7.18894,-5.41923,3.40383,15.1227,7.36791,5,-18.5271,-5.32086,1.41395,0.0865298,-0.00232538,62,89,82,85,82,38,78,85,82,81,88,22
-0.105452,8.00875,-0.00440672,-0.115375,-14.0292,27.5105,-13.4869,0.00440672,-0.00440672,-0.115375,-13.9945,27.5105,-13.5216,0.00440672,2.82689,15.0756,3.05104,5,5.74503,-7.18897,-5.41917,3.40377,15.1224,7.36806,5,-18.5274,-5.32094,1.41393,0.0865312,-0.00233784,62,89,82,85,82,38,78,85,82,81,88,22
-0.105329,8.00885,-0.00442899,-0.115377,-14.0291,27.5105,-13.487,0.00442899,-0.00442899,-0.115377,-13.9945,27.5105,-13.5216,0.00442899,2.82682,15.0751,3.05061,5,5.74543,-7.189,-5.41911,3.40371,15.1221,7.3682,5,-18.5277,-5.32104,1.41391,0.0865328,-0.00234965,62,89,82,85,82,38,78,85,82,81,88,22
-0.105199,8.00896,-0.00445002,-0.11538,-14.0291,27.5105,-13.487,0.00445002,-0.00445002,-0.11538,-13.9945,27.5105,-13.5216,0.00445002,2.82675,15.0746,3.0502,5,5.74581,-7.18903,-5.41905,3.40365,15.1218,7.36833,5,-18.528,-5.32117,1.41389,0.0865347,-0.00236081,62,89,82,85,82,38,78,85,82,81,88,22
-0.105063,8.00908,-0.00446982,-0.115383,-14.0291,27.5105,-13.487,0.00446982,-0.00446982,-0.115383,-13.9945,27.5105,-13.5216,0.00446982,2.82668,15.074,3.04981,5,5.74618,-7.18907,-5.419,3.40359,15.1215,7.36846,5,-18.5283,-5.32132,1.41388,0.086537,-0.00237131,62,89,82,85,82,38,78,85,82,81,88,22
-0.104919,8.00921,-0.00448839,-0.115386,-14.0297,27.5108,-13.4871,0.00448839,-0.00448839,-0.115386,-13.995,27.5108,-13.5217,0.00448839,2.82661,15.0735,3.04944,5,5.74652,-7.1891,-5.41894,3.40354,15.1211,7.36858,5,-18.5286,-5.3215,1.41386,0.0865398,-0.00238117,62,89,82,85,82,38,78,85,82,81,88,22
-0.104766,8.00936,-0.00450558,-0.115391,-14.0296,27.5108,-13.4871,0.00450558,-0.00450558,-0.115391,-13.995,27.5108,-13.5217,0.00450558,2.82654,15.073,3.04912,5,5.74682,-7.18914,-5.41889,3.40349,15.1208,7.3687,5,-18.5289,-5.32169,1.41384,0.0865433,-0.00239029,62,89,82,85,82,38,78,85,82,81,88,22
-0.104605,8.00952,-0.0045215,-0.115396,-14.0296,27.5108,-13.4871,0.0045215,-0.0045215,-0.115396,-13.995,27.5108,-13.5217,0.0045215,2.82647,15.0725,3.04884,5,5.74709,-7.18919,-5.41884,3.40345,15.1205,7.36881,5,-18.5292,-5.32191,1.41382,0.0865473,-0.00239873,62,89,82,85,82,38,78,85,82,81,88,22
-0.104437,8.00969,-0.00453623,-0.115403,-14.0296,27.5108,-13.4871,0.00453623,-0.00453623,-0.115403,-13.995,27.5108,-13.5217,0.00453623,2.82639,15.072,3.04858,5,5.74733,-7.18923,-5.4188,3.40341,15.1201,7.36892,5,-18.5295,-5.32214,1.4138,0.086552,-0.00240655,62,89,82,85,82,38,78,85,82,81,88,22
-0.104265,8.00987,-0.00454987,-0.115409,-14.0296,27.5108,-13.4871,0.00454987,-0.00454987,-0.115409,-13.995,27.5108,-13.5217,0.00454987,2.82632,15.0715,3.04835,5,5.74755,-7.18928,-5.41875,3.40337,15.1198,7.36901,5,-18.5297,-5.32238,1.41378,0.0865571,-0.00241378,62,89,82,85,82,38,78,85,82,81,88,22
-0.104089,8.01006,-0.0045625,-0.115417,-14.0296,27.5108,-13.4871,0.0045625,-0.0045625,-0.115417,-13.995,27.5108,-13.5217,0.0045625,2.82625,15.071,3.04814,5,5.74775,-7.18933,-5.4187,3.40333,15.1194,7.36911,5,-18.53,-5.32264,1.41376,0.0865626,-0.00242048,62,89,82,85,82,38,78,85,82,81,88,22
-0.103911,8.01025,-0.00457419,-0.115425,-14.0296,27.5108,-13.4871,0.00457419,-0.00457419,-0.115425,-13.995,27.5108,-13.5217,0.00457419,2.82617,15.0705,3.04795,5,5.74794,-7.18937,-5.41866,3.40329,15.1191,7.36919,5,-18.5303,-5.32291,1.41374,0.0865685,-0.00242669,62,89,82,85,82,38,78,85,82,81,88,22
-0.103732,8.01044,-0.00458503,-0.115433,-14.0296,27.5108,-13.4871,0.00458503,-0.00458503,-0.115433,-13.995,27.5108,-13.5217,0.00458503,2.8261,15.0701,3.04777,5,5.74812,-7.18942,-5.41862,3.40326,15.1187,7.36927,5,-18.5305,-5.32319,1.41373,0.0865747,-0.00243243,62,89,82,85,82,38,78,85,82,81,88,22
-0.103558,8.01064,-0.00459511,-0.115442,-14.0296,27.5108,-13.4871,0.00459511,-0.00459511,-0.115442,-13.995,27.5108,-13.5217,0.00459511,2.82602,15.0696,3.04757,5,5.74832,-7.18946,-5.41857,3.40323,15.1184,7.36934,5,-18.5308,-5.32349,1.41373,0.0865812,-0.00243778,62,89,82,85,82,38,78,85,82,81,88,22
-0.103386,8.01083,-0.00460447,-0.11545,-14.0296,27.5108,-13.4871,0.00460447,-0.00460447,-0.11545,-13.995,27.5108,-13.5217,0.00460447,2.82594,15.0691,3.04737,5,5.74852,-7.1895,-5.41853,3.40319,15.118,7.36939,5,-18.5311,-5.3238,1.41373,0.0865878,-0.00244275,62,89,82,85,82,38,78,85,82,81,88,22
-0.103215,8.01102,-0.00461315,-0.11546,-14.0296,27.5108,-13.4871,0.00461315,-0.00461315,-0.11546,-13.995,27.5108,-13.5218,0.00461315,2.82586,15.0687,3.04718,5,5.74872,-7.18954,-5.41848,3.40316,15.1177,7.36945,5,-18.5313,-5.32412,1.41373,0.0865946,-0.00244736,62,89,82,85,82,38,78,85,82,81,88,22
-0.103043,8.01122,-0.00462118,-0.115469,-14.0296,27.5108,-13.4871,0.00462118,-0.00462118,-0.115469,-13.995,27.5108,-13.5218,0.00462118,2.82578,15.0683,3.047,5,5.7489,-7.18958,-5.41844,3.40313,15.1173,7.3695,5,-18.5316,-5.32443,1.41373,0.0866016,-0.00245162,62,89,82,85,82,38,78,85,82,81,88,22
-0.102868,8.01142,-0.00462859,-0.115478,-14.0296,27.5108,-13.4871,0.00462859,-0.00462859,-0.115478,-13.995,27.5108,-13.5218,0.00462859,2.8257,15.0679,3.04686,5,5.74905,-7.18962,-5.41839,3.4031,15.117,7.36955,5,-18.5319,-5.32475,1.41373,0.0866088,-0.00245555,62,89,82,85,82,38,78,85,82,81,88,22
-0.10269,8.01162,-0.00463542,-0.115488,-14.0296,27.5108,-13.4871,0.00463542,-0.00463542,-0.115488,-13.995,27.5108,-13.5218,0.00463542,2.82563,15.0674,3.04675,5,5.74916,-7.18966,-5.41836,3.40307,15.1166,7.3696,5,-18.5321,-5.32506,1.41372,0.086616,-0.00245917,62,89,82,85,82,38,78,85,82,81,88,22
-0.102507,8.01184,-0.00464168,-0.115498,-14.0298,27.511,-13.4872,0.00464168,-0.00464168,-0.115498,-13.9952,27.511,-13.5218,0.00464168,2.82556,15.067,3.04668,5,5.74924,-7.18971,-5.41832,3.40305,15.1163,7.36965,5,-18.5323,-5.32537,1.41371,0.0866234,-0.00246249,62,89,82,85,82,38,78,85,82,81,88,22
-0.102315,8.01206,-0.00464739,-0.115508,-14.0298,27.511,-13.4872,0.00464739,-0.00464739,-0.115508,-13.9952,27.511,-13.5218,0.00464739,2.8255,15.0666,3.04668,5,5.74925,-7.18978,-5.4183,3.40303,15.1159,7.36971,5,-18.5324,-5.32567,1.41368,0.0866308,-0.00246552,62,89,82,85,82,38,78,85,82,81,88,22
-0.102116,8.01229,-0.00465258,-0.115518,-14.0298,27.511,-13.4872,0.00465258,-0.00465258,-0.115518,-13.9952,27.511,-13.5218,0.00465258,2.82543,15.0662,3.04674,5,5.74919,-7.18985,-5.41828,3.40302,15.1156,7.36977,5,-18.5325,-5.32594,1.41363,0.0866382,-0.00246827,62,89,82,85,82,38,78,85,82,81,88,22
-0.101911,8.01253,-0.0046573,-0.115528,-14.0298,27.511,-13.4872,0.0046573,-0.0046573,-0.115528,-13.9952,27.511,-13.5218,0.0046573,2.82538,15.0658,3.04684,5,5.74909,-7.18993,-5.41827,3.40302,15.1153,7.36984,5,-18.5326,-5.32621,1.41357,0.0866457,-0.00247078,62,89,82,85,82,38,78,85,82,81,88,22
-0.101701,8.01278,-0.00466159,-0.115538,-14.0298,27.511,-13.4872,0.00466159,-0.00466159,-0.115538,-13.9952,27.511,-13.5218,0.00466159,2.82533,15.0655,3.047,5,5.74893,-7.19002,-5.41826,3.40302,15.1149,7.36991,5,-18.5326,-5.32647,1.4135,0.0866532,-0.00247306,62,89,82,85,82,38,78,85,82,81,88,22
-0.101486,8.01303,-0.00466549,-0.115548,-14.0298,27.511,-13.4872,0.00466549,-0.00466549,-0.115548,-13.9952,27.511,-13.5218,0.00466549,2.82528,15.0651,3.0472,5,5.74874,-7.19011,-5.41826,3.40302,15.1146,7.36999,5,-18.5326,-5.32672,1.41343,0.0866608,-0.00247512,62,89,82,85,82,38,78,85,82,81,88,22
-0.101269,8.01329,-0.00466902,-0.115558,-14.0298,27.511,-13.4872,0.00466902,-0.00466902,-0.115558,-13.9952,27.511,-13.5218,0.00466902,2.82523,15.0647,3.04744,5,5.7485,-7.19021,-5.41826,3.40302,15.1143,7.37007,5,-18.5326,-5.32696,1.41334,0.0866684,-0.00247699,62,89,82,85,82,38,78,85,82,81,88,22
-0.101049,8.01355,-0.00467222,-0.115568,-14.0297,27.5109,-13.4871,0.00467222,-0.00467222,-0.115568,-13.995,27.5109,-13.5218,0.00467222,2.82519,15.0644,3.04771,5,5.74824,-7.19032,-5.41827,3.40303,15.114,7.37016,5,-18.5326,-5.32719,1.41325,0.086676,-0.00247869,62,89,82,85,82,38,78,85,82,81,88,22
-0.100827,8.01381,-0.00467525,-0.115578,-14.0297,27.5109,-13.4871,0.00467525,-0.00467525,-0.115578,-13.995,27.5109,-13.5218,0.00467525,2.82515,15.064,3.04801,5,5.74795,-7.19042,-5.41827,3.40304,15.1137,7.37026,5,-18.5325,-5.32742,1.41316,0.0866836,-0.0024803,62,89,82,85,82,38,78,85,82,81,88,22
-0.100604,8.01407,-0.00467808,-0.115588,-14.0297,27.5109,-13.4871,0.00467808,-0.00467808,-0.115588,-13.995,27.5109,-13.5218,0.00467808,2.82512,15.0637,3.04834,5,5.74763,-7.19052,-5.41827,3.40306,15.1134,7.37036,5,-18.5324,-5.32765,1.41306,0.0866912,-0.0024818,62,89,82,85,82,38,78,85,82,81,88,22
-0.100381,8.01434,-0.00468065,-0.115598,-14.0297,27.5109,-13.4871,0.00468065,-0.00468065,-0.115598,-13.995,27.5109,-13.5218,0.00468065,2.82508,15.0634,3.04869,5,5.7473,-7.19062,-5.41828,3.40307,15.1131,7.37046,5,-18.5323,-5.32787,1.41296,0.0866986,-0.00248317,62,89,82,85,82,38,78,85,82,81,88,22
-0.100159,8.0146,-0.00468296,-0.115608,-14.0297,27.5109,-13.4871,0.00468296,-0.00468296,-0.115608,-13.995,27.5109,-13.5218,0.00468296,2.82505,15.0631,3.04906,5,5.74694,-7.19073,-5.41829,3.40309,15.1128,7.37056,5,-18.5322,-5.32808,1.41286,0.0867061,-0.00248439,62,89,82,85,82,38,78,85,82,81,88,22
-0.0999366,8.01487,-0.00468499,-0.115618,-14.0297,27.5109,-13.4871,0.00468499,-0.00468499,-0.115618,-13.995,27.5109,-13.5218,0.00468499,2.82502,15.0628,3.04945,5,5.74657,-7.19084,-5.4183,3.40311,15.1125,7.37067,5,-18.5321,-5.32828,1.41275,0.0867134,-0.00248547,62,89,82,85,82,38,78,85,82,81,88,22
-0.0997156,8.01513,-0.00468672,-0.115628,-14.0297,27.5109,-13.4871,0.00468672,-0.00468672,-0.115628,-13.995,27.5109,-13.5218,0.00468672,2.82499,15.0625,3.04985,5,5.74617,-7.19096,-5.41832,3.40313,15.1122,7.37077,5,-18.5319,-5.32847,1.41263,0.0867207,-0.00248639,62,89,82,85,82,38,78,85,82,81,88,22
-0.099496,8.0154,-0.00468817,-0.115637,-14.0297,27.5109,-13.4871,0.00468817,-0.00468817,-0.115637,-13.995,27.5109,-13.5218,0.00468817,2.82497,15.0622,3.05026,5,5.74576,-7.19108,-5.41834,3.40315,15.1119,7.37086,5,-18.5318,-5.32865,1.41251,0.0867278,-0.00248716,62,89,82,85,82,38,78,85,82,81,88,22
-0.0992791,8.01566,-0.00468909,-0.115647,-14.0297,27.5109,-13.4871,0.00468909,-0.00468909,-0.115647,-13.995,27.5109,-13.5218,0.00468909,2.82494,15.0619,3.05069,5,5.74533,-7.1912,-5.41837,3.40318,15.1116,7.37095,5,-18.5316,-5.32881,1.41238,0.0867352,-0.00248764,62,89,82,85,82,38,78,85,82,81,88,22
-0.0990647,8.01592,-0.00468962,-0.115657,-14.0297,27.5109,-13.4871,0.00468962,-0.00468962,-0.115657,-13.995,27.5109,-13.5218,0.00468962,2.82492,15.0616,3.05113,5,5.74488,-7.19133,-5.41841,3.40321,15.1114,7.37103,5,-18.5314,-5.32896,1.41225,0.0867425,-0.00248792,62,89,82,85,82,38,78,85,82,81,88,22
-0.0988525,8.01618,-0.00468989,-0.115666,-14.0297,27.5109,-13.4871,0.00468989,-0.00468989,-0.115666,-13.995,27.5109,-13.5218,0.00468989,2.82491,15.0613,3.05158,5,5.74442,-7.19147,-5.41845,3.40324,15.1111,7.3711,5,-18.5311,-5.32909,1.4121,0.0867496,-0.00248807,62,89,82,85,82,38,78,85,82,81,88,22
-0.0986425,8.01643,-0.00469003,-0.115675,-14.0297,27.5109,-13.4871,0.00469003,-0.00469003,-0.115675,-13.995,27.5109,-13.5218,0.00469003,2.82489,15.061,3.05202,5,5.74396,-7.19161,-5.41849,3.40327,15.1108,7.37116,5,-18.5309,-5.3292,1.41195,0.0867563,-0.00248814,62,89,82,85,82,38,78,85,82,81,88,22
-0.0984345,8.01668,-0.00469014,-0.115683,-14.0297,27.5109,-13.4871,0.00469014,-0.00469014,-0.115683,-13.995,27.5109,-13.5218,0.00469014,2.82488,15.0608,3.05245,5,5.74349,-7.19176,-5.41855,3.40329,15.1105,7.37122,5,-18.5306,-5.32929,1.4118,0.0867624,-0.0024882,62,89,82,85,82,38,78,85,82,81,88,22
-0.0982283,8.01693,-0.0046903,-0.11569,-14.0297,27.5109,-13.4871,0.0046903,-0.0046903,-0.11569,-13.995,27.5109,-13.5218,0.0046903,2.82487,15.0605,3.05287,5,5.74302,-7.19192,-5.41861,3.40332,15.1102,7.37128,5,-18.5304,-5.32937,1.41164,0.0867678,-0.00248829,62,89,82,85,82,38,78,85,82,81,88,22
-0.0980241,8.01717,-0.0046906,-0.115697,-14.0297,27.5109,-13.4871,0.0046906,-0.0046906,-0.115697,-13.995,27.5109,-13.5218,0.0046906,2.82487,15.0602,3.05328,5,5.74256,-7.19208,-5.41868,3.40335,15.11,7.37133,5,-18.5301,-5.32942,1.41148,0.0867724,-0.00248844,62,89,82,85,82,38,78,85,82,81,88,22
-0.0978209,8.01741,-0.00469133,-0.115701,-14.0297,27.5109,-13.4871,0.00469133,-0.00469133,-0.115701,-13.995,27.5109,-13.5218,0.00469133,2.82487,15.0599,3.05365,5,5.74211,-7.19225,-5.41876,3.40337,15.1097,7.37138,5,-18.5299,-5.32944,1.41132,0.0867755,-0.00248883,62,89,82,85,82,38,78,85,82,81,88,22
-0.0976192,8.01763,-0.00469241,-0.115703,-14.0297,27.5109,-13.4871,0.00469241,-0.00469241,-0.115703,-13.995,27.5109,-13.5218,0.00469241,2.82488,15.0596,3.05399,5,5.74168,-7.19242,-5.41884,3.40339,15.1094,7.37142,5,-18.5296,-5.32945,1.41115,0.0867774,-0.00248941,62,89,82,85,82,38,78,85,82,81,88,22
-0.0974193,8.01785,-0.0046938,-0.115704,-14.0297,27.5109,-13.4871,0.0046938,-0.0046938,-0.115704,-13.995,27.5109,-13.5218,0.0046938,2.82489,15.0593,3.05431,5,5.74125,-7.1926,-5.41894,3.40341,15.1091,7.37146,5,-18.5293,-5.32943,1.41099,0.0867782,-0.00249014,62,89,82,85,82,38,78,85,82,81,88,22
-0.0972216,8.01807,-0.00469542,-0.115704,-14.0297,27.5109,-13.4871,0.00469542,-0.00469542,-0.115704,-13.995,27.5109,-13.5218,0.00469542,2.8249,15.0591,3.05461,5,5.74084,-7.19279,-5.41903,3.40343,15.1089,7.3715,5,-18.5291,-5.32939,1.41082,0.0867782,-0.002491,62,89,82,85,82,38,78,85,82,81,88,22
-0.0970262,8.01828,-0.00469724,-0.115703,-14.0297,27.5109,-13.4871,0.00469724,-0.00469724,-0.115703,-13.995,27.5109,-13.5218,0.00469724,2.82492,15.0588,3.0549,5,5.74043,-7.19298,-5.41914,3.40344,15.1086,7.37154,5,-18.5288,-5.32934,1.41066,0.0867774,-0.00249197,62,89,82,85,82,38,78,85,82,81,88,22
-0.0968334,8.01848,-0.00469922,-0.115701,-14.0297,27.5109,-13.4871,0.00469922,-0.00469922,-0.115701,-13.995,27.5109,-13.5218,0.00469922,2.82495,15.0585,3.05516,5,5.74004,-7.19317,-5.41925,3.40345,15.1083,7.37157,5,-18.5285,-5.32927,1.41049,0.0867761,-0.00249302,62,89,82,85,82,38,78,85,82,81,88,22
-0.0966434,8.01868,-0.00470133,-0.115699,-14.0296,27.5108,-13.4871,0.00470133,-0.00470133,-0.115699,-13.9949,27.5108,-13.5218,0.00470133,2.82497,15.0582,3.05542,5,5.73965,-7.19336,-5.41936,3.40346,15.1081,7.3716,5,-18.5283,-5.32919,1.41032,0.0867742,-0.00249414,62,89,82,85,82,38,78,85,82,81,88,22
-0.0964572,8.01888,-0.00470351,-0.115696,-14.0296,27.5108,-13.4871,0.00470351,-0.00470351,-0.115696,-13.9949,27.5108,-13.5218,0.00470351,2.825,15.0579,3.05566,5,5.73926,-7.19356,-5.41946,3.40348,15.1078,7.37163,5,-18.528,-5.32911,1.41016,0.0867722,-0.00249529,62,89,82,85,82,38,78,85,82,81,88,22
-0.0962744,8.01907,-0.00470578,-0.115693,-14.0296,27.5108,-13.4871,0.00470578,-0.00470578,-0.115693,-13.9949,27.5108,-13.5218,0.00470578,2.82502,15.0576,3.0559,5,5.73888,-7.19375,-5.41957,3.40349,15.1076,7.37165,5,-18.5277,-5.32902,1.40999,0.0867701,-0.00249649,62,89,82,85,82,38,78,85,82,81,88,22
-0.0960949,8.01926,-0.00470812,-0.11569,-14.0296,27.5108,-13.4871,0.00470812,-0.00470812,-0.11569,-13.9949,27.5108,-13.5218,0.00470812,2.82505,15.0574,3.05613,5,5.7385,-7.19394,-5.41969,3.4035,15.1073,7.37167,5,-18.5274,-5.32893,1.40982,0.0867676,-0.00249774,62,89,82,85,82,38,78,85,82,81,88,22
-0.0959185,8.01945,-0.00471056,-0.115686,-14.0296,27.5108,-13.4871,0.00471056,-0.00471056,-0.115686,-13.9949,27.5108,-13.5218,0.00471056,2.82508,15.0571,3.05634,5,5.73814,-7.19413,-5.4198,3.40351,15.1071,7.37169,5,-18.5272,-5.32883,1.40966,0.0867646,-0.00249903,62,89,82,85,82,38,78,85,82,81,88,22
-0.095745,8.01962,-0.00471311,-0.115681,-14.0296,27.5108,-13.4871,0.00471311,-0.00471311,-0.115681,-13.9949,27.5108,-13.5218,0.00471311,2.82511,15.0568,3.05654,5,5.73779,-7.19432,-5.41992,3.40352,15.1068,7.37171,5,-18.5269,-5.32871,1.4095,0.086761,-0.00250039,62,89,82,85,82,38,78,85,82,81,88,22
-0.0955744,8.0198,-0.00471579,-0.115676,-14.0296,27.5108,-13.4871,0.00471579,-0.00471579,-0.115676,-13.9949,27.5108,-13.5218,0.00471579,2.82515,15.0566,3.05672,5,5.73745,-7.19452,-5.42003,3.40352,15.1066,7.37173,5,-18.5267,-5.32859,1.40934,0.0867568,-0.00250181,62,89,82,85,82,38,78,85,82,81,88,22
-0.0954065,8.01996,-0.00471862,-0.115669,-14.0296,27.5108,-13.4871,0.00471862,-0.00471862,-0.115669,-13.9949,27.5108,-13.5218,0.00471862,2.82518,15.0563,3.05687,5,5.73713,-7.19471,-5.42016,3.40353,15.1064,7.37175,5,-18.5264,-5.32845,1.40918,0.0867518,-0.00250331,62,89,82,85,82,38,78,85,82,81,88,22
-0.0952408,8.02012,-0.00472137,-0.115661,-14.0296,27.5108,-13.4871,0.00472137,-0.00472137,-0.115661,-13.9949,27.5108,-13.5218,0.00472137,2.82522,15.056,3.05701,5,5.73682,-7.1949,-5.42028,3.40353,15.1061,7.37177,5,-18.5262,-5.32831,1.40903,0.086746,-0.00250477,62,89,82,85,82,38,78,85,82,81,88,22
-0.0950775,8.02027,-0.00472418,-0.115652,-14.0296,27.5108,-13.4871,0.00472418,-0.00472418,-0.115652,-13.9949,27.5108,-13.5218,0.00472418,2.82527,15.0558,3.05713,5,5.73653,-7.19509,-5.42041,3.40353,15.1059,7.37179,5,-18.5259,-5.32815,1.40888,0.0867392,-0.00250626,62,89,82,85,82,38,78,85,82,81,88,22
-0.0949169,8.02042,-0.00472722,-0.115642,-14.0296,27.5108,-13.4871,0.00472722,-0.00472722,-0.115642,-13.9949,27.5108,-13.5218,0.00472722,2.82531,15.0555,3.05722,5,5.73627,-7.19528,-5.42055,3.40352,15.1057,7.37181,5,-18.5257,-5.32798,1.40874,0.0867315,-0.00250787,62,89,82,85,82,38,78,85,82,81,88,22
-0.0947592,8.02056,-0.00473059,-0.11563,-14.0296,27.5108,-13.4871,0.00473059,-0.00473059,-0.11563,-13.9949,27.5108,-13.5218,0.00473059,2.82536,15.0553,3.05728,5,5.73602,-7.19548,-5.42068,3.40351,15.1055,7.37184,5,-18.5255,-5.3278,1.4086,0.0867228,-0.00250966,62,89,82,85,82,38,78,85,82,81,88,22
-0.0946046,8.02068,-0.0047344,-0.115617,-14.0296,27.5108,-13.4871,0.0047344,-0.0047344,-0.115617,-13.9949,27.5108,-13.5218,0.0047344,2.82541,15.055,3.0573,5,5.7358,-7.19567,-5.42082,3.4035,15.1052,7.37187,5,-18.5254,-5.32761,1.40846,0.0867131,-0.00251168,62,89,82,85,82,38,78,85,82,81,88,22
-0.0944533,8.0208,-0.00473874,-0.115603,-14.0296,27.5108,-13.4871,0.00473874,-0.00473874,-0.115603,-13.9949,27.5108,-13.5218,0.00473874,2.82546,15.0548,3.05729,5,5.73561,-7.19587,-5.42097,3.40348,15.105,7.3719,5,-18.5252,-5.32741,1.40833,0.0867024,-0.00251398,62,89,82,85,82,38,78,85,82,81,88,22
-0.0943055,8.0209,-0.00474366,-0.115588,-14.0296,27.5108,-13.4871,0.00474366,-0.00474366,-0.115588,-13.9949,27.5108,-13.5218,0.00474366,2.82552,15.0545,3.05724,5,5.73545,-7.19607,-5.42111,3.40345,15.1048,7.37194,5,-18.5251,-5.32721,1.40821,0.0866906,-0.00251659,62,89,82,85,82,38,78,85,82,81,88,22
-0.0941611,8.02099,-0.00474948,-0.115571,-14.0296,27.5108,-13.4871,0.00474948,-0.00474948,-0.115571,-13.9949,27.5108,-13.5218,0.00474948,2.82557,15.0542,3.05714,5,5.73531,-7.19628,-5.42126,3.40342,15.1046,7.37199,5,-18.525,-5.32699,1.40809,0.086678,-0.00251968,62,89,82,85,82,38,78,85,82,81,88,22
-0.0940203,8.02106,-0.0047561,-0.115552,-14.0296,27.5108,-13.4871,0.0047561,-0.0047561,-0.115552,-13.9949,27.5108,-13.5218,0.0047561,2.82562,15.0539,3.057,5,5.73521,-7.1965,-5.42142,3.40338,15.1044,7.37204,5,-18.525,-5.32676,1.40798,0.0866644,-0.00252319,62,89,82,85,82,38,78,85,82,81,88,22
-0.0938834,8.02112,-0.00476342,-0.115533,-14.0296,27.5108,-13.4871,0.00476342,-0.00476342,-0.115533,-13.9949,27.5108,-13.5218,0.00476342,2.82567,15.0537,3.05681,5,5.73514,-7.19671,-5.42157,3.40334,15.1042,7.3721,5,-18.525,-5.32653,1.40788,0.0866497,-0.00252707,62,89,82,85,82,38,78,85,82,81,88,22
-0.0937505,8.02117,-0.00477135,-0.115512,-14.0296,27.5108,-13.4871,0.00477135,-0.00477135,-0.115512,-13.9949,27.5108,-13.5218,0.00477135,2.82573,15.0534,3.05658,5,5.7351,-7.19694,-5.42173,3.40329,15.104,7.37217,5,-18.525,-5.32629,1.40778,0.0866341,-0.00253128,62,89,82,85,82,38,78,85,82,81,88,22
-0.0936218,8.0212,-0.00477981,-0.11549,-14.0296,27.5108,-13.4871,0.00477981,-0.00477981,-0.11549,-13.9949,27.5108,-13.5217,0.00477981,2.82578,15.0531,3.05631,5,5.73509,-7.19716,-5.42188,3.40323,15.1038,7.37225,5,-18.5251,-5.32604,1.40768,0.0866176,-0.00253577,62,89,82,85,82,38,78,85,82,81,88,22
-0.0934972,8.02123,-0.00478874,-0.115467,-14.0296,27.5108,-13.4871,0.00478874,-0.00478874,-0.115467,-13.9949,27.5108,-13.5217,0.00478874,2.82583,15.0528,3.056,5,5.7351,-7.19739,-5.42204,3.40317,15.1036,7.37232,5,-18.5252,-5.32579,1.40759,0.0866,-0.00254051,62,89,82,85,82,38,78,85,82,81,88,22
-0.093377,8.02124,-0.00479805,-0.115442,-14.0295,27.5108,-13.4871,0.00479805,-0.00479805,-0.115442,-13.9949,27.5108,-13.5217,0.00479805,2.82589,15.0525,3.05566,5,5.73514,-7.19761,-5.4222,3.4031,15.1034,7.3724,5,-18.5254,-5.32554,1.4075,0.0865816,-0.00254545,62,89,82,85,82,38,78,85,82,81,88,22
-0.0932614,8.02123,-0.00480756,-0.115416,-14.0295,27.5108,-13.4871,0.00480756,-0.00480756,-0.115416,-13.9949,27.5108,-13.5217,0.00480756,2.82595,15.0522,3.05528,5,5.7352,-7.19785,-5.42236,3.40303,15.1033,7.37248,5,-18.5255,-5.32529,1.40741,0.0865622,-0.0025505,62,89,82,85,82,38,78,85,82,81,88,22
-0.0931504,8.02122,-0.00481729,-0.115389,-14.0295,27.5108,-13.4871,0.00481729,-0.00481729,-0.115389,-13.9949,27.5108,-13.5217,0.00481729,2.82601,15.052,3.05486,5,5.73529,-7.19808,-5.42252,3.40295,15.1031,7.37256,5,-18.5257,-5.32504,1.40733,0.0865419,-0.00255566,62,89,82,85,82,38,78,85,82,81,88,22
-0.0930437,8.0212,-0.00482724,-0.115361,-14.0295,27.5108,-13.4871,0.00482724,-0.00482724,-0.115361,-13.9949,27.5108,-13.5217,0.00482724,2.82607,15.0517,3.05441,5,5.7354,-7.19831,-5.42268,3.40287,15.1029,7.37265,5,-18.5259,-5.32479,1.40725,0.0865209,-0.00256093,62,89,82,85,82,38,78,85,82,81,88,22
-0.0929411,8.02116,-0.0048374,-0.115332,-14.0295,27.5108,-13.4871,0.0048374,-0.0048374,-0.115332,-13.9949,27.5108,-13.5217,0.0048374,2.82612,15.0514,3.05394,5,5.73552,-7.19853,-5.42283,3.40279,15.1027,7.37274,5,-18.5262,-5.32454,1.40717,0.0864993,-0.00256632,62,89,82,85,82,38,78,85,82,81,88,22
-0.0928426,8.02111,-0.00484776,-0.115303,-14.0295,27.5108,-13.4871,0.00484776,-0.00484776,-0.115303,-13.9949,27.5108,-13.5217,0.00484776,2.82618,15.0511,3.05344,5,5.73567,-7.19876,-5.42299,3.40269,15.1025,7.37284,5,-18.5265,-5.32429,1.4071,0.0864772,-0.00257182,62,89,82,85,82,38,78,85,82,81,88,22
-0.092748,8.02105,-0.00485832,-0.115273,-14.0295,27.5108,-13.4871,0.00485832,-0.00485832,-0.115273,-13.9949,27.5108,-13.5217,0.00485832,2.82623,15.0508,3.05293,5,5.73582,-7.19897,-5.42313,3.4026,15.1023,7.37295,5,-18.5268,-5.32405,1.40703,0.0864548,-0.00257742,62,89,82,85,82,38,78,85,82,81,88,22
-0.092657,8.02098,-0.00486904,-0.115243,-14.0295,27.5108,-13.4871,0.00486904,-0.00486904,-0.115243,-13.995,27.5108,-13.5217,0.00486904,2.82628,15.0505,3.0524,5,5.73599,-7.19918,-5.42328,3.40249,15.1022,7.37308,5,-18.5271,-5.32381,1.40697,0.0864322,-0.00258311,62,89,82,85,82,38,78,85,82,81,88,22
-0.0925697,8.02089,-0.00487993,-0.115212,-14.0295,27.5108,-13.4872,0.00487993,-0.00487993,-0.115212,-13.995,27.5108,-13.5217,0.00487993,2.82632,15.0502,3.05187,5,5.73617,-7.19938,-5.42341,3.40238,15.102,7.37322,5,-18.5275,-5.32358,1.40692,0.0864093,-0.00258889,62,89,82,85,82,38,78,85,82,81,88,22
-0.0924859,8.02078,-0.00489094,-0.115182,-14.0295,27.5108,-13.4872,0.00489094,-0.00489094,-0.115182,-13.995,27.5108,-13.5217,0.00489094,2.82635,15.0499,3.05132,5,5.73636,-7.19956,-5.42354,3.40226,15.1018,7.37337,5,-18.5279,-5.32335,1.40688,0.0863863,-0.00259473,62,89,82,85,82,38,78,85,82,81,88,22
-0.0924053,8.02067,-0.00490205,-0.115151,-14.0295,27.5108,-13.4872,0.00490205,-0.00490205,-0.115151,-13.995,27.5108,-13.5217,0.00490205,2.82637,15.0496,3.05078,5,5.73655,-7.19974,-5.42367,3.40213,15.1016,7.37354,5,-18.5284,-5.32314,1.40684,0.0863634,-0.00260062,62,89,82,85,82,38,78,85,82,81,88,22
-0.092328,8.02054,-0.00491322,-0.115121,-14.0295,27.5108,-13.4872,0.00491322,-0.00491322,-0.115121,-13.995,27.5108,-13.5217,0.00491322,2.82639,15.0494,3.05023,5,5.73675,-7.19991,-5.42378,3.402,15.1015,7.37373,5,-18.5288,-5.32292,1.40682,0.086341,-0.00260655,62,89,82,85,82,38,78,85,82,81,88,22
-0.0922536,8.0204,-0.00492441,-0.115092,-14.0295,27.5108,-13.4872,0.00492441,-0.00492441,-0.115092,-13.995,27.5108,-13.5217,0.00492441,2.8264,15.0491,3.04969,5,5.73695,-7.20006,-5.42389,3.40186,15.1013,7.37393,5,-18.5293,-5.32272,1.4068,0.0863191,-0.00261248,62,89,82,85,82,38,78,85,82,81,88,22
-0.0921821,8.02025,-0.00493557,-0.115064,-14.0295,27.5108,-13.4872,0.00493557,-0.00493557,-0.115064,-13.995,27.5108,-13.5217,0.00493557,2.8264,15.0488,3.04915,5,5.73715,-7.2002,-5.42399,3.40172,15.1012,7.37414,5,-18.5298,-5.32253,1.40679,0.086298,-0.0026184,62,89,82,85,82,38,78,85,82,81,88,22
-0.0921134,8.02009,-0.00494665,-0.115037,-14.0295,27.5108,-13.4872,0.00494665,-0.00494665,-0.115037,-13.995,27.5108,-13.5217,0.00494665,2.82639,15.0485,3.04862,5,5.73736,-7.20032,-5.42409,3.40158,15.101,7.37436,5,-18.5304,-5.32234,1.40678,0.0862778,-0.00262428,62,89,82,85,82,38,78,85,82,81,88,22
-0.0920473,8.01993,-0.00495789,-0.115011,-14.0295,27.5108,-13.4872,0.00495789,-0.00495789,-0.115011,-13.995,27.5108,-13.5217,0.00495789,2.82638,15.0483,3.0481,5,5.73756,-7.20043,-5.42418,3.40143,15.1009,7.37459,5,-18.5309,-5.32216,1.40679,0.0862586,-0.00263024,62,89,82,85,82,38,78,85,82,81,88,22
-0.0919836,8.01975,-0.00496909,-0.114987,-14.0294,27.5108,-13.4872,0.00496909,-0.00496909,-0.114987,-13.9949,27.5108,-13.5217,0.00496909,2.82635,15.048,3.04759,5,5.73777,-7.20052,-5.42426,3.40129,15.1007,7.37483,5,-18.5315,-5.322,1.4068,0.0862405,-0.00263619,62,89,82,85,82,38,78,85,82,81,88,22
-0.0919223,8.01957,-0.00498008,-0.114965,-14.0294,27.5108,-13.4872,0.00498008,-0.00498008,-0.114965,-13.9949,27.5108,-13.5217,0.00498008,2.82632,15.0478,3.0471,5,5.73797,-7.2006,-5.42433,3.40114,15.1006,7.37509,5,-18.532,-5.32184,1.40681,0.0862236,-0.00264202,62,89,82,85,82,38,78,85,82,81,88,22
-0.0918635,8.01938,-0.00499072,-0.114944,-14.0294,27.5108,-13.4873,0.00499072,-0.00499072,-0.114944,-13.9949,27.5108,-13.5217,0.00499072,2.82628,15.0475,3.04662,5,5.73817,-7.20066,-5.4244,3.401,15.1005,7.37535,5,-18.5326,-5.32169,1.40683,0.0862082,-0.00264766,62,89,82,85,82,38,78,85,82,81,88,22
-0.091807,8.01918,-0.00500088,-0.114926,-14.0294,27.5108,-13.4873,0.00500088,-0.00500088,-0.114926,-13.9949,27.5108,-13.5217,0.00500088,2.82622,15.0473,3.04617,5,5.73836,-7.20071,-5.42446,3.40085,15.1003,7.37562,5,-18.5332,-5.32155,1.40686,0.0861942,-0.00265306,62,89,82,85,82,38,78,85,82,81,88,22
-0.0917529,8.01898,-0.00501047,-0.114909,-14.0294,27.5108,-13.4873,0.00501047,-0.00501047,-0.114909,-13.9949,27.5108,-13.5217,0.00501047,2.82616,15.047,3.04574,5,5.73854,-7.20074,-5.4245,3.40071,15.1002,7.37589,5,-18.5338,-5.32142,1.40689,0.0861817,-0.00265814,62,89,82,85,82,38,78,85,82,81,88,22
-0.091701,8.01876,-0.00501939,-0.114894,-14.0299,27.5111,-13.4874,0.00501939,-0.00501939,-0.114894,-13.9954,27.5111,-13.5218,0.00501939,2.82609,15.0468,3.04533,5,5.73871,-7.20075,-5.42454,3.40056,15.1001,7.37617,5,-18.5343,-5.3213,1.40692,0.0861707,-0.00266287,62,89,82,85,82,38,78,85,82,81,88,22
-0.0916487,8.01853,-0.00502715,-0.114883,-14.0298,27.5111,-13.4874,0.00502715,-0.00502715,-0.114883,-13.9954,27.5111,-13.5219,0.00502715,2.82601,15.0466,3.04497,5,5.73886,-7.20074,-5.42456,3.40043,15.1,7.37645,5,-18.5349,-5.3212,1.40696,0.0861621,-0.00266699,62,89,82,85,82,38,78,85,82,81,88,22
-0.0915974,8.01829,-0.00503392,-0.114874,-14.0298,27.5111,-13.4874,0.00503392,-0.00503392,-0.114874,-13.9954,27.5111,-13.5219,0.00503392,2.82592,15.0464,3.04464,5,5.73899,-7.20071,-5.42457,3.40029,15.0998,7.37674,5,-18.5355,-5.3211,1.407,0.0861555,-0.00267058,62,89,82,85,82,38,78,85,82,81,88,22
-0.0915478,8.01804,-0.00503984,-0.114867,-14.0298,27.5111,-13.4874,0.00503984,-0.00503984,-0.114867,-13.9954,27.5111,-13.5219,0.00503984,2.82582,15.0462,3.04435,5,5.73911,-7.20067,-5.42457,3.40016,15.0997,7.37702,5,-18.536,-5.32102,1.40704,0.0861505,-0.00267372,62,89,82,85,82,38,78,85,82,81,88,22
-0.0915008,8.01778,-0.00504504,-0.114862,-14.0298,27.5111,-13.4874,0.00504504,-0.00504504,-0.114862,-13.9954,27.5111,-13.5219,0.00504504,2.82571,15.046,3.04408,5,5.73921,-7.20061,-5.42456,3.40003,15.0996,7.37731,5,-18.5365,-5.32094,1.40709,0.0861468,-0.00267648,62,89,82,85,82,38,78,85,82,81,88,22
-0.0914568,8.01752,-0.00504963,-0.114859,-14.0298,27.5111,-13.4874,0.00504963,-0.00504963,-0.114859,-13.9953,27.5111,-13.5219,0.00504963,2.8256,15.0459,3.04382,5,5.73931,-7.20054,-5.42454,3.3999,15.0995,7.37761,5,-18.537,-5.32088,1.40714,0.0861442,-0.00267891,62,89,82,85,82,38,78,85,82,81,88,22
-0.0914161,8.01726,-0.00505368,-0.114857,-14.0298,27.5111,-13.4874,0.00505368,-0.00505368,-0.114857,-13.9953,27.5111,-13.5219,0.00505368,2.82548,15.0457,3.04359,5,5.73939,-7.20046,-5.42452,3.39977,15.0993,7.37791,5,-18.5376,-5.32081,1.40719,0.0861426,-0.00268107,62,89,82,85,82,38,78,85,82,81,88,22
-0.0913788,8.017,-0.00505728,-0.114856,-14.0298,27.5111,-13.4875,0.00505728,-0.00505728,-0.114856,-13.9953,27.5111,-13.5219,0.00505728,2.82536,15.0456,3.04337,5,5.73947,-7.20037,-5.42449,3.39964,15.0992,7.37822,5,-18.5381,-5.32076,1.40724,0.0861417,-0.00268297,62,89,82,85,82,38,78,85,82,81,88,22
-0.0913513,8.01675,-0.00506092,-0.114854,-14.0298,27.5111,-13.4875,0.00506092,-0.00506092,-0.114854,-13.9953,27.5111,-13.5219,0.00506092,2.82524,15.0454,3.04313,5,5.73954,-7.20028,-5.42446,3.39951,15.0991,7.37855,5,-18.5386,-5.3207,1.40729,0.0861405,-0.0026849,62,89,82,85,82,38,78,85,82,81,88,22
-0.09133,8.01651,-0.00506441,-0.114852,-14.0298,27.5111,-13.4875,0.00506441,-0.00506441,-0.114852,-13.9953,27.5111,-13.5219,0.00506441,2.82511,15.0452,3.04289,5,5.73961,-7.20019,-5.42444,3.39937,15.099,7.3789,5,-18.5391,-5.32065,1.40734,0.0861392,-0.00268676,62,89,82,85,82,38,78,85,82,81,88,22
-0.0913119,8.01627,-0.00506758,-0.114851,-14.0297,27.5111,-13.4875,0.00506758,-0.00506758,-0.114851,-13.9953,27.5111,-13.5219,0.00506758,2.82498,15.0451,3.04266,5,5.73968,-7.20009,-5.42442,3.39924,15.0989,7.37925,5,-18.5397,-5.32061,1.40738,0.0861385,-0.00268844,62,89,82,85,82,38,78,85,82,81,88,22
-0.0912942,8.01603,-0.00507028,-0.114851,-14.0297,27.5111,-13.4875,0.00507028,-0.00507028,-0.114851,-13.9953,27.5111,-13.522,0.00507028,2.82485,15.045,3.04246,5,5.73973,-7.19999,-5.42438,3.39911,15.0987,7.37959,5,-18.5402,-5.32056,1.40743,0.0861386,-0.00268987,62,89,82,85,82,38,78,85,82,81,88,22
-0.0912745,8.01579,-0.00507237,-0.114853,-14.0297,27.5111,-13.4875,0.00507237,-0.00507237,-0.114853,-13.9953,27.5111,-13.522,0.00507237,2.82472,15.0448,3.04228,5,5.73978,-7.19988,-5.42434,3.39899,15.0986,7.37992,5,-18.5407,-5.32053,1.40748,0.0861399,-0.00269098,62,89,82,85,82,38,78,85,82,81,88,22
-0.091251,8.01553,-0.00507375,-0.114857,-14.0297,27.5111,-13.4875,0.00507375,-0.00507375,-0.114857,-13.9953,27.5111,-13.522,0.00507375,2.82458,15.0447,3.04213,5,5.73982,-7.19975,-5.4243,3.39887,15.0985,7.38023,5,-18.5411,-5.3205,1.40754,0.0861427,-0.00269171,62,89,82,85,82,38,78,85,82,81,88,22
-0.091222,8.01527,-0.00507436,-0.114863,-14.0301,27.5114,-13.4876,0.00507436,-0.00507436,-0.114863,-13.9956,27.5114,-13.5221,0.00507436,2.82445,15.0446,3.04202,5,5.73984,-7.19962,-5.42424,3.39876,15.0984,7.38052,5,-18.5416,-5.32048,1.40759,0.0861471,-0.00269203,62,89,82,85,82,38,78,85,82,81,88,22
-0.0911819,8.01498,-0.0050737,-0.114872,-14.0301,27.5114,-13.4876,0.0050737,-0.0050737,-0.114872,-13.9956,27.5114,-13.5221,0.0050737,2.82431,15.0445,3.04198,5,5.73985,-7.19947,-5.42416,3.39867,15.0983,7.38077,5,-18.5419,-5.32047,1.40765,0.0861543,-0.00269168,62,89,82,85,82,38,78,85,82,81,88,22
-0.0911318,8.01468,-0.00507194,-0.114885,-14.0301,27.5114,-13.4876,0.00507194,-0.00507194,-0.114885,-13.9956,27.5114,-13.5221,0.00507194,2.82416,15.0444,3.04199,5,5.73984,-7.19931,-5.42407,3.39859,15.0982,7.38098,5,-18.5423,-5.32046,1.40771,0.086164,-0.00269075,62,89,82,85,82,38,78,85,82,81,88,22
-0.0910731,8.01436,-0.00506923,-0.114901,-14.03,27.5114,-13.4876,0.00506923,-0.00506923,-0.114901,-13.9956,27.5114,-13.5221,0.00506923,2.82402,15.0443,3.04206,5,5.73982,-7.19914,-5.42396,3.39852,15.0981,7.38115,5,-18.5426,-5.32046,1.40778,0.0861757,-0.00268931,62,89,82,85,82,38,78,85,82,81,88,22
-0.0910067,8.01403,-0.00506572,-0.114919,-14.03,27.5114,-13.4876,0.00506572,-0.00506572,-0.114919,-13.9956,27.5114,-13.5221,0.00506572,2.82387,15.0442,3.04217,5,5.73978,-7.19895,-5.42384,3.39847,15.098,7.3813,5,-18.5429,-5.32048,1.40785,0.0861892,-0.00268745,62,89,82,85,82,38,78,85,82,81,88,22
-0.0909337,8.01369,-0.00506152,-0.114939,-14.03,27.5114,-13.4876,0.00506152,-0.00506152,-0.114939,-13.9956,27.5114,-13.5221,0.00506152,2.82373,15.0442,3.04232,5,5.73973,-7.19876,-5.42372,3.39842,15.0979,7.38142,5,-18.5431,-5.3205,1.40792,0.0862042,-0.00268522,62,89,82,85,82,38,78,85,82,81,88,22
-0.090855,8.01335,-0.00505674,-0.114961,-14.03,27.5114,-13.4876,0.00505674,-0.00505674,-0.114961,-13.9955,27.5114,-13.5221,0.00505674,2.82358,15.0441,3.0425,5,5.73968,-7.19855,-5.42358,3.39838,15.0978,7.38151,5,-18.5434,-5.32052,1.40799,0.0862204,-0.00268269,62,89,82,85,82,38,78,85,82,81,88,22
-0.0907715,8.013,-0.00505145,-0.114984,-14.0304,27.5117,-13.4877,0.00505145,-0.00505145,-0.114984,-13.9959,27.5117,-13.5222,0.00505145,2.82344,15.0441,3.04272,5,5.73961,-7.19834,-5.42343,3.39835,15.0977,7.38158,5,-18.5436,-5.32056,1.40806,0.0862376,-0.00267988,62,89,82,85,82,38,78,85,82,81,88,22
-0.0906847,8.01265,-0.00504597,-0.115007,-14.0304,27.5117,-13.4877,0.00504597,-0.00504597,-0.115007,-13.9959,27.5117,-13.5222,0.00504597,2.8233,15.044,3.04295,5,5.73954,-7.19812,-5.42328,3.39833,15.0976,7.38164,5,-18.5438,-5.3206,1.40813,0.0862551,-0.00267698,62,89,82,85,82,38,78,85,82,81,88,22
-0.090595,8.0123,-0.00504024,-0.115031,-14.0304,27.5117,-13.4877,0.00504024,-0.00504024,-0.115031,-13.9959,27.5117,-13.5222,0.00504024,2.82316,15.044,3.04321,5,5.73946,-7.1979,-5.42313,3.39831,15.0975,7.38168,5,-18.5439,-5.32066,1.40821,0.0862729,-0.00267393,62,89,82,85,82,38,78,85,82,81,88,22
-0.0905027,8.01195,-0.00503419,-0.115055,-14.0304,27.5117,-13.4877,0.00503419,-0.00503419,-0.115055,-13.9959,27.5117,-13.5222,0.00503419,2.82302,15.0439,3.04348,5,5.73937,-7.19767,-5.42297,3.3983,15.0973,7.38171,5,-18.5441,-5.32072,1.40828,0.0862913,-0.00267072,62,89,82,85,82,38,78,85,82,81,88,22
-0.0904083,8.0116,-0.00502777,-0.115081,-14.0304,27.5117,-13.4877,0.00502777,-0.00502777,-0.115081,-13.9959,27.5117,-13.5223,0.00502777,2.82289,15.0439,3.04378,5,5.73928,-7.19744,-5.42281,3.39829,15.0972,7.38172,5,-18.5442,-5.32078,1.40836,0.0863106,-0.00266732,62,89,82,85,82,38,78,85,82,81,88,22
-0.0903122,8.01124,-0.00502094,-0.115108,-14.0304,27.5117,-13.4877,0.00502094,-0.00502094,-0.115108,-13.9959,27.5117,-13.5223,0.00502094,2.82275,15.0439,3.04409,5,5.73918,-7.19721,-5.42265,3.39829,15.0971,7.38172,5,-18.5443,-5.32084,1.40843,0.0863307,-0.00266369,62,89,82,85,82,38,78,85,82,81,88,22
-0.0902148,8.01088,-0.00501366,-0.115136,-14.0304,27.5117,-13.4877,0.00501366,-0.00501366,-0.115136,-13.9959,27.5117,-13.5223,0.00501366,2.82261,15.0438,3.04443,5,5.73908,-7.19698,-5.42248,3.39829,15.097,7.3817,5,-18.5444,-5.3209,1.40851,0.0863518,-0.00265983,62,89,82,85,82,38,78,85,82,81,88,22
-0.0901165,8.01052,-0.00500591,-0.115165,-14.0309,27.5121,-13.4878,0.00500591,-0.00500591,-0.115165,-13.9964,27.5121,-13.5224,0.00500591,2.82248,15.0438,3.04478,5,5.73898,-7.19675,-5.4223,3.3983,15.097,7.38166,5,-18.5445,-5.32096,1.40859,0.086374,-0.00265572,62,89,82,85,82,38,78,85,82,81,88,22
-0.0900171,8.01015,-0.00499762,-0.115197,-14.0309,27.5121,-13.4878,0.00499762,-0.00499762,-0.115197,-13.9964,27.5121,-13.5224,0.00499762,2.82233,15.0438,3.04516,5,5.73887,-7.19652,-5.42212,3.39832,15.0969,7.3816,5,-18.5445,-5.32101,1.40866,0.0863975,-0.00265132,62,89,82,85,82,38,78,85,82,81,88,22
-0.0899173,8.00978,-0.0049888,-0.11523,-14.0309,27.5121,-13.4878,0.0049888,-0.0049888,-0.11523,-13.9964,27.5121,-13.5224,0.0049888,2.82219,15.0438,3.04556,5,5.73876,-7.19629,-5.42194,3.39834,15.0968,7.38153,5,-18.5446,-5.32105,1.40874,0.0864223,-0.00264665,62,89,82,85,82,38,78,85,82,81,88,22
-0.0898177,8.0094,-0.00497945,-0.115264,-14.0309,27.5121,-13.4878,0.00497945,-0.00497945,-0.115264,-13.9964,27.5121,-13.5224,0.00497945,2.82204,15.0438,3.04597,5,5.73865,-7.19606,-5.42176,3.39836,15.0967,7.38145,5,-18.5445,-5.32108,1.40882,0.0864483,-0.00264168,62,89,82,85,82,38,78,85,82,81,88,22
-0.0897188,8.00902,-0.00496955,-0.115301,-14.0309,27.5121,-13.4878,0.00496955,-0.00496955,-0.115301,-13.9963,27.5121,-13.5224,0.00496955,2.82189,15.0439,3.0464,5,5.73854,-7.19584,-5.42157,3.3984,15.0966,7.38134,5,-18.5445,-5.32111,1.40889,0.0864755,-0.00263643,62,89,82,85,82,38,78,85,82,81,88,22
-0.0896211,8.00864,-0.00495913,-0.115338,-14.0309,27.5121,-13.4878,0.00495913,-0.00495913,-0.115338,-13.9963,27.5121,-13.5224,0.00495913,2.82174,15.0439,3.04683,5,5.73843,-7.19563,-5.42138,3.39843,15.0965,7.38122,5,-18.5444,-5.32112,1.40897,0.0865038,-0.0026309,62,89,82,85,82,38,78,85,82,81,88,22
-0.0895251,8.00825,-0.00494817,-0.115378,-14.0309,27.5121,-13.4878,0.00494817,-0.00494817,-0.115378,-13.9963,27.5121,-13.5225,0.00494817,2.82159,15.0439,3.04727,5,5.73833,-7.19541,-5.42119,3.39848,15.0964,7.38109,5,-18.5444,-5.32112,1.40905,0.0865332,-0.00262509,62,89,82,85,82,38,78,85,82,81,88,22
-0.0894313,8.00785,-0.00493671,-0.115418,-14.0309,27.5121,-13.4878,0.00493671,-0.00493671,-0.115418,-13.9963,27.5121,-13.5225,0.00493671,2.82144,15.044,3.04771,5,5.73823,-7.19521,-5.421,3.39853,15.0964,7.38094,5,-18.5443,-5.32112,1.40913,0.0865635,-0.00261901,62,89,82,85,82,38,78,85,82,81,88,22
-0.08934,8.00746,-0.00492474,-0.11546,-14.0309,27.5121,-13.4878,0.00492474,-0.00492474,-0.11546,-13.9963,27.5121,-13.5225,0.00492474,2.82129,15.044,3.04815,5,5.73814,-7.19501,-5.42081,3.39859,15.0963,7.38078,5,-18.5441,-5.32109,1.4092,0.0865949,-0.00261266,62,89,82,85,82,38,78,85,82,81,88,22
-0.0892515,8.00707,-0.00491227,-0.115503,-14.0309,27.5121,-13.4878,0.00491227,-0.00491227,-0.115503,-13.9963,27.5121,-13.5225,0.00491227,2.82115,15.0441,3.04859,5,5.73807,-7.19481,-5.42061,3.39866,15.0962,7.3806,5,-18.544,-5.32106,1.40928,0.0866272,-0.00260604,62,89,82,85,82,38,78,85,82,81,88,22
-0.089166,8.00667,-0.00489934,-0.115547,-14.031,27.5121,-13.4878,0.00489934,-0.00489934,-0.115547,-13.9963,27.5121,-13.5225,0.00489934,2.821,15.0442,3.04903,5,5.738,-7.19463,-5.42042,3.39874,15.0961,7.38041,5,-18.5438,-5.32102,1.40936,0.0866603,-0.00259918,62,89,82,85,82,38,78,85,82,81,88,22
-0.0890837,8.00627,-0.00488597,-0.115592,-14.031,27.5121,-13.4878,0.00488597,-0.00488597,-0.115592,-13.9963,27.5121,-13.5225,0.00488597,2.82086,15.0442,3.04946,5,5.73794,-7.19445,-5.42023,3.39882,15.0961,7.3802,5,-18.5437,-5.32096,1.40944,0.0866939,-0.00259209,62,89,82,85,82,38,78,85,82,81,88,22
-0.0890046,8.00586,-0.00487219,-0.115637,-14.031,27.5121,-13.4878,0.00487219,-0.00487219,-0.115637,-13.9963,27.5121,-13.5225,0.00487219,2.82072,15.0443,3.04988,5,5.7379,-7.19428,-5.42005,3.39891,15.096,7.38,5,-18.5435,-5.32089,1.40952,0.086728,-0.00258478,62,89,82,85,82,38,78,85,82,81,88,22
-0.0889288,8.00546,-0.00485803,-0.115683,-14.031,27.5121,-13.4878,0.00485803,-0.00485803,-0.115683,-13.9963,27.5121,-13.5225,0.00485803,2.82058,15.0444,3.05028,5,5.73788,-7.19412,-5.41988,3.399,15.096,7.37978,5,-18.5433,-5.32081,1.40961,0.0867625,-0.00257727,62,89,82,85,82,38,78,85,82,81,88,22
-0.0888564,8.00504,-0.00484353,-0.115729,-14.0314,27.5124,-13.4879,0.00484353,-0.00484353,-0.115729,-13.9967,27.5124,-13.5226,0.00484353,2.82045,15.0445,3.05067,5,5.73787,-7.19398,-5.41971,3.39909,15.0959,7.37956,5,-18.5431,-5.32072,1.4097,0.0867971,-0.00256958,62,89,82,85,82,38,78,85,82,81,88,22
-0.0887881,8.00463,-0.00482862,-0.115775,-14.0314,27.5124,-13.4879,0.00482862,-0.00482862,-0.115775,-13.9966,27.5124,-13.5226,0.00482862,2.82032,15.0446,3.05103,5,5.73789,-7.19384,-5.41956,3.39919,15.0959,7.37934,5,-18.5429,-5.32061,1.40979,0.0868315,-0.00256166,62,89,82,85,82,38,78,85,82,81,88,22
-0.0887235,8.0042,-0.00481338,-0.115821,-14.0314,27.5124,-13.4879,0.00481338,-0.00481338,-0.115821,-13.9966,27.5124,-13.5226,0.00481338,2.82019,15.0448,3.05137,5,5.73792,-7.19373,-5.41942,3.39929,15.0958,7.37913,5,-18.5427,-5.32049,1.40988,0.0868657,-0.00255358,62,89,82,85,82,38,78,85,82,81,88,22
-0.0886625,8.00377,-0.00479789,-0.115866,-14.0314,27.5124,-13.4879,0.00479789,-0.00479789,-0.115866,-13.9966,27.5124,-13.5226,0.00479789,2.82007,15.0449,3.05169,5,5.73797,-7.19362,-5.41929,3.3994,15.0958,7.37891,5,-18.5425,-5.32036,1.40998,0.0868998,-0.00254536,62,89,82,85,82,38,78,85,82,81,88,22
-0.0886046,8.00334,-0.0047822,-0.115912,-14.0314,27.5124,-13.4879,0.0047822,-0.0047822,-0.115912,-13.9966,27.5124,-13.5226,0.0047822,2.81995,15.0451,3.052,5,5.73804,-7.19352,-5.41917,3.39951,15.0958,7.37869,5,-18.5423,-5.32023,1.41008,0.0869338,-0.00253704,62,89,82,85,82,38,78,85,82,81,88,22
-0.0885498,8.00291,-0.0047664,-0.115957,-14.0314,27.5124,-13.4879,0.0047664,-0.0047664,-0.115957,-13.9966,27.5124,-13.5227,0.0047664,2.81983,15.0452,3.05229,5,5.73812,-7.19344,-5.41906,3.39961,15.0958,7.37847,5,-18.5421,-5.32008,1.41019,0.0869677,-0.00252865,62,89,82,85,82,38,78,85,82,81,88,22
-0.0884977,8.00248,-0.00475051,-0.116002,-14.0314,27.5124,-13.4879,0.00475051,-0.00475051,-0.116002,-13.9966,27.5124,-13.5227,0.00475051,2.81971,15.0454,3.05257,5,5.7382,-7.19336,-5.41895,3.39972,15.0958,7.37825,5,-18.5419,-5.31993,1.41029,0.0870015,-0.00252023,62,89,82,85,82,38,78,85,82,81,88,22
-0.0884483,8.00205,-0.0047346,-0.116047,-14.0312,27.5122,-13.4878,0.0047346,-0.0047346,-0.116047,-13.9964,27.5122,-13.5226,0.0047346,2.8196,15.0455,3.05284,5,5.7383,-7.19328,-5.41885,3.39984,15.0958,7.37804,5,-18.5417,-5.31978,1.41039,0.0870351,-0.00251179,62,89,82,85,82,38,78,85,82,81,88,22
-0.0884008,8.00164,-0.00471873,-0.116092,-14.0312,27.5122,-13.4878,0.00471873,-0.00471873,-0.116092,-13.9964,27.5122,-13.5226,0.00471873,2.81949,15.0457,3.05311,5,5.7384,-7.19321,-5.41875,3.39995,15.0958,7.37782,5,-18.5415,-5.31962,1.41049,0.0870691,-0.00250336,62,89,82,85,82,38,78,85,82,81,88,22
-0.0883554,8.00123,-0.0047029,-0.116137,-14.0312,27.5122,-13.4878,0.0047029,-0.0047029,-0.116137,-13.9964,27.5122,-13.5226,0.0047029,2.81937,15.0459,3.05337,5,5.73851,-7.19315,-5.41866,3.40006,15.0958,7.37761,5,-18.5413,-5.31946,1.41059,0.087103,-0.00249497,62,89,82,85,82,38,78,85,82,81,88,22
-0.0883123,8.00082,-0.00468716,-0.116182,-14.0312,27.5122,-13.4878,0.00468716,-0.00468716,-0.116182,-13.9964,27.5122,-13.5226,0.00468716,2.81926,15.046,3.05363,5,5.73862,-7.19308,-5.41856,3.40017,15.0958,7.3774,5,-18.5411,-5.3193,1.41069,0.0871367,-0.00248662,62,89,82,85,82,38,78,85,82,81,88,22
-0.0882716,8.00042,-0.0046715,-0.116226,-14.0312,27.5122,-13.4878,0.0046715,-0.0046715,-0.116226,-13.9963,27.5122,-13.5226,0.0046715,2.81915,15.0462,3.05387,5,5.73873,-7.19303,-5.41848,3.40029,15.0958,7.37719,5,-18.5409,-5.31913,1.41078,0.0871698,-0.00247831,62,89,82,85,82,38,78,85,82,81,88,22
-0.0882336,8.00002,-0.00465596,-0.11627,-14.0312,27.5122,-13.4878,0.00465596,-0.00465596,-0.11627,-13.9963,27.5122,-13.5227,0.00465596,2.81905,15.0464,3.0541,5,5.73886,-7.19298,-5.4184,3.4004,15.0958,7.37698,5,-18.5407,-5.31897,1.41088,0.0872022,-0.00247006,62,89,82,85,82,38,78,85,82,81,88,22
-0.0881984,7.99963,-0.00464053,-0.116311,-14.0312,27.5122,-13.4878,0.00464053,-0.00464053,-0.116311,-13.9963,27.5122,-13.5227,0.00464053,2.81895,15.0466,3.05431,5,5.73899,-7.19294,-5.41833,3.40051,15.0958,7.37678,5,-18.5405,-5.31879,1.41098,0.0872335,-0.00246188,62,89,82,85,82,38,78,85,82,81,88,22
-0.0881659,7.99923,-0.00462521,-0.116352,-14.0312,27.5122,-13.4878,0.00462521,-0.00462521,-0.116352,-13.9963,27.5122,-13.5227,0.00462521,2.81886,15.0467,3.05449,5,5.73913,-7.19291,-5.41827,3.40062,15.0958,7.37658,5,-18.5404,-5.31862,1.41108,0.0872638,-0.00245376,62,89,82,85,82,38,78,85,82,81,88,22
-0.0881367,7.99884,-0.00461016,-0.11639,-14.0312,27.5122,-13.4878,0.00461016,-0.00461016,-0.11639,-13.9963,27.5122,-13.5227,0.00461016,2.81877,15.0469,3.05466,5,5.73929,-7.19289,-5.41823,3.40073,15.0958,7.37639,5,-18.5402,-5.31844,1.41119,0.0872927,-0.00244577,62,89,82,85,82,38,78,85,82,81,88,22
-0.0881104,7.99844,-0.00459529,-0.116427,-14.0312,27.5122,-13.4877,0.00459529,-0.00459529,-0.116427,-13.9963,27.5122,-13.5227,0.00459529,2.8187,15.0471,3.0548,5,5.73945,-7.19289,-5.41821,3.40083,15.0959,7.3762,5,-18.54,-5.31826,1.4113,0.0873201,-0.00243788,62,89,82,85,82,38,78,85,82,81,88,22
-0.0880872,7.99804,-0.00458055,-0.116461,-14.0313,27.5122,-13.4877,0.00458055,-0.00458055,-0.116461,-13.9963,27.5122,-13.5227,0.00458055,2.81863,15.0473,3.05491,5,5.73963,-7.19289,-5.4182,3.40093,15.0959,7.37601,5,-18.5399,-5.31808,1.41142,0.0873461,-0.00243006,62,89,82,85,82,38,78,85,82,81,88,22
-0.0880667,7.99764,-0.00456588,-0.116494,-14.0313,27.5122,-13.4877,0.00456588,-0.00456588,-0.116494,-13.9963,27.5122,-13.5227,0.00456588,2.81856,15.0475,3.05499,5,5.73981,-7.19291,-5.4182,3.40103,15.096,7.37584,5,-18.5398,-5.31789,1.41154,0.0873705,-0.00242228,62,89,82,85,82,38,78,85,82,81,88,22
-0.088049,7.99724,-0.00455126,-0.116524,-14.0313,27.5122,-13.4877,0.00455126,-0.00455126,-0.116524,-13.9963,27.5122,-13.5227,0.00455126,2.81851,15.0477,3.05504,5,5.74001,-7.19294,-5.41821,3.40113,15.096,7.37567,5,-18.5397,-5.31771,1.41166,0.0873933,-0.00241452,62,89,82,85,82,38,78,85,82,81,88,22
-0.088034,7.99683,-0.00453664,-0.116553,-14.0313,27.5122,-13.4877,0.00453664,-0.00453664,-0.116553,-13.9963,27.5122,-13.5227,0.00453664,2.81846,15.0479,3.05506,5,5.74021,-7.19298,-5.41824,3.40123,15.0961,7.37551,5,-18.5396,-5.31752,1.41179,0.0874146,-0.00240676,62,89,82,85,82,38,78,85,82,81,88,22
-0.0880214,7.99642,-0.004522,-0.116579,-14.0297,27.5111,-13.4874,0.004522,-0.004522,-0.116579,-13.9948,27.5111,-13.5224,0.004522,2.81843,15.0481,3.05504,5,5.74043,-7.19302,-5.41828,3.40132,15.0961,7.37536,5,-18.5396,-5.31734,1.41192,0.0874344,-0.002399,62,89,82,85,82,38,78,85,82,81,88,22
-0.0880098,7.99599,-0.00450685,-0.116603,-14.0298,27.5111,-13.4874,0.00450685,-0.00450685,-0.116603,-13.9948,27.5111,-13.5224,0.00450685,2.8184,15.0484,3.05499,5,5.74065,-7.19307,-5.41833,3.40142,15.0962,7.37523,5,-18.5395,-5.31716,1.41205,0.0874522,-0.00239096,62,89,82,85,82,38,78,85,82,81,88,22
-0.0879999,7.99556,-0.00449142,-0.116624,-14.0298,27.5111,-13.4874,0.00449142,-0.00449142,-0.116624,-13.9948,27.5111,-13.5224,0.00449142,2.81839,15.0486,3.0549,5,5.74088,-7.19313,-5.41839,3.40151,15.0962,7.37512,5,-18.5396,-5.31698,1.41219,0.0874683,-0.00238278,62,89,82,85,82,38,78,85,82,81,88,22
-0.0879919,7.99512,-0.00447589,-0.116644,-14.0298,27.5111,-13.4874,0.00447589,-0.00447589,-0.116644,-13.9948,27.5111,-13.5224,0.00447589,2.81838,15.0488,3.05478,5,5.74111,-7.1932,-5.41846,3.4016,15.0963,7.37501,5,-18.5396,-5.31681,1.41233,0.0874828,-0.00237454,62,89,82,85,82,38,78,85,82,81,88,22
-0.0879862,7.99468,-0.00446041,-0.116661,-14.0298,27.5111,-13.4874,0.00446041,-0.00446041,-0.116661,-13.9948,27.5111,-13.5224,0.00446041,2.81838,15.0491,3.05463,5,5.74136,-7.19327,-5.41854,3.40169,15.0964,7.37492,5,-18.5396,-5.31664,1.41247,0.087496,-0.00236632,62,89,82,85,82,38,78,85,82,81,88,22
-0.0879831,7.99424,-0.00444508,-0.116677,-14.0298,27.5111,-13.4874,0.00444508,-0.00444508,-0.116677,-13.9948,27.5111,-13.5224,0.00444508,2.81839,15.0493,3.05445,5,5.7416,-7.19335,-5.41863,3.40178,15.0965,7.37484,5,-18.5397,-5.31647,1.41261,0.0875081,-0.00235819,62,89,82,85,82,38,78,85,82,81,88,22
-0.0879824,7.9938,-0.00442999,-0.116692,-14.0298,27.5111,-13.4873,0.00442999,-0.00442999,-0.116692,-13.9948,27.5111,-13.5224,0.00442999,2.8184,15.0495,3.05425,5,5.74185,-7.19343,-5.41872,3.40186,15.0965,7.37476,5,-18.5398,-5.3163,1.41275,0.0875191,-0.00235019,62,89,82,85,82,38,78,85,82,81,88,22
-0.0879842,7.99337,-0.0044152,-0.116706,-14.0292,27.5107,-13.4872,0.0044152,-0.0044152,-0.116706,-13.9942,27.5107,-13.5222,0.0044152,2.81842,15.0498,3.05404,5,5.74211,-7.19352,-5.41882,3.40195,15.0966,7.37469,5,-18.5399,-5.31613,1.41289,0.0875292,-0.00234234,62,89,82,85,82,38,78,85,82,81,88,22
-0.0879914,7.99295,-0.00440139,-0.116719,-14.0292,27.5107,-13.4872,0.00440139,-0.00440139,-0.116719,-13.9942,27.5107,-13.5222,0.00440139,2.81844,15.05,3.05381,5,5.74237,-7.19362,-5.41892,3.40203,15.0967,7.37463,5,-18.54,-5.31596,1.41302,0.087539,-0.00233501,62,89,82,85,82,38,78,85,82,81,88,22
-0.0880022,7.99253,-0.00438822,-0.116731,-14.0292,27.5107,-13.4872,0.00438822,-0.00438822,-0.116731,-13.9942,27.5107,-13.5222,0.00438822,2.81846,15.0502,3.05358,5,5.74263,-7.19372,-5.41904,3.40211,15.0968,7.37456,5,-18.5401,-5.31579,1.41315,0.0875484,-0.00232802,62,89,82,85,82,38,78,85,82,81,88,22
-0.088015,7.99212,-0.00437538,-0.116743,-14.0292,27.5107,-13.4872,0.00437538,-0.00437538,-0.116743,-13.9942,27.5107,-13.5222,0.00437538,2.81848,15.0504,3.05334,5,5.74289,-7.19383,-5.41915,3.4022,15.0969,7.3745,5,-18.5402,-5.31562,1.41328,0.087557,-0.00232122,62,89,82,85,82,38,78,85,82,81,88,22
-0.0880284,7.99171,-0.00436261,-0.116753,-14.0292,27.5107,-13.4872,0.00436261,-0.00436261,-0.116753,-13.9942,27.5107,-13.5222,0.00436261,2.81851,15.0507,3.05308,5,5.74316,-7.19394,-5.41927,3.40228,15.0969,7.37445,5,-18.5403,-5.31545,1.41342,0.0875648,-0.00231444,62,89,82,85,82,38,78,85,82,81,88,22
-0.0880412,7.99131,-0.00434964,-0.116762,-14.0293,27.5107,-13.4872,0.00434964,-0.00434964,-0.116762,-13.9942,27.5107,-13.5222,0.00434964,2.81854,15.0509,3.05281,5,5.74342,-7.19405,-5.41939,3.40235,15.097,7.37441,5,-18.5404,-5.31529,1.41355,0.0875716,-0.00230756,62,89,82,85,82,38,78,85,82,81,88,22
-0.0880522,7.9909,-0.00433628,-0.11677,-14.0293,27.5107,-13.4872,0.00433628,-0.00433628,-0.11677,-13.9942,27.5107,-13.5222,0.00433628,2.81858,15.0511,3.05253,5,5.74368,-7.19416,-5.4195,3.40243,15.0971,7.37438,5,-18.5405,-5.31514,1.41368,0.0875773,-0.00230047,62,89,82,85,82,38,78,85,82,81,88,22
-0.0880607,7.99049,-0.00432234,-0.116776,-14.0293,27.5107,-13.4872,0.00432234,-0.00432234,-0.116776,-13.9942,27.5107,-13.5222,0.00432234,2.81862,15.0513,3.05223,5,5.74393,-7.19426,-5.41962,3.4025,15.0972,7.37436,5,-18.5407,-5.315,1.41381,0.0875817,-0.00229307,62,89,82,85,82,38,78,85,82,81,88,22
-0.0880647,7.99007,-0.00430756,-0.116779,-14.0293,27.5107,-13.4872,0.00430756,-0.00430756,-0.116779,-13.9942,27.5107,-13.5222,0.00430756,2.81867,15.0516,3.05191,5,5.74418,-7.19435,-5.41974,3.40257,15.0973,7.37435,5,-18.5409,-5.31486,1.41395,0.0875845,-0.00228524,62,89,82,85,82,38,78,85,82,81,88,22
-0.0880642,7.98964,-0.00429187,-0.116781,-14.0293,27.5107,-13.4872,0.00429187,-0.00429187,-0.116781,-13.9942,27.5107,-13.5222,0.00429187,2.81873,15.0518,3.05158,5,5.74442,-7.19443,-5.41986,3.40264,15.0973,7.37436,5,-18.5411,-5.31474,1.41409,0.0875858,-0.00227691,62,89,82,85,82,38,78,85,82,81,88,22
-0.0880591,7.9892,-0.0042752,-0.116781,-14.0293,27.5107,-13.4872,0.0042752,-0.0042752,-0.116781,-13.9942,27.5107,-13.5222,0.0042752,2.8188,15.0521,3.05123,5,5.74466,-7.19451,-5.41997,3.4027,15.0974,7.37437,5,-18.5414,-5.31463,1.41423,0.0875857,-0.00226807,62,89,82,85,82,38,78,85,82,81,88,22
-0.0880492,7.98876,-0.0042575,-0.116779,-14.0293,27.5107,-13.4872,0.0042575,-0.0042575,-0.116779,-13.9943,27.5107,-13.5222,0.0042575,2.81887,15.0523,3.05088,5,5.74488,-7.19458,-5.42008,3.40276,15.0975,7.3744,5,-18.5416,-5.31454,1.41438,0.0875844,-0.00225868,62,89,82,85,82,38,78,85,82,81,88,22
-0.0880347,7.98831,-0.00423875,-0.116776,-14.0293,27.5107,-13.4872,0.00423875,-0.00423875,-0.116776,-13.9943,27.5107,-13.5222,0.00423875,2.81894,15.0526,3.05052,5,5.7451,-7.19464,-5.42019,3.40282,15.0976,7.37444,5,-18.5419,-5.31445,1.41452,0.0875822,-0.00224873,62,89,82,85,82,38,78,85,82,81,88,22
-0.0880156,7.98786,-0.00421892,-0.116772,-14.0293,27.5107,-13.4872,0.00421892,-0.00421892,-0.116772,-13.9943,27.5107,-13.5222,0.00421892,2.81902,15.0529,3.05016,5,5.74531,-7.19469,-5.4203,3.40288,15.0976,7.37448,5,-18.5422,-5.31438,1.41467,0.087579,-0.00223821,62,89,82,85,82,38,78,85,82,81,88,22
-0.0879919,7.9874,-0.00419804,-0.116767,-14.0294,27.5108,-13.4872,0.00419804,-0.00419804,-0.116767,-13.9944,27.5108,-13.5222,0.00419804,2.8191,15.0531,3.04981,5,5.74551,-7.19473,-5.4204,3.40294,15.0977,7.37453,5,-18.5426,-5.31431,1.41482,0.0875751,-0.00222713,62,89,82,85,82,38,78,85,82,81,88,22
-0.0879617,7.98693,-0.00417554,-0.116761,-14.0294,27.5108,-13.4872,0.00417554,-0.00417554,-0.116761,-13.9944,27.5108,-13.5222,0.00417554,2.81919,15.0534,3.04948,5,5.74569,-7.19476,-5.4205,3.403,15.0977,7.37457,5,-18.5429,-5.31426,1.41496,0.0875711,-0.0022152,62,89,82,85,82,38,78,85,82,81,88,22
-0.0879261,7.98646,-0.00415174,-0.116756,-14.0294,27.5108,-13.4872,0.00415174,-0.00415174,-0.116756,-13.9944,27.5108,-13.5222,0.00415174,2.81928,15.0537,3.04916,5,5.74586,-7.19479,-5.42059,3.40305,15.0978,7.37462,5,-18.5432,-5.31422,1.41511,0.0875668,-0.00220257,62,89,82,85,82,38,78,85,82,81,88,22
-0.0878862,7.98598,-0.0041269,-0.11675,-14.0294,27.5108,-13.4872,0.0041269,-0.0041269,-0.11675,-13.9944,27.5108,-13.5222,0.0041269,2.81937,15.054,3.04886,5,5.74601,-7.19481,-5.42067,3.40311,15.0978,7.37466,5,-18.5436,-5.3142,1.41525,0.0875622,-0.00218939,62,89,82,85,82,38,78,85,82,81,88,22
-0.0878431,7.98551,-0.00410128,-0.116743,-14.0295,27.5108,-13.4872,0.00410128,-0.00410128,-0.116743,-13.9944,27.5108,-13.5222,0.00410128,2.81946,15.0543,3.04856,5,5.74616,-7.19482,-5.42076,3.40317,15.0978,7.37471,5,-18.5439,-5.31418,1.41539,0.087557,-0.0021758,62,89,82,85,82,38,78,85,82,81,88,22
-0.0877974,7.98503,-0.00407507,-0.116735,-14.0295,27.5108,-13.4871,0.00407507,-0.00407507,-0.116735,-13.9944,27.5108,-13.5222,0.00407507,2.81955,15.0546,3.04827,5,5.74629,-7.19482,-5.42084,3.40323,15.0979,7.37476,5,-18.5442,-5.31417,1.41553,0.0875513,-0.00216189,62,89,82,85,82,38,78,85,82,81,88,22
-0.0877497,7.98456,-0.00404844,-0.116727,-14.0295,27.5108,-13.4871,0.00404844,-0.00404844,-0.116727,-13.9944,27.5108,-13.5222,0.00404844,2.81965,15.0549,3.04799,5,5.74642,-7.19482,-5.42091,3.40328,15.0979,7.37481,5,-18.5446,-5.31416,1.41567,0.087545,-0.00214777,62,89,82,85,82,38,78,85,82,81,88,22
-0.0877007,7.98409,-0.00402154,-0.116718,-14.0298,27.511,-13.4872,0.00402154,-0.00402154,-0.116718,-13.9948,27.511,-13.5222,0.00402154,2.81975,15.0552,3.04771,5,5.74654,-7.19482,-5.42099,3.40334,15.0979,7.37487,5,-18.545,-5.31416,1.41581,0.0875382,-0.0021335,62,89,82,85,82,38,78,85,82,81,88,22
-0.0876536,7.98362,-0.00399499,-0.116707,-14.0298,27.511,-13.4872,0.00399499,-0.00399499,-0.116707,-13.9948,27.511,-13.5222,0.00399499,2.81985,15.0555,3.04742,5,5.74666,-7.19481,-5.42106,3.40338,15.0979,7.37494,5,-18.5453,-5.31417,1.41595,0.0875302,-0.00211941,62,89,82,85,82,38,78,85,82,81,88,22
-0.0876072,7.98317,-0.0039686,-0.116695,-14.0298,27.511,-13.4872,0.0039686,-0.0039686,-0.116695,-13.9948,27.511,-13.5222,0.0039686,2.81995,15.0558,3.04712,5,5.74678,-7.1948,-5.42114,3.40343,15.0979,7.37502,5,-18.5457,-5.31418,1.41608,0.0875214,-0.00210541,62,89,82,85,82,38,78,85,82,81,88,22
-0.0875603,7.98271,-0.0039422,-0.116683,-14.0298,27.511,-13.4872,0.0039422,-0.0039422,-0.116683,-13.9948,27.511,-13.5222,0.0039422,2.82006,15.0561,3.04684,5,5.74689,-7.19478,-5.42121,3.40347,15.0979,7.3751,5,-18.5461,-5.31419,1.41621,0.0875123,-0.0020914,62,89,82,85,82,38,78,85,82,81,88,22
-0.0875121,7.98227,-0.00391563,-0.116671,-14.0298,27.511,-13.4872,0.00391563,-0.00391563,-0.116671,-13.9948,27.511,-13.5222,0.00391563,2.82016,15.0564,3.04656,5,5.74699,-7.19477,-5.42127,3.40351,15.0979,7.37517,5,-18.5465,-5.31421,1.41634,0.0875031,-0.00207731,62,89,82,85,82,38,78,85,82,81,88,22
-0.0874616,7.98182,-0.00388876,-0.116659,-14.0298,27.511,-13.4872,0.00388876,-0.00388876,-0.116659,-13.9948,27.511,-13.5222,0.00388876,2.82026,15.0567,3.0463,5,5.74709,-7.19475,-5.42134,3.40356,15.0979,7.37525,5,-18.5468,-5.31424,1.41647,0.0874942,-0.00206305,62,89,82,85,82,38,78,85,82,81,88,22
-0.0874083,7.98138,-0.00386146,-0.116648,-14.0298,27.511,-13.4872,0.00386146,-0.00386146,-0.116648,-13.9948,27.511,-13.5222,0.00386146,2.82036,15.057,3.04605,5,5.74717,-7.19472,-5.4214,3.4036,15.0979,7.37531,5,-18.5472,-5.31427,1.41659,0.087486,-0.00204857,62,89,82,85,82,38,78,85,82,81,88,22
-0.0873515,7.98094,-0.00383366,-0.116638,-14.0305,27.5115,-13.4873,0.00383366,-0.00383366,-0.116638,-13.9955,27.5115,-13.5223,0.00383366,2.82046,15.0573,3.04583,5,5.74724,-7.19469,-5.42145,3.40365,15.0979,7.37537,5,-18.5475,-5.3143,1.41671,0.0874786,-0.00203382,62,89,82,85,82,38,78,85,82,81,88,22
-0.0872896,7.9805,-0.00380506,-0.11663,-14.0305,27.5115,-13.4873,0.00380506,-0.00380506,-0.11663,-13.9955,27.5115,-13.5223,0.00380506,2.82055,15.0576,3.04564,5,5.74731,-7.19466,-5.4215,3.4037,15.0979,7.3754,5,-18.5478,-5.31434,1.41683,0.0874724,-0.00201865,62,89,82,85,82,38,78,85,82,81,88,22
-0.087223,7.98006,-0.0037757,-0.116624,-14.0305,27.5115,-13.4873,0.0037757,-0.0037757,-0.116624,-13.9955,27.5115,-13.5223,0.0037757,2.82064,15.0579,3.04548,5,5.74736,-7.19463,-5.42155,3.40376,15.0979,7.37543,5,-18.5481,-5.31438,1.41695,0.0874677,-0.00200307,62,89,82,85,82,38,78,85,82,81,88,22
-0.0871519,7.97962,-0.00374557,-0.116619,-14.0305,27.5115,-13.4873,0.00374557,-0.00374557,-0.116619,-13.9955,27.5115,-13.5223,0.00374557,2.82073,15.0582,3.04536,5,5.74739,-7.19459,-5.42158,3.40382,15.0979,7.37543,5,-18.5484,-5.31443,1.41707,0.0874645,-0.00198709,62,89,82,85,82,38,78,85,82,81,88,22
-0.0870766,7.97918,-0.00371468,-0.116618,-14.0305,27.5115,-13.4873,0.00371468,-0.00371468,-0.116618,-13.9956,27.5115,-13.5223,0.00371468,2.82081,15.0585,3.04527,5,5.74741,-7.19455,-5.42162,3.40389,15.0979,7.37542,5,-18.5487,-5.31449,1.41718,0.0874632,-0.0019707,62,89,82,85,82,38,78,85,82,81,88,22
-0.0869975,7.97875,-0.00368305,-0.116618,-14.0305,27.5115,-13.4873,0.00368305,-0.00368305,-0.116618,-13.9956,27.5115,-13.5223,0.00368305,2.82088,15.0588,3.04522,5,5.74741,-7.1945,-5.42164,3.40397,15.0979,7.3754,5,-18.5489,-5.31455,1.41729,0.0874637,-0.00195392,62,89,82,85,82,38,78,85,82,81,88,22
-0.0869149,7.97831,-0.00365068,-0.116622,-14.0305,27.5115,-13.4873,0.00365068,-0.00365068,-0.116622,-13.9956,27.5115,-13.5223,0.00365068,2.82094,15.0591,3.04522,5,5.7474,-7.19445,-5.42166,3.40405,15.0978,7.37536,5,-18.5491,-5.31462,1.4174,0.0874663,-0.00193674,62,89,82,85,82,38,78,85,82,81,88,22
-0.086829,7.97787,-0.00361758,-0.116628,-14.0306,27.5115,-13.4873,0.00361758,-0.00361758,-0.116628,-13.9956,27.5115,-13.5223,0.00361758,2.821,15.0594,3.04525,5,5.74737,-7.1944,-5.42168,3.40414,15.0978,7.3753,5,-18.5493,-5.31469,1.41751,0.0874711,-0.00191919,62,89,82,85,82,38,78,85,82,81,88,22
-0.0867397,7.97744,-0.00358401,-0.116637,-14.0306,27.5115,-13.4873,0.00358401,-0.00358401,-0.116637,-13.9956,27.5115,-13.5223,0.00358401,2.82105,15.0597,3.04532,5,5.74732,-7.19435,-5.42169,3.40424,15.0978,7.37524,5,-18.5495,-5.31477,1.41762,0.0874778,-0.00190138,62,89,82,85,82,38,78,85,82,81,88,22
-0.0866475,7.97702,-0.00354986,-0.116649,-14.0306,27.5115,-13.4873,0.00354986,-0.00354986,-0.116649,-13.9956,27.5115,-13.5223,0.00354986,2.8211,15.06,3.04544,5,5.74725,-7.19429,-5.42169,3.40434,15.0977,7.37515,5,-18.5496,-5.31485,1.41772,0.0874867,-0.00188326,62,89,82,85,82,38,78,85,82,81,88,22
-0.086553,7.97659,-0.003515,-0.116664,-14.0306,27.5115,-13.4873,0.003515,-0.003515,-0.116664,-13.9956,27.5115,-13.5223,0.003515,2.82113,15.0604,3.0456,5,5.74716,-7.19423,-5.42169,3.40445,15.0977,7.37506,5,-18.5497,-5.31493,1.41782,0.087498,-0.00186477,62,89,82,85,82,38,78,85,82,81,88,22
-0.086457,7.97617,-0.00347938,-0.116683,-14.0306,27.5115,-13.4873,0.00347938,-0.00347938,-0.116683,-13.9956,27.5115,-13.5223,0.00347938,2.82115,15.0607,3.04581,5,5.74706,-7.19417,-5.42169,3.40456,15.0976,7.37495,5,-18.5498,-5.31503,1.41792,0.0875119,-0.00184587,62,89,82,85,82,38,78,85,82,81,88,22
-0.0863598,7.97574,-0.00344292,-0.116705,-14.0306,27.5115,-13.4872,0.00344292,-0.00344292,-0.116705,-13.9956,27.5115,-13.5223,0.00344292,2.82116,15.061,3.04607,5,5.74693,-7.19411,-5.42167,3.40469,15.0976,7.37483,5,-18.5499,-5.31512,1.41801,0.0875286,-0.00182653,62,89,82,85,82,38,78,85,82,81,88,22
-0.0862621,7.97532,-0.0034056,-0.116731,-14.0306,27.5115,-13.4872,0.0034056,-0.0034056,-0.116731,-13.9956,27.5115,-13.5223,0.0034056,2.82116,15.0614,3.04637,5,5.74678,-7.19405,-5.42165,3.40482,15.0975,7.37469,5,-18.5499,-5.31522,1.4181,0.0875482,-0.00180673,62,89,82,85,82,38,78,85,82,81,88,22
-0.0861642,7.97489,-0.00336742,-0.116761,-14.0306,27.5115,-13.4872,0.00336742,-0.00336742,-0.116761,-13.9956,27.5115,-13.5223,0.00336742,2.82115,15.0617,3.04673,5,5.74661,-7.19398,-5.42162,3.40495,15.0974,7.37454,5,-18.5499,-5.31533,1.41818,0.0875707,-0.00178647,62,89,82,85,82,38,78,85,82,81,88,22
-0.0860668,7.97445,-0.00332802,-0.116796,-14.0306,27.5115,-13.4872,0.00332802,-0.00332802,-0.116796,-13.9956,27.5115,-13.5223,0.00332802,2.82111,15.062,3.04714,5,5.74641,-7.19392,-5.42159,3.40509,15.0974,7.37437,5,-18.5499,-5.31544,1.41825,0.0875968,-0.00176557,62,89,82,85,82,38,78,85,82,81,88,22
-0.0859701,7.97401,-0.00328759,-0.116835,-14.0306,27.5115,-13.4872,0.00328759,-0.00328759,-0.116835,-13.9956,27.5115,-13.5223,0.00328759,2.82106,15.0624,3.04761,5,5.74619,-7.19385,-5.42154,3.40524,15.0973,7.37418,5,-18.5499,-5.31555,1.41831,0.0876262,-0.00174412,62,89,82,85,82,38,78,85,82,81,88,22
-0.0858742,7.97356,-0.00324633,-0.116878,-14.0306,27.5115,-13.4872,0.00324633,-0.00324633,-0.116878,-13.9956,27.5115,-13.5223,0.00324633,2.821,15.0627,3.04812,5,5.74595,-7.19379,-5.42148,3.40539,15.0972,7.37398,5,-18.5498,-5.31567,1.41837,0.0876585,-0.00172223,62,89,82,85,82,38,78,85,82,81,88,22
-0.0857794,7.97311,-0.00320439,-0.116924,-14.0307,27.5115,-13.4872,0.00320439,-0.00320439,-0.116924,-13.9956,27.5115,-13.5223,0.00320439,2.82092,15.0631,3.04868,5,5.74569,-7.19372,-5.42142,3.40555,15.0971,7.37377,5,-18.5497,-5.31579,1.41841,0.0876933,-0.00169998,62,89,82,85,82,38,78,85,82,81,88,22
-0.0856858,7.97266,-0.00316193,-0.116974,-14.0307,27.5115,-13.4872,0.00316193,-0.00316193,-0.116974,-13.9956,27.5115,-13.5223,0.00316193,2.82084,15.0635,3.04927,5,5.74542,-7.19366,-5.42135,3.4057,15.097,7.37354,5,-18.5495,-5.31591,1.41846,0.0877304,-0.00167745,62,89,82,85,82,38,78,85,82,81,88,22
-0.0855934,7.97221,-0.00311909,-0.117026,-14.0307,27.5115,-13.4872,0.00311909,-0.00311909,-0.117026,-13.9956,27.5115,-13.5223,0.00311909,2.82074,15.0638,3.04989,5,5.74513,-7.19359,-5.42128,3.40587,15.0969,7.37331,5,-18.5494,-5.31603,1.41849,0.0877693,-0.00165473,62,89,82,85,82,38,78,85,82,81,88,22
-0.0855025,7.97176,-0.00307602,-0.11708,-14.0307,27.5115,-13.4872,0.00307602,-0.00307602,-0.11708,-13.9956,27.5115,-13.5223,0.00307602,2.82063,15.0642,3.05054,5,5.74483,-7.19352,-5.4212,3.40603,15.0968,7.37307,5,-18.5492,-5.31616,1.41852,0.0878099,-0.00163188,62,89,82,85,82,38,78,85,82,81,88,22
-0.0854135,7.97131,-0.00303273,-0.117137,-14.0307,27.5115,-13.4872,0.00303273,-0.00303273,-0.117137,-13.9956,27.5115,-13.5223,0.00303273,2.82052,15.0646,3.0512,5,5.74453,-7.19346,-5.42111,3.4062,15.0967,7.37283,5,-18.5491,-5.31628,1.41855,0.0878524,-0.00160892,62,89,82,85,82,38,78,85,82,81,88,22
-0.0853265,7.97086,-0.00298939,-0.117195,-14.0307,27.5115,-13.4871,0.00298939,-0.00298939,-0.117195,-13.9956,27.5115,-13.5223,0.00298939,2.82039,15.0649,3.05189,5,5.74421,-7.1934,-5.42102,3.40637,15.0966,7.37258,5,-18.5489,-5.3164,1.41857,0.0878963,-0.00158592,62,89,82,85,82,38,78,85,82,81,88,22
-0.085241,7.97042,-0.00294613,-0.117255,-14.0308,27.5115,-13.4871,0.00294613,-0.00294613,-0.117255,-13.9956,27.5115,-13.5223,0.00294613,2.82026,15.0653,3.05258,5,5.7439,-7.19334,-5.42093,3.40654,15.0965,7.37232,5,-18.5487,-5.31653,1.41858,0.0879411,-0.00156297,62,89,82,85,82,38,78,85,82,81,88,22
-0.0851572,7.96998,-0.00290307,-0.117316,-14.0308,27.5115,-13.4871,0.00290307,-0.00290307,-0.117316,-13.9956,27.5115,-13.5223,0.00290307,2.82013,15.0656,3.05329,5,5.74357,-7.19328,-5.42084,3.40671,15.0965,7.37207,5,-18.5485,-5.31665,1.41859,0.0879866,-0.00154013,62,89,82,85,82,38,78,85,82,81,88,22
-0.0850748,7.96955,-0.00286031,-0.117377,-14.0308,27.5115,-13.4871,0.00286031,-0.00286031,-0.117377,-13.9956,27.5115,-13.5223,0.00286031,2.81999,15.066,3.05401,5,5.74324,-7.19322,-5.42074,3.40688,15.0964,7.37181,5,-18.5483,-5.31678,1.4186,0.0880324,-0.00151744,62,89,82,85,82,38,78,85,82,81,88,22
-0.0849939,7.96912,-0.00281795,-0.117438,-14.0308,27.5115,-13.4871,0.00281795,-0.00281795,-0.117438,-13.9956,27.5115,-13.5223,0.00281795,2.81986,15.0664,3.05474,5,5.74291,-7.19315,-5.42064,3.40704,15.0963,7.37155,5,-18.548,-5.3169,1.41861,0.0880783,-0.00149497,62,89,82,85,82,38,78,85,82,81,88,22
-0.0849144,7.9687,-0.00277605,-0.117499,-14.0309,27.5116,-13.4871,0.00277605,-0.00277605,-0.117499,-13.9957,27.5116,-13.5224,0.00277605,2.81971,15.0667,3.05548,5,5.74258,-7.19309,-5.42055,3.40721,15.0962,7.37128,5,-18.5478,-5.31702,1.41861,0.0881242,-0.00147274,62,89,82,85,82,38,78,85,82,81,88,22
-0.0848378,7.96828,-0.00273487,-0.117559,-14.0309,27.5116,-13.4871,0.00273487,-0.00273487,-0.117559,-13.9957,27.5116,-13.5224,0.00273487,2.81958,15.067,3.05622,5,5.74224,-7.19303,-5.42045,3.40737,15.0961,7.37102,5,-18.5476,-5.31715,1.41861,0.088169,-0.00145089,62,89,82,85,82,38,78,85,82,81,88,22
-0.0847634,7.96787,-0.00269435,-0.117618,-14.031,27.5116,-13.4871,0.00269435,-0.00269435,-0.117618,-13.9957,27.5116,-13.5224,0.00269435,2.81944,15.0674,3.05696,5,5.74191,-7.19297,-5.42036,3.40753,15.096,7.37076,5,-18.5474,-5.31727,1.41861,0.0882132,-0.0014294,62,89,82,85,82,38,78,85,82,81,88,22
-0.0846908,7.96747,-0.00265442,-0.117676,-14.031,27.5116,-13.4871,0.00265442,-0.00265442,-0.117676,-13.9957,27.5116,-13.5224,0.00265442,2.8193,15.0677,3.05769,5,5.74157,-7.19291,-5.42026,3.40768,15.0958,7.37051,5,-18.5471,-5.3174,1.41861,0.088257,-0.00140821,62,89,82,85,82,38,78,85,82,81,88,22
-0.0846195,7.96708,-0.00261503,-0.117734,-14.031,27.5116,-13.4871,0.00261503,-0.00261503,-0.117734,-13.9957,27.5116,-13.5224,0.00261503,2.81916,15.068,3.05843,5,5.74124,-7.19285,-5.42017,3.40784,15.0957,7.37025,5,-18.5469,-5.31752,1.41861,0.0883008,-0.00138732,62,89,82,85,82,38,78,85,82,81,88,22
-0.0845493,7.96669,-0.00257613,-0.117793,-14.031,27.5116,-13.4871,0.00257613,-0.00257613,-0.117793,-13.9956,27.5116,-13.5224,0.00257613,2.81902,15.0683,3.05916,5,5.74091,-7.19279,-5.42007,3.40799,15.0956,7.36999,5,-18.5466,-5.31764,1.4186,0.0883447,-0.00136668,62,89,82,85,82,38,78,85,82,81,88,22
-0.0844803,7.96631,-0.00253768,-0.117852,-14.031,27.5116,-13.4871,0.00253768,-0.00253768,-0.117852,-13.9956,27.5116,-13.5224,0.00253768,2.81888,15.0686,3.05989,5,5.74058,-7.19274,-5.41997,3.40814,15.0955,7.36974,5,-18.5464,-5.31776,1.41859,0.088389,-0.00134628,62,89,82,85,82,38,78,85,82,81,88,22
-0.0844125,7.96593,-0.00249962,-0.117912,-14.031,27.5116,-13.4871,0.00249962,-0.00249962,-0.117912,-13.9956,27.5116,-13.5224,0.00249962,2.81873,15.0689,3.06061,5,5.74025,-7.19268,-5.41987,3.40829,15.0955,7.36949,5,-18.5462,-5.31787,1.41858,0.088434,-0.00132609,62,89,82,85,82,38,78,85,82,81,88,22
-0.0843407,7.96557,-0.00246203,-0.117972,-14.031,27.5116,-13.4871,0.00246203,-0.00246203,-0.117972,-13.9956,27.5116,-13.5224,0.00246203,2.81858,15.0692,3.06133,5,5.73992,-7.19263,-5.41977,3.40844,15.0954,7.36924,5,-18.5459,-5.31798,1.41857,0.0884791,-0.00130615,62,89,82,85,82,38,78,85,82,81,88,22
-0.084268,7.96522,-0.0024248,-0.118033,-14.031,27.5116,-13.487,0.0024248,-0.0024248,-0.118033,-13.9956,27.5116,-13.5225,0.0024248,2.81842,15.0696,3.06206,5,5.73959,-7.19259,-5.41966,3.40859,15.0953,7.36899,5,-18.5456,-5.31808,1.41856,0.0885249,-0.0012864,62,89,82,85,82,38,78,85,82,81,88,22
-0.084197,7.96487,-0.00238787,-0.118096,-14.031,27.5116,-13.487,0.00238787,-0.00238787,-0.118096,-13.9956,27.5116,-13.5225,0.00238787,2.81826,15.0699,3.06276,5,5.73927,-7.19254,-5.41955,3.40873,15.0952,7.36875,5,-18.5454,-5.31818,1.41855,0.0885719,-0.00126681,62,89,82,85,82,38,78,85,82,81,88,22
-0.0841302,7.96453,-0.00235118,-0.118161,-14.031,27.5116,-13.487,0.00235118,-0.00235118,-0.118161,-13.9956,27.5116,-13.5225,0.00235118,2.81809,15.0702,3.06344,5,5.73896,-7.1925,-5.41944,3.40889,15.0951,7.36851,5,-18.5451,-5.31828,1.41853,0.0886204,-0.00124734,62,89,82,85,82,38,78,85,82,81,88,22
-0.0840694,7.96418,-0.00231466,-0.118228,-14.0311,27.5116,-13.487,0.00231466,-0.00231466,-0.118228,-13.9956,27.5116,-13.5225,0.00231466,2.81792,15.0705,3.06408,5,5.73867,-7.19247,-5.41933,3.40906,15.0951,7.36827,5,-18.5449,-5.31836,1.41851,0.0886709,-0.00122796,62,89,82,85,82,38,78,85,82,81,88,22
-0.0840163,7.96383,-0.00227828,-0.118298,-14.0311,27.5116,-13.487,0.00227828,-0.00227828,-0.118298,-13.9956,27.5116,-13.5225,0.00227828,2.81774,15.0709,3.06469,5,5.73839,-7.19245,-5.41922,3.40923,15.095,7.36804,5,-18.5446,-5.31844,1.4185,0.0887234,-0.00120866,62,89,82,85,82,38,78,85,82,81,88,22
-0.0839722,7.96348,-0.00224202,-0.118371,-14.0305,27.5113,-13.4869,0.00224202,-0.00224202,-0.118371,-13.995,27.5113,-13.5224,0.00224202,2.81757,15.0712,3.06524,5,5.73814,-7.19243,-5.41912,3.40943,15.095,7.36782,5,-18.5444,-5.31852,1.41847,0.0887783,-0.00118943,62,89,82,85,82,38,78,85,82,81,88,22
-0.0839431,7.96312,-0.00220579,-0.118449,-14.0306,27.5113,-13.4869,0.00220579,-0.00220579,-0.118449,-13.995,27.5113,-13.5224,0.00220579,2.81739,15.0715,3.06573,5,5.73792,-7.19242,-5.41902,3.40964,15.0949,7.3676,5,-18.5443,-5.31858,1.41845,0.0888368,-0.00117021,62,89,82,85,82,38,78,85,82,81,88,22
-0.0839273,7.96275,-0.00216961,-0.118531,-14.0306,27.5113,-13.4869,0.00216961,-0.00216961,-0.118531,-13.995,27.5113,-13.5224,0.00216961,2.81721,15.0719,3.06615,5,5.73773,-7.19243,-5.41894,3.40987,15.0949,7.36739,5,-18.5441,-5.31863,1.41842,0.0888984,-0.00115101,62,89,82,85,82,38,78,85,82,81,88,22
-0.0839232,7.96237,-0.00213351,-0.118617,-14.0306,27.5113,-13.4868,0.00213351,-0.00213351,-0.118617,-13.995,27.5113,-13.5224,0.00213351,2.81703,15.0723,3.06651,5,5.73757,-7.19244,-5.41886,3.41012,15.0949,7.36719,5,-18.544,-5.31868,1.4184,0.0889626,-0.00113186,62,89,82,85,82,38,78,85,82,81,88,22
-0.0839294,7.96198,-0.00209754,-0.118705,-14.0306,27.5113,-13.4868,0.00209754,-0.00209754,-0.118705,-13.995,27.5113,-13.5224,0.00209754,2.81685,15.0726,3.06682,5,5.73744,-7.19246,-5.41878,3.41038,15.0949,7.367,5,-18.5439,-5.31872,1.41837,0.0890289,-0.00111278,62,89,82,85,82,38,78,85,82,81,88,22
-0.0839444,7.96159,-0.00206172,-0.118796,-14.0306,27.5113,-13.4868,0.00206172,-0.00206172,-0.118796,-13.995,27.5113,-13.5224,0.00206172,2.81668,15.073,3.06708,5,5.73732,-7.19248,-5.41871,3.41066,15.0949,7.36681,5,-18.5439,-5.31875,1.41834,0.089097,-0.00109378,62,89,82,85,82,38,78,85,82,81,88,22
-0.0839673,7.9612,-0.00202611,-0.118889,-14.0306,27.5113,-13.4868,0.00202611,-0.00202611,-0.118889,-13.995,27.5113,-13.5225,0.00202611,2.8165,15.0734,3.0673,5,5.73723,-7.19251,-5.41865,3.41094,15.0949,7.36662,5,-18.5438,-5.31878,1.4183,0.0891664,-0.00107489,62,89,82,85,82,38,78,85,82,81,88,22
-0.083997,7.96081,-0.00199075,-0.118982,-14.0304,27.511,-13.4867,0.00199075,-0.00199075,-0.118982,-13.9947,27.511,-13.5224,0.00199075,2.81632,15.0738,3.06748,5,5.73715,-7.19255,-5.41858,3.41124,15.0949,7.36644,5,-18.5438,-5.3188,1.41826,0.0892369,-0.00105613,62,89,82,85,82,38,78,85,82,81,88,22
-0.0840304,7.96042,-0.0019554,-0.119077,-14.0304,27.511,-13.4867,0.0019554,-0.0019554,-0.119077,-13.9947,27.511,-13.5224,0.0019554,2.81615,15.0741,3.06763,5,5.73709,-7.19258,-5.41852,3.41154,15.0949,7.36625,5,-18.5437,-5.31881,1.41823,0.0893075,-0.00103737,62,89,82,85,82,38,78,85,82,81,88,22
-0.0840678,7.96004,-0.00192026,-0.119171,-14.0304,27.511,-13.4867,0.00192026,-0.00192026,-0.119171,-13.9947,27.511,-13.5224,0.00192026,2.81599,15.0745,3.06775,5,5.73704,-7.19262,-5.41846,3.41184,15.0949,7.36606,5,-18.5437,-5.31881,1.41819,0.0893785,-0.00101873,62,89,82,85,82,38,78,85,82,81,88,22
-0.0841098,7.95966,-0.0018855,-0.119266,-14.0304,27.511,-13.4866,0.0018855,-0.0018855,-0.119266,-13.9946,27.511,-13.5224,0.0018855,2.81582,15.0749,3.06784,5,5.737,-7.19266,-5.4184,3.41215,15.0949,7.36588,5,-18.5437,-5.31881,1.41815,0.0894497,-0.00100029,62,89,82,85,82,38,78,85,82,81,88,22
-0.0841566,7.95928,-0.00185126,-0.119362,-14.0304,27.511,-13.4866,0.00185126,-0.00185126,-0.119362,-13.9946,27.511,-13.5224,0.00185126,2.81566,15.0753,3.06791,5,5.73697,-7.19271,-5.41834,3.41247,15.0949,7.3657,5,-18.5437,-5.31881,1.4181,0.0895212,-0.000982122,62,89,82,85,82,38,78,85,82,81,88,22
-0.0842083,7.9589,-0.00181767,-0.119457,-14.0305,27.511,-13.4866,0.00181767,-0.00181767,-0.119457,-13.9946,27.511,-13.5224,0.00181767,2.8155,15.0756,3.06794,5,5.73696,-7.19276,-5.41829,3.41278,15.0949,7.36553,5,-18.5437,-5.3188,1.41806,0.089593,-0.000964303,62,89,82,85,82,38,78,85,82,81,88,22
-0.0842653,7.95852,-0.00178484,-0.119554,-14.0305,27.511,-13.4866,0.00178484,-0.00178484,-0.119554,-13.9946,27.511,-13.5224,0.00178484,2.81534,15.076,3.06795,5,5.73696,-7.19281,-5.41825,3.4131,15.095,7.36537,5,-18.5437,-5.3188,1.41802,0.0896651,-0.000946885,62,89,82,85,82,38,78,85,82,81,88,22
-0.0843274,7.95814,-0.00175285,-0.11965,-14.0305,27.511,-13.4866,0.00175285,-0.00175285,-0.11965,-13.9946,27.511,-13.5225,0.00175285,2.81517,15.0764,3.06794,5,5.73698,-7.19287,-5.41821,3.41342,15.095,7.36523,5,-18.5438,-5.31879,1.41798,0.0897375,-0.000929916,62,89,82,85,82,38,78,85,82,81,88,22
-0.0843955,7.95776,-0.00172205,-0.119747,-14.0305,27.511,-13.4865,0.00172205,-0.00172205,-0.119747,-13.9946,27.511,-13.5225,0.00172205,2.81501,15.0767,3.0679,5,5.73701,-7.19293,-5.41819,3.41375,15.095,7.36511,5,-18.5438,-5.31878,1.41794,0.0898101,-0.000913577,62,89,82,85,82,38,78,85,82,81,88,22
-0.0844693,7.95738,-0.00169235,-0.119844,-14.0306,27.511,-13.4865,0.00169235,-0.00169235,-0.119844,-13.9946,27.511,-13.5225,0.00169235,2.81485,15.0771,3.06783,5,5.73706,-7.193,-5.41817,3.41407,15.0951,7.36501,5,-18.544,-5.31878,1.4179,0.0898829,-0.000897819,62,89,82,85,82,38,78,85,82,81,88,22
-0.0845482,7.957,-0.00166366,-0.119941,-14.0306,27.511,-13.4865,0.00166366,-0.00166366,-0.119941,-13.9946,27.511,-13.5225,0.00166366,2.81468,15.0775,3.06775,5,5.73712,-7.19307,-5.41816,3.41439,15.0951,7.36493,5,-18.5441,-5.31878,1.41786,0.089956,-0.000882601,62,89,82,85,82,38,78,85,82,81,88,22
-0.0846318,7.95662,-0.00163592,-0.120039,-14.0306,27.511,-13.4865,0.00163592,-0.00163592,-0.120039,-13.9946,27.511,-13.5225,0.00163592,2.81452,15.0778,3.06764,5,5.7372,-7.19315,-5.41816,3.41471,15.0952,7.36486,5,-18.5443,-5.31877,1.41782,0.0900292,-0.000867881,62,89,82,85,82,38,78,85,82,81,88,22
-0.0847197,7.95623,-0.00160904,-0.120137,-14.0306,27.511,-13.4865,0.00160904,-0.00160904,-0.120137,-13.9946,27.511,-13.5225,0.00160904,2.81435,15.0782,3.06752,5,5.73728,-7.19323,-5.41817,3.41503,15.0952,7.36481,5,-18.5445,-5.31877,1.41779,0.0901025,-0.000853625,62,89,82,85,82,38,78,85,82,81,88,22
-0.0848115,7.95585,-0.00158298,-0.120235,-14.0306,27.511,-13.4864,0.00158298,-0.00158298,-0.120235,-13.9946,27.511,-13.5225,0.00158298,2.81418,15.0785,3.06738,5,5.73738,-7.19331,-5.41818,3.41535,15.0953,7.36476,5,-18.5448,-5.31878,1.41778,0.090176,-0.000839799,62,89,82,85,82,38,78,85,82,81,88,22
-0.0849067,7.95546,-0.00155768,-0.120333,-14.0303,27.5108,-13.4863,0.00155768,-0.00155768,-0.120333,-13.9942,27.5108,-13.5224,0.00155768,2.814,15.0788,3.06723,5,5.73748,-7.1934,-5.41819,3.41566,15.0954,7.36472,5,-18.5451,-5.31878,1.41777,0.0902494,-0.000826374,62,89,82,85,82,38,78,85,82,81,88,22
-0.0850058,7.95508,-0.00153289,-0.120431,-14.0304,27.5108,-13.4863,0.00153289,-0.00153289,-0.120431,-13.9942,27.5108,-13.5225,0.00153289,2.81382,15.0792,3.06707,5,5.73759,-7.1935,-5.41821,3.41598,15.0954,7.36469,5,-18.5453,-5.31879,1.41778,0.0903235,-0.000813224,62,89,82,85,82,38,78,85,82,81,88,22
-0.085108,7.95469,-0.00150867,-0.12053,-14.0304,27.5108,-13.4863,0.00150867,-0.00150867,-0.12053,-13.9942,27.5108,-13.5225,0.00150867,2.81363,15.0795,3.0669,5,5.7377,-7.1936,-5.41823,3.41629,15.0955,7.36465,5,-18.5456,-5.31879,1.41781,0.0903979,-0.000800375,62,89,82,85,82,38,78,85,82,81,88,22
-0.0852126,7.9543,-0.00148506,-0.120629,-14.0304,27.5108,-13.4863,0.00148506,-0.00148506,-0.120629,-13.9942,27.5108,-13.5225,0.00148506,2.81344,15.0798,3.06672,5,5.73782,-7.1937,-5.41825,3.41659,15.0956,7.36461,5,-18.546,-5.31881,1.41785,0.0904721,-0.000787849,62,89,82,85,82,38,78,85,82,81,88,22
-0.0853189,7.95391,-0.00146209,-0.120728,-14.0304,27.5108,-13.4863,0.00146209,-0.00146209,-0.120728,-13.9942,27.5108,-13.5225,0.00146209,2.81325,15.0801,3.06653,5,5.73794,-7.1938,-5.41828,3.41689,15.0956,7.36458,5,-18.5463,-5.31882,1.4179,0.090546,-0.000775661,62,89,82,85,82,38,78,85,82,81,88,22
-0.0854264,7.95353,-0.00143976,-0.120826,-14.0304,27.5108,-13.4863,0.00143976,-0.00143976,-0.120826,-13.9942,27.5108,-13.5225,0.00143976,2.81306,15.0804,3.06633,5,5.73807,-7.19391,-5.4183,3.41719,15.0957,7.36455,5,-18.5466,-5.31883,1.41796,0.0906193,-0.000763819,62,89,82,85,82,38,78,85,82,81,88,22
-0.0855346,7.95315,-0.0014181,-0.120922,-14.0305,27.5108,-13.4862,0.0014181,-0.0014181,-0.120922,-13.9942,27.5108,-13.5225,0.0014181,2.81287,15.0807,3.06613,5,5.73819,-7.19402,-5.41833,3.41748,15.0958,7.36453,5,-18.547,-5.31885,1.41803,0.0906919,-0.000752327,62,89,82,85,82,38,78,85,82,81,88,22
-0.0856432,7.95277,-0.0013971,-0.121018,-14.0305,27.5109,-13.4862,0.0013971,-0.0013971,-0.121018,-13.9942,27.5109,-13.5225,0.0013971,2.81267,15.081,3.06592,5,5.73832,-7.19413,-5.41836,3.41776,15.0958,7.3645,5,-18.5474,-5.31887,1.4181,0.0907635,-0.000741184,62,89,82,85,82,38,78,85,82,81,88,22
-0.0857489,7.9524,-0.00137689,-0.121112,-14.0306,27.5109,-13.4862,0.00137689,-0.00137689,-0.121112,-13.9942,27.5109,-13.5225,0.00137689,2.81249,15.0813,3.0657,5,5.73846,-7.19424,-5.41839,3.41805,15.0959,7.36447,5,-18.5477,-5.31889,1.41818,0.0908342,-0.000730463,62,89,82,85,82,38,78,85,82,81,88,22
-0.0858529,7.95203,-0.00135738,-0.121205,-14.0306,27.5109,-13.4862,0.00135738,-0.00135738,-0.121205,-13.9942,27.5109,-13.5226,0.00135738,2.8123,15.0816,3.06549,5,5.73859,-7.19435,-5.41842,3.41832,15.096,7.36445,5,-18.5481,-5.31891,1.41825,0.0909039,-0.000720112,62,89,82,85,82,38,78,85,82,81,88,22
-0.0859562,7.95167,-0.00133847,-0.121297,-14.0306,27.5109,-13.4862,0.00133847,-0.00133847,-0.121297,-13.9942,27.5109,-13.5226,0.00133847,2.81211,15.0818,3.06527,5,5.73873,-7.19446,-5.41845,3.4186,15.096,7.36442,5,-18.5484,-5.31894,1.41834,0.0909726,-0.000710081,62,89,82,85,82,38,78,85,82,81,88,22
-0.0860595,7.95132,-0.00132008,-0.121387,-14.0306,27.5109,-13.4862,0.00132008,-0.00132008,-0.121387,-13.9942,27.5109,-13.5226,0.00132008,2.81193,15.0821,3.06504,5,5.73886,-7.19457,-5.41847,3.41886,15.0961,7.36439,5,-18.5488,-5.31896,1.41842,0.0910402,-0.000700322,62,89,82,85,82,38,78,85,82,81,88,22
-0.0861634,7.95097,-0.00130211,-0.121476,-14.0306,27.5109,-13.4861,0.00130211,-0.00130211,-0.121476,-13.9942,27.5109,-13.5226,0.00130211,2.81174,15.0824,3.06482,5,5.73899,-7.19468,-5.41851,3.41912,15.0962,7.36437,5,-18.5492,-5.31899,1.41852,0.0911069,-0.00069079,62,89,82,85,82,38,78,85,82,81,88,22
-0.0862682,7.95063,-0.00128449,-0.121564,-14.0306,27.5109,-13.4861,0.00128449,-0.00128449,-0.121564,-13.9942,27.5109,-13.5226,0.00128449,2.81156,15.0826,3.0646,5,5.73913,-7.19479,-5.41854,3.41938,15.0962,7.36436,5,-18.5496,-5.31901,1.41861,0.0911728,-0.000681443,62,89,82,85,82,38,78,85,82,81,88,22
