565950964-design/kaipule_sdk/control/csv_file/niguolaia.csv
Head_1,Head_2,Joint_1,Joint_2,Joint_3,Joint_4,Joint_5,Joint_6,Joint_7,Joint_8,Joint_9,Joint_10,Joint_11,Joint_12,Joint_13,Joint_14,Joint_15,Joint_16,Joint_17,Joint_18,Joint_19,Joint_20,Joint_21,Joint_22,Joint_23,Joint_24,Joint_25,Joint_26,Joint_27,Joint_28,Finger_1,Finger_2,Finger_3,Finger_4,Finger_5,Finger_6,Finger_7,Finger_8,Finger_9,Finger_10,Finger_11,Finger_12
1.76708,9.87265,-0.20944,-0.377637,-14.3384,27.51,-13.177,0.20944,-0.20944,-0.377637,-14.2251,27.51,-13.2903,0.20944,5.55223,12.7601,4.3988,6.43874,6.26896,-4.95399,-3.17082,7.44041,14.9873,4.67251,5,-21.4784,-3.53054,-3.15597,0.283228,-0.111363,54,64,75,80,74,46,90,73,68,66,73,10
1.76706,9.87267,-0.209433,-0.377641,-14.3384,27.51,-13.177,0.209433,-0.209433,-0.377641,-14.2251,27.51,-13.2903,0.209433,5.55224,12.7601,4.39879,6.43876,6.26897,-4.954,-3.17081,7.44045,14.9873,4.6725,5,-21.4784,-3.53055,-3.15596,0.283231,-0.11136,54,64,75,80,74,46,90,73,68,66,73,10
1.76703,9.87271,-0.209422,-0.377649,-14.3384,27.51,-13.177,0.209422,-0.209422,-0.377649,-14.2251,27.51,-13.2903,0.209422,5.55227,12.7602,4.39877,6.43881,6.26898,-4.95402,-3.17079,7.44051,14.9873,4.67249,5,-21.4783,-3.53057,-3.15595,0.283237,-0.111354,54,64,75,80,74,46,90,73,68,66,73,10
1.76698,9.87278,-0.209407,-0.377659,-14.3384,27.51,-13.177,0.209407,-0.209407,-0.377659,-14.2251,27.51,-13.2903,0.209407,5.55231,12.7603,4.39874,6.43886,6.26899,-4.95404,-3.17076,7.4406,14.9872,4.67247,5,-21.4783,-3.53061,-3.15593,0.283244,-0.111346,54,64,75,80,74,46,90,73,68,66,73,10
1.76692,9.87287,-0.209388,-0.377672,-14.3384,27.51,-13.177,0.209388,-0.209388,-0.377672,-14.2251,27.51,-13.2903,0.209388,5.55236,12.7604,4.39871,6.43894,6.26901,-4.95407,-3.17073,7.44072,14.9871,4.67245,5,-21.4782,-3.53065,-3.15591,0.283254,-0.111336,54,64,75,80,74,46,90,73,68,66,73,10
1.76684,9.87298,-0.209366,-0.377687,-14.3384,27.51,-13.177,0.209366,-0.209366,-0.377687,-14.2251,27.51,-13.2903,0.209366,5.55241,12.7605,4.39869,6.43902,6.26903,-4.9541,-3.17069,7.44085,14.987,4.67242,5,-21.4781,-3.5307,-3.15588,0.283266,-0.111324,54,64,75,80,74,46,90,73,68,66,73,10
1.76674,9.87312,-0.209342,-0.377705,-14.3384,27.51,-13.177,0.209342,-0.209342,-0.377705,-14.2251,27.51,-13.2903,0.209342,5.55247,12.7606,4.39866,6.43912,6.26904,-4.95414,-3.17065,7.44099,14.9869,4.67239,5,-21.478,-3.53077,-3.15586,0.283278,-0.111311,54,64,75,80,74,46,90,73,68,66,73,10
1.76662,9.87329,-0.209316,-0.377723,-14.3391,27.5105,-13.1771,0.209316,-0.209316,-0.377723,-14.2257,27.5105,-13.2904,0.209316,5.55253,12.7608,4.39863,6.43922,6.26905,-4.95419,-3.1706,7.44115,14.9867,4.67235,5,-21.4779,-3.53084,-3.15583,0.283292,-0.111298,54,64,75,80,74,46,90,73,68,66,73,10
1.76647,9.87349,-0.209291,-0.377743,-14.3391,27.5105,-13.1771,0.209291,-0.209291,-0.377743,-14.2257,27.5105,-13.2904,0.209291,5.5526,12.7609,4.39862,6.43933,6.26905,-4.95423,-3.17055,7.44131,14.9866,4.6723,5,-21.4777,-3.53091,-3.1558,0.283307,-0.111284,54,64,75,80,74,46,90,73,68,66,73,10
1.76631,9.87373,-0.209265,-0.377763,-14.3391,27.5105,-13.1771,0.209265,-0.209265,-0.377763,-14.2258,27.5105,-13.2904,0.209265,5.55266,12.761,4.39861,6.43944,6.26905,-4.95428,-3.1705,7.44147,14.9864,4.67225,5,-21.4776,-3.531,-3.15576,0.283322,-0.11127,54,64,75,80,74,46,90,73,68,66,73,10
1.76612,9.87399,-0.209237,-0.377785,-14.3391,27.5105,-13.177,0.209237,-0.209237,-0.377785,-14.2258,27.5105,-13.2904,0.209237,5.55272,12.7612,4.39861,6.43956,6.26905,-4.95433,-3.17044,7.44165,14.9863,4.6722,5,-21.4775,-3.53109,-3.15573,0.283339,-0.111255,54,64,75,80,74,46,90,73,68,66,73,10
1.76592,9.87428,-0.209208,-0.377807,-14.3391,27.5105,-13.177,0.209208,-0.209208,-0.377807,-14.2258,27.5105,-13.2904,0.209208,5.55279,12.7613,4.3986,6.43969,6.26905,-4.95438,-3.17039,7.44183,14.9861,4.67214,5,-21.4773,-3.53118,-3.15569,0.283356,-0.11124,54,64,75,80,74,46,90,73,68,66,73,10
1.76571,9.87458,-0.209177,-0.377831,-14.3391,27.5105,-13.177,0.209177,-0.209177,-0.377831,-14.2258,27.5105,-13.2904,0.209177,5.55287,12.7615,4.39858,6.43982,6.26905,-4.95443,-3.17033,7.44202,14.986,4.67209,5,-21.4771,-3.53128,-3.15566,0.283373,-0.111223,54,64,75,80,74,46,90,73,68,66,73,10
1.76549,9.8749,-0.209143,-0.377856,-14.3391,27.5105,-13.177,0.209143,-0.209143,-0.377856,-14.2258,27.5105,-13.2904,0.209143,5.55295,12.7617,4.39855,6.43996,6.26906,-4.95449,-3.17026,7.44223,14.9858,4.67204,5,-21.477,-3.53137,-3.15561,0.283392,-0.111205,54,64,75,80,74,46,90,73,68,66,73,10
1.76526,9.87522,-0.209107,-0.377883,-14.3385,27.51,-13.1769,0.209107,-0.209107,-0.377883,-14.2252,27.51,-13.2902,0.209107,5.55304,12.7619,4.39851,6.44011,6.26908,-4.95455,-3.1702,7.44245,14.9856,4.67198,5,-21.4768,-3.53147,-3.15557,0.283412,-0.111186,54,64,75,80,74,46,90,73,68,66,73,10
1.76502,9.87556,-0.209066,-0.37791,-14.3386,27.51,-13.1768,0.209066,-0.209066,-0.37791,-14.2252,27.51,-13.2902,0.209066,5.55315,12.7621,4.39845,6.44026,6.26911,-4.95462,-3.17012,7.4427,14.9854,4.67194,5,-21.4766,-3.53156,-3.15552,0.283433,-0.111164,54,64,75,80,74,46,90,73,68,66,73,10
1.76478,9.87589,-0.209021,-0.37794,-14.3386,27.51,-13.1768,0.209021,-0.209021,-0.37794,-14.2252,27.51,-13.2902,0.209021,5.55326,12.7624,4.39837,6.44042,6.26916,-4.95469,-3.17005,7.44296,14.9852,4.67189,5,-21.4765,-3.53165,-3.15548,0.283455,-0.11114,54,64,75,80,74,46,90,73,68,66,73,10
1.76454,9.87624,-0.208972,-0.37797,-14.3386,27.51,-13.1768,0.208972,-0.208972,-0.37797,-14.2252,27.51,-13.2902,0.208972,5.55339,12.7627,4.39826,6.4406,6.26923,-4.95476,-3.16997,7.44324,14.9849,4.67186,5,-21.4763,-3.53174,-3.15542,0.283478,-0.111114,54,64,75,80,74,46,90,73,68,66,73,10
1.76429,9.87659,-0.208919,-0.378003,-14.3386,27.51,-13.1768,0.208919,-0.208919,-0.378003,-14.2252,27.51,-13.2902,0.208919,5.55353,12.763,4.39813,6.44077,6.26931,-4.95483,-3.16988,7.44354,14.9847,4.67183,5,-21.4761,-3.53183,-3.15537,0.283502,-0.111085,54,64,75,80,74,46,90,73,68,66,73,10
1.76403,9.87695,-0.208862,-0.378036,-14.3387,27.51,-13.1768,0.208862,-0.208862,-0.378036,-14.2252,27.51,-13.2902,0.208862,5.55368,12.7633,4.39798,6.44096,6.26942,-4.95491,-3.16979,7.44386,14.9844,4.6718,5,-21.476,-3.53191,-3.15532,0.283527,-0.111055,54,64,75,80,74,46,90,73,68,66,73,10
1.76377,9.87732,-0.208801,-0.378072,-14.3387,27.51,-13.1767,0.208801,-0.208801,-0.378072,-14.2253,27.51,-13.2901,0.208801,5.55384,12.7637,4.3978,6.44115,6.26954,-4.95499,-3.16969,7.4442,14.9841,4.67178,5,-21.4758,-3.53199,-3.15526,0.283554,-0.111022,54,64,75,80,74,46,90,73,68,66,73,10
1.7635,9.8777,-0.208736,-0.378108,-14.338,27.5095,-13.1766,0.208736,-0.208736,-0.378108,-14.2246,27.5095,-13.29,0.208736,5.55401,12.7641,4.3976,6.44135,6.26968,-4.95506,-3.16959,7.44455,14.9838,4.67176,5,-21.4756,-3.53207,-3.15521,0.283581,-0.110988,54,64,75,80,74,46,90,73,68,66,73,10
1.76322,9.87809,-0.208668,-0.378146,-14.338,27.5095,-13.1765,0.208668,-0.208668,-0.378146,-14.2246,27.5095,-13.29,0.208668,5.55418,12.7645,4.39737,6.44156,6.26984,-4.95514,-3.16949,7.44491,14.9835,4.67175,5,-21.4755,-3.53214,-3.15515,0.283609,-0.110951,54,64,75,80,74,46,90,73,68,66,73,10
1.76294,9.87849,-0.208596,-0.378185,-14.3381,27.5095,-13.1765,0.208596,-0.208596,-0.378185,-14.2246,27.5095,-13.29,0.208596,5.55437,12.765,4.39712,6.44177,6.27001,-4.95522,-3.16939,7.44529,14.9832,4.67174,5,-21.4753,-3.53221,-3.15509,0.283639,-0.110913,54,64,75,80,74,46,90,73,68,66,73,10
1.76265,9.8789,-0.20852,-0.378226,-14.3381,27.5095,-13.1765,0.20852,-0.20852,-0.378226,-14.2246,27.5095,-13.2899,0.20852,5.55456,12.7654,4.39684,6.44198,6.27021,-4.9553,-3.16928,7.44569,14.9829,4.67174,5,-21.4752,-3.53228,-3.15504,0.283669,-0.110872,54,64,75,80,74,46,90,73,68,66,73,10
1.76234,9.87934,-0.20844,-0.378268,-14.3381,27.5095,-13.1764,0.20844,-0.20844,-0.378268,-14.2247,27.5095,-13.2899,0.20844,5.55476,12.7659,4.39654,6.4422,6.27043,-4.95538,-3.16916,7.4461,14.9825,4.67173,5,-21.475,-3.53234,-3.15499,0.283701,-0.11083,54,64,75,80,74,46,90,73,68,66,73,10
1.76202,9.8798,-0.208356,-0.378312,-14.3382,27.5095,-13.1764,0.208356,-0.208356,-0.378312,-14.2247,27.5095,-13.2899,0.208356,5.55497,12.7665,4.39622,6.44243,6.27067,-4.95545,-3.16904,7.44653,14.9822,4.67173,5,-21.4749,-3.5324,-3.15494,0.283734,-0.110785,54,64,75,80,74,46,90,73,68,66,73,10
1.76167,9.88028,-0.208268,-0.378357,-14.3382,27.5095,-13.1764,0.208268,-0.208268,-0.378357,-14.2247,27.5095,-13.2899,0.208268,5.55519,12.7671,4.39588,6.44266,6.27094,-4.95553,-3.16891,7.44697,14.9818,4.67173,5,-21.4748,-3.53245,-3.15489,0.283768,-0.110737,54,64,75,80,74,46,90,73,68,66,73,10
1.7613,9.8808,-0.208175,-0.378405,-14.3374,27.509,-13.1762,0.208175,-0.208175,-0.378405,-14.2239,27.509,-13.2897,0.208175,5.55541,12.7677,4.39553,6.44289,6.27122,-4.9556,-3.16878,7.44743,14.9814,4.67172,5,-21.4747,-3.5325,-3.15485,0.283803,-0.110688,54,64,75,80,74,46,90,73,68,66,73,10
1.7609,9.88136,-0.208076,-0.378454,-14.3375,27.509,-13.1761,0.208076,-0.208076,-0.378454,-14.2239,27.509,-13.2897,0.208076,5.55565,12.7683,4.39516,6.44312,6.27153,-4.95567,-3.16865,7.44792,14.981,4.67171,5,-21.4746,-3.53254,-3.15482,0.283841,-0.110635,54,64,75,80,74,46,90,73,68,66,73,10
1.76047,9.88195,-0.207973,-0.378506,-14.3375,27.509,-13.1761,0.207973,-0.207973,-0.378506,-14.2239,27.509,-13.2896,0.207973,5.55589,12.769,4.39477,6.44336,6.27186,-4.95574,-3.1685,7.44842,14.9806,4.67169,5,-21.4745,-3.53258,-3.15479,0.283879,-0.11058,54,64,75,80,74,46,90,73,68,66,73,10
1.76002,9.88258,-0.207866,-0.378559,-14.3375,27.509,-13.1761,0.207866,-0.207866,-0.378559,-14.224,27.509,-13.2896,0.207866,5.55615,12.7697,4.39438,6.4436,6.27222,-4.95581,-3.16835,7.44894,14.9801,4.67166,5,-21.4744,-3.53261,-3.15477,0.283919,-0.110523,54,64,75,80,74,46,90,73,68,66,73,10
1.75954,9.88324,-0.207754,-0.378614,-14.3376,27.509,-13.176,0.207754,-0.207754,-0.378614,-14.224,27.509,-13.2896,0.207754,5.55641,12.7704,4.39398,6.44384,6.27258,-4.95587,-3.1682,7.44948,14.9797,4.67163,5,-21.4743,-3.53263,-3.15475,0.283961,-0.110463,54,64,75,80,74,46,90,73,68,66,73,10
1.75903,9.88393,-0.207639,-0.37867,-14.3376,27.509,-13.176,0.207639,-0.207639,-0.37867,-14.224,27.509,-13.2896,0.207639,5.55668,12.7711,4.39357,6.44408,6.27297,-4.95594,-3.16804,7.45003,14.9792,4.67159,5,-21.4743,-3.53265,-3.15473,0.284003,-0.110402,54,64,75,80,74,46,90,73,68,66,73,10
1.75851,9.88465,-0.20752,-0.378727,-14.3377,27.509,-13.1759,0.20752,-0.20752,-0.378727,-14.224,27.509,-13.2895,0.20752,5.55695,12.7719,4.39317,6.44432,6.27336,-4.956,-3.16787,7.45059,14.9787,4.67153,5,-21.4743,-3.53267,-3.15471,0.284045,-0.110338,54,64,75,80,74,46,90,73,68,66,73,10
1.75797,9.88539,-0.207398,-0.378785,-14.3377,27.509,-13.1759,0.207398,-0.207398,-0.378785,-14.2241,27.509,-13.2895,0.207398,5.55724,12.7727,4.39277,6.44456,6.27377,-4.95607,-3.1677,7.45116,14.9782,4.67147,5,-21.4743,-3.53268,-3.1547,0.284089,-0.110273,54,64,75,80,74,46,90,73,68,66,73,10
1.75741,9.88615,-0.207273,-0.378843,-14.3377,27.509,-13.1758,0.207273,-0.207273,-0.378843,-14.2241,27.509,-13.2895,0.207273,5.55753,12.7735,4.39236,6.4448,6.27419,-4.95613,-3.16751,7.45174,14.9777,4.6714,5,-21.4743,-3.53268,-3.15468,0.284132,-0.110206,54,64,75,80,74,46,90,73,68,66,73,10
1.75684,9.88693,-0.207145,-0.378902,-14.3378,27.509,-13.1758,0.207145,-0.207145,-0.378902,-14.2241,27.509,-13.2895,0.207145,5.55783,12.7744,4.39196,6.44503,6.27462,-4.95619,-3.16733,7.45233,14.9771,4.67132,5,-21.4743,-3.53267,-3.15467,0.284176,-0.110138,54,64,75,80,74,46,90,73,68,66,73,10
1.75625,9.88773,-0.207015,-0.37896,-14.3378,27.509,-13.1758,0.207015,-0.207015,-0.37896,-14.2241,27.509,-13.2894,0.207015,5.55813,12.7752,4.39157,6.44526,6.27505,-4.95625,-3.16714,7.45293,14.9766,4.67123,5,-21.4743,-3.53266,-3.15465,0.28422,-0.110069,54,64,75,80,74,46,90,73,68,66,73,10
1.75565,9.88855,-0.206883,-0.379019,-14.3379,27.509,-13.1757,0.206883,-0.206883,-0.379019,-14.2242,27.509,-13.2894,0.206883,5.55844,12.7761,4.3912,6.44548,6.27548,-4.95631,-3.16694,7.45353,14.976,4.67112,5,-21.4744,-3.53265,-3.15463,0.284265,-0.109998,54,64,75,80,74,46,90,73,68,66,73,10
1.75504,9.88938,-0.206749,-0.379079,-14.3379,27.509,-13.1757,0.206749,-0.206749,-0.379079,-14.2242,27.509,-13.2894,0.206749,5.55875,12.777,4.39085,6.4457,6.27589,-4.95638,-3.16675,7.45414,14.9755,4.67099,5,-21.4744,-3.53264,-3.15461,0.284309,-0.109926,54,64,75,80,74,46,90,73,68,66,73,10
1.75442,9.89022,-0.206613,-0.379139,-14.338,27.509,-13.1756,0.206613,-0.206613,-0.379139,-14.2242,27.509,-13.2894,0.206613,5.55906,12.7778,4.39053,6.4459,6.2763,-4.95645,-3.16655,7.45476,14.9749,4.67083,5,-21.4745,-3.53263,-3.15458,0.284354,-0.109854,54,64,75,80,74,46,90,73,68,66,73,10
1.75379,9.89107,-0.206476,-0.379199,-14.3373,27.5084,-13.1754,0.206476,-0.206476,-0.379199,-14.2235,27.5084,-13.2892,0.206476,5.55938,12.7787,4.39025,6.4461,6.27668,-4.95652,-3.16635,7.45537,14.9743,4.67066,5,-21.4746,-3.53262,-3.15455,0.284399,-0.10978,54,65,75,80,74,46,90,73,68,66,73,10
1.75315,9.89194,-0.206336,-0.37926,-14.3374,27.5084,-13.1754,0.206336,-0.206336,-0.37926,-14.2236,27.5084,-13.2891,0.206336,5.5597,12.7796,4.39001,6.44629,6.27703,-4.9566,-3.16615,7.456,14.9737,4.67044,5,-21.4746,-3.53262,-3.15451,0.284445,-0.109706,54,65,75,80,74,46,90,73,68,66,73,10
1.7525,9.89281,-0.206195,-0.379321,-14.3374,27.5084,-13.1753,0.206195,-0.206195,-0.379321,-14.2236,27.5084,-13.2891,0.206195,5.56002,12.7805,4.38983,6.44646,6.27734,-4.95669,-3.16596,7.45663,14.9731,4.67019,5,-21.4747,-3.53263,-3.15446,0.284491,-0.109631,54,65,75,80,74,46,90,73,68,66,73,10
1.75185,9.89369,-0.206054,-0.379383,-14.3374,27.5084,-13.1753,0.206054,-0.206054,-0.379383,-14.2236,27.5084,-13.2891,0.206054,5.56034,12.7814,4.38968,6.44663,6.27762,-4.95679,-3.16577,7.45725,14.9725,4.66991,5,-21.4748,-3.53264,-3.15441,0.284537,-0.109555,54,65,75,80,74,46,90,73,68,66,73,10
1.75119,9.89457,-0.205911,-0.379445,-14.3375,27.5084,-13.1752,0.205911,-0.205911,-0.379445,-14.2237,27.5084,-13.2891,0.205911,5.56066,12.7823,4.38957,6.44678,6.27788,-4.95689,-3.16558,7.45788,14.9719,4.66961,5,-21.4748,-3.53266,-3.15436,0.284584,-0.109479,54,65,75,80,74,46,90,73,68,66,73,10
1.75053,9.89545,-0.205769,-0.379507,-14.3375,27.5084,-13.1752,0.205769,-0.205769,-0.379507,-14.2237,27.5084,-13.289,0.205769,5.56097,12.7832,4.38949,6.44693,6.27813,-4.95699,-3.16539,7.45851,14.9713,4.66929,5,-21.4749,-3.53267,-3.1543,0.28463,-0.109403,54,65,75,80,74,46,90,73,68,66,73,10
1.74988,9.89634,-0.205627,-0.379568,-14.3376,27.5084,-13.1751,0.205627,-0.205627,-0.379568,-14.2237,27.5084,-13.289,0.205627,5.56129,12.7841,4.38942,6.44707,6.27836,-4.95709,-3.16521,7.45913,14.9707,4.66896,5,-21.475,-3.53269,-3.15423,0.284676,-0.109327,54,65,75,80,74,46,90,73,68,66,73,10
1.74922,9.89722,-0.205486,-0.379629,-14.3375,27.5083,-13.1751,0.205486,-0.205486,-0.379629,-14.2236,27.5083,-13.2889,0.205486,5.5616,12.785,4.38938,6.44721,6.27858,-4.95719,-3.16502,7.45975,14.97,4.66862,5,-21.4751,-3.53272,-3.15417,0.284722,-0.109252,54,65,75,80,74,46,90,73,68,66,73,10
1.74858,9.89809,-0.205347,-0.379689,-14.3375,27.5083,-13.175,0.205347,-0.205347,-0.379689,-14.2236,27.5083,-13.2889,0.205347,5.56191,12.7859,4.38933,6.44735,6.27881,-4.95729,-3.16484,7.46035,14.9694,4.66829,5,-21.4751,-3.53273,-3.15411,0.284767,-0.109178,54,65,75,80,74,46,90,73,68,66,73,10
1.74794,9.89895,-0.205209,-0.379748,-14.3376,27.5083,-13.175,0.205209,-0.205209,-0.379748,-14.2236,27.5083,-13.2889,0.205209,5.56221,12.7867,4.38928,6.44748,6.27904,-4.95739,-3.16465,7.46095,14.9688,4.66795,5,-21.4752,-3.53275,-3.15404,0.284811,-0.109104,54,65,75,80,74,46,90,73,68,66,73,10
1.74732,9.89981,-0.205073,-0.379806,-14.3376,27.5083,-13.1749,0.205073,-0.205073,-0.379806,-14.2237,27.5083,-13.2889,0.205073,5.56251,12.7876,4.38925,6.44761,6.27926,-4.95748,-3.16447,7.46154,14.9682,4.66761,5,-21.4753,-3.53277,-3.15398,0.284854,-0.109031,54,65,75,80,74,46,90,73,68,66,73,10
1.74669,9.90066,-0.204938,-0.379863,-14.3377,27.5083,-13.1749,0.204938,-0.204938,-0.379863,-14.2237,27.5083,-13.2888,0.204938,5.5628,12.7884,4.38924,6.44774,6.27946,-4.95758,-3.16429,7.46212,14.9676,4.66726,5,-21.4754,-3.53279,-3.15391,0.284898,-0.108959,54,65,75,80,74,46,90,73,68,66,73,10
1.74607,9.9015,-0.204804,-0.379921,-14.3377,27.5083,-13.1748,0.204804,-0.204804,-0.379921,-14.2237,27.5083,-13.2888,0.204804,5.56309,12.7893,4.38925,6.44785,6.27964,-4.95768,-3.16412,7.4627,14.967,4.6669,5,-21.4755,-3.53281,-3.15384,0.28494,-0.108888,54,65,75,80,74,46,90,73,68,66,73,10
1.74545,9.90233,-0.204671,-0.379977,-14.3377,27.5083,-13.1748,0.204671,-0.204671,-0.379977,-14.2238,27.5083,-13.2888,0.204671,5.56338,12.7901,4.3893,6.44796,6.27979,-4.95778,-3.16395,7.46327,14.9664,4.66653,5,-21.4756,-3.53284,-3.15377,0.284983,-0.108817,54,65,75,80,74,46,90,73,68,66,73,10
1.74484,9.90315,-0.204539,-0.380034,-14.3378,27.5083,-13.1748,0.204539,-0.204539,-0.380034,-14.2238,27.5083,-13.2888,0.204539,5.56367,12.7909,4.38939,6.44805,6.2799,-4.9579,-3.16379,7.46384,14.9659,4.66613,5,-21.4757,-3.53287,-3.15369,0.285025,-0.108746,54,65,75,80,74,46,90,73,68,66,73,10
1.74423,9.90396,-0.204408,-0.380089,-14.3378,27.5083,-13.1747,0.204408,-0.204408,-0.380089,-14.2238,27.5083,-13.2887,0.204408,5.56395,12.7917,4.38952,6.44813,6.27997,-4.95802,-3.16364,7.4644,14.9653,4.66571,5,-21.4757,-3.53292,-3.15361,0.285067,-0.108676,54,65,75,80,74,46,90,73,68,66,73,10
1.74362,9.90476,-0.204277,-0.380145,-14.3379,27.5083,-13.1747,0.204277,-0.204277,-0.380145,-14.2238,27.5083,-13.2887,0.204277,5.56424,12.7925,4.3897,6.4482,6.28,-4.95815,-3.16349,7.46496,14.9647,4.66527,5,-21.4758,-3.53297,-3.15353,0.285109,-0.108606,54,65,75,80,74,46,90,73,68,66,73,10
1.74301,9.90555,-0.204147,-0.3802,-14.3379,27.5083,-13.1746,0.204147,-0.204147,-0.3802,-14.2239,27.5083,-13.2887,0.204147,5.56452,12.7933,4.38992,6.44825,6.27998,-4.95828,-3.16336,7.46553,14.9641,4.6648,5,-21.4758,-3.53303,-3.15344,0.28515,-0.108537,54,65,75,80,74,46,90,73,68,66,73,10
1.7424,9.90633,-0.204019,-0.380256,-14.338,27.5083,-13.1746,0.204019,-0.204019,-0.380256,-14.2239,27.5083,-13.2887,0.204019,5.5648,12.7941,4.39019,6.44828,6.27991,-4.95843,-3.16324,7.46608,14.9635,4.6643,5,-21.4759,-3.5331,-3.15334,0.285192,-0.108469,54,65,75,80,74,46,90,73,68,66,73,10
1.7418,9.9071,-0.203892,-0.380312,-14.338,27.5083,-13.1745,0.203892,-0.203892,-0.380312,-14.2239,27.5083,-13.2886,0.203892,5.56508,12.7949,4.39051,6.4483,6.27979,-4.95859,-3.16312,7.46664,14.9629,4.66378,5,-21.4759,-3.53318,-3.15325,0.285234,-0.108401,54,65,75,80,74,46,90,73,68,66,73,10
1.7412,9.90785,-0.203767,-0.380369,-14.338,27.5083,-13.1745,0.203767,-0.203767,-0.380369,-14.2239,27.5083,-13.2886,0.203767,5.56534,12.7956,4.39087,6.4483,6.27962,-4.95876,-3.16301,7.46719,14.9623,4.66323,5,-21.4758,-3.53328,-3.15315,0.285277,-0.108334,54,65,75,80,74,46,90,73,68,66,73,10
1.74061,9.90859,-0.203643,-0.380426,-14.338,27.5083,-13.1744,0.203643,-0.203643,-0.380426,-14.2239,27.5083,-13.2886,0.203643,5.5656,12.7964,4.39128,6.44829,6.27941,-4.95894,-3.16291,7.46773,14.9617,4.66265,5,-21.4758,-3.53338,-3.15304,0.28532,-0.108268,54,65,75,80,74,46,90,73,68,66,73,10
1.74003,9.90932,-0.203522,-0.380486,-14.338,27.5083,-13.1744,0.203522,-0.203522,-0.380486,-14.2239,27.5083,-13.2885,0.203522,5.56585,12.7971,4.39173,6.44826,6.27915,-4.95914,-3.16282,7.46828,14.9611,4.66204,5,-21.4757,-3.5335,-3.15294,0.285364,-0.108203,54,65,75,80,74,46,90,73,68,66,73,10
1.73946,9.91004,-0.203403,-0.380547,-14.3381,27.5083,-13.1744,0.203403,-0.203403,-0.380547,-14.2239,27.5083,-13.2885,0.203403,5.56609,12.7978,4.39222,6.44821,6.27883,-4.95934,-3.16274,7.46882,14.9606,4.66139,5,-21.4756,-3.53363,-3.15283,0.28541,-0.108139,54,65,75,80,74,46,90,73,68,66,73,10
1.7389,9.91074,-0.203286,-0.380608,-14.3381,27.5083,-13.1743,0.203286,-0.203286,-0.380608,-14.2239,27.5083,-13.2885,0.203286,5.56631,12.7985,4.39276,6.44814,6.27848,-4.95956,-3.16266,7.46935,14.96,4.66071,5,-21.4754,-3.53376,-3.15272,0.285456,-0.108077,54,65,75,80,74,46,90,73,68,66,73,10
1.73834,9.91143,-0.203171,-0.380671,-14.3382,27.5083,-13.1743,0.203171,-0.203171,-0.380671,-14.224,27.5083,-13.2885,0.203171,5.56653,12.7992,4.39332,6.44806,6.27809,-4.95979,-3.1626,7.46988,14.9595,4.66002,5,-21.4752,-3.53391,-3.1526,0.285503,-0.108016,54,65,75,80,74,46,90,73,68,66,73,10
1.73779,9.9121,-0.203059,-0.380734,-14.3382,27.5083,-13.1742,0.203059,-0.203059,-0.380734,-14.224,27.5083,-13.2885,0.203059,5.56674,12.7998,4.39391,6.44797,6.27766,-4.96003,-3.16254,7.47041,14.959,4.65931,5,-21.4751,-3.53407,-3.15249,0.28555,-0.107956,54,65,75,80,74,46,90,73,68,66,73,10
1.73725,9.91276,-0.202948,-0.380796,-14.3382,27.5083,-13.1742,0.202948,-0.202948,-0.380796,-14.224,27.5083,-13.2884,0.202948,5.56694,12.8005,4.39453,6.44787,6.2772,-4.96027,-3.16248,7.47092,14.9584,4.65859,5,-21.4748,-3.53423,-3.15238,0.285597,-0.107897,54,65,75,80,74,46,90,73,68,66,73,10
1.73672,9.9134,-0.20284,-0.380858,-14.3383,27.5083,-13.1742,0.20284,-0.20284,-0.380858,-14.224,27.5083,-13.2884,0.20284,5.56714,12.8011,4.39516,6.44777,6.27673,-4.96051,-3.16243,7.47143,14.9579,4.65786,5,-21.4746,-3.53439,-3.15226,0.285644,-0.107839,54,65,75,80,74,46,90,73,68,66,73,10
1.73619,9.91404,-0.202734,-0.380919,-14.3383,27.5083,-13.1741,0.202734,-0.202734,-0.380919,-14.224,27.5083,-13.2884,0.202734,5.56734,12.8018,4.3958,6.44765,6.27623,-4.96075,-3.16238,7.47193,14.9574,4.65715,5,-21.4744,-3.53456,-3.15216,0.285689,-0.107782,54,65,75,80,74,46,90,73,68,66,73,10
1.73567,9.91465,-0.20263,-0.380979,-14.3384,27.5083,-13.1741,0.20263,-0.20263,-0.380979,-14.2241,27.5083,-13.2884,0.20263,5.56753,12.8024,4.39646,6.44754,6.27573,-4.961,-3.16233,7.47242,14.9569,4.65644,5,-21.4742,-3.53474,-3.15205,0.285734,-0.107727,54,65,75,80,74,46,90,73,68,66,73,10
1.73516,9.91526,-0.202528,-0.381038,-14.3384,27.5083,-13.1741,0.202528,-0.202528,-0.381038,-14.2241,27.5083,-13.2884,0.202528,5.56772,12.803,4.39712,6.44742,6.27521,-4.96124,-3.16229,7.47291,14.9564,4.65574,5,-21.474,-3.53491,-3.15195,0.285779,-0.107672,54,65,75,80,74,46,90,73,68,66,73,10
1.73465,9.91584,-0.202428,-0.381097,-14.3384,27.5083,-13.174,0.202428,-0.202428,-0.381097,-14.2241,27.5083,-13.2884,0.202428,5.5679,12.8035,4.39779,6.44729,6.27468,-4.96149,-3.16225,7.47338,14.9559,4.65503,5,-21.4738,-3.53509,-3.15184,0.285823,-0.107619,54,65,75,80,74,46,90,73,68,66,73,10
1.73416,9.91641,-0.202331,-0.381156,-14.3385,27.5083,-13.174,0.202331,-0.202331,-0.381156,-14.2241,27.5083,-13.2883,0.202331,5.56807,12.8041,4.39847,6.44716,6.27413,-4.96174,-3.16221,7.47385,14.9555,4.65431,5,-21.4735,-3.53527,-3.15174,0.285867,-0.107567,54,65,75,80,74,46,90,73,68,66,73,10
1.73368,9.91695,-0.202237,-0.381216,-14.3385,27.5083,-13.174,0.202237,-0.202237,-0.381216,-14.2241,27.5083,-13.2883,0.202237,5.56823,12.8047,4.39916,6.44702,6.27357,-4.96199,-3.16218,7.47431,14.955,4.65358,5,-21.4733,-3.53545,-3.15163,0.285912,-0.107517,54,65,75,80,74,46,90,73,68,66,73,10
1.73322,9.91748,-0.202145,-0.381276,-14.339,27.5086,-13.174,0.202145,-0.202145,-0.381276,-14.2246,27.5086,-13.2884,0.202145,5.56838,12.8052,4.39985,6.44688,6.273,-4.96224,-3.16216,7.47476,14.9546,4.65284,5,-21.473,-3.53564,-3.15152,0.285957,-0.107468,54,65,75,80,74,46,90,73,68,66,73,10
1.73278,9.91797,-0.202055,-0.381337,-14.3391,27.5086,-13.174,0.202055,-0.202055,-0.381337,-14.2247,27.5086,-13.2884,0.202055,5.56852,12.8057,4.40056,6.44672,6.27242,-4.9625,-3.16214,7.4752,14.9541,4.65207,5,-21.4727,-3.53582,-3.15141,0.286003,-0.10742,54,65,75,80,74,46,90,73,68,66,73,10
1.73236,9.91845,-0.201969,-0.3814,-14.3391,27.5086,-13.174,0.201969,-0.201969,-0.3814,-14.2247,27.5086,-13.2884,0.201969,5.56863,12.8062,4.40127,6.44656,6.27183,-4.96276,-3.16213,7.47563,14.9537,4.65128,5,-21.4723,-3.53601,-3.15129,0.28605,-0.107374,54,65,75,80,74,46,90,73,68,66,73,10
1.73195,9.91889,-0.201885,-0.381464,-14.3391,27.5086,-13.1739,0.201885,-0.201885,-0.381464,-14.2247,27.5086,-13.2884,0.201885,5.56874,12.8067,4.40198,6.44639,6.27123,-4.96303,-3.16212,7.47606,14.9533,4.65047,5,-21.4719,-3.5362,-3.15117,0.286098,-0.107329,54,65,75,80,74,46,90,73,68,66,73,10
1.73156,9.91932,-0.201803,-0.381529,-14.3391,27.5086,-13.1739,0.201803,-0.201803,-0.381529,-14.2247,27.5086,-13.2884,0.201803,5.56883,12.8072,4.4027,6.44621,6.27062,-4.9633,-3.16213,7.47648,14.9529,4.64964,5,-21.4715,-3.53639,-3.15104,0.286147,-0.107285,54,65,75,80,74,46,90,73,68,66,73,10
1.73119,9.91973,-0.201725,-0.381596,-14.3392,27.5086,-13.1739,0.201725,-0.201725,-0.381596,-14.2247,27.5086,-13.2884,0.201725,5.56891,12.8077,4.40341,6.44603,6.27002,-4.96358,-3.16213,7.47688,14.9525,4.6488,5,-21.4711,-3.53657,-3.15091,0.286197,-0.107243,54,65,75,80,74,46,90,73,68,66,73,10
1.73082,9.92011,-0.201648,-0.381663,-14.3392,27.5086,-13.1738,0.201648,-0.201648,-0.381663,-14.2247,27.5086,-13.2883,0.201648,5.56897,12.8081,4.40411,6.44583,6.26942,-4.96386,-3.16215,7.47728,14.9522,4.64794,5,-21.4706,-3.53676,-3.15078,0.286247,-0.107203,54,65,75,80,74,46,90,73,68,66,73,10
1.73048,9.92048,-0.201575,-0.381732,-14.3392,27.5086,-13.1738,0.201575,-0.201575,-0.381732,-14.2247,27.5086,-13.2883,0.201575,5.56902,12.8086,4.4048,6.44563,6.26883,-4.96414,-3.16216,7.47768,14.9518,4.64707,5,-21.4701,-3.53694,-3.15064,0.286299,-0.107164,54,65,75,80,74,46,90,73,68,66,73,10
1.73014,9.92084,-0.201505,-0.381801,-14.3393,27.5086,-13.1738,0.201505,-0.201505,-0.381801,-14.2247,27.5086,-13.2883,0.201505,5.56906,12.809,4.40548,6.44542,6.26826,-4.96444,-3.16219,7.47806,14.9515,4.64618,5,-21.4696,-3.53712,-3.15051,0.286351,-0.107126,54,65,75,80,74,46,90,73,68,66,73,10
1.72981,9.92118,-0.201437,-0.381872,-14.3393,27.5086,-13.1738,0.201437,-0.201437,-0.381872,-14.2247,27.5086,-13.2883,0.201437,5.56908,12.8094,4.40615,6.44521,6.2677,-4.96473,-3.16222,7.47844,14.9512,4.64529,5,-21.4691,-3.53729,-3.15037,0.286404,-0.10709,54,65,75,80,74,46,90,73,68,66,73,10
1.72949,9.92151,-0.201371,-0.381944,-14.3393,27.5086,-13.1737,0.201371,-0.201371,-0.381944,-14.2247,27.5086,-13.2883,0.201371,5.56909,12.8098,4.4068,6.44498,6.26716,-4.96504,-3.16226,7.47881,14.9509,4.64439,5,-21.4685,-3.53746,-3.15022,0.286458,-0.107055,54,65,75,80,74,46,90,73,68,66,73,10
1.72918,9.92182,-0.201308,-0.382017,-14.3393,27.5086,-13.1737,0.201308,-0.201308,-0.382017,-14.2247,27.5086,-13.2883,0.201308,5.56909,12.8102,4.40742,6.44475,6.26663,-4.96535,-3.1623,7.47918,14.9506,4.64349,5,-21.4679,-3.53762,-3.15007,0.286513,-0.107021,54,65,75,80,74,46,90,73,68,66,73,10
1.72889,9.92211,-0.201247,-0.382091,-14.3394,27.5086,-13.1737,0.201247,-0.201247,-0.382091,-14.2247,27.5086,-13.2883,0.201247,5.56908,12.8105,4.40803,6.44452,6.26613,-4.96566,-3.16234,7.47954,14.9503,4.64258,5,-21.4673,-3.53777,-3.14992,0.286568,-0.106989,54,65,75,80,74,46,90,73,68,66,73,10
1.72861,9.92239,-0.201188,-0.382165,-14.3394,27.5086,-13.1737,0.201188,-0.201188,-0.382165,-14.2247,27.5086,-13.2883,0.201188,5.56906,12.8109,4.40861,6.44428,6.26566,-4.96598,-3.16239,7.47989,14.95,4.64167,5,-21.4667,-3.53792,-3.14976,0.286624,-0.106957,54,65,75,80,74,46,90,73,68,66,73,10
1.72835,9.92266,-0.201131,-0.38224,-14.3393,27.5086,-13.1736,0.201131,-0.201131,-0.38224,-14.2247,27.5086,-13.2883,0.201131,5.56903,12.8112,4.40917,6.44403,6.26522,-4.96631,-3.16243,7.48023,14.9498,4.64077,5,-21.466,-3.53806,-3.1496,0.28668,-0.106927,54,65,75,80,74,46,90,73,68,66,73,10
1.72811,9.92291,-0.201075,-0.382315,-14.3393,27.5086,-13.1736,0.201075,-0.201075,-0.382315,-14.2247,27.5086,-13.2883,0.201075,5.569,12.8116,4.40971,6.44378,6.26479,-4.96663,-3.16248,7.48057,14.9495,4.63987,5,-21.4654,-3.53819,-3.14943,0.286736,-0.106897,54,65,75,80,74,46,90,73,68,66,73,10
1.72788,9.92315,-0.201021,-0.382391,-14.3394,27.5086,-13.1736,0.201021,-0.201021,-0.382391,-14.2247,27.5086,-13.2883,0.201021,5.56895,12.8119,4.41021,6.44353,6.26439,-4.96697,-3.16253,7.4809,14.9493,4.63897,5,-21.4647,-3.53831,-3.14926,0.286793,-0.106868,54,65,75,80,74,46,90,73,68,66,73,10
1.72767,9.92337,-0.200969,-0.382467,-14.3394,27.5086,-13.1736,0.200969,-0.200969,-0.382467,-14.2247,27.5086,-13.2883,0.200969,5.56889,12.8122,4.41069,6.44327,6.26403,-4.9673,-3.16258,7.48123,14.949,4.63808,5,-21.464,-3.53842,-3.14908,0.28685,-0.10684,54,65,75,80,74,46,90,73,68,66,73,10
1.72748,9.92357,-0.200918,-0.382544,-14.3394,27.5086,-13.1735,0.200918,-0.200918,-0.382544,-14.2247,27.5086,-13.2883,0.200918,5.56882,12.8125,4.41115,6.44301,6.26371,-4.96764,-3.16263,7.48155,14.9488,4.63721,5,-21.4633,-3.53852,-3.1489,0.286908,-0.106813,54,65,75,80,74,46,90,73,68,66,73,10
1.7273,9.92376,-0.200868,-0.382623,-14.3394,27.5086,-13.1735,0.200868,-0.200868,-0.382623,-14.2246,27.5086,-13.2883,0.200868,5.56875,12.8128,4.41156,6.44275,6.26342,-4.96799,-3.16267,7.48186,14.9486,4.63636,5,-21.4627,-3.5386,-3.14871,0.286967,-0.106786,54,65,75,80,74,46,90,73,68,66,73,10
1.72714,9.92393,-0.20082,-0.382704,-14.3395,27.5086,-13.1735,0.20082,-0.20082,-0.382704,-14.2246,27.5086,-13.2883,0.20082,5.56866,12.8132,4.41195,6.44249,6.26319,-4.96833,-3.16272,7.48218,14.9484,4.63554,5,-21.462,-3.53867,-3.14851,0.287028,-0.10676,54,65,75,80,74,46,90,73,68,66,73,10
1.727,9.92408,-0.200773,-0.382786,-14.3396,27.5087,-13.1735,0.200773,-0.200773,-0.382786,-14.2248,27.5087,-13.2883,0.200773,5.56856,12.8135,4.4123,6.44222,6.263,-4.96868,-3.16275,7.48249,14.9482,4.63474,5,-21.4613,-3.53871,-3.14831,0.28709,-0.106735,54,65,75,80,74,46,90,73,68,66,73,10
1.72688,9.92423,-0.200728,-0.382871,-14.3396,27.5087,-13.1735,0.200728,-0.200728,-0.382871,-14.2248,27.5087,-13.2883,0.200728,5.56846,12.8138,4.41261,6.44195,6.26287,-4.96903,-3.16279,7.48281,14.948,4.63397,5,-21.4606,-3.53874,-3.14811,0.287153,-0.106711,54,65,75,80,74,46,90,73,68,66,73,10
1.72677,9.92435,-0.200684,-0.382957,-14.3396,27.5087,-13.1735,0.200684,-0.200684,-0.382957,-14.2248,27.5087,-13.2883,0.200684,5.56834,12.8141,4.41288,6.44168,6.26279,-4.96938,-3.16282,7.48312,14.9478,4.63324,5,-21.4599,-3.53875,-3.1479,0.287218,-0.106688,54,65,75,80,74,46,90,73,68,66,73,10
1.72668,9.92446,-0.200641,-0.383046,-14.3397,27.5087,-13.1734,0.200641,-0.200641,-0.383046,-14.2248,27.5087,-13.2883,0.200641,5.56821,12.8143,4.41312,6.44141,6.26277,-4.96973,-3.16284,7.48344,14.9477,4.63254,5,-21.4593,-3.53873,-3.14769,0.287285,-0.106665,54,65,75,80,74,46,90,73,68,66,73,10
1.72662,9.92455,-0.2006,-0.383137,-14.3397,27.5087,-13.1734,0.2006,-0.2006,-0.383137,-14.2247,27.5087,-13.2884,0.2006,5.56807,12.8146,4.41332,6.44115,6.26279,-4.97008,-3.16286,7.48376,14.9475,4.63189,5,-21.4586,-3.5387,-3.14748,0.287353,-0.106643,54,65,75,80,74,46,90,73,68,66,73,10
1.72658,9.92463,-0.200561,-0.383231,-14.3397,27.5087,-13.1734,0.200561,-0.200561,-0.383231,-14.2247,27.5087,-13.2884,0.200561,5.56792,12.8149,4.4135,6.44088,6.26286,-4.97043,-3.16287,7.48408,14.9474,4.63127,5,-21.458,-3.53864,-3.14726,0.287423,-0.106622,54,65,75,80,74,46,90,73,68,66,73,10
1.72656,9.92469,-0.200523,-0.383326,-14.3397,27.5087,-13.1734,0.200523,-0.200523,-0.383326,-14.2247,27.5087,-13.2884,0.200523,5.56777,12.8152,4.41366,6.44062,6.26297,-4.97079,-3.16288,7.4844,14.9472,4.63069,5,-21.4574,-3.53856,-3.14704,0.287495,-0.106602,54,65,75,80,74,46,90,73,68,66,73,10
1.72657,9.92473,-0.200486,-0.383424,-14.3409,27.5095,-13.1736,0.200486,-0.200486,-0.383424,-14.2259,27.5095,-13.2886,0.200486,5.5676,12.8155,4.41379,6.44035,6.26312,-4.97114,-3.16289,7.48472,14.9471,4.63016,5,-21.4568,-3.53847,-3.14682,0.287568,-0.106582,54,65,75,80,74,46,90,73,68,66,73,10
1.72662,9.92475,-0.200451,-0.383526,-14.3409,27.5095,-13.1736,0.200451,-0.200451,-0.383526,-14.2259,27.5095,-13.2886,0.200451,5.56742,12.8158,4.4139,6.44009,6.26331,-4.9715,-3.16289,7.48505,14.947,4.62969,5,-21.4563,-3.53835,-3.14659,0.287645,-0.106564,54,65,75,80,74,46,90,73,68,66,73,10
1.7267,9.92475,-0.200418,-0.38363,-14.3409,27.5095,-13.1735,0.200418,-0.200418,-0.38363,-14.2258,27.5095,-13.2886,0.200418,5.56723,12.816,4.41399,6.43984,6.26353,-4.97187,-3.16288,7.48538,14.947,4.62927,5,-21.4557,-3.53821,-3.14636,0.287723,-0.106546,54,65,75,80,74,46,90,73,68,66,73,10
1.72681,9.92474,-0.200387,-0.383737,-14.341,27.5095,-13.1735,0.200387,-0.200387,-0.383737,-14.2258,27.5095,-13.2886,0.200387,5.56703,12.8163,4.41407,6.43959,6.26378,-4.97223,-3.16287,7.48571,14.9469,4.6289,5,-21.4552,-3.53805,-3.14613,0.287803,-0.106529,54,65,75,80,74,46,90,73,68,66,73,10
1.72695,9.92471,-0.200356,-0.383845,-14.341,27.5095,-13.1735,0.200356,-0.200356,-0.383845,-14.2258,27.5095,-13.2887,0.200356,5.56682,12.8166,4.41414,6.43934,6.26406,-4.9726,-3.16286,7.48604,14.9468,4.62856,5,-21.4547,-3.53787,-3.14589,0.287884,-0.106513,54,65,75,80,74,46,90,73,68,66,73,10
1.72711,9.92467,-0.200327,-0.383953,-14.341,27.5095,-13.1735,0.200327,-0.200327,-0.383953,-14.2258,27.5095,-13.2887,0.200327,5.56661,12.8168,4.41418,6.4391,6.26437,-4.97297,-3.16285,7.48637,14.9468,4.62825,5,-21.4543,-3.53768,-3.14566,0.287965,-0.106497,54,65,75,80,74,46,90,73,68,66,73,10
1.7273,9.92461,-0.200298,-0.384062,-14.341,27.5095,-13.1735,0.200298,-0.200298,-0.384062,-14.2258,27.5095,-13.2887,0.200298,5.56639,12.8171,4.41422,6.43886,6.2647,-4.97333,-3.16283,7.4867,14.9467,4.62797,5,-21.4538,-3.53748,-3.14543,0.288047,-0.106482,54,65,75,80,74,46,90,73,68,66,73,10
1.72752,9.92454,-0.200271,-0.384171,-14.3411,27.5095,-13.1735,0.200271,-0.200271,-0.384171,-14.2258,27.5095,-13.2887,0.200271,5.56618,12.8173,4.41424,6.43862,6.26504,-4.97369,-3.16281,7.48703,14.9467,4.62771,5,-21.4534,-3.53727,-3.1452,0.288128,-0.106467,54,64,75,80,74,46,90,73,68,66,73,10
1.72775,9.92446,-0.200242,-0.384278,-14.3411,27.5095,-13.1734,0.200242,-0.200242,-0.384278,-14.2258,27.5095,-13.2887,0.200242,5.56597,12.8176,4.41424,6.43839,6.26542,-4.97405,-3.16279,7.48735,14.9466,4.62744,5,-21.4529,-3.53706,-3.14498,0.288208,-0.106452,54,64,75,80,74,46,90,73,68,66,73,10
1.72799,9.92438,-0.200214,-0.384383,-14.3411,27.5095,-13.1734,0.200214,-0.200214,-0.384383,-14.2258,27.5095,-13.2887,0.200214,5.56576,12.8178,4.41423,6.43815,6.26581,-4.97441,-3.16277,7.48767,14.9465,4.62717,5,-21.4525,-3.53684,-3.14476,0.288287,-0.106437,54,64,75,80,74,46,90,73,68,66,73,10
1.72826,9.92428,-0.200187,-0.384487,-14.3411,27.5095,-13.1734,0.200187,-0.200187,-0.384487,-14.2258,27.5095,-13.2887,0.200187,5.56555,12.818,4.41421,6.43792,6.26621,-4.97476,-3.16274,7.48798,14.9465,4.62692,5,-21.4521,-3.53662,-3.14455,0.288365,-0.106423,54,64,75,80,74,46,90,73,68,66,73,10
1.72856,9.92417,-0.200161,-0.384591,-14.3412,27.5095,-13.1734,0.200161,-0.200161,-0.384591,-14.2258,27.5095,-13.2887,0.200161,5.56534,12.8183,4.41419,6.43769,6.26662,-4.97511,-3.16271,7.48829,14.9464,4.62669,5,-21.4516,-3.53639,-3.14433,0.288443,-0.106409,54,64,75,80,74,46,90,73,68,66,73,10
1.72888,9.92406,-0.200136,-0.384695,-14.3412,27.5095,-13.1734,0.200136,-0.200136,-0.384695,-14.2258,27.5095,-13.2888,0.200136,5.56513,12.8185,4.41416,6.43747,6.26703,-4.97545,-3.16269,7.4886,14.9464,4.6265,5,-21.4513,-3.53615,-3.14412,0.288521,-0.106395,54,64,75,80,74,46,90,73,68,66,73,10
1.72924,9.92393,-0.200113,-0.3848,-14.3412,27.5095,-13.1733,0.200113,-0.200113,-0.3848,-14.2258,27.5095,-13.2888,0.200113,5.56491,12.8187,4.41413,6.43726,6.26745,-4.97579,-3.16266,7.48891,14.9464,4.62636,5,-21.4509,-3.53591,-3.1439,0.2886,-0.106383,54,64,75,80,74,46,90,73,68,66,73,10
1.72963,9.92379,-0.200092,-0.384906,-14.3415,27.5097,-13.1734,0.200092,-0.200092,-0.384906,-14.226,27.5097,-13.2888,0.200092,5.56468,12.8189,4.4141,6.43705,6.26786,-4.97613,-3.16263,7.48921,14.9464,4.62626,5,-21.4506,-3.53567,-3.14369,0.28868,-0.106372,54,64,75,80,74,46,90,73,68,66,73,10
1.73007,9.92363,-0.200074,-0.385014,-14.3415,27.5097,-13.1733,0.200074,-0.200074,-0.385014,-14.226,27.5097,-13.2889,0.200074,5.56445,12.8191,4.41407,6.43686,6.26826,-4.97646,-3.1626,7.48952,14.9464,4.62624,5,-21.4503,-3.53541,-3.14346,0.288761,-0.106362,54,64,75,80,74,46,90,73,68,66,73,10
1.73056,9.92346,-0.200058,-0.385124,-14.3415,27.5097,-13.1733,0.200058,-0.200058,-0.385124,-14.226,27.5097,-13.2889,0.200058,5.56421,12.8193,4.41406,6.43669,6.26866,-4.97679,-3.16257,7.48983,14.9464,4.62629,5,-21.45,-3.53515,-3.14323,0.288843,-0.106354,54,64,75,80,74,46,90,73,68,66,73,10
1.73108,9.92329,-0.200045,-0.385235,-14.3415,27.5097,-13.1733,0.200045,-0.200045,-0.385235,-14.226,27.5097,-13.2889,0.200045,5.56396,12.8195,4.41405,6.43652,6.26904,-4.97712,-3.16254,7.49014,14.9465,4.6264,5,-21.4498,-3.53488,-3.14299,0.288927,-0.106347,54,64,75,80,74,46,90,73,68,66,73,10
1.73164,9.9231,-0.200035,-0.385348,-14.3415,27.5097,-13.1733,0.200035,-0.200035,-0.385348,-14.2259,27.5097,-13.2889,0.200035,5.5637,12.8197,4.41404,6.43636,6.26941,-4.97744,-3.16251,7.49044,14.9465,4.62657,5,-21.4496,-3.5346,-3.14276,0.289011,-0.106341,54,64,75,80,74,46,90,73,68,66,73,10
1.73222,9.9229,-0.200027,-0.385462,-14.3416,27.5097,-13.1733,0.200027,-0.200027,-0.385462,-14.2259,27.5097,-13.2889,0.200027,5.56344,12.8199,4.41404,6.43621,6.26977,-4.97776,-3.16248,7.49075,14.9466,4.62678,5,-21.4495,-3.53433,-3.14252,0.289097,-0.106337,54,64,75,80,74,46,90,73,68,66,73,10
1.73283,9.9227,-0.200022,-0.385577,-14.3416,27.5097,-13.1733,0.200022,-0.200022,-0.385577,-14.2259,27.5097,-13.2889,0.200022,5.56316,12.8201,4.41404,6.43606,6.27012,-4.97807,-3.16245,7.49105,14.9468,4.62705,5,-21.4494,-3.53405,-3.14229,0.289183,-0.106335,54,64,75,80,74,46,90,73,68,66,73,10
1.73345,9.9225,-0.20002,-0.385693,-14.3421,27.51,-13.1733,0.20002,-0.20002,-0.385693,-14.2264,27.51,-13.289,0.20002,5.56288,12.8202,4.41405,6.43592,6.27046,-4.97837,-3.16241,7.49135,14.9469,4.62735,5,-21.4493,-3.53378,-3.14206,0.28927,-0.106333,54,64,75,80,74,46,90,73,68,66,73,10
1.73409,9.92229,-0.20002,-0.385809,-14.3421,27.51,-13.1733,0.20002,-0.20002,-0.385809,-14.2263,27.51,-13.2891,0.20002,5.5626,12.8204,4.41405,6.43577,6.27078,-4.97867,-3.16237,7.49164,14.9471,4.62768,5,-21.4492,-3.5335,-3.14184,0.289357,-0.106334,54,64,75,80,74,46,90,73,68,66,73,10
1.73474,9.92208,-0.200024,-0.385926,-14.3421,27.51,-13.1733,0.200024,-0.200024,-0.385926,-14.2263,27.51,-13.2891,0.200024,5.5623,12.8206,4.41405,6.43563,6.27109,-4.97896,-3.16232,7.49193,14.9473,4.62805,5,-21.4492,-3.53323,-3.14163,0.289444,-0.106336,54,64,75,80,74,46,90,73,68,66,73,10
1.7354,9.92186,-0.200029,-0.386043,-14.3421,27.51,-13.1733,0.200029,-0.200029,-0.386043,-14.2263,27.51,-13.2891,0.200029,5.56201,12.8207,4.41405,6.43549,6.27138,-4.97925,-3.16227,7.49222,14.9475,4.62845,5,-21.4492,-3.53296,-3.14142,0.289532,-0.106338,54,64,75,80,74,46,90,73,68,66,73,10
1.73607,9.92165,-0.200037,-0.386159,-14.3421,27.51,-13.1733,0.200037,-0.200037,-0.386159,-14.2263,27.51,-13.2891,0.200037,5.5617,12.8209,4.41405,6.43535,6.27167,-4.97953,-3.16222,7.4925,14.9478,4.62886,5,-21.4492,-3.5327,-3.14122,0.289619,-0.106343,54,64,75,80,74,46,90,73,68,66,73,10
1.73674,9.92143,-0.200046,-0.386276,-14.3421,27.51,-13.1732,0.200046,-0.200046,-0.386276,-14.2263,27.51,-13.2891,0.200046,5.5614,12.8211,4.41405,6.43521,6.27194,-4.9798,-3.16217,7.49278,14.948,4.6293,5,-21.4492,-3.53243,-3.14103,0.289707,-0.106347,54,64,75,80,74,46,90,73,68,66,73,10
1.73742,9.92121,-0.200056,-0.386391,-14.3422,27.51,-13.1732,0.200056,-0.200056,-0.386391,-14.2262,27.51,-13.2892,0.200056,5.5611,12.8212,4.41405,6.43507,6.2722,-4.98007,-3.16211,7.49305,14.9483,4.62976,5,-21.4492,-3.53217,-3.14084,0.289794,-0.106353,54,64,75,80,74,46,90,73,68,66,73,10
1.73811,9.92099,-0.200068,-0.386506,-14.3424,27.5102,-13.1733,0.200068,-0.200068,-0.386506,-14.2264,27.5102,-13.2892,0.200068,5.56079,12.8213,4.41406,6.43494,6.27245,-4.98032,-3.16206,7.49332,14.9485,4.63023,5,-21.4493,-3.53191,-3.14066,0.28988,-0.106359,54,64,75,80,74,46,90,73,68,66,73,10
1.7388,9.92077,-0.20008,-0.386621,-14.3424,27.5102,-13.1732,0.20008,-0.20008,-0.386621,-14.2264,27.5102,-13.2892,0.20008,5.56049,12.8215,4.41407,6.43482,6.2727,-4.98058,-3.162,7.49359,14.9488,4.63071,5,-21.4493,-3.53165,-3.14049,0.289966,-0.106366,54,64,75,80,74,46,90,73,68,66,73,10
1.7395,9.92055,-0.200092,-0.386734,-14.3424,27.5102,-13.1732,0.200092,-0.200092,-0.386734,-14.2264,27.5102,-13.2892,0.200092,5.56018,12.8216,4.41409,6.4347,6.27293,-4.98082,-3.16194,7.49385,14.9491,4.6312,5,-21.4494,-3.53139,-3.14032,0.290051,-0.106372,54,64,75,80,74,46,90,73,68,66,73,10
1.7402,9.92032,-0.200105,-0.386846,-14.3424,27.5102,-13.1732,0.200105,-0.200105,-0.386846,-14.2263,27.5102,-13.2893,0.200105,5.55988,12.8217,4.41411,6.43459,6.27316,-4.98106,-3.16188,7.49411,14.9493,4.63169,5,-21.4494,-3.53113,-3.14015,0.290135,-0.106379,54,64,75,80,74,46,90,73,68,66,73,10
1.7409,9.9201,-0.200119,-0.386957,-14.3424,27.5102,-13.1732,0.200119,-0.200119,-0.386957,-14.2263,27.5102,-13.2893,0.200119,5.55958,12.8219,4.41413,6.43447,6.27338,-4.98129,-3.16182,7.49437,14.9496,4.63219,5,-21.4495,-3.53088,-3.13999,0.290218,-0.106387,54,64,75,80,74,46,90,73,68,66,73,10
1.74159,9.91987,-0.200134,-0.387066,-14.3424,27.5102,-13.1732,0.200134,-0.200134,-0.387066,-14.2263,27.5102,-13.2893,0.200134,5.55929,12.822,4.41415,6.43436,6.27358,-4.98152,-3.16176,7.49462,14.9499,4.6327,5,-21.4496,-3.53064,-3.13984,0.290299,-0.106395,54,64,75,80,74,46,90,73,68,66,73,10
1.74229,9.91965,-0.200151,-0.387173,-14.3424,27.5102,-13.1732,0.200151,-0.200151,-0.387173,-14.2263,27.5102,-13.2893,0.200151,5.55899,12.8221,4.41416,6.43425,6.27378,-4.98174,-3.16169,7.49486,14.9502,4.63321,5,-21.4497,-3.5304,-3.13969,0.29038,-0.106403,54,64,75,80,74,46,90,73,68,66,73,10
1.74298,9.91943,-0.200168,-0.387279,-14.3431,27.5106,-13.1733,0.200168,-0.200168,-0.387279,-14.2269,27.5106,-13.2895,0.200168,5.5587,12.8222,4.41416,6.43413,6.27397,-4.98195,-3.16163,7.49509,14.9505,4.63372,5,-21.4498,-3.53017,-3.13955,0.290459,-0.106413,54,64,75,80,74,46,90,73,68,66,73,10
1.74366,9.91921,-0.200188,-0.387382,-14.3431,27.5106,-13.1733,0.200188,-0.200188,-0.387382,-14.2269,27.5106,-13.2895,0.200188,5.5584,12.8223,4.41416,6.43401,6.27416,-4.98217,-3.16157,7.49531,14.9508,4.63423,5,-21.4499,-3.52995,-3.13941,0.290537,-0.106423,54,64,75,80,74,46,90,73,68,66,73,10
1.74433,9.91899,-0.20021,-0.387483,-14.3431,27.5106,-13.1733,0.20021,-0.20021,-0.387483,-14.2269,27.5106,-13.2895,0.20021,5.55811,12.8224,4.41414,6.43388,6.27433,-4.98238,-3.16151,7.49552,14.9511,4.63475,5,-21.45,-3.52974,-3.13929,0.290612,-0.106435,54,64,75,80,74,46,90,73,68,66,73,10
1.745,9.91877,-0.200233,-0.387582,-14.3432,27.5106,-13.1733,0.200233,-0.200233,-0.387582,-14.2269,27.5106,-13.2895,0.200233,5.55782,12.8225,4.41412,6.43375,6.27449,-4.98258,-3.16144,7.49573,14.9515,4.63527,5,-21.4501,-3.52954,-3.13916,0.290687,-0.106447,54,64,75,80,74,46,90,73,68,66,73,10
1.74566,9.91856,-0.200258,-0.387679,-14.3432,27.5106,-13.1732,0.200258,-0.200258,-0.387679,-14.2269,27.5106,-13.2895,0.200258,5.55753,12.8226,4.41408,6.43362,6.27465,-4.98278,-3.16138,7.49592,14.9519,4.63578,5,-21.4502,-3.52935,-3.13904,0.290759,-0.106461,54,64,75,80,74,46,90,73,68,66,73,10
1.74631,9.91835,-0.200285,-0.387774,-14.3432,27.5106,-13.1732,0.200285,-0.200285,-0.387774,-14.2268,27.5106,-13.2896,0.200285,5.55724,12.8227,4.41403,6.43348,6.2748,-4.98297,-3.16132,7.49611,14.9522,4.63629,5,-21.4503,-3.52918,-3.13892,0.29083,-0.106475,54,64,75,80,74,46,90,73,68,66,73,10
1.74696,9.91814,-0.200313,-0.387866,-14.3432,27.5106,-13.1732,0.200313,-0.200313,-0.387866,-14.2268,27.5106,-13.2896,0.200313,5.55695,12.8228,4.41397,6.43333,6.27495,-4.98316,-3.16125,7.49628,14.9526,4.6368,5,-21.4504,-3.52901,-3.13881,0.2909,-0.10649,54,64,75,80,74,46,90,73,68,66,73,10
1.74759,9.91794,-0.200342,-0.387956,-14.3428,27.5104,-13.1731,0.200342,-0.200342,-0.387956,-14.2265,27.5104,-13.2895,0.200342,5.55667,12.8229,4.4139,6.43318,6.27508,-4.98335,-3.16119,7.49645,14.953,4.63731,5,-21.4505,-3.52885,-3.1387,0.290967,-0.106506,54,64,75,80,74,46,91,73,68,66,73,10
1.74822,9.91774,-0.200372,-0.388045,-14.3429,27.5104,-13.1731,0.200372,-0.200372,-0.388045,-14.2264,27.5104,-13.2895,0.200372,5.55639,12.823,4.41382,6.43302,6.27521,-4.98353,-3.16113,7.49662,14.9535,4.63781,5,-21.4507,-3.52871,-3.13859,0.291033,-0.106522,54,64,75,80,74,46,91,73,68,66,73,10
1.74883,9.91754,-0.200403,-0.388131,-14.3429,27.5104,-13.1731,0.200403,-0.200403,-0.388131,-14.2264,27.5104,-13.2896,0.200403,5.55612,12.8231,4.41373,6.43286,6.27534,-4.9837,-3.16108,7.49677,14.9539,4.63831,5,-21.4508,-3.52858,-3.13849,0.291098,-0.106538,54,64,75,80,74,46,91,73,68,66,73,10
1.74944,9.91734,-0.200435,-0.388215,-14.3429,27.5104,-13.1731,0.200435,-0.200435,-0.388215,-14.2264,27.5104,-13.2896,0.200435,5.55584,12.8232,4.41362,6.43269,6.27546,-4.98387,-3.16102,7.49692,14.9543,4.6388,5,-21.4509,-3.52847,-3.13838,0.291161,-0.106555,54,64,75,80,74,46,91,73,68,66,73,10
1.75004,9.91715,-0.200468,-0.388297,-14.3429,27.5104,-13.1731,0.200468,-0.200468,-0.388297,-14.2264,27.5104,-13.2896,0.200468,5.55558,12.8233,4.41351,6.43252,6.27558,-4.98403,-3.16096,7.49706,14.9547,4.63928,5,-21.4511,-3.52836,-3.13828,0.291222,-0.106573,54,64,75,80,74,46,91,73,68,66,73,10
1.75062,9.91696,-0.200504,-0.388375,-14.3429,27.5104,-13.1731,0.200504,-0.200504,-0.388375,-14.2264,27.5104,-13.2896,0.200504,5.55531,12.8234,4.4134,6.43233,6.27569,-4.9842,-3.16091,7.49719,14.9552,4.63975,5,-21.4512,-3.52825,-3.13817,0.291281,-0.106592,54,64,75,80,74,46,91,73,68,66,73,10
1.7512,9.91678,-0.200542,-0.388451,-14.3429,27.5104,-13.1731,0.200542,-0.200542,-0.388451,-14.2264,27.5104,-13.2896,0.200542,5.55505,12.8234,4.41327,6.43214,6.2758,-4.98436,-3.16085,7.49731,14.9557,4.64022,5,-21.4513,-3.52816,-3.13805,0.291338,-0.106612,54,64,75,80,74,46,91,73,68,66,73,10
1.75176,9.91659,-0.200582,-0.388524,-14.3435,27.5108,-13.1732,0.200582,-0.200582,-0.388524,-14.227,27.5108,-13.2898,0.200582,5.5548,12.8235,4.41315,6.43194,6.27591,-4.98453,-3.1608,7.49742,14.9562,4.64068,5,-21.4515,-3.52806,-3.13794,0.291393,-0.106634,54,64,75,80,74,46,91,73,68,66,73,9
1.75232,9.91642,-0.200627,-0.388593,-14.3435,27.5108,-13.1732,0.200627,-0.200627,-0.388593,-14.2269,27.5108,-13.2898,0.200627,5.55455,12.8235,4.41303,6.43171,6.27602,-4.98471,-3.16074,7.49751,14.9567,4.64112,5,-21.4516,-3.52797,-3.13781,0.291445,-0.106658,54,64,75,80,74,46,91,73,68,66,73,9
1.75286,9.91624,-0.200675,-0.388659,-14.3435,27.5108,-13.1732,0.200675,-0.200675,-0.388659,-14.2269,27.5108,-13.2898,0.200675,5.5543,12.8236,4.41291,6.43148,6.27614,-4.98489,-3.16068,7.49759,14.9572,4.64156,5,-21.4518,-3.52787,-3.13767,0.291494,-0.106683,54,64,75,80,74,46,91,73,68,66,73,9
1.7534,9.91607,-0.200726,-0.388721,-14.3435,27.5108,-13.1732,0.200726,-0.200726,-0.388721,-14.2269,27.5108,-13.2898,0.200726,5.55405,12.8236,4.41279,6.43123,6.27625,-4.98508,-3.16062,7.49766,14.9578,4.64199,5,-21.452,-3.52777,-3.13753,0.291541,-0.10671,54,64,75,80,74,46,91,73,68,66,73,9
1.75391,9.9159,-0.200779,-0.388781,-14.3435,27.5108,-13.1732,0.200779,-0.200779,-0.388781,-14.2269,27.5108,-13.2898,0.200779,5.55382,12.8236,4.41267,6.43098,6.27636,-4.98526,-3.16056,7.49772,14.9584,4.6424,5,-21.4521,-3.52767,-3.13739,0.291586,-0.106739,54,64,75,80,74,46,91,73,68,66,73,9
1.75441,9.91573,-0.200834,-0.388838,-14.3435,27.5108,-13.1732,0.200834,-0.200834,-0.388838,-14.2269,27.5108,-13.2899,0.200834,5.55358,12.8236,4.41255,6.43071,6.27647,-4.98546,-3.1605,7.49777,14.959,4.64281,5,-21.4523,-3.52758,-3.13724,0.291628,-0.106768,54,64,75,80,74,46,91,73,68,66,73,9
1.75489,9.91556,-0.20089,-0.388892,-14.3435,27.5108,-13.1732,0.20089,-0.20089,-0.388892,-14.2269,27.5108,-13.2899,0.20089,5.55336,12.8237,4.41243,6.43044,6.27658,-4.98565,-3.16044,7.49782,14.9596,4.6432,5,-21.4524,-3.52749,-3.13708,0.291669,-0.106798,54,64,75,80,74,46,91,73,68,66,73,9
1.75535,9.91538,-0.200947,-0.388944,-14.3422,27.5099,-13.1729,0.200947,-0.200947,-0.388944,-14.2256,27.5099,-13.2896,0.200947,5.55314,12.8237,4.41231,6.43017,6.27669,-4.98584,-3.16038,7.49786,14.9602,4.64359,5,-21.4526,-3.5274,-3.13692,0.291708,-0.106828,54,64,75,80,74,46,91,73,68,66,73,9
1.75578,9.9152,-0.201003,-0.388995,-14.3422,27.5099,-13.1729,0.201003,-0.201003,-0.388995,-14.2255,27.5099,-13.2896,0.201003,5.55293,12.8237,4.41217,6.42989,6.27679,-4.98603,-3.16032,7.49791,14.9608,4.64396,5,-21.4528,-3.52733,-3.13676,0.291746,-0.106858,54,64,75,80,74,46,91,73,68,66,73,9
1.75619,9.91501,-0.201058,-0.389045,-14.3422,27.5099,-13.1729,0.201058,-0.201058,-0.389045,-14.2255,27.5099,-13.2896,0.201058,5.55273,12.8237,4.41203,6.42961,6.27689,-4.98621,-3.16026,7.49795,14.9615,4.64432,5,-21.4529,-3.52726,-3.1366,0.291783,-0.106888,54,64,75,80,74,46,91,73,68,66,73,9
1.75657,9.91482,-0.201114,-0.389092,-14.3422,27.5099,-13.1729,0.201114,-0.201114,-0.389092,-14.2255,27.5099,-13.2897,0.201114,5.55254,12.8237,4.4119,6.42932,6.27699,-4.98639,-3.16021,7.498,14.9621,4.64467,5,-21.4531,-3.5272,-3.13643,0.291819,-0.106918,54,64,75,80,74,46,91,73,68,66,73,9
1.75694,9.91462,-0.20117,-0.389137,-14.3422,27.5099,-13.1729,0.20117,-0.20117,-0.389137,-14.2255,27.5099,-13.2897,0.20117,5.55235,12.8237,4.41176,6.42904,6.27708,-4.98657,-3.16015,7.49804,14.9627,4.64501,5,-21.4532,-3.52714,-3.13627,0.291853,-0.106948,54,64,75,80,74,46,91,73,68,66,73,9
1.75728,9.91442,-0.201228,-0.38918,-14.3422,27.5099,-13.1729,0.201228,-0.201228,-0.38918,-14.2255,27.5099,-13.2897,0.201228,5.55217,12.8237,4.41163,6.42875,6.27717,-4.98675,-3.1601,7.49807,14.9633,4.64534,5,-21.4534,-3.52707,-3.1361,0.291885,-0.106978,54,64,75,80,74,46,91,73,68,66,73,9
1.75761,9.91422,-0.201287,-0.389221,-14.3422,27.5099,-13.1729,0.201287,-0.201287,-0.389221,-14.2255,27.5099,-13.2897,0.201287,5.55198,12.8237,4.41151,6.42847,6.27727,-4.98694,-3.16004,7.49808,14.9639,4.64567,5,-21.4535,-3.527,-3.13594,0.291915,-0.10701,54,64,75,80,74,46,91,73,68,66,73,9
1.75792,9.91402,-0.201348,-0.389258,-14.3422,27.5099,-13.1729,0.201348,-0.201348,-0.389258,-14.2255,27.5099,-13.2897,0.201348,5.55179,12.8237,4.4114,6.42818,6.27737,-4.98713,-3.15998,7.49808,14.9645,4.64598,5,-21.4537,-3.52692,-3.13577,0.291944,-0.107043,54,64,75,80,74,46,91,73,68,66,73,9
1.75823,9.91382,-0.201412,-0.389293,-14.3422,27.5099,-13.1729,0.201412,-0.201412,-0.389293,-14.2255,27.5099,-13.2897,0.201412,5.5516,12.8237,4.41131,6.42789,6.27747,-4.98733,-3.15992,7.49806,14.9652,4.6463,5,-21.4539,-3.52682,-3.13561,0.29197,-0.107077,54,64,75,80,74,46,91,73,68,66,73,9
1.75852,9.91363,-0.201479,-0.389324,-14.3422,27.5099,-13.1729,0.201479,-0.201479,-0.389324,-14.2254,27.5099,-13.2897,0.201479,5.55139,12.8236,4.41125,6.4276,6.27758,-4.98754,-3.15986,7.49801,14.9659,4.64661,5,-21.454,-3.5267,-3.13545,0.291993,-0.107113,54,64,75,80,74,46,91,73,68,66,73,9
1.75881,9.91344,-0.201549,-0.389353,-14.3422,27.5099,-13.173,0.201549,-0.201549,-0.389353,-14.2254,27.5099,-13.2898,0.201549,5.55118,12.8236,4.4112,6.4273,6.2777,-4.98775,-3.15979,7.49794,14.9665,4.64691,5,-21.4542,-3.52658,-3.13529,0.292015,-0.10715,54,64,75,80,74,46,91,73,68,66,73,9
1.75907,9.91325,-0.20162,-0.389379,-14.3422,27.5099,-13.173,0.20162,-0.20162,-0.389379,-14.2254,27.5099,-13.2898,0.20162,5.55097,12.8235,4.41117,6.42701,6.27781,-4.98797,-3.15972,7.49786,14.9672,4.64721,5,-21.4543,-3.52644,-3.13513,0.292034,-0.107188,54,64,75,80,74,46,91,73,68,66,73,9
1.75932,9.91305,-0.201692,-0.389402,-14.3422,27.5099,-13.173,0.201692,-0.201692,-0.389402,-14.2254,27.5099,-13.2898,0.201692,5.55075,12.8234,4.41115,6.42672,6.27793,-4.98819,-3.15964,7.49776,14.9679,4.6475,5,-21.4545,-3.52629,-3.13497,0.292052,-0.107226,54,64,75,80,74,46,91,73,68,66,73,9
1.75955,9.91286,-0.201766,-0.389424,-14.3422,27.5099,-13.173,0.201766,-0.201766,-0.389424,-14.2254,27.5099,-13.2898,0.201766,5.55054,12.8233,4.41113,6.42643,6.27805,-4.98841,-3.15957,7.49766,14.9686,4.64779,5,-21.4546,-3.52613,-3.13481,0.292068,-0.107266,54,64,75,80,74,46,91,73,68,66,73,9
1.75976,9.91266,-0.20184,-0.389443,-14.3408,27.5089,-13.1727,0.20184,-0.20184,-0.389443,-14.224,27.5089,-13.2895,0.20184,5.55032,12.8232,4.41113,6.42615,6.27818,-4.98864,-3.1595,7.49754,14.9693,4.64807,5,-21.4548,-3.52597,-3.13465,0.292082,-0.107305,54,64,75,80,74,46,91,73,68,66,73,9
1.75993,9.91244,-0.201914,-0.389461,-14.3408,27.5089,-13.1727,0.201914,-0.201914,-0.389461,-14.224,27.5089,-13.2895,0.201914,5.55011,12.8231,4.41112,6.42587,6.2783,-4.98886,-3.15943,7.49742,14.97,4.64834,5,-21.4549,-3.5258,-3.1345,0.292096,-0.107345,54,64,75,80,74,46,91,73,68,66,73,9
1.76007,9.91222,-0.201988,-0.389477,-14.3408,27.5089,-13.1727,0.201988,-0.201988,-0.389477,-14.2239,27.5089,-13.2896,0.201988,5.54991,12.823,4.41111,6.42559,6.27843,-4.98908,-3.15936,7.49729,14.9707,4.6486,5,-21.4551,-3.52564,-3.13434,0.292108,-0.107384,54,64,75,80,74,46,91,73,68,66,73,9
1.76018,9.91199,-0.202062,-0.389492,-14.3408,27.5089,-13.1727,0.202062,-0.202062,-0.389492,-14.2239,27.5089,-13.2896,0.202062,5.5497,12.8229,4.41111,6.42531,6.27855,-4.98931,-3.15929,7.49716,14.9714,4.64886,5,-21.4552,-3.52547,-3.13418,0.292119,-0.107424,54,64,75,80,74,46,91,73,68,66,73,9
1.76028,9.91176,-0.202136,-0.389505,-14.3408,27.5089,-13.1727,0.202136,-0.202136,-0.389505,-14.2239,27.5089,-13.2896,0.202136,5.5495,12.8228,4.41111,6.42504,6.27868,-4.98953,-3.15923,7.49702,14.9721,4.64911,5,-21.4553,-3.5253,-3.13403,0.292129,-0.107463,54,64,75,80,74,46,91,73,68,66,73,9
1.76035,9.91152,-0.202211,-0.389517,-14.3407,27.5089,-13.1727,0.202211,-0.202211,-0.389517,-14.2239,27.5089,-13.2896,0.202211,5.54929,12.8227,4.41113,6.42477,6.27881,-4.98975,-3.15916,7.49687,14.9728,4.64936,5,-21.4555,-3.52512,-3.13388,0.292137,-0.107503,54,64,75,80,74,46,91,73,68,66,73,9
1.76041,9.91129,-0.202285,-0.389527,-14.3407,27.5089,-13.1728,0.202285,-0.202285,-0.389527,-14.2239,27.5089,-13.2896,0.202285,5.54908,12.8226,4.41116,6.42451,6.27893,-4.98998,-3.15908,7.49672,14.9735,4.6496,5,-21.4556,-3.52494,-3.13373,0.292145,-0.107543,54,64,75,80,74,46,91,73,68,66,73,9
1.76045,9.91105,-0.20236,-0.389536,-14.3414,27.5094,-13.1729,0.20236,-0.20236,-0.389536,-14.2245,27.5094,-13.2898,0.20236,5.54887,12.8225,4.41121,6.42424,6.27906,-4.9902,-3.15901,7.49655,14.9741,4.64984,5,-21.4558,-3.52475,-3.13359,0.292152,-0.107583,54,64,75,80,74,46,91,73,68,66,73,9
1.76048,9.91082,-0.202436,-0.389544,-14.3414,27.5094,-13.1729,0.202436,-0.202436,-0.389544,-14.2245,27.5094,-13.2898,0.202436,5.54865,12.8224,4.41127,6.42398,6.27918,-4.99043,-3.15893,7.49637,14.9748,4.65008,5,-21.4559,-3.52454,-3.13346,0.292158,-0.107623,54,64,75,80,74,46,91,73,68,66,73,9
1.76051,9.91059,-0.202511,-0.38955,-14.3414,27.5094,-13.173,0.202511,-0.202511,-0.38955,-14.2245,27.5094,-13.2898,0.202511,5.54843,12.8222,4.41136,6.42372,6.2793,-4.99065,-3.15885,7.49618,14.9755,4.65032,5,-21.456,-3.52433,-3.13333,0.292162,-0.107664,54,64,75,80,74,46,91,73,68,66,73,9
1.76052,9.91036,-0.202587,-0.389555,-14.3414,27.5094,-13.173,0.202587,-0.202587,-0.389555,-14.2245,27.5094,-13.2898,0.202587,5.5482,12.8221,4.41146,6.42347,6.27942,-4.99088,-3.15877,7.49598,14.9762,4.65056,5,-21.4562,-3.52411,-3.13321,0.292166,-0.107704,54,64,75,80,74,46,91,73,68,66,73,9
1.76052,9.91013,-0.202664,-0.389559,-14.3413,27.5094,-13.173,0.202664,-0.202664,-0.389559,-14.2245,27.5094,-13.2899,0.202664,5.54797,12.8219,4.41159,6.42322,6.27954,-4.99111,-3.15868,7.49576,14.9768,4.6508,5,-21.4563,-3.52388,-3.1331,0.292169,-0.107745,54,64,75,80,74,46,91,73,68,66,73,9
1.76051,9.9099,-0.20274,-0.389562,-14.3413,27.5094,-13.173,0.20274,-0.20274,-0.389562,-14.2245,27.5094,-13.2899,0.20274,5.54772,12.8218,4.41174,6.42297,6.27966,-4.99134,-3.15859,7.49553,14.9775,4.65103,5,-21.4565,-3.52365,-3.133,0.292172,-0.107786,54,64,75,80,74,46,91,73,68,66,73,9
1.76048,9.90967,-0.202817,-0.389564,-14.3413,27.5094,-13.173,0.202817,-0.202817,-0.389564,-14.2244,27.5094,-13.2899,0.202817,5.54747,12.8216,4.41191,6.42273,6.27977,-4.99156,-3.15849,7.49529,14.9782,4.65126,5,-21.4566,-3.52341,-3.13291,0.292173,-0.107827,54,64,75,80,74,46,91,73,68,66,73,9
1.76044,9.90943,-0.202894,-0.389565,-14.3397,27.5083,-13.1727,0.202894,-0.202894,-0.389565,-14.2229,27.5083,-13.2896,0.202894,5.54721,12.8215,4.41211,6.4225,6.27989,-4.9918,-3.15838,7.49504,14.9788,4.65148,5,-21.4567,-3.52318,-3.13283,0.292174,-0.107868,54,64,75,80,74,46,91,73,68,66,73,9
1.76038,9.90918,-0.202972,-0.389566,-14.3397,27.5083,-13.1727,0.202972,-0.202972,-0.389566,-14.2229,27.5083,-13.2896,0.202972,5.54693,12.8213,4.41233,6.42228,6.28,-4.99203,-3.15827,7.49476,14.9795,4.65171,5,-21.4569,-3.52294,-3.13277,0.292175,-0.107909,54,64,75,80,74,46,91,73,68,66,73,9
1.7603,9.90893,-0.20305,-0.389566,-14.3397,27.5083,-13.1728,0.20305,-0.20305,-0.389566,-14.2228,27.5083,-13.2896,0.20305,5.54664,12.8211,4.41258,6.42206,6.2801,-4.99227,-3.15815,7.49447,14.9802,4.65193,5,-21.457,-3.52271,-3.13272,0.292175,-0.107951,54,64,75,80,74,46,91,73,68,66,73,9
1.76021,9.90867,-0.203128,-0.389566,-14.3397,27.5083,-13.1728,0.203128,-0.203128,-0.389566,-14.2228,27.5083,-13.2897,0.203128,5.54634,12.821,4.41285,6.42186,6.28021,-4.99251,-3.15803,7.49417,14.9808,4.65214,5,-21.4572,-3.52248,-3.13269,0.292174,-0.107993,54,64,75,80,74,46,91,73,68,66,73,9
1.7601,9.9084,-0.203206,-0.389565,-14.3397,27.5083,-13.1728,0.203206,-0.203206,-0.389565,-14.2228,27.5083,-13.2897,0.203206,5.54603,12.8208,4.41314,6.42165,6.28031,-4.99276,-3.1579,7.49385,14.9815,4.65235,5,-21.4574,-3.52226,-3.13267,0.292174,-0.108034,54,64,75,80,74,46,91,73,68,66,73,9
1.75996,9.90813,-0.203283,-0.389563,-14.3396,27.5083,-13.1728,0.203283,-0.203283,-0.389563,-14.2228,27.5083,-13.2897,0.203283,5.54572,12.8206,4.41345,6.42146,6.28041,-4.99299,-3.15777,7.49353,14.9821,4.65256,5,-21.4575,-3.52203,-3.13266,0.292172,-0.108075,54,64,75,80,74,46,91,73,68,66,73,9
1.75981,9.90784,-0.203359,-0.389561,-14.3396,27.5083,-13.1729,0.203359,-0.203359,-0.389561,-14.2227,27.5083,-13.2897,0.203359,5.5454,12.8204,4.41377,6.42127,6.2805,-4.99323,-3.15763,7.4932,14.9828,4.65276,5,-21.4577,-3.5218,-3.13266,0.292171,-0.108116,54,64,75,80,74,46,91,73,68,66,73,9
1.75964,9.90755,-0.203434,-0.389558,-14.341,27.5093,-13.1732,0.203434,-0.203434,-0.389558,-14.2241,27.5093,-13.2901,0.203434,5.54508,12.8203,4.4141,6.42108,6.28059,-4.99346,-3.1575,7.49287,14.9834,4.65295,5,-21.4578,-3.52158,-3.13266,0.292168,-0.108156,54,64,75,80,74,46,91,73,68,66,73,9
1.75943,9.90725,-0.203507,-0.389554,-14.341,27.5093,-13.1732,0.203507,-0.203507,-0.389554,-14.2241,27.5093,-13.2901,0.203507,5.54478,12.8201,4.41443,6.4209,6.28067,-4.99368,-3.15737,7.49255,14.984,4.65313,5,-21.458,-3.52134,-3.13266,0.292165,-0.108195,54,64,75,80,74,46,91,73,68,66,73,9
1.7592,9.90694,-0.203579,-0.389549,-14.3409,27.5093,-13.1732,0.203579,-0.203579,-0.389549,-14.2241,27.5093,-13.2901,0.203579,5.54448,12.8199,4.41478,6.42072,6.28075,-4.99389,-3.15725,7.49222,14.9846,4.6533,5,-21.4581,-3.52111,-3.13266,0.292162,-0.108234,54,64,75,80,74,46,91,73,68,66,73,9
1.75894,9.90663,-0.203649,-0.389544,-14.3409,27.5093,-13.1733,0.203649,-0.203649,-0.389544,-14.224,27.5093,-13.2901,0.203649,5.54418,12.8197,4.41512,6.42054,6.28082,-4.99409,-3.15712,7.4919,14.9851,4.65347,5,-21.4582,-3.52088,-3.13266,0.292158,-0.108271,54,64,75,80,74,46,91,73,68,66,73,9
1.75867,9.90631,-0.203719,-0.389539,-14.3409,27.5093,-13.1733,0.203719,-0.203719,-0.389539,-14.224,27.5093,-13.2902,0.203719,5.54388,12.8196,4.41547,6.42037,6.28089,-4.9943,-3.157,7.49157,14.9857,4.65363,5,-21.4584,-3.52065,-3.13267,0.292154,-0.108308,54,64,75,80,74,46,91,73,68,66,73,9
1.75839,9.90598,-0.203788,-0.389534,-14.3408,27.5093,-13.1733,0.203788,-0.203788,-0.389534,-14.224,27.5093,-13.2902,0.203788,5.54357,12.8194,4.41583,6.4202,6.28096,-4.9945,-3.15687,7.49124,14.9863,4.65379,5,-21.4585,-3.52043,-3.13269,0.29215,-0.108345,54,64,75,80,74,46,91,73,68,66,73,9
1.7581,9.90566,-0.203857,-0.389529,-14.3408,27.5093,-13.1733,0.203857,-0.203857,-0.389529,-14.224,27.5093,-13.2902,0.203857,5.54326,12.8192,4.4162,6.42005,6.28103,-4.99471,-3.15673,7.4909,14.9868,4.65395,5,-21.4587,-3.52022,-3.13272,0.292147,-0.108382,54,64,75,80,74,46,91,73,68,66,73,9
1.7578,9.90533,-0.203926,-0.389525,-14.3402,27.5089,-13.1733,0.203926,-0.203926,-0.389525,-14.2234,27.5089,-13.2901,0.203926,5.54294,12.819,4.41657,6.4199,6.2811,-4.99493,-3.15659,7.49056,14.9874,4.65411,5,-21.4588,-3.52002,-3.13276,0.292143,-0.108419,54,64,75,80,74,46,91,73,68,66,73,9
1.75752,9.90501,-0.203995,-0.389521,-14.3402,27.5089,-13.1733,0.203995,-0.203995,-0.389521,-14.2234,27.5089,-13.2901,0.203995,5.5426,12.8188,4.41695,6.41977,6.28118,-4.99516,-3.15645,7.49021,14.988,4.65428,5,-21.459,-3.51984,-3.13283,0.292141,-0.108456,54,64,75,80,74,46,91,73,68,66,73,9
1.75723,9.90469,-0.204065,-0.389519,-14.3402,27.5089,-13.1733,0.204065,-0.204065,-0.389519,-14.2233,27.5089,-13.2902,0.204065,5.54225,12.8187,4.41733,6.41965,6.28126,-4.9954,-3.1563,7.48985,14.9885,4.65445,5,-21.4591,-3.51967,-3.13291,0.29214,-0.108493,54,64,75,80,74,46,91,73,68,66,73,9
1.75695,9.90437,-0.204136,-0.389518,-14.3402,27.5089,-13.1733,0.204136,-0.204136,-0.389518,-14.2233,27.5089,-13.2902,0.204136,5.54189,12.8185,4.41772,6.41954,6.28135,-4.99565,-3.15614,7.48948,14.9891,4.65463,5,-21.4593,-3.51951,-3.133,0.292139,-0.108531,54,64,75,80,74,46,91,73,68,66,73,9
1.75666,9.90405,-0.204207,-0.389518,-14.3401,27.5089,-13.1734,0.204207,-0.204207,-0.389518,-14.2233,27.5089,-13.2902,0.204207,5.54152,12.8183,4.41811,6.41945,6.28145,-4.99592,-3.15597,7.4891,14.9896,4.65481,5,-21.4594,-3.51937,-3.13311,0.292138,-0.108569,54,64,75,80,74,46,91,73,68,66,73,9
1.75635,9.90374,-0.204279,-0.389518,-14.3401,27.5089,-13.1734,0.204279,-0.204279,-0.389518,-14.2232,27.5089,-13.2903,0.204279,5.54113,12.8181,4.4185,6.41936,6.28155,-4.99619,-3.15579,7.48872,14.9902,4.655,5,-21.4596,-3.51925,-3.13323,0.292138,-0.108607,54,64,75,80,74,46,91,73,68,66,73,9
1.75602,9.90342,-0.204351,-0.389518,-14.3401,27.5089,-13.1734,0.204351,-0.204351,-0.389518,-14.2232,27.5089,-13.2903,0.204351,5.54074,12.8179,4.41889,6.41929,6.28166,-4.99648,-3.1556,7.48833,14.9908,4.65519,5,-21.4598,-3.51914,-3.13336,0.292138,-0.108646,54,64,75,80,74,46,91,73,68,66,73,9
1.75568,9.9031,-0.204423,-0.389518,-14.3398,27.5087,-13.1734,0.204423,-0.204423,-0.389518,-14.2229,27.5087,-13.2903,0.204423,5.54035,12.8177,4.41927,6.41923,6.28177,-4.99677,-3.15541,7.48794,14.9914,4.65539,5,-21.4599,-3.51904,-3.1335,0.292139,-0.108684,54,64,75,80,74,46,91,73,68,66,73,9
1.7553,9.90277,-0.204496,-0.389518,-14.3397,27.5087,-13.1734,0.204496,-0.204496,-0.389518,-14.2229,27.5087,-13.2903,0.204496,5.53994,12.8175,4.41966,6.41918,6.28189,-4.99708,-3.1552,7.48753,14.9919,4.65559,5,-21.4601,-3.51896,-3.13363,0.292139,-0.108723,54,64,75,80,74,46,91,73,68,66,73,9
1.75489,9.90245,-0.20457,-0.389518,-14.3397,27.5087,-13.1735,0.20457,-0.20457,-0.389518,-14.2228,27.5087,-13.2903,0.20457,5.53954,12.8173,4.42004,6.41914,6.28202,-4.9974,-3.15498,7.48713,14.9925,4.6558,5,-21.4603,-3.51889,-3.13377,0.292138,-0.108763,54,64,75,80,74,46,91,73,68,66,73,9
1.75445,9.90212,-0.204644,-0.389517,-14.3397,27.5087,-13.1735,0.204644,-0.204644,-0.389517,-14.2228,27.5087,-13.2904,0.204644,5.53913,12.8171,4.42041,6.41912,6.28216,-4.99772,-3.15475,7.48672,14.9931,4.65602,5,-21.4605,-3.51883,-3.13391,0.292138,-0.108802,54,64,75,80,74,46,91,73,68,66,73,9
1.75399,9.90178,-0.204718,-0.389517,-14.3396,27.5087,-13.1735,0.204718,-0.204718,-0.389517,-14.2228,27.5087,-13.2904,0.204718,5.53872,12.8169,4.42077,6.4191,6.2823,-4.99805,-3.15452,7.4863,14.9937,4.65624,5,-21.4606,-3.51879,-3.13406,0.292138,-0.108842,54,64,75,80,74,46,91,73,68,66,73,9
1.7535,9.90145,-0.204792,-0.389516,-14.3396,27.5087,-13.1736,0.204792,-0.204792,-0.389516,-14.2227,27.5087,-13.2904,0.204792,5.53831,12.8167,4.42113,6.41909,6.28244,-4.99838,-3.15428,7.48589,14.9943,4.65646,5,-21.4608,-3.51875,-3.1342,0.292137,-0.108881,54,64,75,80,74,46,91,73,68,66,73,9
1.753,9.90111,-0.204865,-0.389516,-14.3396,27.5087,-13.1736,0.204865,-0.204865,-0.389516,-14.2227,27.5087,-13.2905,0.204865,5.5379,12.8165,4.42149,6.41908,6.28258,-4.99872,-3.15404,7.48548,14.9949,4.65669,5,-21.461,-3.51872,-3.13435,0.292137,-0.10892,54,64,75,80,74,46,91,73,68,66,73,9
1.75247,9.90078,-0.204938,-0.389516,-14.3395,27.5087,-13.1736,0.204938,-0.204938,-0.389516,-14.2227,27.5087,-13.2905,0.204938,5.53749,12.8163,4.42183,6.41908,6.28273,-4.99907,-3.15379,7.48507,14.9954,4.65691,5,-21.4612,-3.5187,-3.1345,0.292137,-0.108959,54,64,75,80,74,46,90,73,68,66,73,9
1.75193,9.90043,-0.205009,-0.389517,-14.3395,27.5087,-13.1737,0.205009,-0.205009,-0.389517,-14.2226,27.5087,-13.2905,0.205009,5.53709,12.8161,4.42217,6.41909,6.28287,-4.99941,-3.15355,7.48467,14.996,4.65714,5,-21.4614,-3.51869,-3.13465,0.292138,-0.108997,54,64,75,80,74,46,90,73,68,66,73,9
1.75138,9.90009,-0.20508,-0.389518,-14.3395,27.5087,-13.1737,0.20508,-0.20508,-0.389518,-14.2226,27.5087,-13.2906,0.20508,5.53669,12.8159,4.4225,6.4191,6.28302,-4.99975,-3.15332,7.48428,14.9966,4.65736,5,-21.4616,-3.51868,-3.1348,0.292139,-0.109035,54,64,75,80,74,46,90,73,68,66,73,9
1.75082,9.89974,-0.20515,-0.38952,-14.3394,27.5087,-13.1737,0.20515,-0.20515,-0.38952,-14.2226,27.5087,-13.2906,0.20515,5.5363,12.8157,4.42282,6.41912,6.28316,-5.0001,-3.15308,7.4839,14.9971,4.65758,5,-21.4617,-3.51867,-3.13496,0.29214,-0.109072,54,64,75,80,74,46,90,73,68,66,73,9
1.75024,9.8994,-0.205219,-0.389522,-14.3394,27.5087,-13.1738,0.205219,-0.205219,-0.389522,-14.2226,27.5087,-13.2906,0.205219,5.5359,12.8155,4.42313,6.41914,6.2833,-5.00044,-3.15284,7.48351,14.9977,4.6578,5,-21.4619,-3.51867,-3.13511,0.292141,-0.109109,54,64,75,80,74,46,90,73,68,66,73,9
1.74964,9.89906,-0.205288,-0.389523,-14.3394,27.5087,-13.1738,0.205288,-0.205288,-0.389523,-14.2225,27.5087,-13.2906,0.205288,5.53552,12.8153,4.42344,6.41916,6.28345,-5.00078,-3.1526,7.48313,14.9982,4.65802,5,-21.4621,-3.51868,-3.13526,0.292142,-0.109146,54,64,75,80,74,46,90,73,68,66,73,9
1.74903,9.89872,-0.205355,-0.389523,-14.3393,27.5087,-13.1738,0.205355,-0.205355,-0.389523,-14.2225,27.5087,-13.2907,0.205355,5.53513,12.8151,4.42374,6.41919,6.2836,-5.00112,-3.15235,7.48275,14.9988,4.65824,5,-21.4623,-3.51869,-3.13541,0.292142,-0.109182,54,64,75,80,74,46,90,73,68,66,73,9
1.74841,9.89839,-0.205422,-0.389522,-14.3393,27.5087,-13.1739,0.205422,-0.205422,-0.389522,-14.2225,27.5087,-13.2907,0.205422,5.53475,12.8149,4.42404,6.41922,6.28375,-5.00146,-3.1521,7.48237,14.9993,4.65846,5,-21.4625,-3.51871,-3.13555,0.292142,-0.109218,54,64,75,80,74,46,90,73,68,66,73,10
1.74777,9.89808,-0.205489,-0.38952,-14.3393,27.5087,-13.1739,0.205489,-0.205489,-0.38952,-14.2224,27.5087,-13.2907,0.205489,5.53438,12.8148,4.42434,6.41925,6.2839,-5.00179,-3.15185,7.48198,14.9998,4.65868,5,-21.4626,-3.51875,-3.13568,0.29214,-0.109254,54,64,75,80,74,46,90,73,68,66,73,10
1.74712,9.89778,-0.205555,-0.389516,-14.3393,27.5087,-13.1739,0.205555,-0.205555,-0.389516,-14.2224,27.5087,-13.2908,0.205555,5.534,12.8146,4.42464,6.41929,6.28406,-5.00212,-3.15159,7.48158,15.0003,4.6589,5,-21.4628,-3.51878,-3.13581,0.292137,-0.109289,54,64,75,80,74,46,90,73,68,66,73,10
1.74645,9.89749,-0.205621,-0.389511,-14.3392,27.5087,-13.1739,0.205621,-0.205621,-0.389511,-14.2224,27.5087,-13.2908,0.205621,5.53363,12.8144,4.42493,6.41933,6.28422,-5.00245,-3.15132,7.48119,15.0009,4.65912,5,-21.463,-3.51883,-3.13593,0.292133,-0.109324,54,64,75,80,74,46,90,73,68,66,73,10
1.74577,9.89721,-0.205686,-0.389504,-14.3392,27.5087,-13.174,0.205686,-0.205686,-0.389504,-14.2224,27.5087,-13.2908,0.205686,5.53327,12.8142,4.42522,6.41937,6.28439,-5.00277,-3.15104,7.48079,15.0014,4.65935,5,-21.4631,-3.51888,-3.13604,0.292128,-0.109359,54,64,75,80,74,46,90,73,68,66,73,10
1.74509,9.89694,-0.205751,-0.389495,-14.3392,27.5087,-13.174,0.205751,-0.205751,-0.389495,-14.2223,27.5087,-13.2909,0.205751,5.53291,12.814,4.42551,6.41942,6.28456,-5.00309,-3.15076,7.48038,15.0019,4.65958,5,-21.4633,-3.51894,-3.13615,0.292122,-0.109393,54,64,75,80,74,46,90,73,68,66,73,10
1.7444,9.89667,-0.205815,-0.389486,-14.3391,27.5087,-13.174,0.205815,-0.205815,-0.389486,-14.2223,27.5087,-13.2909,0.205815,5.53255,12.8138,4.42579,6.41947,6.28474,-5.00339,-3.15047,7.47998,15.0024,4.65981,5,-21.4635,-3.519,-3.13625,0.292114,-0.109428,54,64,75,80,74,46,90,73,68,66,73,10
1.74372,9.89642,-0.20588,-0.389475,-14.3397,27.5091,-13.1742,0.20588,-0.20588,-0.389475,-14.2228,27.5091,-13.291,0.20588,5.53221,12.8137,4.42607,6.41952,6.28492,-5.00369,-3.15018,7.47958,15.0029,4.66005,5,-21.4636,-3.51906,-3.13634,0.292106,-0.109462,54,64,75,80,74,46,90,73,68,66,73,10
1.74303,9.89617,-0.205944,-0.389462,-14.3397,27.5091,-13.1742,0.205944,-0.205944,-0.389462,-14.2228,27.5091,-13.2911,0.205944,5.53187,12.8135,4.42634,6.41958,6.28511,-5.00397,-3.14988,7.47918,15.0034,4.66029,5,-21.4638,-3.51912,-3.13644,0.292097,-0.109497,54,64,75,80,74,46,90,73,68,66,73,10
1.74235,9.89593,-0.206008,-0.389449,-14.3396,27.5091,-13.1743,0.206008,-0.206008,-0.389449,-14.2228,27.5091,-13.2911,0.206008,5.53153,12.8133,4.42661,6.41964,6.28531,-5.00424,-3.14956,7.47878,15.0039,4.66054,5,-21.4639,-3.51918,-3.13652,0.292087,-0.109531,54,64,75,80,74,46,90,73,68,66,73,10
1.74167,9.8957,-0.206073,-0.389434,-14.3396,27.5091,-13.1743,0.206073,-0.206073,-0.389434,-14.2228,27.5091,-13.2911,0.206073,5.53121,12.8131,4.42687,6.41971,6.28552,-5.0045,-3.14925,7.47838,15.0044,4.66079,5,-21.4641,-3.51924,-3.13661,0.292076,-0.109565,54,64,75,80,74,46,90,73,68,66,73,10
1.74099,9.89547,-0.206136,-0.389419,-14.3396,27.5091,-13.1743,0.206136,-0.206136,-0.389419,-14.2227,27.5091,-13.2912,0.206136,5.53089,12.813,4.42713,6.41978,6.28573,-5.00474,-3.14893,7.47799,15.0049,4.66104,5,-21.4642,-3.5193,-3.13669,0.292064,-0.109599,54,64,75,80,74,46,90,73,68,66,73,10
1.74032,9.89525,-0.2062,-0.389403,-14.3395,27.5091,-13.1744,0.2062,-0.2062,-0.389403,-14.2227,27.5091,-13.2912,0.2062,5.53058,12.8128,4.42737,6.41985,6.28594,-5.00498,-3.1486,7.47759,15.0054,4.66129,5,-21.4644,-3.51936,-3.13676,0.292052,-0.109633,54,64,75,80,74,46,90,73,68,66,73,10
1.73965,9.89504,-0.206263,-0.389386,-14.3395,27.5091,-13.1744,0.206263,-0.206263,-0.389386,-14.2227,27.5091,-13.2912,0.206263,5.53028,12.8126,4.42762,6.41993,6.28615,-5.00521,-3.14828,7.4772,15.0059,4.66155,5,-21.4645,-3.51942,-3.13684,0.292039,-0.109667,54,64,75,80,74,46,90,73,68,66,73,10
1.73899,9.89484,-0.206325,-0.389368,-14.3395,27.5091,-13.1744,0.206325,-0.206325,-0.389368,-14.2227,27.5091,-13.2912,0.206325,5.52998,12.8124,4.42785,6.42,6.28637,-5.00543,-3.14796,7.47682,15.0064,4.6618,5,-21.4647,-3.51948,-3.13691,0.292026,-0.1097,54,64,75,80,74,46,90,73,68,66,73,10
1.73833,9.89464,-0.206386,-0.389351,-14.3394,27.5091,-13.1744,0.206386,-0.206386,-0.389351,-14.2226,27.5091,-13.2913,0.206386,5.52968,12.8123,4.42809,6.42007,6.28658,-5.00565,-3.14764,7.47644,15.0069,4.66205,5,-21.4648,-3.51955,-3.13698,0.292013,-0.109732,54,64,75,80,74,46,90,73,68,66,73,10
1.73768,9.89445,-0.206446,-0.389333,-14.3394,27.5091,-13.1745,0.206446,-0.206446,-0.389333,-14.2226,27.5091,-13.2913,0.206446,5.5294,12.8121,4.42831,6.42014,6.28679,-5.00586,-3.14732,7.47606,15.0074,4.66229,5,-21.4649,-3.51961,-3.13705,0.292,-0.109765,54,64,75,80,74,46,90,73,68,66,73,10
1.73703,9.89427,-0.206506,-0.389315,-14.3394,27.5091,-13.1745,0.206506,-0.206506,-0.389315,-14.2226,27.5091,-13.2913,0.206506,5.52912,12.8119,4.42854,6.42022,6.28699,-5.00606,-3.14701,7.47569,15.0078,4.66254,5,-21.4651,-3.51968,-3.13712,0.291986,-0.109796,54,64,75,80,74,46,90,73,68,66,73,10
1.73638,9.89411,-0.206564,-0.389297,-14.3394,27.5091,-13.1745,0.206564,-0.206564,-0.389297,-14.2226,27.5091,-13.2913,0.206564,5.52885,12.8118,4.42875,6.42029,6.2872,-5.00626,-3.1467,7.47533,15.0083,4.66278,5,-21.4652,-3.51974,-3.13718,0.291973,-0.109828,54,64,75,80,74,46,90,73,68,66,73,10
1.73574,9.89396,-0.206622,-0.389278,-14.3393,27.5091,-13.1746,0.206622,-0.206622,-0.389278,-14.2225,27.5091,-13.2913,0.206622,5.52858,12.8116,4.42897,6.42037,6.28741,-5.00645,-3.14639,7.47497,15.0088,4.66302,5,-21.4653,-3.5198,-3.13724,0.291959,-0.109859,54,64,75,80,74,46,90,73,68,66,73,10
1.7351,9.89383,-0.206679,-0.38926,-14.3393,27.5091,-13.1746,0.206679,-0.206679,-0.38926,-14.2225,27.5091,-13.2914,0.206679,5.52832,12.8114,4.42917,6.42044,6.28762,-5.00662,-3.14608,7.47462,15.0092,4.66326,5,-21.4654,-3.51986,-3.1373,0.291945,-0.109889,54,64,75,80,74,46,90,73,68,66,73,10
1.73447,9.89373,-0.206735,-0.389241,-14.3398,27.5095,-13.1747,0.206735,-0.206735,-0.389241,-14.223,27.5095,-13.2915,0.206735,5.52807,12.8113,4.42937,6.42052,6.28784,-5.00679,-3.14576,7.47428,15.0097,4.6635,5,-21.4656,-3.51992,-3.13735,0.29193,-0.109919,54,64,75,80,74,46,90,73,68,66,73,10
1.73383,9.89366,-0.206791,-0.38922,-14.3398,27.5095,-13.1747,0.206791,-0.206791,-0.38922,-14.223,27.5095,-13.2915,0.206791,5.52784,12.8111,4.42956,6.42061,6.28806,-5.00694,-3.14544,7.47394,15.0101,4.66375,5,-21.4657,-3.51996,-3.1374,0.291915,-0.109949,54,64,75,80,74,46,90,73,68,66,73,10
1.7332,9.89362,-0.206846,-0.3892,-14.3397,27.5095,-13.1748,0.206846,-0.206846,-0.3892,-14.223,27.5095,-13.2915,0.206846,5.52761,12.811,4.42974,6.4207,6.2883,-5.00709,-3.14512,7.47361,15.0105,4.664,5,-21.4658,-3.52,-3.13744,0.2919,-0.109978,54,64,75,80,74,46,90,73,68,66,73,10
1.73257,9.89361,-0.2069,-0.389179,-14.3397,27.5095,-13.1748,0.2069,-0.2069,-0.389179,-14.223,27.5095,-13.2916,0.2069,5.52739,12.8108,4.42992,6.42079,6.28854,-5.00722,-3.14479,7.47328,15.0109,4.66424,5,-21.4659,-3.52004,-3.13748,0.291884,-0.110007,54,64,75,80,74,46,90,73,68,66,73,10
1.73195,9.89362,-0.206954,-0.389158,-14.3397,27.5095,-13.1748,0.206954,-0.206954,-0.389158,-14.2229,27.5095,-13.2916,0.206954,5.52718,12.8106,4.43009,6.42088,6.28878,-5.00734,-3.14446,7.47297,15.0114,4.66449,5,-21.466,-3.52007,-3.13752,0.291868,-0.110036,54,64,75,80,74,46,90,73,68,66,73,10
1.73133,9.89364,-0.207006,-0.389136,-14.3397,27.5095,-13.1748,0.207006,-0.207006,-0.389136,-14.2229,27.5095,-13.2916,0.207006,5.52698,12.8105,4.43025,6.42098,6.28902,-5.00745,-3.14412,7.47266,15.0118,4.66474,5,-21.4661,-3.5201,-3.13755,0.291852,-0.110064,54,64,75,80,74,46,90,73,68,66,73,10
1.73072,9.89368,-0.207057,-0.389116,-14.3396,27.5095,-13.1749,0.207057,-0.207057,-0.389116,-14.2229,27.5095,-13.2916,0.207057,5.52678,12.8103,4.43041,6.42108,6.28927,-5.00755,-3.14379,7.47235,15.0122,4.66499,5,-21.4663,-3.52013,-3.13759,0.291837,-0.110091,54,64,75,80,74,46,90,73,68,66,73,10
1.73012,9.89374,-0.207107,-0.389095,-14.3396,27.5095,-13.1749,0.207107,-0.207107,-0.389095,-14.2229,27.5095,-13.2916,0.207107,5.52658,12.8102,4.43057,6.42118,6.28952,-5.00764,-3.14346,7.47206,15.0125,4.66524,5,-21.4664,-3.52016,-3.13762,0.291821,-0.110118,54,64,75,80,74,46,90,73,68,66,73,10
1.72953,9.89378,-0.207155,-0.389076,-14.3396,27.5095,-13.1749,0.207155,-0.207155,-0.389076,-14.2229,27.5095,-13.2916,0.207155,5.52639,12.8101,4.43072,6.42128,6.28976,-5.00773,-3.14314,7.47177,15.0129,4.66548,5,-21.4665,-3.52019,-3.13764,0.291807,-0.110143,54,64,75,80,74,46,90,73,68,66,73,10
1.72894,9.89383,-0.207202,-0.389057,-14.3396,27.5095,-13.1749,0.207202,-0.207202,-0.389057,-14.2229,27.5095,-13.2917,0.207202,5.5262,12.8099,4.43086,6.42137,6.29001,-5.00782,-3.14281,7.47149,15.0133,4.66573,5,-21.4666,-3.52022,-3.13767,0.291793,-0.110168,54,64,75,80,74,46,90,73,68,66,73,10
1.72837,9.89388,-0.207247,-0.38904,-14.3396,27.5095,-13.175,0.207247,-0.207247,-0.38904,-14.2228,27.5095,-13.2917,0.207247,5.52601,12.8098,4.431,6.42147,6.29025,-5.0079,-3.1425,7.47121,15.0136,4.66597,5,-21.4667,-3.52025,-3.1377,0.29178,-0.110192,54,64,75,80,74,46,90,73,68,66,73,10
1.72781,9.89395,-0.207291,-0.389022,-14.3395,27.5095,-13.175,0.207291,-0.207291,-0.389022,-14.2228,27.5095,-13.2917,0.207291,5.52583,12.8097,4.43114,6.42157,6.29049,-5.00797,-3.14218,7.47094,15.014,4.66621,5,-21.4668,-3.52028,-3.13772,0.291766,-0.110216,54,64,75,80,74,46,90,73,68,66,73,10
1.72725,9.89403,-0.207335,-0.389003,-14.3395,27.5095,-13.175,0.207335,-0.207335,-0.389003,-14.2228,27.5095,-13.2917,0.207335,5.52566,12.8095,4.43127,6.42167,6.29074,-5.00804,-3.14186,7.47068,15.0143,4.66644,5,-21.4669,-3.5203,-3.13774,0.291752,-0.110239,54,64,75,80,74,46,90,73,68,66,73,10
1.7267,9.89413,-0.207379,-0.388984,-14.3395,27.5095,-13.175,0.207379,-0.207379,-0.388984,-14.2228,27.5095,-13.2917,0.207379,5.5255,12.8094,4.4314,6.42177,6.29098,-5.0081,-3.14155,7.47042,15.0146,4.66668,5,-21.467,-3.52032,-3.13776,0.291738,-0.110263,54,64,75,80,74,46,90,73,68,66,73,10
1.72617,9.89426,-0.207422,-0.388964,-14.3394,27.5095,-13.175,0.207422,-0.207422,-0.388964,-14.2227,27.5095,-13.2917,0.207422,5.52535,12.8093,4.43152,6.42187,6.29122,-5.00815,-3.14124,7.47017,15.015,4.66691,5,-21.4671,-3.52033,-3.13777,0.291723,-0.110286,54,64,75,80,74,46,90,73,68,66,73,10
1.72563,9.89443,-0.207465,-0.388943,-14.3394,27.5095,-13.175,0.207465,-0.207465,-0.388943,-14.2227,27.5095,-13.2917,0.207465,5.52522,12.8091,4.43164,6.42197,6.29147,-5.00819,-3.14092,7.46993,15.0153,4.66714,5,-21.4672,-3.52033,-3.13778,0.291707,-0.110309,54,64,75,80,74,46,90,73,68,66,73,10
1.72511,9.89464,-0.207509,-0.38892,-14.3394,27.5095,-13.1751,0.207509,-0.207509,-0.38892,-14.2227,27.5095,-13.2917,0.207509,5.5251,12.809,4.43176,6.42208,6.29171,-5.00823,-3.14061,7.4697,15.0156,4.66737,5,-21.4673,-3.52032,-3.13779,0.29169,-0.110332,54,64,75,80,74,46,90,73,68,66,73,10
1.72459,9.89487,-0.207553,-0.388895,-14.3394,27.5095,-13.1751,0.207553,-0.207553,-0.388895,-14.2227,27.5095,-13.2917,0.207553,5.52499,12.8089,4.43188,6.42219,6.29196,-5.00826,-3.1403,7.46947,15.016,4.66759,5,-21.4674,-3.5203,-3.1378,0.291671,-0.110356,54,64,75,80,74,46,90,73,68,66,73,10
1.72408,9.89513,-0.207597,-0.388869,-14.3393,27.5095,-13.1751,0.207597,-0.207597,-0.388869,-14.2227,27.5095,-13.2918,0.207597,5.52491,12.8087,4.43198,6.4223,6.29221,-5.00828,-3.13999,7.46925,15.0163,4.66781,5,-21.4675,-3.52027,-3.1378,0.291652,-0.110379,54,64,75,80,74,46,90,73,68,66,73,10
1.72357,9.89542,-0.207642,-0.388841,-14.3393,27.5095,-13.1751,0.207642,-0.207642,-0.388841,-14.2227,27.5095,-13.2918,0.207642,5.52483,12.8086,4.43207,6.42241,6.29246,-5.0083,-3.13968,7.46904,15.0166,4.66802,5,-21.4676,-3.52023,-3.1378,0.291631,-0.110403,54,64,75,80,74,46,90,73,68,66,73,10
1.72308,9.89571,-0.207688,-0.388812,-14.3393,27.5095,-13.1751,0.207688,-0.207688,-0.388812,-14.2227,27.5095,-13.2918,0.207688,5.52477,12.8084,4.43215,6.42252,6.29272,-5.00832,-3.13936,7.46883,15.017,4.66823,5,-21.4677,-3.52017,-3.13779,0.291609,-0.110428,54,64,75,80,74,46,90,73,68,66,73,10
1.72259,9.89603,-0.207734,-0.388781,-14.34,27.5099,-13.1753,0.207734,-0.207734,-0.388781,-14.2233,27.5099,-13.2919,0.207734,5.52473,12.8083,4.43221,6.42263,6.29299,-5.00833,-3.13905,7.46863,15.0173,4.66842,5,-21.4678,-3.52009,-3.13778,0.291585,-0.110453,54,64,75,80,74,46,90,73,68,66,73,10
1.72212,9.89635,-0.207782,-0.388747,-14.3399,27.5099,-13.1753,0.207782,-0.207782,-0.388747,-14.2233,27.5099,-13.2919,0.207782,5.52471,12.8081,4.43224,6.42273,6.29326,-5.00835,-3.13875,7.46844,15.0177,4.66859,5,-21.4679,-3.52,-3.13777,0.291561,-0.110478,54,64,75,80,74,46,90,73,68,66,73,10
1.72165,9.89668,-0.207831,-0.388712,-14.3399,27.5099,-13.1753,0.207831,-0.207831,-0.388712,-14.2233,27.5099,-13.2919,0.207831,5.5247,12.8079,4.43226,6.42283,6.29355,-5.00837,-3.13844,7.46826,15.018,4.66875,5,-21.468,-3.51988,-3.13775,0.291534,-0.110504,54,64,75,80,74,46,90,73,68,66,73,10
1.72119,9.89702,-0.207881,-0.388676,-14.3399,27.5099,-13.1753,0.207881,-0.207881,-0.388676,-14.2233,27.5099,-13.2919,0.207881,5.5247,12.8077,4.43225,6.42292,6.29385,-5.00839,-3.13813,7.46808,15.0184,4.6689,5,-21.4681,-3.51975,-3.13772,0.291507,-0.110531,54,64,75,80,74,46,90,73,68,66,73,10
1.72074,9.89737,-0.207932,-0.388638,-14.3399,27.5099,-13.1753,0.207932,-0.207932,-0.388638,-14.2233,27.5099,-13.2919,0.207932,5.52472,12.8076,4.43221,6.42301,6.29415,-5.00841,-3.13783,7.46791,15.0187,4.66903,5,-21.4681,-3.51961,-3.13769,0.291479,-0.110558,54,64,75,80,74,46,90,73,68,66,73,10
1.7203,9.89772,-0.207984,-0.388599,-14.3399,27.5099,-13.1753,0.207984,-0.207984,-0.388599,-14.2233,27.5099,-13.2919,0.207984,5.52475,12.8074,4.43216,6.4231,6.29445,-5.00843,-3.13753,7.46774,15.0191,4.66914,5,-21.4682,-3.51945,-3.13766,0.291449,-0.110586,54,64,75,80,74,46,90,73,68,66,73,10
1.71987,9.89809,-0.208037,-0.388559,-14.3399,27.5099,-13.1754,0.208037,-0.208037,-0.388559,-14.2233,27.5099,-13.2919,0.208037,5.52479,12.8071,4.43209,6.42318,6.29477,-5.00845,-3.13723,7.46758,15.0194,4.66924,5,-21.4683,-3.51927,-3.13763,0.291419,-0.110614,54,64,75,80,74,46,90,73,68,66,73,10
1.71945,9.89847,-0.20809,-0.388519,-14.3405,27.5104,-13.1755,0.20809,-0.20809,-0.388519,-14.224,27.5104,-13.2921,0.20809,5.52484,12.8069,4.432,6.42326,6.29508,-5.00848,-3.13693,7.46743,15.0198,4.66932,5,-21.4684,-3.51909,-3.13759,0.291389,-0.110643,54,64,75,80,74,46,90,73,68,66,73,10
1.71903,9.89886,-0.208144,-0.388478,-14.3405,27.5104,-13.1755,0.208144,-0.208144,-0.388478,-14.224,27.5104,-13.2921,0.208144,5.52489,12.8067,4.4319,6.42334,6.2954,-5.0085,-3.13663,7.46728,15.0202,4.66939,5,-21.4684,-3.51889,-3.13755,0.291359,-0.110671,54,64,75,80,74,46,90,73,68,66,73,10
1.71861,9.89925,-0.208198,-0.388437,-14.3405,27.5104,-13.1755,0.208198,-0.208198,-0.388437,-14.224,27.5104,-13.2921,0.208198,5.52495,12.8065,4.43178,6.42341,6.29572,-5.00853,-3.13634,7.46714,15.0205,4.66944,5,-21.4685,-3.51868,-3.13751,0.291328,-0.1107,54,64,75,80,74,46,90,73,68,66,73,10
1.71821,9.89965,-0.208253,-0.388396,-14.3405,27.5104,-13.1755,0.208253,-0.208253,-0.388396,-14.224,27.5104,-13.2921,0.208253,5.52502,12.8063,4.43164,6.42348,6.29604,-5.00856,-3.13605,7.467,15.0209,4.66948,5,-21.4685,-3.51847,-3.13747,0.291297,-0.11073,54,64,75,80,74,46,90,73,68,66,73,10
1.71782,9.90008,-0.208309,-0.388354,-14.3405,27.5104,-13.1755,0.208309,-0.208309,-0.388354,-14.224,27.5104,-13.292,0.208309,5.5251,12.8061,4.43148,6.42354,6.29637,-5.0086,-3.13577,7.46687,15.0213,4.66949,5,-21.4686,-3.51825,-3.13743,0.291265,-0.110759,54,64,75,80,74,46,90,73,68,66,73,10
1.71744,9.90053,-0.208365,-0.38831,-14.3405,27.5104,-13.1755,0.208365,-0.208365,-0.38831,-14.224,27.5104,-13.292,0.208365,5.52519,12.8058,4.4313,6.4236,6.29671,-5.00864,-3.13548,7.46674,15.0216,4.66949,5,-21.4686,-3.51802,-3.13739,0.291232,-0.11079,54,64,75,80,74,46,90,73,68,66,73,10
1.71708,9.901,-0.208423,-0.388265,-14.3405,27.5104,-13.1756,0.208423,-0.208423,-0.388265,-14.224,27.5104,-13.292,0.208423,5.52529,12.8056,4.43109,6.42364,6.29705,-5.00868,-3.1352,7.46661,15.022,4.66946,5,-21.4687,-3.51779,-3.13735,0.291199,-0.11082,54,64,75,80,74,46,90,73,68,66,73,10
1.71673,9.90151,-0.208481,-0.388218,-14.3404,27.5104,-13.1755,0.208481,-0.208481,-0.388218,-14.2239,27.5104,-13.292,0.208481,5.52539,12.8054,4.43087,6.42368,6.29741,-5.00873,-3.13493,7.46648,15.0224,4.66942,5,-21.4687,-3.51755,-3.13731,0.291164,-0.110851,54,64,75,80,74,46,90,73,68,66,73,10
1.71641,9.90206,-0.20854,-0.388169,-14.3404,27.5104,-13.1756,0.20854,-0.20854,-0.388169,-14.2239,27.5104,-13.292,0.20854,5.52551,12.8051,4.43061,6.4237,6.29777,-5.00878,-3.13466,7.46635,15.0228,4.66935,5,-21.4688,-3.51732,-3.13726,0.291127,-0.110883,54,64,75,80,74,46,90,73,68,66,73,10
1.71611,9.90265,-0.2086,-0.388118,-14.3404,27.5104,-13.1756,0.2086,-0.2086,-0.388118,-14.2239,27.5104,-13.292,0.2086,5.52563,12.8049,4.43033,6.42372,6.29815,-5.00885,-3.1344,7.46622,15.0232,4.66927,5,-21.4688,-3.51708,-3.13722,0.291088,-0.110915,54,64,75,80,74,46,90,73,68,66,73,10
1.71583,9.90328,-0.20866,-0.388065,-14.3404,27.5104,-13.1756,0.20866,-0.20866,-0.388065,-14.2239,27.5104,-13.292,0.20866,5.52577,12.8046,4.43002,6.42372,6.29854,-5.00891,-3.13414,7.46609,15.0235,4.66917,5,-21.4689,-3.51684,-3.13719,0.291048,-0.110947,54,64,75,80,74,46,90,73,68,66,73,10
1.71557,9.90393,-0.208722,-0.388009,-14.3403,27.5104,-13.1756,0.208722,-0.208722,-0.388009,-14.2239,27.5104,-13.292,0.208722,5.52592,12.8043,4.42969,6.4237,6.29894,-5.00899,-3.13389,7.46596,15.0239,4.66904,5,-21.4689,-3.51661,-3.13715,0.291007,-0.11098,54,64,75,80,74,46,90,73,68,66,73,10
1.71532,9.9046,-0.208785,-0.387952,-14.3403,27.5104,-13.1756,0.208785,-0.208785,-0.387952,-14.224,27.5104,-13.292,0.208785,5.52607,12.804,4.42934,6.42368,6.29935,-5.00907,-3.13364,7.46583,15.0243,4.66889,5,-21.469,-3.51638,-3.13712,0.290964,-0.111014,54,64,75,80,74,46,90,73,68,66,73,10
1.71509,9.9053,-0.20885,-0.387893,-14.3403,27.5104,-13.1756,0.20885,-0.20885,-0.387893,-14.224,27.5104,-13.292,0.20885,5.52624,12.8037,4.42896,6.42363,6.29978,-5.00915,-3.1334,7.4657,15.0247,4.66871,5,-21.469,-3.51615,-3.1371,0.29092,-0.111048,54,64,75,80,74,46,90,73,68,66,73,10
1.71487,9.90601,-0.208915,-0.387833,-14.3406,27.5105,-13.1756,0.208915,-0.208915,-0.387833,-14.2242,27.5105,-13.292,0.208915,5.52641,12.8034,4.42856,6.42358,6.30021,-5.00925,-3.13317,7.46557,15.0251,4.66851,5,-21.4691,-3.51592,-3.13708,0.290875,-0.111083,54,64,75,80,74,46,90,73,68,66,73,10
1.71467,9.90673,-0.208981,-0.387771,-14.3406,27.5105,-13.1757,0.208981,-0.208981,-0.387771,-14.2242,27.5105,-13.292,0.208981,5.52659,12.8031,4.42813,6.4235,6.30066,-5.00935,-3.13293,7.46544,15.0255,4.66826,5,-21.4691,-3.5157,-3.13707,0.290829,-0.111118,54,64,75,80,74,46,90,73,68,66,73,10
1.71447,9.90745,-0.209048,-0.387709,-14.3406,27.5105,-13.1757,0.209048,-0.209048,-0.387709,-14.2242,27.5105,-13.292,0.209048,5.52677,12.8028,4.42769,6.42341,6.30111,-5.00946,-3.1327,7.46532,15.0259,4.66798,5,-21.4691,-3.51548,-3.13707,0.290782,-0.111154,54,64,75,80,74,46,90,73,68,66,73,10
1.71429,9.90818,-0.209116,-0.387645,-14.3405,27.5105,-13.1757,0.209116,-0.209116,-0.387645,-14.2243,27.5105,-13.292,0.209116,5.52697,12.8024,4.42723,6.42331,6.30158,-5.00958,-3.13248,7.46519,15.0262,4.66768,5,-21.4692,-3.51527,-3.13708,0.290734,-0.111191,54,64,75,80,74,46,90,73,68,66,73,10
1.71412,9.90892,-0.209186,-0.387579,-14.3405,27.5105,-13.1757,0.209186,-0.209186,-0.387579,-14.2243,27.5105,-13.292,0.209186,5.52717,12.8021,4.42676,6.42319,6.30206,-5.0097,-3.13227,7.46507,15.0266,4.66737,5,-21.4692,-3.51506,-3.13709,0.290685,-0.111228,54,64,75,80,74,46,90,73,68,66,73,10
1.71396,9.90967,-0.209256,-0.387512,-14.3405,27.5105,-13.1757,0.209256,-0.209256,-0.387512,-14.2243,27.5105,-13.2919,0.209256,5.52738,12.8017,4.42626,6.42306,6.30255,-5.00983,-3.13206,7.46494,15.027,4.66706,5,-21.4692,-3.51486,-3.1371,0.290634,-0.111265,54,64,75,80,74,46,90,73,68,66,73,10
1.71381,9.91042,-0.209327,-0.387443,-14.3405,27.5105,-13.1757,0.209327,-0.209327,-0.387443,-14.2243,27.5105,-13.2919,0.209327,5.5276,12.8013,4.42576,6.42292,6.30304,-5.00996,-3.13187,7.46482,15.0274,4.66675,5,-21.4693,-3.51467,-3.13711,0.290583,-0.111303,54,64,75,80,74,46,90,73,68,66,73,10
1.71368,9.91117,-0.209399,-0.387373,-14.3404,27.5105,-13.1757,0.209399,-0.209399,-0.387373,-14.2242,27.5105,-13.2919,0.209399,5.52783,12.8009,4.42524,6.42277,6.30355,-5.01009,-3.13169,7.46469,15.0277,4.66646,5,-21.4693,-3.51449,-3.13712,0.290529,-0.111342,54,64,75,80,74,46,90,73,68,66,73,10
1.71355,9.91193,-0.209473,-0.387299,-14.3404,27.5105,-13.1757,0.209473,-0.209473,-0.387299,-14.2242,27.5105,-13.2919,0.209473,5.52807,12.8005,4.42471,6.42262,6.30406,-5.01022,-3.13152,7.46457,15.0281,4.66619,5,-21.4694,-3.51432,-3.13712,0.290475,-0.111381,54,64,75,80,74,46,90,73,68,66,73,10
1.71344,9.91269,-0.209548,-0.387224,-14.3404,27.5105,-13.1757,0.209548,-0.209548,-0.387224,-14.2242,27.5105,-13.2919,0.209548,5.52832,12.8001,4.42418,6.42245,6.30459,-5.01035,-3.13137,7.46444,15.0285,4.66595,5,-21.4695,-3.51417,-3.13712,0.290418,-0.111421,54,64,75,80,74,46,90,73,68,66,73,10
1.71334,9.91346,-0.209623,-0.387147,-14.3404,27.5105,-13.1757,0.209623,-0.209623,-0.387147,-14.2243,27.5105,-13.2918,0.209623,5.52858,12.7996,4.42364,6.42228,6.30512,-5.01048,-3.13124,7.46432,15.0289,4.66573,5,-21.4697,-3.51402,-3.13711,0.29036,-0.111461,54,64,75,80,74,46,90,73,68,66,73,10
1.71325,9.91423,-0.209699,-0.387068,-14.3404,27.5105,-13.1757,0.209699,-0.209699,-0.387068,-14.2243,27.5105,-13.2918,0.209699,5.52885,12.7992,4.42309,6.42211,6.30566,-5.01061,-3.13111,7.46419,15.0292,4.66553,5,-21.4698,-3.51388,-3.13709,0.290301,-0.111502,54,64,75,80,74,46,90,73,68,66,73,10
1.71318,9.915,-0.209775,-0.386988,-14.3404,27.5105,-13.1757,0.209775,-0.209775,-0.386988,-14.2243,27.5105,-13.2918,0.209775,5.52912,12.7987,4.42253,6.42193,6.3062,-5.01074,-3.131,7.46406,15.0296,4.66536,5,-21.47,-3.51375,-3.13707,0.290241,-0.111543,54,64,75,80,74,46,90,73,68,66,73,10
1.71312,9.91577,-0.209851,-0.386908,-14.3404,27.5105,-13.1757,0.209851,-0.209851,-0.386908,-14.2243,27.5105,-13.2918,0.209851,5.5294,12.7983,4.42198,6.42175,6.30674,-5.01086,-3.1309,7.46394,15.03,4.6652,5,-21.4702,-3.51363,-3.13705,0.290181,-0.111583,54,64,75,80,74,46,90,73,68,66,73,10
1.71307,9.91655,-0.209927,-0.386827,-14.3401,27.5103,-13.1757,0.209927,-0.209927,-0.386827,-14.2241,27.5103,-13.2917,0.209927,5.52968,12.7978,4.42142,6.42156,6.30728,-5.01099,-3.13081,7.46381,15.0303,4.66506,5,-21.4703,-3.51351,-3.13702,0.29012,-0.111624,54,64,75,80,74,46,90,73,68,66,73,10
1.71303,9.91732,-0.210002,-0.386746,-14.3401,27.5103,-13.1757,0.210002,-0.210002,-0.386746,-14.2241,27.5103,-13.2917,0.210002,5.52996,12.7974,4.42086,6.42138,6.30782,-5.01111,-3.13072,7.46369,15.0307,4.66494,5,-21.4705,-3.51339,-3.13699,0.29006,-0.111664,54,64,75,80,74,46,90,73,68,66,73,10
1.71301,9.91809,-0.210077,-0.386665,-14.3401,27.5103,-13.1757,0.210077,-0.210077,-0.386665,-14.2241,27.5103,-13.2917,0.210077,5.53023,12.797,4.4203,6.4212,6.30836,-5.01123,-3.13065,7.46356,15.031,4.66483,5,-21.4707,-3.51327,-3.13695,0.289999,-0.111704,54,64,75,80,74,46,90,73,68,66,73,10
1.713,9.91887,-0.210151,-0.386585,-14.3401,27.5103,-13.1757,0.210151,-0.210151,-0.386585,-14.2241,27.5103,-13.2917,0.210151,5.53051,12.7965,4.41975,6.42102,6.30889,-5.01136,-3.13058,7.46343,15.0314,4.66473,5,-21.4709,-3.51316,-3.13692,0.289939,-0.111743,54,64,75,80,74,46,90,73,68,66,73,10
1.713,9.91964,-0.210224,-0.386504,-14.3401,27.5103,-13.1757,0.210224,-0.210224,-0.386504,-14.2242,27.5103,-13.2916,0.210224,5.53079,12.7961,4.4192,6.42084,6.30942,-5.01147,-3.13052,7.46331,15.0317,4.66464,5,-21.4711,-3.51306,-3.13687,0.289878,-0.111782,54,64,75,80,74,46,90,73,68,66,73,10
1.71303,9.92041,-0.210297,-0.386424,-14.3401,27.5103,-13.1757,0.210297,-0.210297,-0.386424,-14.2242,27.5103,-13.2916,0.210297,5.53107,12.7956,4.41865,6.42066,6.30995,-5.01159,-3.13047,7.46319,15.0321,4.66457,5,-21.4713,-3.51296,-3.13683,0.289818,-0.111821,54,64,75,80,74,46,90,73,68,66,73,10
1.71307,9.92119,-0.210369,-0.386344,-14.3401,27.5103,-13.1757,0.210369,-0.210369,-0.386344,-14.2242,27.5103,-13.2916,0.210369,5.53135,12.7952,4.41811,6.42047,6.31047,-5.01171,-3.13042,7.46307,15.0324,4.66451,5,-21.4715,-3.51288,-3.13679,0.289758,-0.11186,54,64,75,80,74,46,90,73,68,66,73,10
1.71314,9.92197,-0.21044,-0.386265,-14.34,27.5102,-13.1757,0.21044,-0.21044,-0.386265,-14.2241,27.5102,-13.2916,0.21044,5.53163,12.7948,4.41758,6.42029,6.31099,-5.01182,-3.13038,7.46295,15.0327,4.66445,5,-21.4718,-3.5128,-3.13675,0.289699,-0.111898,54,64,75,80,74,46,90,73,68,66,73,10
1.71323,9.92276,-0.210512,-0.386186,-14.34,27.5102,-13.1757,0.210512,-0.210512,-0.386186,-14.2241,27.5102,-13.2915,0.210512,5.53192,12.7943,4.41706,6.4201,6.3115,-5.01193,-3.13034,7.46284,15.033,4.66441,5,-21.472,-3.51274,-3.13671,0.289639,-0.111936,54,64,75,80,74,46,90,73,68,66,73,10
1.71336,9.92356,-0.210582,-0.386107,-14.34,27.5102,-13.1757,0.210582,-0.210582,-0.386107,-14.2241,27.5102,-13.2915,0.210582,5.5322,12.7938,4.41655,6.41991,6.312,-5.01204,-3.13031,7.46274,15.0333,4.66438,5,-21.4722,-3.51269,-3.13667,0.28958,-0.111974,54,64,75,80,74,46,90,73,68,66,73,10
1.7135,9.92436,-0.210653,-0.386028,-14.34,27.5102,-13.1757,0.210653,-0.210653,-0.386028,-14.2241,27.5102,-13.2915,0.210653,5.5325,12.7934,4.41606,6.41971,6.3125,-5.01214,-3.13028,7.46264,15.0336,4.66435,5,-21.4725,-3.51265,-3.13664,0.289521,-0.112011,54,64,75,80,74,46,90,73,68,66,73,10
1.71366,9.92516,-0.210723,-0.385951,-14.34,27.5102,-13.1757,0.210723,-0.210723,-0.385951,-14.2242,27.5102,-13.2915,0.210723,5.53279,12.7929,4.41558,6.41952,6.31299,-5.01224,-3.13025,7.46254,15.0339,4.66433,5,-21.4728,-3.51262,-3.13661,0.289463,-0.112049,54,64,75,80,74,46,90,73,68,66,73,10
1.71384,9.92595,-0.210792,-0.385875,-14.34,27.5102,-13.1757,0.210792,-0.210792,-0.385875,-14.2242,27.5102,-13.2915,0.210792,5.53308,12.7924,4.41511,6.41933,6.31348,-5.01234,-3.13023,7.46245,15.0341,4.66432,5,-21.473,-3.5126,-3.13659,0.289406,-0.112086,54,64,75,80,74,46,90,73,68,66,73,10
1.71403,9.92675,-0.210862,-0.385799,-14.3399,27.5102,-13.1757,0.210862,-0.210862,-0.385799,-14.2242,27.5102,-13.2914,0.210862,5.53337,12.7919,4.41465,6.41913,6.31396,-5.01244,-3.13021,7.46237,15.0344,4.66432,5,-21.4733,-3.51259,-3.13656,0.28935,-0.112123,54,64,75,80,74,46,90,73,68,66,73,10
1.71422,9.92753,-0.21093,-0.385726,-14.3402,27.5103,-13.1758,0.21093,-0.21093,-0.385726,-14.2244,27.5103,-13.2915,0.21093,5.53367,12.7914,4.4142,6.41894,6.31443,-5.01254,-3.13019,7.4623,15.0346,4.66433,5,-21.4736,-3.51259,-3.13655,0.289294,-0.11216,54,64,75,80,74,46,90,73,68,66,73,10
1.71442,9.9283,-0.210999,-0.385653,-14.3402,27.5103,-13.1758,0.210999,-0.210999,-0.385653,-14.2245,27.5103,-13.2914,0.210999,5.53396,12.7909,4.41377,6.41875,6.31489,-5.01264,-3.13018,7.46223,15.0349,4.66434,5,-21.4739,-3.51259,-3.13654,0.28924,-0.112196,54,64,75,80,74,46,90,73,68,66,73,10
1.71461,9.92905,-0.211067,-0.385583,-14.3402,27.5103,-13.1758,0.211067,-0.211067,-0.385583,-14.2245,27.5103,-13.2914,0.211067,5.53425,12.7904,4.41335,6.41855,6.31535,-5.01273,-3.13016,7.46216,15.0351,4.66435,5,-21.4742,-3.5126,-3.13653,0.289187,-0.112233,54,64,75,80,74,46,90,73,68,66,73,10
1.71481,9.92979,-0.211134,-0.385514,-14.3402,27.5103,-13.1758,0.211134,-0.211134,-0.385514,-14.2245,27.5103,-13.2914,0.211134,5.53454,12.7899,4.41294,6.41836,6.31581,-5.01282,-3.13015,7.46211,15.0353,4.66438,5,-21.4745,-3.51261,-3.13652,0.289136,-0.112269,54,64,75,80,74,46,90,73,68,66,73,10
1.71502,9.93053,-0.211201,-0.385448,-14.3402,27.5103,-13.1758,0.211201,-0.211201,-0.385448,-14.2245,27.5103,-13.2914,0.211201,5.53482,12.7894,4.41255,6.41818,6.31625,-5.01292,-3.13014,7.46206,15.0355,4.66441,5,-21.4748,-3.51263,-3.13653,0.289086,-0.112305,54,64,75,80,74,46,90,73,68,66,73,10
1.71524,9.93126,-0.211268,-0.385384,-14.3402,27.5103,-13.1758,0.211268,-0.211268,-0.385384,-14.2245,27.5103,-13.2914,0.211268,5.5351,12.7888,4.41218,6.418,6.31667,-5.01301,-3.13013,7.46202,15.0356,4.66445,5,-21.4751,-3.51266,-3.13654,0.289038,-0.11234,54,64,75,80,74,46,90,73,68,66,73,10
1.71547,9.93199,-0.211335,-0.385323,-14.3402,27.5103,-13.1758,0.211335,-0.211335,-0.385323,-14.2246,27.5103,-13.2914,0.211335,5.53538,12.7883,4.41184,6.41782,6.31709,-5.0131,-3.13013,7.462,15.0358,4.6645,5,-21.4754,-3.5127,-3.13656,0.288992,-0.112376,54,64,75,80,74,46,90,73,68,66,73,10
1.71572,9.93272,-0.211401,-0.385265,-14.3404,27.5106,-13.1758,0.211401,-0.211401,-0.385265,-14.2249,27.5106,-13.2914,0.211401,5.53566,12.7877,4.41152,6.41765,6.31749,-5.01318,-3.13012,7.46198,15.0359,4.66456,5,-21.4758,-3.51274,-3.13658,0.288948,-0.112411,54,64,75,80,74,46,90,73,68,66,73,10
1.716,9.93345,-0.211467,-0.385209,-14.3404,27.5106,-13.1758,0.211467,-0.211467,-0.385209,-14.2249,27.5106,-13.2914,0.211467,5.53593,12.7871,4.41123,6.4175,6.31787,-5.01327,-3.13011,7.46198,15.0361,4.66463,5,-21.4761,-3.5128,-3.13662,0.288907,-0.112446,54,64,75,80,74,46,90,73,68,66,73,10
1.71629,9.93419,-0.211533,-0.385157,-14.3404,27.5106,-13.1758,0.211533,-0.211533,-0.385157,-14.2249,27.5106,-13.2914,0.211533,5.5362,12.7866,4.41097,6.41735,6.31823,-5.01335,-3.1301,7.46199,15.0362,4.66471,5,-21.4765,-3.51287,-3.13667,0.288868,-0.112482,54,64,75,80,74,46,90,73,68,66,73,10
1.71661,9.93492,-0.211598,-0.385109,-14.3404,27.5106,-13.1758,0.211598,-0.211598,-0.385109,-14.2249,27.5106,-13.2913,0.211598,5.53647,12.786,4.41074,6.41721,6.31858,-5.01343,-3.13009,7.46201,15.0363,4.66481,5,-21.4768,-3.51294,-3.13673,0.288832,-0.112516,54,64,75,80,74,46,90,73,68,66,73,10
1.71695,9.93567,-0.211663,-0.385064,-14.3405,27.5106,-13.1758,0.211663,-0.211663,-0.385064,-14.2249,27.5106,-13.2913,0.211663,5.53673,12.7854,4.41053,6.41708,6.3189,-5.01351,-3.13009,7.46204,15.0364,4.66491,5,-21.4772,-3.51303,-3.13679,0.288798,-0.112551,54,64,75,80,74,46,90,73,68,66,73,10
1.7173,9.93641,-0.211728,-0.385022,-14.3405,27.5106,-13.1758,0.211728,-0.211728,-0.385022,-14.225,27.5106,-13.2913,0.211728,5.53698,12.7848,4.41036,6.41696,6.31922,-5.01359,-3.13008,7.46209,15.0365,4.66502,5,-21.4776,-3.51312,-3.13687,0.288766,-0.112586,54,64,75,80,74,46,90,73,68,66,73,10
1.71768,9.93715,-0.211792,-0.384983,-14.3405,27.5106,-13.1758,0.211792,-0.211792,-0.384983,-14.225,27.5106,-13.2913,0.211792,5.53723,12.7842,4.41021,6.41685,6.31951,-5.01366,-3.13007,7.46215,15.0366,4.66515,5,-21.478,-3.51322,-3.13695,0.288738,-0.11262,54,64,75,80,74,46,90,73,68,66,73,10
1.71807,9.93789,-0.211855,-0.384949,-14.3405,27.5106,-13.1758,0.211855,-0.211855,-0.384949,-14.225,27.5106,-13.2913,0.211855,5.53748,12.7836,4.41009,6.41675,6.31979,-5.01374,-3.13006,7.46222,15.0366,4.66528,5,-21.4784,-3.51333,-3.13704,0.288711,-0.112654,54,64,75,80,74,46,90,73,68,66,73,10
1.71848,9.93862,-0.211918,-0.384917,-14.3405,27.5106,-13.1758,0.211918,-0.211918,-0.384917,-14.225,27.5106,-13.2912,0.211918,5.53772,12.7829,4.41,6.41666,6.32004,-5.01381,-3.13005,7.4623,15.0367,4.66542,5,-21.4788,-3.51344,-3.13713,0.288688,-0.112687,54,64,75,80,74,46,90,73,68,66,73,10
1.71891,9.93936,-0.21198,-0.384889,-14.3405,27.5106,-13.1758,0.21198,-0.21198,-0.384889,-14.225,27.5106,-13.2912,0.21198,5.53795,12.7823,4.40993,6.41658,6.32029,-5.01389,-3.13004,7.4624,15.0367,4.66558,5,-21.4792,-3.51356,-3.13723,0.288667,-0.11272,54,64,75,80,74,46,90,73,68,66,73,10
1.71935,9.94009,-0.212041,-0.384864,-14.3405,27.5106,-13.1758,0.212041,-0.212041,-0.384864,-14.225,27.5106,-13.2912,0.212041,5.53818,12.7817,4.40989,6.41651,6.32051,-5.01396,-3.13003,7.4625,15.0368,4.66574,5,-21.4796,-3.51369,-3.13734,0.288648,-0.112753,54,64,75,80,74,46,90,73,68,66,73,10
1.7198,9.94082,-0.212102,-0.384843,-14.3405,27.5106,-13.1757,0.212102,-0.212102,-0.384843,-14.2251,27.5106,-13.2912,0.212102,5.5384,12.7811,4.40987,6.41645,6.32072,-5.01404,-3.13002,7.46262,15.0368,4.66591,5,-21.48,-3.51382,-3.13745,0.288632,-0.112786,54,64,75,80,74,46,90,73,68,66,73,10
1.72027,9.94154,-0.212161,-0.384826,-14.3405,27.5106,-13.1757,0.212161,-0.212161,-0.384826,-14.2251,27.5106,-13.2912,0.212161,5.53862,12.7805,4.40987,6.4164,6.32092,-5.01412,-3.13001,7.46274,15.0368,4.66608,5,-21.4805,-3.51396,-3.13756,0.288619,-0.112817,54,64,75,80,74,46,90,73,68,66,73,10
1.72075,9.94226,-0.21222,-0.384812,-14.3405,27.5106,-13.1757,0.21222,-0.21222,-0.384812,-14.2251,27.5106,-13.2912,0.21222,5.53882,12.7798,4.40988,6.41637,6.32111,-5.0142,-3.12999,7.46289,15.0368,4.66626,5,-21.4809,-3.51411,-3.13768,0.288609,-0.112849,54,64,75,80,74,46,90,73,68,66,73,10
1.72124,9.94298,-0.212277,-0.384803,-14.3405,27.5106,-13.1757,0.212277,-0.212277,-0.384803,-14.2251,27.5106,-13.2911,0.212277,5.53903,12.7792,4.40992,6.41634,6.32128,-5.01427,-3.12997,7.46304,15.0368,4.66643,5,-21.4813,-3.51425,-3.1378,0.288602,-0.112879,54,64,75,80,74,46,90,73,68,66,73,10
1.72174,9.9437,-0.212333,-0.384798,-14.3406,27.5106,-13.1757,0.212333,-0.212333,-0.384798,-14.2251,27.5106,-13.2911,0.212333,5.53922,12.7786,4.40997,6.41632,6.32144,-5.01436,-3.12995,7.46321,15.0368,4.66661,5,-21.4817,-3.51441,-3.13793,0.288599,-0.112909,54,64,75,80,74,46,90,73,68,66,73,10
1.72226,9.94441,-0.212387,-0.384798,-14.3406,27.5106,-13.1757,0.212387,-0.212387,-0.384798,-14.2251,27.5106,-13.2911,0.212387,5.53941,12.778,4.41003,6.41632,6.32159,-5.01444,-3.12992,7.4634,15.0367,4.66678,5,-21.4821,-3.51457,-3.13806,0.288598,-0.112938,54,64,75,80,74,46,90,73,68,66,73,10
1.72278,9.94512,-0.212439,-0.384801,-14.3406,27.5106,-13.1757,0.212439,-0.212439,-0.384801,-14.2252,27.5106,-13.2911,0.212439,5.5396,12.7773,4.4101,6.41633,6.32173,-5.01452,-3.12989,7.4636,15.0367,4.66695,5,-21.4825,-3.51474,-3.1382,0.2886,-0.112966,54,64,75,80,74,46,90,73,68,66,73,10
1.72331,9.94582,-0.212491,-0.384807,-14.3406,27.5106,-13.1756,0.212491,-0.212491,-0.384807,-14.2252,27.5106,-13.2911,0.212491,5.53978,12.7767,4.41018,6.41634,6.32186,-5.01461,-3.12986,7.46381,15.0366,4.66712,5,-21.4829,-3.51491,-3.13834,0.288605,-0.112993,54,64,75,80,74,46,90,73,68,66,73,10
1.72384,9.94651,-0.212541,-0.384817,-14.3406,27.5106,-13.1756,0.212541,-0.212541,-0.384817,-14.2252,27.5106,-13.2911,0.212541,5.53995,12.7761,4.41028,6.41637,6.32199,-5.0147,-3.12982,7.46403,15.0365,4.66729,5,-21.4832,-3.51509,-3.13848,0.288612,-0.11302,54,64,75,80,74,46,90,73,68,66,73,10
1.72438,9.9472,-0.212589,-0.384829,-14.3406,27.5106,-13.1756,0.212589,-0.212589,-0.384829,-14.2252,27.5106,-13.2911,0.212589,5.54012,12.7755,4.41038,6.41639,6.3221,-5.01478,-3.12979,7.46426,15.0364,4.66746,5,-21.4836,-3.51526,-3.13863,0.288622,-0.113046,54,64,75,80,74,46,90,73,68,66,73,10
1.72492,9.94788,-0.212637,-0.384843,-14.3414,27.5111,-13.1758,0.212637,-0.212637,-0.384843,-14.226,27.5111,-13.2912,0.212637,5.54028,12.7749,4.4105,6.41643,6.3222,-5.01487,-3.12975,7.46449,15.0363,4.66762,5,-21.484,-3.51544,-3.13878,0.288632,-0.113071,54,64,75,80,74,46,90,73,68,66,73,10
1.72546,9.94855,-0.212683,-0.384859,-14.3414,27.5111,-13.1757,0.212683,-0.212683,-0.384859,-14.226,27.5111,-13.2912,0.212683,5.54043,12.7743,4.41062,6.41647,6.3223,-5.01495,-3.12971,7.46473,15.0363,4.66779,5,-21.4843,-3.51562,-3.13893,0.288645,-0.113096,54,64,75,80,74,46,90,73,68,66,73,10
