565950964-design/kaipule_sdk/control/csv_file/shoushi8.csv
Head_1,Head_2,Joint_1,Joint_2,Joint_3,Joint_4,Joint_5,Joint_6,Joint_7,Joint_8,Joint_9,Joint_10,Joint_11,Joint_12,Joint_13,Joint_14,Joint_15,Joint_16,Joint_17,Joint_18,Joint_19,Joint_20,Joint_21,Joint_22,Joint_23,Joint_24,Joint_25,Joint_26,Joint_27,Joint_28,Finger_1,Finger_2,Finger_3,Finger_4,Finger_5,Finger_6,Finger_7,Finger_8,Finger_9,Finger_10,Finger_11,Finger_12
1.15806,10,-0.107553,-0.714646,-14.4602,27.5219,-13.0749,0.107553,-0.107553,-0.714646,-14.2458,27.5219,-13.2893,0.107553,5.39765,13.2499,-2.35128,7.78326,11.5926,-1.53456,-1.27345,8.97088,14.3918,-0.0599959,5,-17.3227,-1.46893,2.37647,0.535985,-0.0570927,68,78,74,78,72,32,93,76,74,71,77,7
1.15806,10,-0.107553,-0.714645,-14.4602,27.5219,-13.0749,0.107553,-0.107553,-0.714645,-14.2458,27.5219,-13.2893,0.107553,5.39765,13.2499,-2.35127,7.78326,11.5927,-1.53456,-1.27345,8.97088,14.3918,-0.059984,5,-17.3227,-1.46893,2.37647,0.535984,-0.0570928,68,78,74,78,72,32,93,76,74,71,77,7
1.15805,10,-0.107554,-0.714642,-14.4602,27.5219,-13.0749,0.107554,-0.107554,-0.714642,-14.2458,27.5219,-13.2893,0.107554,5.39766,13.2499,-2.35124,7.78326,11.5927,-1.53456,-1.27345,8.97087,14.3918,-0.0599642,5,-17.3227,-1.46893,2.37647,0.535981,-0.0570932,68,78,74,78,72,32,93,76,74,71,77,7
1.15804,10,-0.107555,-0.714638,-14.4602,27.5219,-13.0749,0.107555,-0.107555,-0.714638,-14.2458,27.5219,-13.2893,0.107555,5.39767,13.2499,-2.3512,7.78326,11.5927,-1.53457,-1.27346,8.97086,14.3918,-0.05994,5,-17.3227,-1.46893,2.37648,0.535978,-0.0570937,68,78,74,78,72,32,93,76,74,71,77,7
1.15803,10,-0.107556,-0.714632,-14.4602,27.5219,-13.0749,0.107556,-0.107556,-0.714632,-14.2458,27.5219,-13.2893,0.107556,5.39768,13.2499,-2.35113,7.78327,11.5927,-1.53458,-1.27347,8.97084,14.3918,-0.0599148,5,-17.3228,-1.46893,2.37648,0.535974,-0.0570945,68,78,74,78,72,32,93,76,74,71,77,7
1.15801,10,-0.107558,-0.714626,-14.4602,27.5219,-13.0749,0.107558,-0.107558,-0.714626,-14.2458,27.5219,-13.2893,0.107558,5.39769,13.2499,-2.35105,7.78329,11.5927,-1.53459,-1.27348,8.97081,14.3918,-0.0598913,5,-17.3228,-1.46892,2.37649,0.535969,-0.0570954,68,78,74,78,72,32,93,76,74,71,77,7
1.15798,10,-0.10756,-0.714618,-14.4602,27.5219,-13.0749,0.10756,-0.10756,-0.714618,-14.2458,27.5219,-13.2893,0.10756,5.39769,13.2499,-2.35094,7.78331,11.5926,-1.5346,-1.2735,8.97078,14.3918,-0.0598722,5,-17.3228,-1.46891,2.3765,0.535964,-0.0570966,68,78,74,78,72,32,93,76,74,71,77,7
1.15795,10,-0.107563,-0.71461,-14.46,27.5217,-13.0749,0.107563,-0.107563,-0.71461,-14.2456,27.5217,-13.2892,0.107563,5.39768,13.2499,-2.35081,7.78334,11.5926,-1.53462,-1.27351,8.97073,14.3919,-0.0598597,5,-17.3228,-1.46889,2.3765,0.535957,-0.0570979,68,78,74,78,72,32,93,76,74,71,77,7
1.15791,10,-0.107566,-0.7146,-14.46,27.5217,-13.0749,0.107566,-0.107566,-0.7146,-14.2456,27.5217,-13.2892,0.107566,5.39767,13.2499,-2.35066,7.78337,11.5925,-1.53464,-1.27353,8.97067,14.3919,-0.0598574,5,-17.3228,-1.46887,2.37651,0.53595,-0.0570996,68,78,74,78,72,32,93,76,74,71,77,7
1.15786,10,-0.107569,-0.714589,-14.46,27.5217,-13.0749,0.107569,-0.107569,-0.714589,-14.2456,27.5217,-13.2892,0.107569,5.39765,13.2499,-2.35048,7.78342,11.5925,-1.53466,-1.27355,8.97059,14.392,-0.0598661,5,-17.3228,-1.46883,2.37651,0.535942,-0.0571014,68,78,74,78,72,32,93,76,74,71,77,7
1.15781,10,-0.107573,-0.714577,-14.46,27.5217,-13.0749,0.107573,-0.107573,-0.714577,-14.2456,27.5217,-13.2893,0.107573,5.39762,13.2499,-2.35027,7.78347,11.5924,-1.53468,-1.27357,8.9705,14.392,-0.0598865,5,-17.3228,-1.46879,2.37651,0.535933,-0.0571034,68,78,74,78,72,32,93,76,74,71,77,7
1.15775,10,-0.107577,-0.714565,-14.46,27.5217,-13.0749,0.107577,-0.107577,-0.714565,-14.2456,27.5217,-13.2893,0.107577,5.39757,13.25,-2.35005,7.78353,11.5922,-1.53471,-1.2736,8.9704,14.3921,-0.0599189,5,-17.3227,-1.46874,2.37651,0.535924,-0.0571057,68,78,74,78,72,32,93,76,74,71,77,7
1.15768,10,-0.107582,-0.714553,-14.46,27.5217,-13.0749,0.107582,-0.107582,-0.714553,-14.2456,27.5217,-13.2893,0.107582,5.39752,13.25,-2.34981,7.7836,11.5921,-1.53473,-1.27362,8.97028,14.3921,-0.0599638,5,-17.3227,-1.46869,2.37651,0.535915,-0.057108,68,78,74,78,72,32,93,76,74,71,77,7
1.15761,10,-0.107587,-0.71454,-14.46,27.5217,-13.0749,0.107587,-0.107587,-0.71454,-14.2456,27.5217,-13.2893,0.107587,5.39745,13.25,-2.34956,7.78368,11.5919,-1.53475,-1.27365,8.97015,14.3922,-0.0600214,5,-17.3226,-1.46862,2.37651,0.535905,-0.0571105,68,78,74,78,72,32,93,76,74,71,77,7
1.15754,10,-0.107591,-0.714527,-14.4601,27.5218,-13.0749,0.107591,-0.107591,-0.714527,-14.2457,27.5218,-13.2893,0.107591,5.39738,13.25,-2.34929,7.78376,11.5917,-1.53478,-1.27367,8.97001,14.3922,-0.0600916,5,-17.3226,-1.46855,2.37651,0.535895,-0.0571131,68,78,74,78,72,32,93,76,74,71,77,7
1.15746,10,-0.107596,-0.714515,-14.4601,27.5218,-13.0749,0.107596,-0.107596,-0.714515,-14.2457,27.5218,-13.2893,0.107596,5.39728,13.25,-2.349,7.78385,11.5915,-1.5348,-1.2737,8.96986,14.3923,-0.0601735,5,-17.3225,-1.46846,2.3765,0.535886,-0.0571158,68,78,74,78,72,32,93,76,74,71,77,7
1.15738,10,-0.107602,-0.714502,-14.4601,27.5218,-13.075,0.107602,-0.107602,-0.714502,-14.2457,27.5218,-13.2893,0.107602,5.39718,13.25,-2.34871,7.78395,11.5913,-1.53482,-1.27372,8.96969,14.3924,-0.0602675,5,-17.3224,-1.46837,2.3765,0.535876,-0.0571185,68,78,74,78,72,32,93,76,74,71,77,7
1.1573,10,-0.107607,-0.714489,-14.46,27.5218,-13.075,0.107607,-0.107607,-0.714489,-14.2457,27.5218,-13.2893,0.107607,5.39706,13.25,-2.34841,7.78405,11.5911,-1.53484,-1.27374,8.96951,14.3925,-0.0603739,5,-17.3224,-1.46827,2.37649,0.535867,-0.0571214,68,78,74,78,72,32,93,76,74,71,77,7
1.15722,10,-0.107613,-0.714477,-14.46,27.5218,-13.075,0.107613,-0.107613,-0.714477,-14.2457,27.5218,-13.2893,0.107613,5.39693,13.2501,-2.34811,7.78416,11.5908,-1.53485,-1.27376,8.96932,14.3925,-0.0604927,5,-17.3223,-1.46816,2.37648,0.535858,-0.0571243,68,78,74,78,72,32,93,76,74,71,77,7
1.15714,10,-0.107618,-0.714464,-14.46,27.5218,-13.075,0.107618,-0.107618,-0.714464,-14.2457,27.5218,-13.2893,0.107618,5.39679,13.2501,-2.34782,7.78428,11.5906,-1.53487,-1.27378,8.96911,14.3926,-0.0606237,5,-17.3221,-1.46804,2.37646,0.535848,-0.0571274,68,78,74,78,72,32,93,76,74,71,77,7
1.15705,10,-0.107624,-0.714452,-14.46,27.5218,-13.075,0.107624,-0.107624,-0.714452,-14.2457,27.5218,-13.2894,0.107624,5.39663,13.2501,-2.34753,7.78441,11.5903,-1.53488,-1.2738,8.96889,14.3927,-0.0607666,5,-17.322,-1.46793,2.37644,0.535839,-0.0571305,68,78,74,78,72,32,93,76,74,71,77,7
1.15696,10,-0.107631,-0.714439,-14.4606,27.5223,-13.0752,0.107631,-0.107631,-0.714439,-14.2463,27.5223,-13.2895,0.107631,5.39645,13.2501,-2.34724,7.78454,11.59,-1.5349,-1.27382,8.96865,14.3928,-0.0609207,5,-17.3219,-1.46781,2.37641,0.535829,-0.0571338,68,78,74,78,72,32,93,76,74,71,77,7
1.15688,10,-0.107637,-0.714427,-14.4606,27.5223,-13.0752,0.107637,-0.107637,-0.714427,-14.2463,27.5223,-13.2895,0.107637,5.39626,13.2501,-2.34698,7.78469,11.5897,-1.53491,-1.27385,8.96839,14.3929,-0.0610879,5,-17.3217,-1.46769,2.37638,0.53582,-0.0571372,68,78,74,78,72,32,93,76,74,71,77,7
1.15678,10,-0.107643,-0.714414,-14.4606,27.5223,-13.0752,0.107643,-0.107643,-0.714414,-14.2463,27.5223,-13.2896,0.107643,5.39605,13.2502,-2.34672,7.78484,11.5894,-1.53492,-1.27387,8.96812,14.393,-0.061266,5,-17.3215,-1.46758,2.37633,0.535811,-0.0571406,68,78,74,78,72,32,93,76,74,71,77,7
1.15669,10,-0.10765,-0.714402,-14.4606,27.5223,-13.0752,0.10765,-0.10765,-0.714402,-14.2463,27.5223,-13.2896,0.10765,5.39583,13.2502,-2.34649,7.785,11.5891,-1.53493,-1.27389,8.96783,14.3931,-0.061453,5,-17.3214,-1.46746,2.37628,0.535801,-0.0571443,68,78,74,78,72,32,93,76,74,71,77,7
1.15659,10,-0.107657,-0.714389,-14.4606,27.5223,-13.0753,0.107657,-0.107657,-0.714389,-14.2462,27.5223,-13.2896,0.107657,5.39559,13.2502,-2.34628,7.78517,11.5888,-1.53494,-1.27391,8.96753,14.3932,-0.061647,5,-17.3212,-1.46734,2.37623,0.535791,-0.0571481,68,78,74,78,72,32,93,76,74,71,77,7
1.15649,10,-0.107665,-0.714375,-14.4605,27.5223,-13.0753,0.107665,-0.107665,-0.714375,-14.2462,27.5223,-13.2896,0.107665,5.39535,13.2502,-2.34609,7.78534,11.5885,-1.53494,-1.27393,8.96722,14.3933,-0.061846,5,-17.321,-1.46723,2.37616,0.535781,-0.0571522,68,78,74,78,72,32,93,76,74,71,77,7
1.15639,10,-0.107673,-0.714361,-14.4605,27.5223,-13.0753,0.107673,-0.107673,-0.714361,-14.2462,27.5223,-13.2896,0.107673,5.39509,13.2502,-2.34592,7.78552,11.5882,-1.53495,-1.27395,8.9669,14.3934,-0.0620482,5,-17.3208,-1.46712,2.37609,0.535771,-0.0571567,68,78,74,78,72,32,93,76,74,71,77,7
1.15628,10,-0.107682,-0.714347,-14.4612,27.5228,-13.0755,0.107682,-0.107682,-0.714347,-14.2469,27.5228,-13.2898,0.107682,5.39484,13.2502,-2.34579,7.7857,11.5878,-1.53495,-1.27397,8.96657,14.3935,-0.0622516,5,-17.3205,-1.46701,2.37602,0.53576,-0.0571614,68,78,74,78,72,32,93,76,74,71,77,7
1.15616,10,-0.107692,-0.714331,-14.4611,27.5228,-13.0755,0.107692,-0.107692,-0.714331,-14.2468,27.5228,-13.2898,0.107692,5.39458,13.2502,-2.34568,7.78589,11.5875,-1.53495,-1.27399,8.96623,14.3936,-0.0624536,5,-17.3203,-1.4669,2.37594,0.535749,-0.0571667,68,78,74,78,72,32,93,76,74,71,77,7
1.15603,10,-0.107703,-0.714315,-14.4611,27.5228,-13.0755,0.107703,-0.107703,-0.714315,-14.2468,27.5228,-13.2898,0.107703,5.39431,13.2502,-2.3456,7.78608,11.5872,-1.53495,-1.27401,8.96589,14.3937,-0.0626528,5,-17.3201,-1.4668,2.37586,0.535737,-0.0571724,68,78,74,78,72,32,93,76,74,71,77,7
1.15591,10,-0.107714,-0.714299,-14.4611,27.5228,-13.0756,0.107714,-0.107714,-0.714299,-14.2468,27.5228,-13.2899,0.107714,5.39405,13.2502,-2.34555,7.78628,11.5869,-1.53495,-1.27403,8.96554,14.3938,-0.062848,5,-17.3199,-1.4667,2.37577,0.535724,-0.0571785,68,78,74,78,72,32,93,76,74,71,77,7
1.15577,10,-0.107727,-0.714281,-14.4611,27.5228,-13.0756,0.107727,-0.107727,-0.714281,-14.2468,27.5228,-13.2899,0.107727,5.39379,13.2502,-2.34554,7.78647,11.5866,-1.53495,-1.27405,8.96519,14.3939,-0.0630377,5,-17.3197,-1.4666,2.37567,0.535711,-0.0571849,68,78,74,78,72,32,93,76,74,71,77,7
1.15564,10,-0.107739,-0.714262,-14.461,27.5228,-13.0756,0.107739,-0.107739,-0.714262,-14.2468,27.5228,-13.2899,0.107739,5.39352,13.2501,-2.34555,7.78668,11.5864,-1.53494,-1.27407,8.96483,14.394,-0.0632206,5,-17.3195,-1.4665,2.37558,0.535697,-0.0571917,68,78,74,78,72,32,93,76,74,71,77,7
1.15551,10,-0.107753,-0.714243,-14.461,27.5228,-13.0757,0.107753,-0.107753,-0.714243,-14.2467,27.5228,-13.2899,0.107753,5.39326,13.2501,-2.3456,7.78688,11.5861,-1.53494,-1.27409,8.96447,14.3941,-0.0633952,5,-17.3192,-1.46641,2.37548,0.535682,-0.0571988,68,78,74,78,72,32,93,76,74,71,77,7
1.15538,10,-0.107767,-0.714222,-14.4612,27.523,-13.0757,0.107767,-0.107767,-0.714222,-14.247,27.523,-13.29,0.107767,5.39299,13.2501,-2.34568,7.78708,11.5859,-1.53494,-1.27411,8.9641,14.3942,-0.06356,5,-17.319,-1.46632,2.37538,0.535667,-0.0572062,68,78,74,78,72,32,93,76,74,71,77,7
1.15525,10,-0.107781,-0.714201,-14.4612,27.523,-13.0758,0.107781,-0.107781,-0.714201,-14.247,27.523,-13.29,0.107781,5.39273,13.25,-2.34579,7.78729,11.5856,-1.53494,-1.27413,8.96373,14.3943,-0.0637223,5,-17.3188,-1.46623,2.37528,0.535651,-0.0572138,68,78,74,78,72,32,93,76,74,71,77,7
1.15514,10,-0.107795,-0.714178,-14.4612,27.523,-13.0758,0.107795,-0.107795,-0.714178,-14.2469,27.523,-13.29,0.107795,5.39247,13.25,-2.34593,7.7875,11.5854,-1.53494,-1.27415,8.96336,14.3944,-0.0638763,5,-17.3186,-1.46614,2.37518,0.535634,-0.0572215,68,78,74,78,72,32,93,76,74,71,77,7
1.15502,10,-0.10781,-0.714155,-14.4612,27.523,-13.0758,0.10781,-0.10781,-0.714155,-14.2469,27.523,-13.2901,0.10781,5.39222,13.2499,-2.3461,7.78771,11.5852,-1.53495,-1.27418,8.96299,14.3945,-0.0640166,5,-17.3184,-1.46606,2.37508,0.535616,-0.0572294,68,78,74,78,72,32,93,76,74,71,77,7
1.15491,10,-0.107826,-0.71413,-14.4611,27.523,-13.0759,0.107826,-0.107826,-0.71413,-14.2469,27.523,-13.2901,0.107826,5.39196,13.2498,-2.3463,7.78792,11.585,-1.53496,-1.2742,8.96261,14.3946,-0.0641388,5,-17.3182,-1.46598,2.37498,0.535598,-0.0572377,68,78,74,78,72,32,93,76,74,71,77,7
1.15481,10,-0.107842,-0.714105,-14.4611,27.523,-13.0759,0.107842,-0.107842,-0.714105,-14.2469,27.523,-13.2901,0.107842,5.39171,13.2498,-2.34653,7.78814,11.5848,-1.53497,-1.27423,8.96223,14.3947,-0.0642392,5,-17.318,-1.4659,2.37488,0.535579,-0.0572462,68,78,74,78,72,32,93,76,74,71,77,7
1.15471,10,-0.107859,-0.714079,-14.4611,27.523,-13.0759,0.107859,-0.107859,-0.714079,-14.2468,27.523,-13.2901,0.107859,5.39145,13.2497,-2.3468,7.78836,11.5846,-1.53497,-1.27425,8.96185,14.3948,-0.0643147,5,-17.3178,-1.46583,2.37478,0.535559,-0.0572551,68,78,74,78,72,32,93,76,74,71,77,7
1.15461,10,-0.107876,-0.714053,-14.4615,27.5233,-13.076,0.107876,-0.107876,-0.714053,-14.2473,27.5233,-13.2903,0.107876,5.3912,13.2496,-2.34709,7.78858,11.5845,-1.53498,-1.27427,8.96147,14.3949,-0.0643632,5,-17.3176,-1.46576,2.37468,0.53554,-0.0572643,68,78,74,78,72,32,93,76,74,71,77,7
1.15452,10,-0.107894,-0.714026,-14.4615,27.5233,-13.0761,0.107894,-0.107894,-0.714026,-14.2472,27.5233,-13.2903,0.107894,5.39095,13.2495,-2.34742,7.7888,11.5845,-1.53499,-1.27429,8.96108,14.395,-0.0643692,5,-17.3175,-1.46569,2.37458,0.535519,-0.057274,68,78,74,78,72,32,93,76,74,71,77,7
1.15443,10,-0.107913,-0.713998,-14.4614,27.5233,-13.0761,0.107913,-0.107913,-0.713998,-14.2472,27.5233,-13.2903,0.107913,5.3907,13.2494,-2.34777,7.78902,11.5845,-1.53501,-1.2743,8.96069,14.3951,-0.0643385,5,-17.3174,-1.46562,2.37448,0.535498,-0.0572841,68,78,74,78,72,32,93,76,74,71,77,7
1.15434,10,-0.107933,-0.71397,-14.4614,27.5233,-13.0761,0.107933,-0.107933,-0.71397,-14.2472,27.5233,-13.2903,0.107933,5.39045,13.2493,-2.34816,7.78925,11.5845,-1.53502,-1.27431,8.9603,14.3952,-0.0642762,5,-17.3173,-1.46556,2.37438,0.535477,-0.0572946,68,78,74,78,72,32,93,76,74,71,77,7
1.15425,10,-0.107953,-0.713942,-14.4614,27.5233,-13.0762,0.107953,-0.107953,-0.713942,-14.2472,27.5233,-13.2903,0.107953,5.39021,13.2492,-2.34857,7.78948,11.5845,-1.53503,-1.27432,8.95991,14.3953,-0.0641869,5,-17.3172,-1.4655,2.37429,0.535456,-0.0573054,68,78,74,78,72,32,93,76,74,71,77,7
1.15417,10,-0.107974,-0.713913,-14.4613,27.5233,-13.0762,0.107974,-0.107974,-0.713913,-14.2472,27.5233,-13.2904,0.107974,5.38996,13.2491,-2.349,7.7897,11.5846,-1.53504,-1.27433,8.95953,14.3954,-0.0640745,5,-17.3172,-1.46544,2.37419,0.535435,-0.0573164,68,78,74,78,72,32,93,76,74,71,77,7
1.15409,10,-0.107995,-0.713885,-14.4613,27.5233,-13.0762,0.107995,-0.107995,-0.713885,-14.2471,27.5233,-13.2904,0.107995,5.38972,13.2489,-2.34944,7.78993,11.5847,-1.53505,-1.27433,8.95914,14.3955,-0.0639423,5,-17.3172,-1.46538,2.3741,0.535414,-0.0573275,68,78,74,78,72,32,93,76,74,71,77,7
1.15402,10,-0.108016,-0.713858,-14.4616,27.5236,-13.0763,0.108016,-0.108016,-0.713858,-14.2475,27.5236,-13.2905,0.108016,5.38947,13.2488,-2.3499,7.79016,11.5848,-1.53506,-1.27434,8.95876,14.3956,-0.0637934,5,-17.3171,-1.46533,2.37401,0.535393,-0.0573387,68,78,74,78,72,32,93,76,74,71,77,7
1.15395,10,-0.108037,-0.713831,-14.4616,27.5236,-13.0763,0.108037,-0.108037,-0.713831,-14.2475,27.5236,-13.2905,0.108037,5.38923,13.2487,-2.35036,7.79039,11.585,-1.53506,-1.27434,8.95839,14.3957,-0.0636357,5,-17.3171,-1.46528,2.37392,0.535373,-0.0573498,68,78,74,78,72,32,93,76,74,71,77,7
1.15389,10,-0.108058,-0.713804,-14.4616,27.5236,-13.0764,0.108058,-0.108058,-0.713804,-14.2474,27.5236,-13.2905,0.108058,5.38899,13.2486,-2.35083,7.79061,11.5851,-1.53507,-1.27435,8.95802,14.3958,-0.0634681,5,-17.3171,-1.46524,2.37383,0.535353,-0.0573609,68,78,74,78,72,32,93,76,74,71,77,7
1.15384,10,-0.108079,-0.713778,-14.4615,27.5236,-13.0764,0.108079,-0.108079,-0.713778,-14.2474,27.5236,-13.2905,0.108079,5.38876,13.2484,-2.35131,7.79084,11.5853,-1.53508,-1.27435,8.95765,14.3959,-0.0632894,5,-17.3171,-1.4652,2.37374,0.535334,-0.057372,68,78,74,78,72,32,93,76,74,71,77,7
1.15379,10,-0.1081,-0.713753,-14.4615,27.5236,-13.0764,0.1081,-0.1081,-0.713753,-14.2474,27.5236,-13.2906,0.1081,5.38852,13.2483,-2.3518,7.79106,11.5855,-1.53508,-1.27435,8.95729,14.396,-0.0630985,5,-17.3171,-1.46516,2.37365,0.535314,-0.0573831,68,78,74,78,72,32,93,76,74,71,77,7
1.15374,10,-0.108121,-0.713727,-14.4615,27.5236,-13.0765,0.108121,-0.108121,-0.713727,-14.2474,27.5236,-13.2906,0.108121,5.3883,13.2482,-2.35229,7.79128,11.5857,-1.53509,-1.27435,8.95693,14.396,-0.0628944,5,-17.3171,-1.46512,2.37357,0.535295,-0.0573943,68,78,74,78,72,32,93,76,74,71,77,7
1.1537,10,-0.108142,-0.713701,-14.4615,27.5236,-13.0765,0.108142,-0.108142,-0.713701,-14.2474,27.5236,-13.2906,0.108142,5.38807,13.248,-2.35278,7.79149,11.5859,-1.5351,-1.27435,8.95658,14.3961,-0.0626759,5,-17.3171,-1.46508,2.37348,0.535276,-0.0574056,68,78,74,78,72,32,93,76,74,71,77,7
1.15366,10,-0.108163,-0.713674,-14.4614,27.5236,-13.0765,0.108163,-0.108163,-0.713674,-14.2473,27.5236,-13.2906,0.108163,5.38785,13.2479,-2.35328,7.79171,11.5861,-1.53511,-1.27434,8.95622,14.3962,-0.0624424,5,-17.3172,-1.46504,2.3734,0.535256,-0.0574169,68,78,74,78,72,32,93,76,74,71,77,7
1.15363,10,-0.108185,-0.713647,-14.4614,27.5236,-13.0765,0.108185,-0.108185,-0.713647,-14.2473,27.5236,-13.2906,0.108185,5.38764,13.2477,-2.35379,7.79192,11.5864,-1.53512,-1.27433,8.95588,14.3963,-0.0621972,5,-17.3172,-1.465,2.37333,0.535235,-0.0574284,68,78,74,78,72,32,93,76,74,71,77,7
1.15359,10,-0.108206,-0.713619,-14.4614,27.5236,-13.0766,0.108206,-0.108206,-0.713619,-14.2473,27.5236,-13.2907,0.108206,5.38744,13.2476,-2.3543,7.79212,11.5866,-1.53513,-1.27431,8.95553,14.3964,-0.0619371,5,-17.3173,-1.46496,2.37325,0.535214,-0.0574399,68,78,74,78,72,32,93,76,74,71,77,7
1.15356,10,-0.108228,-0.713591,-14.4614,27.5236,-13.0766,0.108228,-0.108228,-0.713591,-14.2473,27.5236,-13.2907,0.108228,5.38724,13.2474,-2.35482,7.79232,11.5869,-1.53514,-1.27429,8.95519,14.3965,-0.0616595,5,-17.3174,-1.46491,2.37318,0.535193,-0.0574516,68,78,74,78,72,32,93,76,74,71,77,7
1.15354,10,-0.108251,-0.713561,-14.4613,27.5236,-13.0766,0.108251,-0.108251,-0.713561,-14.2473,27.5236,-13.2907,0.108251,5.38705,13.2473,-2.35533,7.79252,11.5872,-1.53515,-1.27427,8.95485,14.3966,-0.0613619,5,-17.3175,-1.46486,2.37312,0.535171,-0.0574634,68,78,74,78,72,32,93,76,74,71,77,7
1.15353,10,-0.108273,-0.71353,-14.4613,27.5236,-13.0766,0.108273,-0.108273,-0.71353,-14.2473,27.5236,-13.2907,0.108273,5.38687,13.2471,-2.35585,7.79271,11.5875,-1.53517,-1.27424,8.95452,14.3966,-0.0610425,5,-17.3176,-1.46482,2.37305,0.535148,-0.0574753,68,78,74,78,72,32,93,76,74,71,77,7
1.15352,10,-0.108296,-0.713499,-14.4613,27.5236,-13.0767,0.108296,-0.108296,-0.713499,-14.2472,27.5236,-13.2907,0.108296,5.38669,13.247,-2.35637,7.79289,11.5879,-1.53519,-1.27422,8.95418,14.3967,-0.0606998,5,-17.3177,-1.46477,2.37298,0.535124,-0.0574873,68,78,74,78,72,32,93,76,74,71,77,7
1.15353,10,-0.108318,-0.713466,-14.4619,27.524,-13.0768,0.108318,-0.108318,-0.713466,-14.2478,27.524,-13.2909,0.108318,5.38653,13.2468,-2.35688,7.79307,11.5882,-1.53521,-1.27419,8.95386,14.3968,-0.060333,5,-17.3179,-1.46472,2.37291,0.5351,-0.0574994,68,78,74,78,72,32,93,76,74,71,77,7
1.15355,10,-0.108341,-0.713432,-14.4618,27.524,-13.0768,0.108341,-0.108341,-0.713432,-14.2478,27.524,-13.2909,0.108341,5.38637,13.2467,-2.3574,7.79325,11.5886,-1.53524,-1.27417,8.95353,14.3969,-0.0599375,5,-17.318,-1.46467,2.37284,0.535074,-0.0575115,68,78,74,78,72,32,93,76,74,71,77,7
1.15358,10,-0.108364,-0.713397,-14.4618,27.524,-13.0769,0.108364,-0.108364,-0.713397,-14.2478,27.524,-13.2909,0.108364,5.38622,13.2465,-2.3579,7.79341,11.5889,-1.53526,-1.27415,8.95321,14.397,-0.0595148,5,-17.3182,-1.46463,2.37277,0.535048,-0.0575238,68,78,74,78,72,32,93,76,74,71,77,7
1.15363,10,-0.108387,-0.713361,-14.4618,27.524,-13.0769,0.108387,-0.108387,-0.713361,-14.2478,27.524,-13.2909,0.108387,5.38608,13.2463,-2.35841,7.79357,11.5893,-1.5353,-1.27414,8.95289,14.397,-0.0590664,5,-17.3185,-1.46458,2.37269,0.535021,-0.057536,68,78,74,78,72,32,93,76,74,71,77,7
1.15368,10,-0.10841,-0.713324,-14.4618,27.524,-13.0769,0.10841,-0.10841,-0.713324,-14.2478,27.524,-13.2909,0.10841,5.38595,13.2461,-2.3589,7.79373,11.5897,-1.53533,-1.27413,8.95257,14.3971,-0.0585941,5,-17.3187,-1.46454,2.37261,0.534993,-0.0575483,68,78,74,78,72,32,93,76,74,71,77,7
1.15375,10,-0.108433,-0.713285,-14.4618,27.524,-13.0769,0.108433,-0.108433,-0.713285,-14.2478,27.524,-13.2909,0.108433,5.38584,13.246,-2.35939,7.79387,11.5901,-1.53537,-1.27412,8.95226,14.3972,-0.0580993,5,-17.319,-1.46449,2.37254,0.534964,-0.0575605,68,78,74,78,72,32,93,76,74,71,77,7
1.15382,10,-0.108456,-0.713246,-14.4617,27.524,-13.077,0.108456,-0.108456,-0.713246,-14.2478,27.524,-13.2909,0.108456,5.38573,13.2458,-2.35987,7.79401,11.5904,-1.53542,-1.27411,8.95196,14.3973,-0.0575837,5,-17.3192,-1.46445,2.37246,0.534934,-0.0575725,68,78,74,78,72,32,93,76,74,71,77,7
1.15389,10,-0.108478,-0.713205,-14.4617,27.524,-13.077,0.108478,-0.108478,-0.713205,-14.2477,27.524,-13.2909,0.108478,5.38564,13.2456,-2.36034,7.79413,11.5908,-1.53547,-1.2741,8.95167,14.3973,-0.0570493,5,-17.3195,-1.46441,2.37239,0.534904,-0.0575845,68,78,74,78,72,32,93,76,74,71,77,7
1.15397,10,-0.108501,-0.713164,-14.4617,27.524,-13.077,0.108501,-0.108501,-0.713164,-14.2477,27.524,-13.291,0.108501,5.38556,13.2455,-2.36079,7.79425,11.5912,-1.53552,-1.2741,8.95138,14.3974,-0.0564955,5,-17.3199,-1.46436,2.37232,0.534873,-0.0575963,68,78,74,78,72,32,93,76,74,71,77,7
1.15404,10,-0.108523,-0.713121,-14.4617,27.524,-13.077,0.108523,-0.108523,-0.713121,-14.2477,27.524,-13.291,0.108523,5.38549,13.2453,-2.36124,7.79436,11.5916,-1.53558,-1.27409,8.9511,14.3974,-0.0559249,5,-17.3202,-1.46432,2.37225,0.534841,-0.0576079,68,78,74,78,72,32,93,76,74,71,77,7
1.15411,10,-0.108544,-0.713078,-14.4616,27.524,-13.077,0.108544,-0.108544,-0.713078,-14.2477,27.524,-13.291,0.108544,5.38544,13.2451,-2.36168,7.79446,11.5919,-1.53564,-1.27409,8.95083,14.3975,-0.0553401,5,-17.3206,-1.46428,2.37218,0.534808,-0.0576193,68,78,74,78,72,32,93,76,74,71,77,7
1.1542,10,-0.108565,-0.713034,-14.4616,27.524,-13.0771,0.108565,-0.108565,-0.713034,-14.2477,27.524,-13.291,0.108565,5.3854,13.2449,-2.36209,7.79454,11.5923,-1.53571,-1.27409,8.95057,14.3976,-0.0547436,5,-17.3209,-1.46424,2.37212,0.534775,-0.0576305,68,78,74,78,72,32,93,76,74,71,77,7
1.15428,10,-0.108586,-0.71299,-14.4616,27.524,-13.0771,0.108586,-0.108586,-0.71299,-14.2477,27.524,-13.291,0.108586,5.38537,13.2448,-2.3625,7.79462,11.5926,-1.53578,-1.2741,8.95032,14.3976,-0.0541374,5,-17.3213,-1.4642,2.37206,0.534742,-0.0576414,68,78,74,78,72,32,93,76,74,71,77,7
1.15438,10,-0.108605,-0.712945,-14.4616,27.524,-13.0771,0.108605,-0.108605,-0.712945,-14.2477,27.524,-13.291,0.108605,5.38536,13.2446,-2.36288,7.79469,11.593,-1.53585,-1.2741,8.95008,14.3977,-0.0535238,5,-17.3217,-1.46416,2.372,0.534709,-0.057652,68,78,74,78,72,32,93,76,74,71,77,7
1.15448,10,-0.108625,-0.7129,-14.4616,27.524,-13.0771,0.108625,-0.108625,-0.7129,-14.2477,27.524,-13.291,0.108625,5.38536,13.2445,-2.36324,7.79475,11.5933,-1.53593,-1.27412,8.94985,14.3977,-0.0529049,5,-17.3221,-1.46413,2.37194,0.534675,-0.0576623,68,78,74,78,72,32,93,76,74,71,77,7
1.1546,10,-0.108643,-0.712855,-14.4616,27.524,-13.0771,0.108643,-0.108643,-0.712855,-14.2477,27.524,-13.291,0.108643,5.38537,13.2443,-2.36358,7.79479,11.5935,-1.53601,-1.27413,8.94965,14.3977,-0.0522846,5,-17.3225,-1.4641,2.37188,0.534641,-0.0576721,68,78,74,78,72,32,93,76,74,71,77,7
1.15474,10,-0.108661,-0.71281,-14.4616,27.524,-13.0771,0.108661,-0.108661,-0.71281,-14.2477,27.524,-13.291,0.108661,5.38541,13.2441,-2.36389,7.79482,11.5938,-1.53609,-1.27416,8.94946,14.3978,-0.0516636,5,-17.3229,-1.46407,2.37183,0.534607,-0.0576816,68,78,74,78,72,32,93,76,74,71,77,7
1.15488,10,-0.108678,-0.712765,-14.4616,27.524,-13.0772,0.108678,-0.108678,-0.712765,-14.2477,27.524,-13.291,0.108678,5.38546,13.244,-2.36418,7.79484,11.594,-1.53617,-1.27419,8.94928,14.3978,-0.0510423,5,-17.3233,-1.46405,2.37177,0.534574,-0.0576907,68,78,74,78,72,32,93,76,74,71,77,7
1.15503,10,-0.108695,-0.712721,-14.4615,27.524,-13.0772,0.108695,-0.108695,-0.712721,-14.2477,27.524,-13.291,0.108695,5.38552,13.2438,-2.36445,7.79485,11.5941,-1.53626,-1.27422,8.94912,14.3978,-0.0504213,5,-17.3237,-1.46402,2.37172,0.53454,-0.0576995,68,78,74,78,72,32,93,76,74,71,77,7
1.15519,10,-0.108711,-0.712676,-14.4615,27.524,-13.0772,0.108711,-0.108711,-0.712676,-14.2477,27.524,-13.291,0.108711,5.38558,13.2437,-2.36471,7.79486,11.5943,-1.53635,-1.27425,8.94896,14.3979,-0.0498015,5,-17.3241,-1.464,2.37167,0.534507,-0.057708,68,78,74,78,72,32,93,76,74,71,77,7
1.15536,10,-0.108726,-0.712633,-14.4615,27.524,-13.0772,0.108726,-0.108726,-0.712633,-14.2477,27.524,-13.291,0.108726,5.38566,13.2435,-2.36495,7.79486,11.5944,-1.53644,-1.27429,8.94882,14.3979,-0.0491836,5,-17.3245,-1.46399,2.37162,0.534474,-0.0577162,68,78,74,78,72,32,93,76,74,71,77,7
1.15554,10,-0.108741,-0.712589,-14.4615,27.524,-13.0772,0.108741,-0.108741,-0.712589,-14.2477,27.524,-13.291,0.108741,5.38574,13.2434,-2.36518,7.79485,11.5946,-1.53652,-1.27433,8.94869,14.3979,-0.0485687,5,-17.325,-1.46397,2.37158,0.534442,-0.0577242,68,78,74,78,72,32,93,76,74,71,77,7
1.15572,10,-0.108756,-0.712547,-14.4615,27.524,-13.0772,0.108756,-0.108756,-0.712547,-14.2477,27.524,-13.291,0.108756,5.38582,13.2433,-2.36541,7.79485,11.5947,-1.53661,-1.27437,8.94855,14.3979,-0.0479555,5,-17.3254,-1.46395,2.37153,0.53441,-0.057732,68,78,74,78,72,32,93,76,74,71,77,7
1.15591,10,-0.10877,-0.712504,-14.4615,27.524,-13.0772,0.10877,-0.10877,-0.712504,-14.2477,27.524,-13.291,0.10877,5.3859,13.2431,-2.36563,7.79484,11.5948,-1.5367,-1.27441,8.94843,14.3979,-0.0473461,5,-17.3258,-1.46393,2.37149,0.534378,-0.0577397,68,78,74,78,72,32,93,76,74,71,77,7
1.1561,10,-0.108784,-0.712463,-14.4615,27.524,-13.0772,0.108784,-0.108784,-0.712463,-14.2477,27.524,-13.291,0.108784,5.38599,13.243,-2.36584,7.79483,11.595,-1.53678,-1.27445,8.9483,14.398,-0.0467425,5,-17.3262,-1.46392,2.37145,0.534347,-0.0577471,68,78,74,78,72,32,93,76,74,71,77,7
1.15629,10,-0.108798,-0.712422,-14.4615,27.524,-13.0772,0.108798,-0.108798,-0.712422,-14.2478,27.524,-13.291,0.108798,5.38608,13.2429,-2.36604,7.79481,11.5951,-1.53687,-1.27449,8.94819,14.398,-0.0461468,5,-17.3266,-1.4639,2.37141,0.534316,-0.0577543,68,78,74,78,72,32,93,76,74,71,77,7
1.15649,10,-0.108811,-0.712381,-14.4615,27.524,-13.0772,0.108811,-0.108811,-0.712381,-14.2478,27.524,-13.2909,0.108811,5.38618,13.2428,-2.36622,7.79479,11.5951,-1.53696,-1.27454,8.94809,14.398,-0.0455605,5,-17.327,-1.46389,2.37137,0.534286,-0.0577611,68,78,74,78,72,32,93,76,74,71,77,7
1.15668,10,-0.108823,-0.712342,-14.4615,27.524,-13.0772,0.108823,-0.108823,-0.712342,-14.2478,27.524,-13.2909,0.108823,5.38629,13.2426,-2.36638,7.79476,11.5952,-1.53705,-1.27459,8.948,14.398,-0.0449855,5,-17.3274,-1.46388,2.37134,0.534256,-0.0577676,68,78,74,78,72,32,93,76,74,71,77,7
1.15688,10,-0.108835,-0.712303,-14.4612,27.5238,-13.0772,0.108835,-0.108835,-0.712303,-14.2475,27.5238,-13.2909,0.108835,5.3864,13.2425,-2.36652,7.79472,11.5952,-1.53713,-1.27464,8.94792,14.398,-0.0444233,5,-17.3278,-1.46387,2.3713,0.534227,-0.0577738,68,78,74,78,72,32,93,76,74,71,77,7
1.15707,10,-0.108845,-0.712265,-14.4612,27.5238,-13.0772,0.108845,-0.108845,-0.712265,-14.2475,27.5238,-13.2909,0.108845,5.38653,13.2424,-2.36664,7.79468,11.5952,-1.53723,-1.27469,8.94785,14.398,-0.0438781,5,-17.3281,-1.46387,2.37126,0.534198,-0.0577795,68,78,74,78,72,32,93,76,74,71,77,7
1.15725,10,-0.108855,-0.712227,-14.4612,27.5238,-13.0772,0.108855,-0.108855,-0.712227,-14.2475,27.5238,-13.2909,0.108855,5.38667,13.2423,-2.36673,7.79462,11.5952,-1.53732,-1.27475,8.94781,14.398,-0.0433499,5,-17.3285,-1.46387,2.37122,0.53417,-0.0577847,68,78,74,78,72,32,93,76,74,71,77,7
1.15744,10,-0.108864,-0.71219,-14.4612,27.5238,-13.0772,0.108864,-0.108864,-0.71219,-14.2475,27.5238,-13.2908,0.108864,5.38682,13.2422,-2.3668,7.79455,11.5951,-1.53741,-1.27481,8.94777,14.398,-0.0428388,5,-17.3289,-1.46388,2.37118,0.534143,-0.0577896,68,78,74,78,72,32,93,76,74,71,77,7
1.15762,10,-0.108873,-0.712154,-14.4612,27.5238,-13.0772,0.108873,-0.108873,-0.712154,-14.2475,27.5238,-13.2908,0.108873,5.38699,13.2421,-2.36685,7.79448,11.595,-1.53751,-1.27487,8.94776,14.398,-0.0423453,5,-17.3292,-1.4639,2.37114,0.534115,-0.0577941,68,78,74,78,72,32,93,76,74,71,77,7
1.15781,10,-0.108881,-0.712118,-14.4612,27.5238,-13.0772,0.108881,-0.108881,-0.712118,-14.2475,27.5238,-13.2908,0.108881,5.38716,13.242,-2.36687,7.7944,11.5949,-1.5376,-1.27494,8.94775,14.398,-0.0418697,5,-17.3296,-1.46391,2.3711,0.534088,-0.0577984,68,78,74,78,72,32,93,76,74,71,77,7
1.158,10,-0.108888,-0.712082,-14.4612,27.5238,-13.0772,0.108888,-0.108888,-0.712082,-14.2475,27.5238,-13.2908,0.108888,5.38735,13.2419,-2.36687,7.79431,11.5947,-1.5377,-1.27501,8.94776,14.3979,-0.0414128,5,-17.3299,-1.46394,2.37106,0.534061,-0.0578023,68,78,74,78,72,32,93,76,74,71,77,7
1.15819,10,-0.108895,-0.712047,-14.4612,27.5238,-13.0772,0.108895,-0.108895,-0.712047,-14.2476,27.5238,-13.2908,0.108895,5.38754,13.2418,-2.36685,7.79421,11.5946,-1.53779,-1.27509,8.94778,14.3979,-0.0409752,5,-17.3303,-1.46396,2.37102,0.534035,-0.0578061,68,78,74,78,72,32,93,76,74,71,77,7
1.15838,10,-0.108902,-0.712012,-14.4612,27.5238,-13.0772,0.108902,-0.108902,-0.712012,-14.2476,27.5238,-13.2908,0.108902,5.38774,13.2417,-2.36681,7.79411,11.5943,-1.53789,-1.27517,8.9478,14.3979,-0.040553,5,-17.3306,-1.46399,2.37098,0.534009,-0.0578095,68,78,74,78,72,32,93,76,74,71,77,7
1.15858,10,-0.108908,-0.711977,-14.4612,27.5238,-13.0772,0.108908,-0.108908,-0.711977,-14.2476,27.5238,-13.2908,0.108908,5.38796,13.2416,-2.36675,7.79399,11.5941,-1.53798,-1.27526,8.94784,14.3979,-0.0401496,5,-17.3309,-1.46403,2.37094,0.533983,-0.0578128,68,78,74,78,72,32,93,76,74,71,77,7
1.15878,10,-0.108914,-0.711942,-14.4612,27.5238,-13.0772,0.108914,-0.108914,-0.711942,-14.2476,27.5238,-13.2907,0.108914,5.38818,13.2415,-2.36667,7.79387,11.5938,-1.53808,-1.27535,8.94789,14.3978,-0.039768,5,-17.3312,-1.46407,2.3709,0.533957,-0.057816,68,78,74,78,72,32,93,76,74,71,77,7
1.15899,10,-0.10892,-0.711908,-14.4612,27.5238,-13.0772,0.10892,-0.10892,-0.711908,-14.2476,27.5238,-13.2907,0.10892,5.38841,13.2414,-2.36658,7.79375,11.5935,-1.53817,-1.27544,8.94795,14.3978,-0.039411,5,-17.3315,-1.46412,2.37086,0.533931,-0.057819,68,78,74,78,72,32,93,76,74,71,77,7
1.1592,10,-0.108925,-0.711873,-14.4612,27.5238,-13.0771,0.108925,-0.108925,-0.711873,-14.2476,27.5238,-13.2907,0.108925,5.38865,13.2414,-2.36647,7.79362,11.5932,-1.53826,-1.27554,8.94802,14.3978,-0.039081,5,-17.3318,-1.46417,2.37082,0.533905,-0.0578219,68,78,74,78,72,32,93,76,74,71,77,7
1.15941,10,-0.10893,-0.711838,-14.4612,27.5238,-13.0771,0.10893,-0.10893,-0.711838,-14.2477,27.5238,-13.2907,0.10893,5.38891,13.2413,-2.36636,7.79348,11.5929,-1.53835,-1.27564,8.9481,14.3978,-0.0387801,5,-17.3321,-1.46422,2.37078,0.533879,-0.0578247,68,78,74,78,72,32,93,76,74,71,77,7
1.15963,10,-0.108936,-0.711803,-14.4612,27.5238,-13.0771,0.108936,-0.108936,-0.711803,-14.2477,27.5238,-13.2907,0.108936,5.38918,13.2412,-2.36624,7.79334,11.5926,-1.53844,-1.27574,8.94819,14.3978,-0.03851,5,-17.3323,-1.46428,2.37074,0.533852,-0.0578275,68,78,74,78,72,32,93,76,74,71,77,7
1.15985,10,-0.108941,-0.711767,-14.4612,27.5238,-13.0771,0.108941,-0.108941,-0.711767,-14.2477,27.5238,-13.2907,0.108941,5.38946,13.2411,-2.36611,7.79319,11.5923,-1.53852,-1.27583,8.9483,14.3977,-0.0382719,5,-17.3326,-1.46435,2.3707,0.533826,-0.0578304,68,78,74,78,72,32,93,76,74,71,77,7
1.16007,10,-0.108946,-0.711731,-14.4612,27.5238,-13.0771,0.108946,-0.108946,-0.711731,-14.2477,27.5238,-13.2906,0.108946,5.38975,13.2411,-2.36598,7.79304,11.5919,-1.53859,-1.27593,8.94841,14.3977,-0.0380673,5,-17.3328,-1.46443,2.37066,0.533798,-0.0578332,68,78,74,78,72,32,93,76,74,71,77,7
1.16029,10,-0.108952,-0.711695,-14.4613,27.5238,-13.0771,0.108952,-0.108952,-0.711695,-14.2477,27.5238,-13.2906,0.108952,5.39006,13.241,-2.36585,7.79289,11.5916,-1.53867,-1.27603,8.94854,14.3977,-0.0378976,5,-17.333,-1.4645,2.37063,0.533771,-0.057836,68,78,74,78,72,32,93,76,74,71,77,7
1.16052,10,-0.108957,-0.711658,-14.4613,27.5238,-13.0771,0.108957,-0.108957,-0.711658,-14.2478,27.5238,-13.2906,0.108957,5.39038,13.2409,-2.36571,7.79273,11.5912,-1.53874,-1.27612,8.94867,14.3977,-0.0377637,5,-17.3332,-1.46459,2.37059,0.533744,-0.0578388,68,78,74,78,72,32,93,76,74,71,77,7
1.16074,10,-0.108962,-0.711622,-14.4613,27.5238,-13.0771,0.108962,-0.108962,-0.711622,-14.2478,27.5238,-13.2906,0.108962,5.39071,13.2408,-2.36558,7.79257,11.5908,-1.5388,-1.27622,8.94882,14.3977,-0.0376662,5,-17.3333,-1.46468,2.37056,0.533716,-0.0578415,68,78,74,78,72,32,93,76,74,71,77,7
1.16096,10,-0.108967,-0.711585,-14.4613,27.5238,-13.0771,0.108967,-0.108967,-0.711585,-14.2478,27.5238,-13.2905,0.108967,5.39105,13.2407,-2.36545,7.79241,11.5905,-1.53887,-1.27632,8.94898,14.3976,-0.0376057,5,-17.3335,-1.46477,2.37052,0.533689,-0.0578442,68,78,74,78,72,32,93,76,74,71,77,7
1.16118,10,-0.108972,-0.711549,-14.4613,27.5238,-13.077,0.108972,-0.108972,-0.711549,-14.2478,27.5238,-13.2905,0.108972,5.3914,13.2407,-2.36533,7.79225,11.5902,-1.53893,-1.27641,8.94914,14.3976,-0.037582,5,-17.3336,-1.46487,2.37048,0.533662,-0.0578469,68,78,74,78,72,32,93,76,74,71,77,7
1.16139,10,-0.108977,-0.711513,-14.4613,27.5238,-13.077,0.108977,-0.108977,-0.711513,-14.2479,27.5238,-13.2905,0.108977,5.39175,13.2406,-2.3652,7.79209,11.5898,-1.53899,-1.27652,8.94932,14.3976,-0.0375966,5,-17.3337,-1.46497,2.37045,0.533635,-0.0578495,68,78,74,78,72,32,93,76,74,71,77,7
1.1616,10,-0.108982,-0.711477,-14.4613,27.5238,-13.077,0.108982,-0.108982,-0.711477,-14.2479,27.5238,-13.2905,0.108982,5.39211,13.2405,-2.36507,7.79193,11.5895,-1.53905,-1.27662,8.9495,14.3976,-0.0376485,5,-17.3338,-1.46507,2.37041,0.533608,-0.0578521,68,78,74,78,72,32,93,76,74,71,77,7
1.16181,10,-0.108987,-0.711442,-14.4614,27.5238,-13.077,0.108987,-0.108987,-0.711442,-14.2479,27.5238,-13.2904,0.108987,5.39248,13.2404,-2.36496,7.79177,11.5892,-1.53911,-1.27672,8.94969,14.3975,-0.0377364,5,-17.3339,-1.46518,2.37037,0.533582,-0.0578546,68,78,74,78,72,32,93,76,74,71,77,7
1.16201,10,-0.108991,-0.711407,-14.4614,27.5238,-13.077,0.108991,-0.108991,-0.711407,-14.248,27.5238,-13.2904,0.108991,5.39285,13.2403,-2.36485,7.79162,11.5889,-1.53917,-1.27683,8.94988,14.3975,-0.0378591,5,-17.3339,-1.46528,2.37033,0.533555,-0.0578571,68,78,74,78,72,32,93,76,74,71,77,7
1.16221,10,-0.108996,-0.711373,-14.4614,27.5238,-13.077,0.108996,-0.108996,-0.711373,-14.248,27.5238,-13.2904,0.108996,5.39322,13.2403,-2.36476,7.79147,11.5886,-1.53922,-1.27693,8.95008,14.3974,-0.0380149,5,-17.3339,-1.46539,2.37029,0.53353,-0.0578594,68,78,74,78,72,32,93,76,74,71,77,7
1.16241,10,-0.109,-0.711339,-14.4614,27.5238,-13.0769,0.109,-0.109,-0.711339,-14.248,27.5238,-13.2903,0.109,5.3936,13.2402,-2.36469,7.79132,11.5883,-1.53928,-1.27703,8.95029,14.3974,-0.0382025,5,-17.3339,-1.4655,2.37025,0.533504,-0.0578615,68,78,74,78,72,32,93,76,74,71,77,7
1.1626,10,-0.109004,-0.711305,-14.4612,27.5236,-13.0769,0.109004,-0.109004,-0.711305,-14.2478,27.5236,-13.2903,0.109004,5.39397,13.2401,-2.36463,7.79117,11.5881,-1.53933,-1.27713,8.9505,14.3973,-0.0384198,5,-17.3339,-1.4656,2.3702,0.533479,-0.0578636,68,78,74,78,72,32,93,76,74,71,77,7
1.16278,10,-0.109007,-0.711272,-14.4612,27.5236,-13.0768,0.109007,-0.109007,-0.711272,-14.2478,27.5236,-13.2902,0.109007,5.39435,13.24,-2.36461,7.79102,11.5879,-1.53938,-1.27723,8.95072,14.3973,-0.0386696,5,-17.3338,-1.46571,2.37015,0.533454,-0.0578654,68,78,74,78,72,32,93,76,74,71,77,7
1.16296,10,-0.10901,-0.71124,-14.4612,27.5236,-13.0768,0.10901,-0.10901,-0.71124,-14.2478,27.5236,-13.2902,0.10901,5.39474,13.2399,-2.36462,7.79088,11.5877,-1.53943,-1.27732,8.95094,14.3972,-0.038948,5,-17.3338,-1.4658,2.3701,0.53343,-0.0578671,68,78,74,78,72,32,93,76,74,71,77,7
1.16314,10,-0.109013,-0.711208,-14.4612,27.5236,-13.0768,0.109013,-0.109013,-0.711208,-14.2478,27.5236,-13.2902,0.109013,5.39512,13.2397,-2.36464,7.79074,11.5875,-1.53947,-1.27741,8.95116,14.3971,-0.0392513,5,-17.3337,-1.4659,2.37005,0.533406,-0.0578685,68,78,74,78,72,32,93,76,74,71,77,7
1.16331,10,-0.109015,-0.711177,-14.4612,27.5236,-13.0768,0.109015,-0.109015,-0.711177,-14.2479,27.5236,-13.2901,0.109015,5.3955,13.2396,-2.36469,7.79061,11.5874,-1.53951,-1.2775,8.95138,14.397,-0.0395764,5,-17.3336,-1.46599,2.36999,0.533382,-0.0578699,68,78,74,78,72,32,93,76,74,71,77,7
1.16347,10,-0.109018,-0.711146,-14.4613,27.5236,-13.0768,0.109018,-0.109018,-0.711146,-14.2479,27.5236,-13.2901,0.109018,5.39588,13.2395,-2.36475,7.79047,11.5873,-1.53955,-1.27758,8.95161,14.3969,-0.0399202,5,-17.3334,-1.46608,2.36993,0.533359,-0.0578711,68,78,74,78,72,32,93,76,74,71,77,7
1.16364,10,-0.10902,-0.711116,-14.4613,27.5236,-13.0767,0.10902,-0.10902,-0.711116,-14.2479,27.5236,-13.2901,0.10902,5.39626,13.2394,-2.36483,7.79034,11.5872,-1.53959,-1.27767,8.95184,14.3968,-0.0402799,5,-17.3333,-1.46617,2.36988,0.533337,-0.0578722,68,78,74,78,72,32,93,76,74,71,77,7
1.1638,10,-0.109022,-0.711086,-14.461,27.5234,-13.0767,0.109022,-0.109022,-0.711086,-14.2476,27.5234,-13.29,0.109022,5.39663,13.2393,-2.36491,7.79021,11.5871,-1.53963,-1.27774,8.95206,14.3967,-0.040653,5,-17.3331,-1.46626,2.36982,0.533314,-0.0578732,68,78,74,78,72,32,93,76,74,71,77,7
1.16395,10,-0.109023,-0.711057,-14.461,27.5234,-13.0766,0.109023,-0.109023,-0.711057,-14.2477,27.5234,-13.29,0.109023,5.397,13.2391,-2.36499,7.79009,11.587,-1.53966,-1.27782,8.95229,14.3966,-0.0410334,5,-17.333,-1.46635,2.36976,0.533293,-0.0578742,68,78,74,78,72,32,93,76,74,71,77,7
1.1641,10,-0.109025,-0.711028,-14.461,27.5234,-13.0766,0.109025,-0.109025,-0.711028,-14.2477,27.5234,-13.2899,0.109025,5.39737,13.239,-2.36507,7.78996,11.587,-1.5397,-1.27789,8.95251,14.3965,-0.041421,5,-17.3328,-1.46644,2.36971,0.533271,-0.057875,68,78,74,78,72,32,93,76,74,71,77,7
1.16425,10,-0.109027,-0.711001,-14.461,27.5234,-13.0766,0.109027,-0.109027,-0.711001,-14.2477,27.5234,-13.2899,0.109027,5.39773,13.2389,-2.36515,7.78983,11.5869,-1.53973,-1.27796,8.95273,14.3964,-0.0418156,5,-17.3327,-1.46653,2.36966,0.53325,-0.0578758,68,78,74,78,72,32,93,76,74,71,77,7
1.16439,10,-0.109028,-0.710973,-14.4611,27.5234,-13.0766,0.109028,-0.109028,-0.710973,-14.2478,27.5234,-13.2899,0.109028,5.39808,13.2388,-2.36525,7.78971,11.5868,-1.53976,-1.27802,8.95295,14.3963,-0.042217,5,-17.3325,-1.46661,2.36961,0.53323,-0.0578765,68,78,74,78,72,32,93,76,74,71,77,7
1.16453,10,-0.109029,-0.710947,-14.4611,27.5234,-13.0766,0.109029,-0.109029,-0.710947,-14.2478,27.5234,-13.2898,0.109029,5.39843,13.2387,-2.36536,7.78959,11.5868,-1.53978,-1.27809,8.95317,14.3962,-0.0426245,5,-17.3323,-1.4667,2.36955,0.53321,-0.0578772,68,78,74,78,72,32,93,76,74,71,77,7
1.16467,10,-0.10903,-0.710921,-14.4611,27.5234,-13.0765,0.10903,-0.10903,-0.710921,-14.2478,27.5234,-13.2898,0.10903,5.39878,13.2385,-2.36549,7.78948,11.5868,-1.53981,-1.27815,8.95338,14.3961,-0.0430377,5,-17.3321,-1.46677,2.3695,0.53319,-0.0578777,68,78,74,78,72,32,93,76,74,71,77,7
1.1648,10,-0.109031,-0.710895,-14.4612,27.5234,-13.0765,0.109031,-0.109031,-0.710895,-14.2479,27.5234,-13.2898,0.109031,5.39912,13.2384,-2.36564,7.78937,11.5868,-1.53984,-1.27821,8.9536,14.396,-0.0434558,5,-17.3319,-1.46684,2.36943,0.533171,-0.0578781,68,78,74,78,72,32,93,76,74,71,77,7
1.16493,10,-0.109032,-0.71087,-14.4612,27.5234,-13.0765,0.109032,-0.109032,-0.71087,-14.2479,27.5234,-13.2898,0.109032,5.39946,13.2383,-2.36581,7.78927,11.5868,-1.53986,-1.27827,8.95381,14.3958,-0.0438785,5,-17.3317,-1.4669,2.36937,0.533153,-0.0578785,68,78,74,78,72,32,93,76,74,71,77,7
1.16504,10,-0.109032,-0.710846,-14.4612,27.5234,-13.0765,0.109032,-0.109032,-0.710846,-14.248,27.5234,-13.2898,0.109032,5.3998,13.2381,-2.36601,7.78917,11.5869,-1.53989,-1.27833,8.95403,14.3957,-0.0443048,5,-17.3315,-1.46696,2.3693,0.533135,-0.0578788,68,78,74,78,72,32,93,76,74,71,77,7
1.16516,10,-0.109032,-0.710822,-14.4612,27.5234,-13.0765,0.109032,-0.109032,-0.710822,-14.248,27.5234,-13.2897,0.109032,5.40013,13.238,-2.36624,7.78909,11.587,-1.53992,-1.27838,8.95424,14.3955,-0.0447334,5,-17.3313,-1.467,2.36922,0.533117,-0.0578789,68,78,74,78,72,32,93,76,74,71,77,7
1.16527,10,-0.109033,-0.710799,-14.4612,27.5234,-13.0765,0.109033,-0.109033,-0.710799,-14.248,27.5234,-13.2897,0.109033,5.40045,13.2378,-2.36649,7.789,11.5871,-1.53994,-1.27844,8.95445,14.3954,-0.0451631,5,-17.331,-1.46703,2.36915,0.5331,-0.057879,68,78,74,78,72,32,93,76,74,71,77,7
1.16538,10,-0.109032,-0.710777,-14.4613,27.5234,-13.0765,0.109032,-0.109032,-0.710777,-14.248,27.5234,-13.2897,0.109032,5.40077,13.2376,-2.36677,7.78892,11.5873,-1.53997,-1.2785,8.95466,14.3952,-0.0455924,5,-17.3308,-1.46706,2.36906,0.533083,-0.0578789,68,78,74,78,72,32,93,76,74,71,77,7
1.16548,10,-0.109032,-0.710755,-14.4613,27.5234,-13.0764,0.109032,-0.109032,-0.710755,-14.2481,27.5234,-13.2897,0.109032,5.40109,13.2374,-2.36708,7.78885,11.5874,-1.53999,-1.27855,8.95486,14.395,-0.0460201,5,-17.3305,-1.46708,2.36898,0.533066,-0.0578786,68,78,74,78,72,32,93,76,74,71,77,7
1.16557,10,-0.109031,-0.710733,-14.4622,27.5241,-13.0766,0.109031,-0.109031,-0.710733,-14.2489,27.5241,-13.2898,0.109031,5.4014,13.2373,-2.36741,7.78878,11.5876,-1.54002,-1.27861,8.95506,14.3948,-0.0464447,5,-17.3303,-1.46708,2.36889,0.53305,-0.0578781,68,78,74,78,72,32,93,76,74,71,77,7
1.16567,10,-0.109029,-0.710712,-14.4622,27.5241,-13.0766,0.109029,-0.109029,-0.710712,-14.249,27.5241,-13.2898,0.109029,5.4017,13.2371,-2.36776,7.78871,11.5878,-1.54004,-1.27866,8.95526,14.3946,-0.0468685,5,-17.33,-1.46708,2.3688,0.533034,-0.0578772,68,78,74,78,72,32,93,76,74,71,77,7
1.16576,10,-0.109027,-0.71069,-14.4622,27.5241,-13.0766,0.109027,-0.109027,-0.71069,-14.249,27.5241,-13.2898,0.109027,5.40201,13.2369,-2.36814,7.78864,11.5881,-1.54007,-1.27872,8.95546,14.3944,-0.0472882,5,-17.3298,-1.46708,2.36871,0.533018,-0.0578762,68,78,74,78,72,32,93,76,74,71,77,7
1.16585,10,-0.109025,-0.71067,-14.4622,27.5241,-13.0766,0.109025,-0.109025,-0.71067,-14.249,27.5241,-13.2898,0.109025,5.4023,13.2367,-2.36855,7.78858,11.5884,-1.5401,-1.27878,8.95565,14.3942,-0.0477007,5,-17.3295,-1.46706,2.36861,0.533002,-0.0578749,68,78,74,78,72,32,93,76,74,71,77,7
1.16593,10,-0.109022,-0.71065,-14.4622,27.5241,-13.0765,0.109022,-0.109022,-0.71065,-14.249,27.5241,-13.2897,0.109022,5.40259,13.2365,-2.36898,7.78852,11.5886,-1.54013,-1.27884,8.95584,14.394,-0.0481032,5,-17.3293,-1.46704,2.36852,0.532988,-0.0578734,68,78,74,78,72,32,93,76,74,71,77,7
1.16602,10,-0.109019,-0.710632,-14.4623,27.5241,-13.0765,0.109019,-0.109019,-0.710632,-14.2491,27.5241,-13.2897,0.109019,5.40287,13.2364,-2.36943,7.78847,11.589,-1.54016,-1.27889,8.95603,14.3938,-0.0484932,5,-17.329,-1.467,2.36843,0.532974,-0.0578718,68,78,74,78,72,32,93,76,74,71,77,7
1.16609,10,-0.109016,-0.710614,-14.4623,27.5241,-13.0765,0.109016,-0.109016,-0.710614,-14.2491,27.5241,-13.2897,0.109016,5.40314,13.2362,-2.3699,7.78842,11.5893,-1.54019,-1.27895,8.95622,14.3936,-0.0488686,5,-17.3288,-1.46696,2.36834,0.532961,-0.0578701,68,78,74,78,72,32,93,76,74,71,77,7
1.16617,10,-0.109012,-0.710598,-14.463,27.5246,-13.0766,0.109012,-0.109012,-0.710598,-14.2498,27.5246,-13.2898,0.109012,5.40341,13.236,-2.3704,7.78839,11.5896,-1.54022,-1.27901,8.9564,14.3933,-0.0492274,5,-17.3285,-1.46692,2.36824,0.532949,-0.0578683,68,78,74,78,72,32,93,76,74,71,77,7
1.16624,10,-0.109009,-0.710584,-14.463,27.5246,-13.0766,0.109009,-0.109009,-0.710584,-14.2498,27.5246,-13.2898,0.109009,5.40366,13.2357,-2.37092,7.78836,11.59,-1.54025,-1.27907,8.95658,14.3931,-0.0495663,5,-17.3283,-1.46686,2.36816,0.532938,-0.0578666,68,78,74,78,72,32,93,76,74,71,77,7
1.1663,10,-0.109006,-0.710572,-14.463,27.5246,-13.0766,0.109006,-0.109006,-0.710572,-14.2498,27.5246,-13.2898,0.109006,5.4039,13.2355,-2.37145,7.78834,11.5904,-1.54029,-1.27912,8.95676,14.3928,-0.0498849,5,-17.3281,-1.4668,2.36807,0.532929,-0.0578648,68,78,74,78,72,32,93,76,74,71,77,7
1.16637,10,-0.109003,-0.710562,-14.463,27.5246,-13.0766,0.109003,-0.109003,-0.710562,-14.2499,27.5246,-13.2898,0.109003,5.40413,13.2353,-2.37201,7.78834,11.5907,-1.54033,-1.27918,8.95694,14.3926,-0.0501824,5,-17.3279,-1.46673,2.36799,0.532922,-0.0578631,68,78,74,78,72,32,93,76,74,71,77,7
1.16642,10,-0.108999,-0.710554,-14.463,27.5246,-13.0766,0.108999,-0.108999,-0.710554,-14.2499,27.5246,-13.2897,0.108999,5.40435,13.2351,-2.37258,7.78834,11.5911,-1.54036,-1.27924,8.95712,14.3923,-0.0504584,5,-17.3277,-1.46666,2.36791,0.532915,-0.0578612,68,78,74,78,72,32,93,76,74,71,77,7
1.16648,10,-0.108995,-0.710547,-14.4631,27.5246,-13.0766,0.108995,-0.108995,-0.710547,-14.2499,27.5246,-13.2897,0.108995,5.40456,13.2348,-2.37316,7.78835,11.5915,-1.5404,-1.2793,8.95729,14.392,-0.0507127,5,-17.3275,-1.46658,2.36783,0.53291,-0.0578593,68,78,74,78,72,32,93,76,74,71,77,7
1.16653,10,-0.108991,-0.710543,-14.4631,27.5246,-13.0766,0.108991,-0.108991,-0.710543,-14.2499,27.5246,-13.2897,0.108991,5.40476,13.2346,-2.37376,7.78837,11.592,-1.54044,-1.27935,8.95747,14.3917,-0.0509449,5,-17.3274,-1.4665,2.36776,0.532907,-0.0578571,68,78,74,78,72,32,93,76,74,71,77,7
1.16658,10,-0.108987,-0.71054,-14.463,27.5245,-13.0765,0.108987,-0.108987,-0.71054,-14.2498,27.5245,-13.2897,0.108987,5.40494,13.2343,-2.37437,7.78839,11.5924,-1.54048,-1.27941,8.95764,14.3914,-0.0511551,5,-17.3273,-1.46643,2.36769,0.532905,-0.0578548,68,78,74,78,72,32,93,76,74,71,77,7
1.16662,10,-0.108982,-0.710538,-14.463,27.5245,-13.0765,0.108982,-0.108982,-0.710538,-14.2499,27.5245,-13.2897,0.108982,5.40512,13.2341,-2.37498,7.78842,11.5928,-1.54051,-1.27946,8.95782,14.3911,-0.0513441,5,-17.3271,-1.46635,2.36763,0.532904,-0.0578522,68,78,74,78,72,32,93,76,74,71,77,7
1.16665,10,-0.108977,-0.710538,-14.463,27.5245,-13.0765,0.108977,-0.108977,-0.710538,-14.2499,27.5245,-13.2897,0.108977,5.40529,13.2338,-2.3756,7.78845,11.5932,-1.54055,-1.27951,8.95799,14.3908,-0.0515115,5,-17.327,-1.46628,2.36757,0.532904,-0.0578494,68,78,74,78,72,32,93,76,74,71,77,7
1.16669,10,-0.108971,-0.71054,-14.463,27.5245,-13.0765,0.108971,-0.108971,-0.71054,-14.2499,27.5245,-13.2896,0.108971,5.40545,13.2336,-2.37623,7.78849,11.5936,-1.54059,-1.27956,8.95816,14.3905,-0.0516569,5,-17.327,-1.46621,2.36751,0.532905,-0.0578464,68,78,74,78,72,32,93,76,74,71,77,7
1.16672,10,-0.108965,-0.710544,-14.4631,27.5245,-13.0765,0.108965,-0.108965,-0.710544,-14.2499,27.5245,-13.2896,0.108965,5.40561,13.2333,-2.37686,7.78852,11.594,-1.54063,-1.27961,8.95833,14.3902,-0.0517802,5,-17.3269,-1.46615,2.36746,0.532908,-0.057843,68,78,74,78,72,32,93,76,74,71,77,7
1.16675,10,-0.108958,-0.71055,-14.4631,27.5245,-13.0765,0.108958,-0.108958,-0.71055,-14.2499,27.5245,-13.2896,0.108958,5.40575,13.2331,-2.37749,7.78857,11.5944,-1.54067,-1.27966,8.9585,14.3899,-0.0518814,5,-17.3269,-1.46609,2.36741,0.532913,-0.0578394,68,78,74,78,72,32,93,76,74,71,77,7
1.16677,10,-0.108951,-0.710558,-14.4631,27.5245,-13.0764,0.108951,-0.108951,-0.710558,-14.2499,27.5245,-13.2896,0.108951,5.40588,13.2328,-2.37811,7.78862,11.5948,-1.54071,-1.2797,8.95867,14.3895,-0.0519607,5,-17.3268,-1.46604,2.36737,0.532919,-0.0578355,68,78,74,78,72,32,93,76,74,71,77,7
1.16679,10,-0.108943,-0.710568,-14.464,27.5251,-13.0766,0.108943,-0.108943,-0.710568,-14.2508,27.5251,-13.2898,0.108943,5.406,13.2326,-2.37873,7.78867,11.5952,-1.54075,-1.27975,8.95884,14.3892,-0.0520186,5,-17.3268,-1.466,2.36734,0.532926,-0.0578312,68,78,74,78,72,32,93,76,74,71,77,7
1.16682,10,-0.108934,-0.710582,-14.464,27.5251,-13.0766,0.108934,-0.108934,-0.710582,-14.2508,27.5251,-13.2898,0.108934,5.40611,13.2324,-2.37934,7.78873,11.5956,-1.54079,-1.27979,8.95902,14.3889,-0.0520514,5,-17.3268,-1.46597,2.36731,0.532937,-0.0578265,68,78,74,78,72,32,93,76,74,71,77,7
1.16683,10,-0.108924,-0.710598,-14.464,27.5251,-13.0766,0.108924,-0.108924,-0.710598,-14.2508,27.5251,-13.2898,0.108924,5.40621,13.2321,-2.37993,7.78879,11.5959,-1.54083,-1.27982,8.9592,14.3886,-0.0520618,5,-17.3269,-1.46595,2.36729,0.532949,-0.0578214,68,78,74,78,72,32,93,76,74,71,77,7
1.16685,10,-0.108914,-0.710617,-14.464,27.5251,-13.0766,0.108914,-0.108914,-0.710617,-14.2508,27.5251,-13.2898,0.108914,5.40629,13.2319,-2.38052,7.78886,11.5963,-1.54087,-1.27986,8.95938,14.3882,-0.0520522,5,-17.3269,-1.46595,2.36727,0.532963,-0.057816,68,78,74,78,72,32,93,76,74,71,77,7
1.16687,10,-0.108903,-0.710637,-14.464,27.5251,-13.0766,0.108903,-0.108903,-0.710637,-14.2508,27.5251,-13.2897,0.108903,5.40638,13.2317,-2.3811,7.78893,11.5966,-1.54092,-1.27989,8.95956,14.3879,-0.052025,5,-17.327,-1.46595,2.36726,0.532978,-0.0578103,68,78,74,78,72,32,93,76,74,71,77,7
1.16688,10,-0.108892,-0.710659,-14.464,27.5251,-13.0765,0.108892,-0.108892,-0.710659,-14.2508,27.5251,-13.2897,0.108892,5.40645,13.2315,-2.38167,7.78901,11.5969,-1.54097,-1.27992,8.95974,14.3876,-0.0519821,5,-17.3271,-1.46596,2.36725,0.532994,-0.0578044,68,78,74,78,72,32,93,76,74,71,77,7
1.16689,10,-0.108881,-0.710682,-14.464,27.5251,-13.0765,0.108881,-0.108881,-0.710682,-14.2508,27.5251,-13.2897,0.108881,5.40651,13.2312,-2.38223,7.78908,11.5973,-1.54101,-1.27995,8.95992,14.3872,-0.0519254,5,-17.3272,-1.46597,2.36725,0.533012,-0.0577984,68,78,74,78,72,32,93,76,74,71,77,7
1.1669,10,-0.108869,-0.710706,-14.4647,27.5256,-13.0766,0.108869,-0.108869,-0.710706,-14.2514,27.5256,-13.2899,0.108869,5.40657,13.231,-2.38278,7.78916,11.5976,-1.54106,-1.27998,8.9601,14.3869,-0.0518566,5,-17.3273,-1.46599,2.36725,0.53303,-0.0577922,68,78,74,78,72,32,93,76,74,71,77,7
1.16691,10,-0.108858,-0.71073,-14.4647,27.5256,-13.0766,0.108858,-0.108858,-0.71073,-14.2514,27.5256,-13.2898,0.108858,5.40663,13.2308,-2.38334,7.78924,11.5979,-1.5411,-1.28001,8.96028,14.3866,-0.0517801,5,-17.3274,-1.46601,2.36725,0.533048,-0.0577861,68,78,74,78,72,32,93,76,74,71,77,7
1.16691,10,-0.108846,-0.710755,-14.4647,27.5256,-13.0766,0.108846,-0.108846,-0.710755,-14.2515,27.5256,-13.2898,0.108846,5.40668,13.2306,-2.38389,7.78932,11.5982,-1.54115,-1.28004,8.96045,14.3862,-0.0516956,5,-17.3275,-1.46603,2.36726,0.533066,-0.05778,68,78,74,78,72,32,93,76,74,71,77,7
1.16692,10,-0.108835,-0.71078,-14.4647,27.5256,-13.0766,0.108835,-0.108835,-0.71078,-14.2515,27.5256,-13.2898,0.108835,5.40673,13.2304,-2.38443,7.7894,11.5985,-1.54119,-1.28006,8.96062,14.3859,-0.051603,5,-17.3277,-1.46606,2.36727,0.533085,-0.0577739,68,78,74,78,72,32,93,76,74,71,77,7
1.16691,10,-0.108823,-0.710805,-14.4647,27.5256,-13.0766,0.108823,-0.108823,-0.710805,-14.2515,27.5256,-13.2898,0.108823,5.40677,13.2302,-2.38496,7.78948,11.5988,-1.54124,-1.28009,8.96079,14.3856,-0.0515023,5,-17.3278,-1.46609,2.36728,0.533104,-0.0577677,68,78,74,78,72,32,93,76,74,71,77,7
1.16691,10,-0.108811,-0.710832,-14.4647,27.5256,-13.0766,0.108811,-0.108811,-0.710832,-14.2515,27.5256,-13.2898,0.108811,5.4068,13.2301,-2.38547,7.78956,11.5991,-1.54128,-1.28011,8.96096,14.3853,-0.0513935,5,-17.3279,-1.46612,2.36729,0.533124,-0.0577614,68,78,74,78,72,32,93,76,74,71,77,7
1.1669,10,-0.108799,-0.71086,-14.4647,27.5256,-13.0766,0.108799,-0.108799,-0.71086,-14.2515,27.5256,-13.2898,0.108799,5.40683,13.2299,-2.38596,7.78964,11.5994,-1.54133,-1.28013,8.96113,14.385,-0.0512767,5,-17.3281,-1.46616,2.36731,0.533145,-0.0577549,68,78,74,78,72,32,93,76,74,71,77,7
1.16688,10,-0.108787,-0.710889,-14.4657,27.5263,-13.0768,0.108787,-0.108787,-0.710889,-14.2524,27.5263,-13.29,0.108787,5.40686,13.2297,-2.38644,7.78973,11.5997,-1.54137,-1.28015,8.9613,14.3847,-0.0511523,5,-17.3282,-1.46621,2.36732,0.533167,-0.0577483,68,78,74,78,72,32,93,76,74,71,77,7
1.16687,10,-0.108774,-0.71092,-14.4657,27.5263,-13.0767,0.108774,-0.108774,-0.71092,-14.2524,27.5263,-13.29,0.108774,5.40687,13.2295,-2.38689,7.78981,11.5999,-1.54142,-1.28017,8.96147,14.3843,-0.051022,5,-17.3284,-1.46627,2.36734,0.53319,-0.0577415,68,78,74,78,72,32,93,76,74,71,77,7
1.16684,10,-0.108761,-0.710953,-14.4657,27.5263,-13.0767,0.108761,-0.108761,-0.710953,-14.2524,27.5263,-13.29,0.108761,5.40689,13.2293,-2.38731,7.7899,11.6001,-1.54147,-1.28017,8.96165,14.384,-0.0508856,5,-17.3286,-1.46633,2.36736,0.533215,-0.0577345,68,78,74,78,72,32,93,76,74,71,77,7
1.16681,10,-0.108747,-0.710987,-14.4657,27.5263,-13.0767,0.108747,-0.108747,-0.710987,-14.2524,27.5263,-13.29,0.108747,5.40689,13.2292,-2.38771,7.78999,11.6003,-1.54151,-1.28018,8.96183,14.3837,-0.0507427,5,-17.3287,-1.4664,2.36738,0.533241,-0.0577273,68,78,74,78,72,32,93,76,74,71,77,7
1.16678,10,-0.108733,-0.711023,-14.4657,27.5263,-13.0767,0.108733,-0.108733,-0.711023,-14.2524,27.5263,-13.29,0.108733,5.40689,13.229,-2.38809,7.79008,11.6005,-1.54156,-1.28018,8.96201,14.3834,-0.0505935,5,-17.3289,-1.46648,2.3674,0.533267,-0.0577199,68,78,74,78,72,32,93,76,74,71,77,7
1.16674,10,-0.108719,-0.71106,-14.4657,27.5263,-13.0767,0.108719,-0.108719,-0.71106,-14.2524,27.5263,-13.29,0.108719,5.40689,13.2289,-2.38843,7.79017,11.6007,-1.54161,-1.28018,8.96219,14.3831,-0.0504382,5,-17.3291,-1.46657,2.36743,0.533295,-0.0577123,68,78,74,78,72,32,93,76,74,71,77,7
1.16669,10,-0.108704,-0.711099,-14.4657,27.5263,-13.0767,0.108704,-0.108704,-0.711099,-14.2524,27.5263,-13.29,0.108704,5.40689,13.2287,-2.38876,7.79026,11.6008,-1.54166,-1.28018,8.96238,14.3828,-0.0502773,5,-17.3293,-1.46667,2.36745,0.533324,-0.0577045,68,78,74,78,72,32,93,76,74,71,77,7
1.16664,10,-0.108689,-0.711138,-14.4658,27.5263,-13.0767,0.108689,-0.108689,-0.711138,-14.2524,27.5263,-13.29,0.108689,5.40688,13.2286,-2.38906,7.79035,11.601,-1.54171,-1.28018,8.96257,14.3825,-0.0501115,5,-17.3295,-1.46678,2.36747,0.533354,-0.0576966,68,78,74,78,72,32,93,76,74,71,77,7
1.16659,10,-0.108674,-0.711178,-14.4658,27.5263,-13.0767,0.108674,-0.108674,-0.711178,-14.2524,27.5263,-13.29,0.108674,5.40687,13.2284,-2.38933,7.79044,11.6011,-1.54177,-1.28017,8.96276,14.3822,-0.0499383,5,-17.3297,-1.46689,2.3675,0.533384,-0.0576884,68,78,74,78,72,32,93,76,74,71,77,7
1.16653,10,-0.108658,-0.711219,-14.4658,27.5263,-13.0766,0.108658,-0.108658,-0.711219,-14.2524,27.5263,-13.29,0.108658,5.40686,13.2283,-2.38959,7.79054,11.6012,-1.54182,-1.28016,8.96296,14.3819,-0.0497604,5,-17.3299,-1.46702,2.36752,0.533415,-0.0576801,68,78,74,78,72,32,93,76,74,71,77,7
1.16647,10,-0.108642,-0.711261,-14.4658,27.5263,-13.0766,0.108642,-0.108642,-0.711261,-14.2524,27.5263,-13.29,0.108642,5.40685,13.2282,-2.38982,7.79063,11.6012,-1.54188,-1.28015,8.96316,14.3816,-0.0495804,5,-17.3301,-1.46715,2.36754,0.533446,-0.0576717,68,78,74,78,72,32,93,76,74,71,77,7
1.16641,10,-0.108626,-0.711303,-14.4658,27.5263,-13.0766,0.108626,-0.108626,-0.711303,-14.2524,27.5263,-13.29,0.108626,5.40685,13.228,-2.39002,7.79071,11.6013,-1.54194,-1.28014,8.96336,14.3813,-0.0494006,5,-17.3303,-1.46729,2.36757,0.533477,-0.0576631,68,78,74,78,72,32,93,76,74,71,77,7
1.16634,10,-0.10861,-0.711346,-14.4658,27.5263,-13.0766,0.10861,-0.10861,-0.711346,-14.2524,27.5263,-13.29,0.10861,5.40684,13.2279,-2.3902,7.7908,11.6014,-1.542,-1.28012,8.96357,14.381,-0.0492233,5,-17.3305,-1.46743,2.3676,0.533509,-0.0576545,68,78,74,78,72,32,93,76,74,71,77,7
1.16627,10,-0.108594,-0.711389,-14.4658,27.5263,-13.0766,0.108594,-0.108594,-0.711389,-14.2524,27.5263,-13.29,0.108594,5.40684,13.2278,-2.39036,7.79088,11.6014,-1.54206,-1.28011,8.96378,14.3807,-0.0490507,5,-17.3307,-1.46758,2.36763,0.533542,-0.0576458,68,78,74,78,72,32,93,76,74,71,77,7
1.16619,10,-0.108577,-0.711432,-14.4658,27.5262,-13.0766,0.108577,-0.108577,-0.711432,-14.2524,27.5262,-13.29,0.108577,5.40684,13.2277,-2.3905,7.79095,11.6014,-1.54212,-1.28008,8.964,14.3804,-0.0488849,5,-17.3309,-1.46774,2.36766,0.533574,-0.057637,68,78,74,78,72,32,93,76,74,71,77,7
1.16611,10,-0.108561,-0.711475,-14.4658,27.5262,-13.0765,0.108561,-0.108561,-0.711475,-14.2524,27.5262,-13.29,0.108561,5.40684,13.2276,-2.39061,7.79102,11.6014,-1.54219,-1.28006,8.96422,14.3801,-0.0487268,5,-17.3311,-1.4679,2.36769,0.533606,-0.0576283,68,78,74,78,72,32,93,76,74,71,77,7
1.16602,10,-0.108544,-0.711518,-14.4658,27.5262,-13.0765,0.108544,-0.108544,-0.711518,-14.2524,27.5262,-13.29,0.108544,5.40685,13.2274,-2.3907,7.79109,11.6014,-1.54225,-1.28003,8.96444,14.3798,-0.0485787,5,-17.3313,-1.46807,2.36773,0.533639,-0.0576195,68,78,74,78,72,32,93,76,74,71,77,7
1.16593,10,-0.108528,-0.711562,-14.4658,27.5262,-13.0765,0.108528,-0.108528,-0.711562,-14.2524,27.5262,-13.29,0.108528,5.40686,13.2273,-2.39077,7.79114,11.6014,-1.54232,-1.28,8.96467,14.3795,-0.048443,5,-17.3314,-1.46824,2.36776,0.533671,-0.0576108,68,78,74,78,72,32,93,76,74,71,77,7
1.16584,10,-0.108511,-0.711605,-14.4658,27.5262,-13.0765,0.108511,-0.108511,-0.711605,-14.2524,27.5262,-13.29,0.108511,5.40688,13.2272,-2.39081,7.79119,11.6014,-1.5424,-1.27996,8.96491,14.3793,-0.0483216,5,-17.3316,-1.46841,2.36781,0.533704,-0.057602,68,78,74,78,72,32,93,76,74,71,77,7
1.16575,10,-0.108495,-0.711648,-14.4659,27.5262,-13.0765,0.108495,-0.108495,-0.711648,-14.2524,27.5262,-13.29,0.108495,5.40691,13.2271,-2.39084,7.79124,11.6013,-1.54247,-1.27992,8.96514,14.379,-0.0482165,5,-17.3318,-1.46859,2.36785,0.533736,-0.0575932,68,78,74,78,72,32,93,76,74,71,77,7
1.16565,10,-0.108478,-0.71169,-14.4659,27.5262,-13.0765,0.108478,-0.108478,-0.71169,-14.2524,27.5262,-13.29,0.108478,5.40694,13.227,-2.39086,7.79128,11.6013,-1.54254,-1.27988,8.96539,14.3787,-0.0481292,5,-17.332,-1.46876,2.3679,0.533768,-0.0575844,68,78,74,78,72,32,93,76,74,71,77,7
1.16556,10,-0.108462,-0.711732,-14.4657,27.5261,-13.0764,0.108462,-0.108462,-0.711732,-14.2522,27.5261,-13.2899,0.108462,5.40697,13.2269,-2.39085,7.79131,11.6013,-1.54261,-1.27984,8.96563,14.3784,-0.0480612,5,-17.3321,-1.46894,2.36795,0.533799,-0.0575756,68,78,74,78,72,32,93,76,74,71,77,7
1.16546,10,-0.108445,-0.711773,-14.4658,27.5261,-13.0764,0.108445,-0.108445,-0.711773,-14.2522,27.5261,-13.2899,0.108445,5.40701,13.2268,-2.39083,7.79134,11.6012,-1.54268,-1.2798,8.96588,14.3781,-0.0480102,5,-17.3323,-1.46911,2.36801,0.53383,-0.0575668,68,78,74,78,72,32,93,76,74,71,77,7
1.16537,10,-0.108429,-0.711814,-14.4658,27.5261,-13.0764,0.108429,-0.108429,-0.711814,-14.2522,27.5261,-13.2899,0.108429,5.40706,13.2267,-2.3908,7.79136,11.6012,-1.54275,-1.27975,8.96613,14.3778,-0.0479793,5,-17.3324,-1.46929,2.36807,0.53386,-0.057558,68,78,74,78,72,32,93,76,74,71,77,7
1.16527,10,-0.108412,-0.711854,-14.4658,27.5261,-13.0763,0.108412,-0.108412,-0.711854,-14.2522,27.5261,-13.2899,0.108412,5.40711,13.2266,-2.39076,7.79138,11.6012,-1.54282,-1.27971,8.96638,14.3775,-0.0479708,5,-17.3326,-1.46946,2.36813,0.53389,-0.0575492,68,78,74,78,72,32,93,76,74,71,77,7
1.16517,10,-0.108395,-0.711893,-14.4658,27.5261,-13.0763,0.108395,-0.108395,-0.711893,-14.2522,27.5261,-13.2899,0.108395,5.40717,13.2264,-2.3907,7.7914,11.6011,-1.54289,-1.27966,8.96663,14.3773,-0.0479868,5,-17.3327,-1.46963,2.36819,0.53392,-0.0575403,68,78,74,78,72,32,93,76,74,71,77,7
1.16507,10,-0.108378,-0.711932,-14.4658,27.5261,-13.0763,0.108378,-0.108378,-0.711932,-14.2522,27.5261,-13.2899,0.108378,5.40723,13.2263,-2.39064,7.79141,11.6011,-1.54296,-1.27962,8.96689,14.377,-0.0480289,5,-17.3328,-1.46979,2.36827,0.533949,-0.0575312,68,78,74,78,72,32,93,76,74,71,77,7
1.16497,10,-0.108361,-0.711971,-14.4658,27.5261,-13.0763,0.108361,-0.108361,-0.711971,-14.2523,27.5261,-13.2899,0.108361,5.4073,13.2262,-2.39057,7.79141,11.6011,-1.54302,-1.27958,8.96715,14.3767,-0.0480981,5,-17.3329,-1.46995,2.36834,0.533978,-0.057522,68,78,74,78,72,32,93,76,74,71,77,7
1.16488,10,-0.108343,-0.71201,-14.4657,27.526,-13.0762,0.108343,-0.108343,-0.71201,-14.2521,27.526,-13.2898,0.108343,5.40737,13.2261,-2.39049,7.79141,11.6011,-1.54309,-1.27953,8.96742,14.3764,-0.048195,5,-17.333,-1.47011,2.36842,0.534007,-0.0575125,68,78,74,78,72,32,93,76,74,71,77,7
1.16478,10,-0.108325,-0.71205,-14.4657,27.526,-13.0762,0.108325,-0.108325,-0.71205,-14.2521,27.526,-13.2898,0.108325,5.40744,13.2261,-2.39041,7.7914,11.6011,-1.54315,-1.2795,8.96769,14.3761,-0.0483314,5,-17.3331,-1.47026,2.3685,0.534037,-0.0575027,68,78,74,78,72,32,93,76,74,71,77,7
1.16468,10,-0.108306,-0.71209,-14.4658,27.526,-13.0762,0.108306,-0.108306,-0.71209,-14.2521,27.526,-13.2898,0.108306,5.40752,13.226,-2.39034,7.79139,11.6011,-1.54321,-1.27946,8.96797,14.3758,-0.0485014,5,-17.3331,-1.4704,2.3686,0.534067,-0.0574926,68,78,74,78,72,32,93,76,74,71,77,7
1.16458,10,-0.108286,-0.71213,-14.4658,27.526,-13.0762,0.108286,-0.108286,-0.71213,-14.2521,27.526,-13.2898,0.108286,5.4076,13.2259,-2.39026,7.79137,11.6011,-1.54326,-1.27943,8.96825,14.3755,-0.0486999,5,-17.3332,-1.47053,2.36869,0.534097,-0.0574823,68,78,74,78,72,32,93,76,74,71,77,7
1.16449,10,-0.108266,-0.71217,-14.4658,27.526,-13.0762,0.108266,-0.108266,-0.71217,-14.2521,27.526,-13.2898,0.108266,5.40769,13.2258,-2.39018,7.79135,11.6011,-1.54331,-1.2794,8.96854,14.3752,-0.0489222,5,-17.3332,-1.47066,2.36879,0.534128,-0.0574717,68,78,74,78,72,32,93,76,74,71,77,7
1.16439,10,-0.108246,-0.71221,-14.4658,27.526,-13.0761,0.108246,-0.108246,-0.71221,-14.2522,27.526,-13.2898,0.108246,5.40777,13.2257,-2.39009,7.79132,11.6011,-1.54336,-1.27937,8.96882,14.3749,-0.0491643,5,-17.3332,-1.47078,2.36889,0.534158,-0.057461,68,78,74,78,72,32,93,76,74,71,77,7
1.16429,10,-0.108226,-0.71225,-14.4658,27.526,-13.0761,0.108226,-0.108226,-0.71225,-14.2522,27.526,-13.2898,0.108226,5.40786,13.2256,-2.39001,7.7913,11.6011,-1.54341,-1.27934,8.96911,14.3746,-0.0494228,5,-17.3332,-1.47089,2.369,0.534187,-0.0574501,68,78,74,78,72,32,93,76,74,71,77,7
1.1642,10,-0.108205,-0.712289,-14.4658,27.5259,-13.0761,0.108205,-0.108205,-0.712289,-14.2521,27.5259,-13.2898,0.108205,5.40795,13.2255,-2.38992,7.79127,11.6012,-1.54346,-1.27932,8.9694,14.3743,-0.0496948,5,-17.3333,-1.47101,2.3691,0.534217,-0.0574392,68,78,74,78,72,32,93,76,74,71,77,7
1.1641,10,-0.108184,-0.712327,-14.4658,27.5259,-13.0761,0.108184,-0.108184,-0.712327,-14.2521,27.5259,-13.2898,0.108184,5.40804,13.2255,-2.38982,7.79124,11.6012,-1.5435,-1.2793,8.96968,14.374,-0.0499659,5,-17.3333,-1.47112,2.3692,0.534245,-0.0574282,68,78,74,78,72,32,93,76,74,71,77,7
1.16401,10,-0.108164,-0.712364,-14.4658,27.5259,-13.076,0.108164,-0.108164,-0.712364,-14.2521,27.5259,-13.2897,0.108164,5.40814,13.2254,-2.38973,7.79121,11.6012,-1.54355,-1.27928,8.96995,14.3737,-0.0502405,5,-17.3333,-1.47123,2.3693,0.534273,-0.0574171,68,78,74,78,72,32,93,76,74,71,77,7
1.16392,10,-0.108143,-0.7124,-14.4658,27.5259,-13.076,0.108143,-0.108143,-0.7124,-14.2521,27.5259,-13.2897,0.108143,5.40823,13.2253,-2.38963,7.79118,11.6012,-1.54359,-1.27926,8.97023,14.3734,-0.0505224,5,-17.3333,-1.47134,2.3694,0.5343,-0.0574061,68,78,74,78,72,32,93,76,74,71,77,7
1.16383,10,-0.108122,-0.712436,-14.4659,27.5259,-13.076,0.108122,-0.108122,-0.712436,-14.2521,27.5259,-13.2897,0.108122,5.40832,13.2252,-2.38953,7.79115,11.6013,-1.54362,-1.27924,8.9705,14.3731,-0.0508148,5,-17.3333,-1.47144,2.36951,0.534327,-0.057395,68,78,74,78,72,32,93,76,74,71,77,7
1.16373,10,-0.108101,-0.712472,-14.4659,27.5259,-13.076,0.108101,-0.108101,-0.712472,-14.2521,27.5259,-13.2897,0.108101,5.40842,13.2252,-2.38944,7.79112,11.6013,-1.54366,-1.27922,8.97078,14.3729,-0.0511205,5,-17.3332,-1.47153,2.36961,0.534354,-0.0573841,68,78,74,78,72,32,93,76,74,71,77,7
1.16364,10,-0.108081,-0.712508,-14.4659,27.5259,-13.076,0.108081,-0.108081,-0.712508,-14.2522,27.5259,-13.2897,0.108081,5.40851,13.2251,-2.38935,7.79108,11.6014,-1.5437,-1.27921,8.97105,14.3726,-0.0514414,5,-17.3332,-1.47162,2.36972,0.534381,-0.0573732,68,78,74,78,72,32,93,76,74,71,77,7
1.16355,10,-0.108061,-0.712545,-14.4657,27.5258,-13.0759,0.108061,-0.108061,-0.712545,-14.2519,27.5258,-13.2897,0.108061,5.4086,13.225,-2.38927,7.79104,11.6014,-1.54373,-1.2792,8.97132,14.3723,-0.0517791,5,-17.3332,-1.4717,2.36983,0.534408,-0.0573625,68,78,74,78,72,32,93,76,74,71,77,7
1.16346,10,-0.108041,-0.712583,-14.4657,27.5258,-13.0759,0.108041,-0.108041,-0.712583,-14.2519,27.5258,-13.2896,0.108041,5.40869,13.225,-2.3892,7.79099,11.6015,-1.54377,-1.27918,8.9716,14.372,-0.0521445,5,-17.3331,-1.47178,2.36994,0.534437,-0.0573519,68,78,74,78,72,32,93,76,74,71,77,7
1.16337,10,-0.108021,-0.712623,-14.4657,27.5258,-13.0758,0.108021,-0.108021,-0.712623,-14.252,27.5258,-13.2896,0.108021,5.40877,13.2249,-2.38914,7.79093,11.6015,-1.5438,-1.27917,8.97188,14.3717,-0.0525334,5,-17.3331,-1.47184,2.37006,0.534467,-0.0573415,68,78,74,78,72,32,93,76,74,71,77,7
1.16328,10,-0.108002,-0.712663,-14.4658,27.5258,-13.0758,0.108002,-0.108002,-0.712663,-14.252,27.5258,-13.2896,0.108002,5.40885,13.2248,-2.38909,7.79087,11.6016,-1.54383,-1.27917,8.97216,14.3715,-0.0529418,5,-17.333,-1.47189,2.37018,0.534497,-0.0573313,68,78,74,78,72,32,93,76,74,71,77,7
1.1632,10,-0.107983,-0.712704,-14.4658,27.5258,-13.0758,0.107983,-0.107983,-0.712704,-14.252,27.5258,-13.2896,0.107983,5.40893,13.2248,-2.38905,7.7908,11.6017,-1.54387,-1.27916,8.97244,14.3712,-0.0533665,5,-17.3329,-1.47194,2.37031,0.534528,-0.0573212,68,78,74,78,72,32,93,76,74,71,77,7
1.16311,10,-0.107965,-0.712745,-14.4658,27.5258,-13.0758,0.107965,-0.107965,-0.712745,-14.252,27.5258,-13.2896,0.107965,5.409,13.2247,-2.38902,7.79073,11.6017,-1.5439,-1.27915,8.97272,14.3709,-0.0538042,5,-17.3328,-1.47198,2.37043,0.534559,-0.0573113,68,78,74,78,72,32,93,76,74,71,77,7
1.16302,10,-0.107946,-0.712786,-14.4658,27.5258,-13.0758,0.107946,-0.107946,-0.712786,-14.252,27.5258,-13.2896,0.107946,5.40907,13.2246,-2.38898,7.79066,11.6018,-1.54393,-1.27914,8.973,14.3707,-0.0542523,5,-17.3327,-1.47201,2.37057,0.53459,-0.0573016,68,78,74,78,72,32,93,76,74,71,77,7
1.16294,10,-0.107928,-0.712827,-14.4658,27.5258,-13.0757,0.107928,-0.107928,-0.712827,-14.252,27.5258,-13.2896,0.107928,5.40914,13.2246,-2.38894,7.79058,11.6019,-1.54396,-1.27914,8.97328,14.3704,-0.0547083,5,-17.3326,-1.47204,2.3707,0.53462,-0.057292,68,78,74,78,72,32,93,76,74,71,77,7
1.16285,10,-0.10791,-0.712866,-14.4659,27.5258,-13.0757,0.10791,-0.10791,-0.712866,-14.252,27.5258,-13.2896,0.10791,5.40922,13.2245,-2.38889,7.79051,11.602,-1.54398,-1.27913,8.97355,14.3702,-0.0551632,5,-17.3325,-1.47206,2.37083,0.53465,-0.0572824,68,78,74,78,72,32,93,76,74,71,77,7
1.16276,10,-0.107892,-0.712905,-14.4659,27.5258,-13.0757,0.107892,-0.107892,-0.712905,-14.252,27.5258,-13.2896,0.107892,5.40929,13.2244,-2.38884,7.79043,11.602,-1.54401,-1.27912,8.97381,14.3699,-0.055619,5,-17.3324,-1.47208,2.37097,0.534678,-0.057273,68,78,74,78,72,32,93,76,74,71,77,7
1.16268,10,-0.107875,-0.712942,-14.4659,27.5258,-13.0757,0.107875,-0.107875,-0.712942,-14.252,27.5258,-13.2896,0.107875,5.40936,13.2244,-2.38878,7.79035,11.6021,-1.54403,-1.27911,8.97407,14.3697,-0.0560772,5,-17.3323,-1.47209,2.3711,0.534707,-0.0572636,68,78,74,78,72,32,93,76,74,71,77,7
1.16259,10,-0.107858,-0.71298,-14.4659,27.5258,-13.0757,0.107858,-0.107858,-0.71298,-14.252,27.5258,-13.2896,0.107858,5.40943,13.2243,-2.38873,7.79027,11.6022,-1.54406,-1.2791,8.97433,14.3694,-0.0565393,5,-17.3322,-1.4721,2.37124,0.534735,-0.0572545,68,78,74,78,72,32,93,76,74,71,77,7
1.16251,10,-0.107841,-0.713018,-14.4659,27.5258,-13.0757,0.107841,-0.107841,-0.713018,-14.252,27.5258,-13.2896,0.107841,5.40949,13.2243,-2.38869,7.79019,11.6023,-1.54408,-1.2791,8.97459,14.3692,-0.057006,5,-17.332,-1.4721,2.37137,0.534764,-0.0572457,68,78,74,78,72,32,93,76,74,71,77,7
1.16243,10,-0.107825,-0.713058,-14.466,27.5258,-13.0756,0.107825,-0.107825,-0.713058,-14.252,27.5258,-13.2896,0.107825,5.40955,13.2242,-2.38866,7.7901,11.6023,-1.54411,-1.27909,8.97484,14.369,-0.0574782,5,-17.3319,-1.47211,2.37151,0.534793,-0.0572372,68,78,74,78,72,32,93,76,74,71,77,7
1.16236,10,-0.107809,-0.713098,-14.4658,27.5256,-13.0756,0.107809,-0.107809,-0.713098,-14.2519,27.5256,-13.2895,0.107809,5.40961,13.2241,-2.38866,7.79001,11.6024,-1.54413,-1.27909,8.9751,14.3687,-0.0579561,5,-17.3318,-1.4721,2.37164,0.534823,-0.0572289,68,78,74,78,72,32,93,76,74,71,77,7
1.16229,10,-0.107795,-0.71314,-14.4658,27.5256,-13.0756,0.107795,-0.107795,-0.71314,-14.2519,27.5256,-13.2895,0.107795,5.40966,13.2241,-2.38869,7.78992,11.6025,-1.54415,-1.27909,8.97536,14.3685,-0.0584432,5,-17.3316,-1.4721,2.37177,0.534855,-0.0572212,68,78,74,78,72,32,93,76,74,71,77,7
1.16222,10,-0.107781,-0.713184,-14.4658,27.5256,-13.0755,0.107781,-0.107781,-0.713184,-14.2519,27.5256,-13.2895,0.107781,5.4097,13.224,-2.38874,7.78983,11.6026,-1.54418,-1.2791,8.97562,14.3683,-0.0589379,5,-17.3315,-1.4721,2.3719,0.534888,-0.0572138,68,78,74,78,72,32,93,76,74,71,77,7
1.16215,10,-0.107768,-0.71323,-14.4658,27.5256,-13.0755,0.107768,-0.107768,-0.71323,-14.2519,27.5256,-13.2895,0.107768,5.40973,13.224,-2.38882,7.78973,11.6027,-1.5442,-1.27911,8.97588,14.3681,-0.0594382,5,-17.3313,-1.47209,2.37203,0.534923,-0.0572068,68,78,74,78,72,32,93,76,74,71,77,7
1.16209,10,-0.107755,-0.713278,-14.4659,27.5256,-13.0755,0.107755,-0.107755,-0.713278,-14.2519,27.5256,-13.2895,0.107755,5.40976,13.2239,-2.38893,7.78963,11.6029,-1.54423,-1.27912,8.97614,14.3679,-0.0599425,5,-17.3311,-1.47209,2.37216,0.534958,-0.0572002,68,78,74,78,72,32,93,76,74,71,77,7
1.16203,10,-0.107744,-0.713327,-14.4659,27.5256,-13.0755,0.107744,-0.107744,-0.713327,-14.2519,27.5256,-13.2895,0.107744,5.40978,13.2239,-2.38907,7.78952,11.603,-1.54425,-1.27913,8.97641,14.3677,-0.0604491,5,-17.3309,-1.47208,2.37228,0.534995,-0.0571939,68,78,74,78,72,32,93,76,74,71,77,7
1.16197,10,-0.107732,-0.713377,-14.4659,27.5256,-13.0755,0.107732,-0.107732,-0.713377,-14.2519,27.5256,-13.2895,0.107732,5.40979,13.2238,-2.38924,7.78941,11.6031,-1.54428,-1.27915,8.97667,14.3676,-0.0609562,5,-17.3307,-1.47207,2.3724,0.535033,-0.0571879,68,78,74,78,72,32,93,76,74,71,77,7
1.16192,10,-0.107721,-0.713428,-14.4658,27.5255,-13.0754,0.107721,-0.107721,-0.713428,-14.2518,27.5255,-13.2894,0.107721,5.4098,13.2237,-2.38943,7.7893,11.6032,-1.54431,-1.27916,8.97694,14.3674,-0.0614622,5,-17.3305,-1.47205,2.37251,0.535071,-0.0571821,68,78,74,78,72,32,93,76,74,71,77,7
1.16186,10,-0.107711,-0.71348,-14.4658,27.5255,-13.0754,0.107711,-0.107711,-0.71348,-14.2518,27.5255,-13.2894,0.107711,5.4098,13.2237,-2.38964,7.78919,11.6034,-1.54434,-1.27918,8.9772,14.3672,-0.0619632,5,-17.3303,-1.47204,2.37261,0.53511,-0.0571766,68,78,74,78,72,32,93,76,74,71,77,7
1.1618,10,-0.107701,-0.713533,-14.4658,27.5255,-13.0754,0.107701,-0.107701,-0.713533,-14.2518,27.5255,-13.2894,0.107701,5.4098,13.2236,-2.38988,7.78908,11.6035,-1.54437,-1.27921,8.97746,14.3671,-0.0624588,5,-17.3301,-1.47202,2.37271,0.53515,-0.0571713,68,78,74,78,72,32,93,76,74,71,77,7
1.16175,10,-0.107691,-0.713587,-14.4658,27.5255,-13.0754,0.107691,-0.107691,-0.713587,-14.2518,27.5255,-13.2894,0.107691,5.40979,13.2236,-2.39015,7.78897,11.6037,-1.5444,-1.27923,8.97773,14.3669,-0.0629485,5,-17.3299,-1.472,2.37281,0.53519,-0.0571662,68,78,74,78,72,32,93,76,74,71,77,7
1.1617,10,-0.107682,-0.713641,-14.4659,27.5255,-13.0753,0.107682,-0.107682,-0.713641,-14.2518,27.5255,-13.2894,0.107682,5.40978,13.2235,-2.39043,7.78885,11.6038,-1.54443,-1.27925,8.97798,14.3668,-0.0634317,5,-17.3297,-1.47197,2.37289,0.535231,-0.0571613,68,78,74,78,72,32,93,76,74,71,77,7
1.16165,10,-0.107673,-0.713696,-14.4659,27.5255,-13.0753,0.107673,-0.107673,-0.713696,-14.2518,27.5255,-13.2894,0.107673,5.40976,13.2235,-2.39074,7.78874,11.604,-1.54446,-1.27928,8.97824,14.3666,-0.0639074,5,-17.3295,-1.47195,2.37297,0.535272,-0.0571566,68,78,74,78,72,32,93,76,74,71,77,7
1.1616,10,-0.107665,-0.713751,-14.4659,27.5255,-13.0753,0.107665,-0.107665,-0.713751,-14.2518,27.5255,-13.2894,0.107665,5.40974,13.2235,-2.39108,7.78862,11.6041,-1.5445,-1.2793,8.9785,14.3665,-0.0643746,5,-17.3292,-1.47192,2.37305,0.535313,-0.0571521,68,78,74,78,72,32,93,76,74,71,77,7
1.16156,10,-0.107657,-0.713807,-14.4662,27.5257,-13.0753,0.107657,-0.107657,-0.713807,-14.252,27.5257,-13.2895,0.107657,5.40972,13.2234,-2.39143,7.7885,11.6043,-1.54453,-1.27932,8.97875,14.3664,-0.064832,5,-17.329,-1.47189,2.37311,0.535355,-0.0571478,68,78,74,78,72,32,93,76,74,71,77,7
1.16153,10,-0.107649,-0.713862,-14.4662,27.5257,-13.0753,0.107649,-0.107649,-0.713862,-14.252,27.5257,-13.2895,0.107649,5.40969,13.2234,-2.3918,7.78837,11.6045,-1.54456,-1.27934,8.979,14.3663,-0.0652863,5,-17.3288,-1.47186,2.37317,0.535397,-0.0571437,68,78,74,78,72,32,93,76,74,71,77,7
1.16151,10,-0.107642,-0.713917,-14.4662,27.5257,-13.0753,0.107642,-0.107642,-0.713917,-14.252,27.5257,-13.2895,0.107642,5.40966,13.2234,-2.39219,7.78824,11.6047,-1.54459,-1.27936,8.97925,14.3662,-0.0657318,5,-17.3286,-1.47183,2.37322,0.535438,-0.0571398,68,78,74,78,72,32,93,76,74,71,77,7
1.16149,10,-0.107635,-0.713973,-14.4662,27.5257,-13.0753,0.107635,-0.107635,-0.713973,-14.252,27.5257,-13.2895,0.107635,5.40963,13.2233,-2.39261,7.78811,11.6049,-1.54462,-1.27938,8.97949,14.3661,-0.0661639,5,-17.3284,-1.47179,2.37326,0.535479,-0.0571361,68,78,74,78,72,32,93,76,74,71,77,7
1.16147,10,-0.107628,-0.714028,-14.4662,27.5257,-13.0753,0.107628,-0.107628,-0.714028,-14.252,27.5257,-13.2895,0.107628,5.40959,13.2233,-2.39303,7.78798,11.605,-1.54465,-1.27939,8.97974,14.3659,-0.0665783,5,-17.3282,-1.47176,2.3733,0.535521,-0.0571326,68,78,74,78,72,32,93,76,74,71,77,7
1.16147,10,-0.107622,-0.714085,-14.4662,27.5257,-13.0753,0.107622,-0.107622,-0.714085,-14.252,27.5257,-13.2895,0.107622,5.40955,13.2233,-2.39348,7.78785,11.6052,-1.54468,-1.2794,8.97997,14.3659,-0.0669712,5,-17.3281,-1.47172,2.37334,0.535563,-0.0571292,68,78,74,78,72,32,93,76,74,71,77,7
1.16146,10,-0.107616,-0.714141,-14.4663,27.5257,-13.0752,0.107616,-0.107616,-0.714141,-14.252,27.5257,-13.2895,0.107616,5.4095,13.2232,-2.39394,7.78772,11.6054,-1.54471,-1.27941,8.98021,14.3658,-0.0673394,5,-17.3279,-1.47169,2.37336,0.535606,-0.0571261,68,78,74,78,72,32,93,76,74,71,77,7
1.16146,10,-0.10761,-0.714199,-14.4663,27.5257,-13.0752,0.10761,-0.10761,-0.714199,-14.252,27.5257,-13.2895,0.10761,5.40944,13.2232,-2.39441,7.78759,11.6057,-1.54474,-1.27942,8.98044,14.3657,-0.0676802,5,-17.3278,-1.47165,2.37339,0.535649,-0.0571232,68,78,74,78,72,32,93,76,74,71,77,7
1.16145,10,-0.107605,-0.714257,-14.4663,27.5257,-13.0752,0.107605,-0.107605,-0.714257,-14.252,27.5257,-13.2895,0.107605,5.40938,13.2232,-2.39491,7.78746,11.6059,-1.54477,-1.27943,8.98067,14.3656,-0.0679896,5,-17.3276,-1.47161,2.37341,0.535693,-0.0571205,68,78,74,78,72,32,93,76,74,71,77,7
1.16145,10,-0.107601,-0.714316,-14.4663,27.5257,-13.0752,0.107601,-0.107601,-0.714316,-14.252,27.5257,-13.2895,0.107601,5.40931,13.2231,-2.39542,7.78733,11.6061,-1.5448,-1.27944,8.98089,14.3655,-0.0682666,5,-17.3275,-1.47158,2.37342,0.535737,-0.0571181,68,78,74,78,72,32,93,76,74,71,77,7
1.16145,10,-0.107597,-0.714376,-14.4663,27.5257,-13.0752,0.107597,-0.107597,-0.714376,-14.252,27.5257,-13.2895,0.107597,5.40923,13.2231,-2.39593,7.78721,11.6064,-1.54483,-1.27944,8.98111,14.3654,-0.0685107,5,-17.3274,-1.47154,2.37344,0.535782,-0.0571159,68,78,74,78,72,32,93,76,74,71,77,7
1.16145,10,-0.107593,-0.714437,-14.4663,27.5257,-13.0752,0.107593,-0.107593,-0.714437,-14.252,27.5257,-13.2895,0.107593,5.40915,13.223,-2.39646,7.78709,11.6066,-1.54486,-1.27945,8.98133,14.3653,-0.0687217,5,-17.3274,-1.47151,2.37345,0.535828,-0.0571137,68,78,74,78,72,32,93,76,74,71,77,7
1.16146,10,-0.107589,-0.714499,-14.4663,27.5257,-13.0752,0.107589,-0.107589,-0.714499,-14.252,27.5257,-13.2895,0.107589,5.40905,13.223,-2.39699,7.78697,11.6069,-1.5449,-1.27945,8.98155,14.3652,-0.0688996,5,-17.3273,-1.47147,2.37346,0.535874,-0.0571117,68,78,74,78,72,32,93,76,74,71,77,7
1.16147,10,-0.107585,-0.714563,-14.4664,27.5257,-13.0751,0.107585,-0.107585,-0.714563,-14.252,27.5257,-13.2895,0.107585,5.40894,13.223,-2.39751,7.78686,11.6072,-1.54494,-1.27946,8.98176,14.3652,-0.0690447,5,-17.3273,-1.47144,2.37348,0.535922,-0.0571096,68,78,74,78,72,32,93,76,74,71,77,7
1.16149,10,-0.107581,-0.714628,-14.4665,27.5258,-13.0752,0.107581,-0.107581,-0.714628,-14.2521,27.5258,-13.2895,0.107581,5.40882,13.2229,-2.39803,7.78676,11.6074,-1.54497,-1.27946,8.98196,14.3651,-0.0691578,5,-17.3273,-1.47141,2.37349,0.535971,-0.0571075,68,78,74,78,72,32,93,76,74,71,77,7
1.16152,10,-0.107576,-0.714695,-14.4665,27.5258,-13.0751,0.107576,-0.107576,-0.714695,-14.2521,27.5258,-13.2895,0.107576,5.40869,13.2229,-2.39854,7.78667,11.6077,-1.54502,-1.27946,8.98216,14.365,-0.0692312,5,-17.3273,-1.47138,2.37352,0.536021,-0.057105,68,78,74,78,72,32,93,76,74,71,77,7
1.16156,10,-0.107571,-0.714764,-14.4665,27.5258,-13.0751,0.107571,-0.107571,-0.714764,-14.2521,27.5258,-13.2896,0.107571,5.40854,13.2228,-2.39903,7.78659,11.6079,-1.54507,-1.27947,8.98236,14.3649,-0.06927,5,-17.3273,-1.47135,2.37354,0.536073,-0.0571024,68,78,74,78,72,32,93,76,74,71,77,7
1.16161,10,-0.107566,-0.714834,-14.4665,27.5258,-13.0751,0.107566,-0.107566,-0.714834,-14.2521,27.5258,-13.2896,0.107566,5.40839,13.2228,-2.39951,7.78652,11.6082,-1.54512,-1.27947,8.98256,14.3648,-0.0692786,5,-17.3274,-1.47133,2.37358,0.536126,-0.0570996,68,78,74,78,72,32,93,76,74,71,77,7
1.16166,10,-0.107561,-0.714906,-14.4665,27.5258,-13.0751,0.107561,-0.107561,-0.714906,-14.2521,27.5258,-13.2896,0.107561,5.40822,13.2228,-2.39998,7.78645,11.6085,-1.54517,-1.27948,8.98275,14.3647,-0.0692611,5,-17.3274,-1.47131,2.37361,0.536179,-0.0570967,68,78,74,78,72,32,93,76,74,71,77,7
1.16173,10,-0.107555,-0.714978,-14.4666,27.5258,-13.0751,0.107555,-0.107555,-0.714978,-14.2521,27.5258,-13.2896,0.107555,5.40805,13.2227,-2.40044,7.7864,11.6087,-1.54523,-1.27948,8.98293,14.3646,-0.0692208,5,-17.3275,-1.47128,2.37365,0.536233,-0.0570939,68,78,74,78,72,32,93,76,74,71,77,7
1.16179,10,-0.10755,-0.71505,-14.4666,27.5258,-13.0751,0.10755,-0.10755,-0.71505,-14.252,27.5258,-13.2896,0.10755,5.40787,13.2227,-2.4009,7.78635,11.609,-1.54529,-1.27949,8.98312,14.3645,-0.0691607,5,-17.3276,-1.47126,2.37369,0.536287,-0.0570911,68,78,74,78,72,32,93,76,74,71,77,7
1.16187,10,-0.107545,-0.715122,-14.4668,27.526,-13.0751,0.107545,-0.107545,-0.715122,-14.2523,27.526,-13.2897,0.107545,5.40769,13.2226,-2.40135,7.7863,11.6092,-1.54534,-1.27949,8.9833,14.3644,-0.0690836,5,-17.3277,-1.47124,2.37373,0.536342,-0.0570883,68,78,74,78,72,32,93,76,74,71,77,7
1.16194,10,-0.107541,-0.715194,-14.4668,27.526,-13.0751,0.107541,-0.107541,-0.715194,-14.2523,27.526,-13.2897,0.107541,5.40751,13.2226,-2.40181,7.78626,11.6095,-1.5454,-1.2795,8.98347,14.3643,-0.0690004,5,-17.3278,-1.47122,2.37377,0.536395,-0.0570861,68,78,74,78,72,32,93,76,74,71,77,7
1.16202,10,-0.107537,-0.715264,-14.4668,27.526,-13.0751,0.107537,-0.107537,-0.715264,-14.2523,27.526,-13.2897,0.107537,5.40733,13.2226,-2.40226,7.78622,11.6098,-1.54545,-1.27951,8.98365,14.3642,-0.0689084,5,-17.3279,-1.4712,2.37381,0.536448,-0.0570842,68,78,74,78,72,32,93,76,74,71,77,7
1.16211,10,-0.107534,-0.715335,-14.4669,27.526,-13.0751,0.107534,-0.107534,-0.715335,-14.2523,27.526,-13.2897,0.107534,5.40714,13.2225,-2.40271,7.78618,11.61,-1.5455,-1.27952,8.98382,14.3642,-0.0688051,5,-17.328,-1.47117,2.37385,0.536501,-0.0570824,68,78,74,78,72,32,93,76,74,71,77,7
1.1622,10,-0.10753,-0.715405,-14.4669,27.526,-13.0751,0.10753,-0.10753,-0.715405,-14.2522,27.526,-13.2897,0.10753,5.40696,13.2225,-2.40315,7.78615,11.6103,-1.54555,-1.27954,8.98398,14.3641,-0.0686885,5,-17.3281,-1.47115,2.3739,0.536553,-0.0570805,68,78,74,78,72,32,93,76,74,71,77,7
1.16228,10,-0.107526,-0.715475,-14.4669,27.526,-13.0751,0.107526,-0.107526,-0.715475,-14.2522,27.526,-13.2897,0.107526,5.40677,13.2224,-2.40357,7.78612,11.6105,-1.54561,-1.27955,8.98414,14.364,-0.068557,5,-17.3283,-1.47113,2.37394,0.536606,-0.0570784,68,78,74,78,72,32,93,76,74,71,77,7
1.16237,10,-0.107521,-0.715545,-14.4669,27.526,-13.0751,0.107521,-0.107521,-0.715545,-14.2522,27.526,-13.2897,0.107521,5.40658,13.2224,-2.40397,7.7861,11.6108,-1.54566,-1.27956,8.9843,14.3639,-0.0684094,5,-17.3284,-1.47112,2.37399,0.536659,-0.0570759,68,78,74,78,72,32,93,76,74,71,77,7
1.16246,10,-0.107516,-0.715615,-14.4672,27.5262,-13.0751,0.107516,-0.107516,-0.715615,-14.2526,27.5262,-13.2898,0.107516,5.40638,13.2223,-2.40435,7.78608,11.611,-1.54573,-1.27956,8.98445,14.3638,-0.0682449,5,-17.3286,-1.4711,2.37404,0.536711,-0.0570729,68,78,74,78,72,32,93,76,74,71,77,7
1.16256,10,-0.107508,-0.715687,-14.4673,27.5262,-13.0751,0.107508,-0.107508,-0.715687,-14.2525,27.5262,-13.2898,0.107508,5.40616,13.2223,-2.40467,7.78608,11.6112,-1.5458,-1.27957,8.9846,14.3637,-0.0680577,5,-17.3287,-1.4711,2.37409,0.536765,-0.0570688,68,78,74,78,72,32,93,76,74,71,77,7
1.16265,10,-0.107499,-0.71576,-14.4673,27.5262,-13.0751,0.107499,-0.107499,-0.71576,-14.2525,27.5262,-13.2898,0.107499,5.40594,13.2223,-2.40496,7.78608,11.6114,-1.54588,-1.27957,8.98474,14.3636,-0.0678501,5,-17.3288,-1.4711,2.37415,0.53682,-0.0570638,68,78,74,78,72,32,93,76,74,71,77,7
1.16274,10,-0.107488,-0.715833,-14.4673,27.5262,-13.0751,0.107488,-0.107488,-0.715833,-14.2525,27.5262,-13.2899,0.107488,5.40571,13.2223,-2.40522,7.78609,11.6116,-1.54596,-1.27956,8.98488,14.3635,-0.0676245,5,-17.329,-1.4711,2.37421,0.536875,-0.0570582,68,78,74,78,72,32,93,76,74,71,77,7
1.16283,10,-0.107476,-0.715907,-14.4673,27.5262,-13.0751,0.107476,-0.107476,-0.715907,-14.2525,27.5262,-13.2899,0.107476,5.40547,13.2223,-2.40545,7.78611,11.6118,-1.54605,-1.27956,8.98501,14.3634,-0.0673832,5,-17.3291,-1.47111,2.37427,0.53693,-0.0570519,68,78,74,78,72,32,93,76,74,71,77,7
1.16292,10,-0.107464,-0.71598,-14.4673,27.5262,-13.0751,0.107464,-0.107464,-0.71598,-14.2525,27.5262,-13.2899,0.107464,5.40523,13.2223,-2.40566,7.78612,11.612,-1.54614,-1.27955,8.98514,14.3632,-0.0671282,5,-17.3293,-1.47112,2.37433,0.536985,-0.0570452,68,78,74,78,72,32,93,76,74,71,77,7
1.16302,10,-0.107451,-0.716053,-14.4673,27.5262,-13.0751,0.107451,-0.107451,-0.716053,-14.2525,27.5262,-13.2899,0.107451,5.40499,13.2223,-2.40585,7.78615,11.6121,-1.54624,-1.27954,8.98526,14.3631,-0.0668614,5,-17.3294,-1.47113,2.3744,0.53704,-0.0570382,68,78,74,78,72,32,93,76,74,71,77,7
1.16311,10,-0.107437,-0.716126,-14.4677,27.5265,-13.0752,0.107437,-0.107437,-0.716126,-14.2528,27.5265,-13.29,0.107437,5.40474,13.2224,-2.40602,7.78617,11.6123,-1.54633,-1.27953,8.98537,14.363,-0.0665847,5,-17.3296,-1.47114,2.37447,0.537094,-0.057031,68,78,74,78,72,32,93,76,74,71,77,7
1.1632,10,-0.107424,-0.716197,-14.4677,27.5265,-13.0752,0.107424,-0.107424,-0.716197,-14.2528,27.5265,-13.29,0.107424,5.4045,13.2224,-2.4062,7.7862,11.6125,-1.54643,-1.27952,8.98549,14.3628,-0.0663049,5,-17.3297,-1.47116,2.37453,0.537147,-0.057024,68,78,74,78,72,32,93,76,74,71,77,7
1.1633,10,-0.107411,-0.716266,-14.4677,27.5265,-13.0752,0.107411,-0.107411,-0.716266,-14.2528,27.5265,-13.29,0.107411,5.40426,13.2224,-2.40637,7.78622,11.6126,-1.54653,-1.2795,8.9856,14.3627,-0.0660209,5,-17.3299,-1.47117,2.3746,0.5372,-0.057017,68,78,74,78,72,32,93,76,74,71,77,7
1.1634,10,-0.107397,-0.716335,-14.4677,27.5265,-13.0751,0.107397,-0.107397,-0.716335,-14.2528,27.5265,-13.29,0.107397,5.40403,13.2224,-2.40653,7.78624,11.6128,-1.54662,-1.27949,8.9857,14.3626,-0.065732,5,-17.3301,-1.47119,2.37467,0.537251,-0.0570099,68,78,74,78,72,32,93,76,74,71,77,7
1.1635,10,-0.107383,-0.716403,-14.4677,27.5265,-13.0751,0.107383,-0.107383,-0.716403,-14.2528,27.5265,-13.2901,0.107383,5.40379,13.2224,-2.40667,7.78627,11.6129,-1.54672,-1.27947,8.9858,14.3625,-0.0654378,5,-17.3302,-1.47121,2.37474,0.537302,-0.0570026,68,78,74,78,72,32,93,76,74,71,77,7
1.16359,10,-0.107369,-0.716471,-14.4677,27.5265,-13.0751,0.107369,-0.107369,-0.716471,-14.2527,27.5265,-13.2901,0.107369,5.40355,13.2224,-2.40679,7.78631,11.6131,-1.54682,-1.27946,8.9859,14.3623,-0.0651383,5,-17.3304,-1.47123,2.37481,0.537353,-0.0569948,68,78,74,78,72,32,93,76,74,71,77,7
1.16369,10,-0.107353,-0.716538,-14.4677,27.5265,-13.0751,0.107353,-0.107353,-0.716538,-14.2527,27.5265,-13.2901,0.107353,5.4033,13.2225,-2.40688,7.78634,11.6132,-1.54693,-1.27944,8.98599,14.3622,-0.0648337,5,-17.3305,-1.47125,2.37488,0.537404,-0.0569866,68,78,74,78,72,32,93,76,74,71,77,7
1.16379,10,-0.107337,-0.716606,-14.4681,27.5268,-13.0752,0.107337,-0.107337,-0.716606,-14.2531,27.5268,-13.2902,0.107337,5.40305,13.2225,-2.40693,7.78639,11.6133,-1.54704,-1.27942,8.98608,14.3621,-0.0645249,5,-17.3307,-1.47128,2.37495,0.537455,-0.0569777,68,78,74,78,72,32,93,76,74,71,77,7
1.16388,10,-0.107319,-0.716674,-14.4681,27.5268,-13.0752,0.107319,-0.107319,-0.716674,-14.2531,27.5268,-13.2902,0.107319,5.4028,13.2226,-2.40694,7.78644,11.6134,-1.54715,-1.2794,8.98617,14.3619,-0.0642011,5,-17.3308,-1.47129,2.37503,0.537506,-0.0569682,68,78,74,78,72,32,93,76,74,71,77,7
1.16398,10,-0.1073,-0.716742,-14.4681,27.5268,-13.0752,0.1073,-0.1073,-0.716742,-14.2531,27.5268,-13.2902,0.1073,5.40253,13.2226,-2.40691,7.7865,11.6134,-1.54727,-1.27938,8.98625,14.3618,-0.0638692,5,-17.331,-1.47131,2.37511,0.537557,-0.0569579,68,78,74,78,72,32,93,76,74,71,77,7
1.16407,10,-0.107279,-0.716811,-14.4681,27.5268,-13.0752,0.107279,-0.107279,-0.716811,-14.2531,27.5268,-13.2902,0.107279,5.40227,13.2227,-2.40684,7.78657,11.6135,-1.5474,-1.27936,8.98632,14.3616,-0.0635353,5,-17.3311,-1.47133,2.37519,0.537608,-0.0569469,68,78,74,78,72,32,93,76,74,71,77,7
1.16416,10,-0.107256,-0.716881,-14.4681,27.5268,-13.0752,0.107256,-0.107256,-0.716881,-14.253,27.5268,-13.2903,0.107256,5.40199,13.2228,-2.40673,7.78665,11.6135,-1.54753,-1.27934,8.9864,14.3615,-0.0632049,5,-17.3312,-1.47136,2.37527,0.537661,-0.0569349,68,78,74,78,72,32,93,76,74,71,77,7
1.16426,10,-0.107232,-0.716952,-14.4681,27.5268,-13.0752,0.107232,-0.107232,-0.716952,-14.253,27.5268,-13.2903,0.107232,5.40172,13.2229,-2.40658,7.78673,11.6135,-1.54766,-1.27932,8.98648,14.3614,-0.0628825,5,-17.3313,-1.47141,2.37533,0.537714,-0.0569219,68,78,74,78,72,32,93,76,74,71,77,7
1.16435,10,-0.107206,-0.717024,-14.4681,27.5268,-13.0752,0.107206,-0.107206,-0.717024,-14.253,27.5268,-13.2903,0.107206,5.40144,13.223,-2.40639,7.78682,11.6135,-1.54779,-1.2793,8.98656,14.3612,-0.0625721,5,-17.3314,-1.47148,2.37538,0.537768,-0.056908,68,78,74,78,72,32,93,76,74,71,77,7
1.16444,10,-0.107177,-0.717097,-14.4683,27.5269,-13.0752,0.107177,-0.107177,-0.717097,-14.2531,27.5269,-13.2904,0.107177,5.40116,13.2232,-2.40618,7.78691,11.6134,-1.54792,-1.27928,8.98664,14.361,-0.0622769,5,-17.3314,-1.47157,2.37542,0.537823,-0.056893,68,78,74,78,72,32,93,76,74,71,77,7
1.16454,10,-0.107147,-0.717173,-14.4683,27.5269,-13.0752,0.107147,-0.107147,-0.717173,-14.2531,27.5269,-13.2904,0.107147,5.40087,13.2233,-2.40593,7.787,11.6134,-1.54804,-1.27926,8.98674,14.3609,-0.0620135,5,-17.3314,-1.4717,2.37543,0.53788,-0.0568767,68,78,74,78,72,32,93,76,74,71,77,7
1.16463,10,-0.107114,-0.717251,-14.4683,27.5269,-13.0752,0.107114,-0.107114,-0.717251,-14.2531,27.5269,-13.2904,0.107114,5.40059,13.2235,-2.40565,7.7871,11.6133,-1.54817,-1.27925,8.98685,14.3607,-0.0617771,5,-17.3314,-1.47186,2.37541,0.537939,-0.0568592,68,78,74,78,72,32,93,76,74,71,77,7
1.16473,10,-0.107079,-0.717331,-14.4683,27.5269,-13.0752,0.107079,-0.107079,-0.717331,-14.2531,27.5269,-13.2904,0.107079,5.4003,13.2237,-2.40534,7.7872,11.6132,-1.54829,-1.27923,8.98696,14.3605,-0.0615635,5,-17.3314,-1.47205,2.37538,0.537998,-0.0568407,68,78,74,78,72,32,93,76,74,71,77,7
1.16483,10,-0.107043,-0.717412,-14.4683,27.5269,-13.0752,0.107043,-0.107043,-0.717412,-14.2531,27.5269,-13.2904,0.107043,5.40002,13.2239,-2.40501,7.7873,11.6131,-1.54841,-1.27921,8.98708,14.3604,-0.0613689,5,-17.3313,-1.47227,2.37533,0.538059,-0.0568213,68,78,74,78,72,32,93,76,74,71,77,7
1.16492,10,-0.107005,-0.717493,-14.4683,27.5269,-13.0752,0.107005,-0.107005,-0.717493,-14.2531,27.5269,-13.2905,0.107005,5.39973,13.2242,-2.40466,7.7874,11.613,-1.54852,-1.2792,8.9872,14.3602,-0.0611905,5,-17.3312,-1.47251,2.37527,0.53812,-0.0568013,68,78,74,78,72,32,93,76,74,71,77,7
1.16501,10,-0.106966,-0.717575,-14.4683,27.5269,-13.0752,0.106966,-0.106966,-0.717575,-14.253,27.5269,-13.2905,0.106966,5.39945,13.2244,-2.40429,7.7875,11.6128,-1.54864,-1.27918,8.98733,14.36,-0.0610258,5,-17.3311,-1.47276,2.37519,0.538181,-0.0567806,68,78,74,78,72,32,93,76,74,71,77,7
1.1651,10,-0.106926,-0.717657,-14.4688,27.5272,-13.0753,0.106926,-0.106926,-0.717657,-14.2535,27.5272,-13.2906,0.106926,5.39917,13.2246,-2.40391,7.7876,11.6127,-1.54875,-1.27916,8.98745,14.3598,-0.0608732,5,-17.331,-1.47303,2.37511,0.538242,-0.0567595,68,78,74,78,72,32,93,76,74,71,77,7
1.16519,10,-0.106886,-0.717738,-14.4688,27.5272,-13.0753,0.106886,-0.106886,-0.717738,-14.2535,27.5272,-13.2906,0.106886,5.39889,13.2249,-2.40351,7.78771,11.6125,-1.54886,-1.27915,8.98758,14.3596,-0.0607314,5,-17.3308,-1.4733,2.37502,0.538304,-0.0567382,68,78,74,78,72,32,93,76,74,71,77,7
1.16527,10,-0.106846,-0.717819,-14.4688,27.5272,-13.0753,0.106846,-0.106846,-0.717819,-14.2535,27.5272,-13.2906,0.106846,5.39862,13.2251,-2.40311,7.78781,11.6124,-1.54896,-1.27913,8.98771,14.3595,-0.0605997,5,-17.3307,-1.47357,2.37493,0.538364,-0.0567168,68,78,74,78,72,32,93,76,74,71,77,7
1.16534,10,-0.106805,-0.7179,-14.4688,27.5272,-13.0753,0.106805,-0.106805,-0.7179,-14.2534,27.5272,-13.2906,0.106805,5.39834,13.2254,-2.40269,7.78792,11.6122,-1.54907,-1.27912,8.98784,14.3593,-0.0604782,5,-17.3306,-1.47386,2.37483,0.538425,-0.0566951,68,78,74,78,72,32,93,76,74,71,77,7
1.16541,10,-0.106764,-0.71798,-14.4688,27.5272,-13.0753,0.106764,-0.106764,-0.71798,-14.2534,27.5272,-13.2907,0.106764,5.39807,13.2256,-2.40227,7.78802,11.612,-1.54917,-1.2791,8.98797,14.3591,-0.0603676,5,-17.3304,-1.47415,2.37472,0.538485,-0.0566732,68,78,74,78,72,32,93,76,74,71,77,7
1.16548,10,-0.106722,-0.71806,-14.4688,27.5272,-13.0753,0.106722,-0.106722,-0.71806,-14.2534,27.5272,-13.2907,0.106722,5.39781,13.2259,-2.40185,7.78813,11.6119,-1.54927,-1.27909,8.98811,14.3589,-0.0602687,5,-17.3302,-1.47446,2.37461,0.538545,-0.0566512,68,78,74,78,72,32,93,76,74,71,77,7
1.16555,10,-0.106681,-0.718139,-14.4688,27.5272,-13.0753,0.106681,-0.106681,-0.718139,-14.2534,27.5272,-13.2907,0.106681,5.39755,13.2262,-2.40142,7.78823,11.6117,-1.54937,-1.27908,8.98824,14.3588,-0.0601831,5,-17.33,-1.47477,2.37448,0.538605,-0.056629,68,78,74,78,72,32,93,76,74,71,77,7
1.16561,10,-0.106638,-0.718219,-14.4701,27.5282,-13.0755,0.106638,-0.106638,-0.718219,-14.2547,27.5282,-13.291,0.106638,5.39729,13.2265,-2.40098,7.78833,11.6115,-1.54946,-1.27906,8.98838,14.3586,-0.0601128,5,-17.3298,-1.47511,2.37435,0.538664,-0.0566066,68,78,74,78,72,32,93,76,74,71,77,7
1.16567,10,-0.106596,-0.718297,-14.4701,27.5282,-13.0755,0.106596,-0.106596,-0.718297,-14.2546,27.5282,-13.291,0.106596,5.39703,13.2267,-2.40055,7.78843,11.6113,-1.54955,-1.27905,8.98852,14.3584,-0.0600422,5,-17.3296,-1.47546,2.37421,0.538723,-0.0565838,68,78,74,78,72,32,93,76,74,71,77,7
1.16572,10,-0.106552,-0.718376,-14.4701,27.5282,-13.0755,0.106552,-0.106552,-0.718376,-14.2546,27.5282,-13.291,0.106552,5.39678,13.227,-2.40012,7.78852,11.6111,-1.54964,-1.27904,8.98866,14.3582,-0.0599831,5,-17.3294,-1.47583,2.37406,0.538782,-0.0565609,68,78,74,78,72,32,93,76,74,71,77,7
1.16578,10,-0.106509,-0.718454,-14.4701,27.5282,-13.0755,0.106509,-0.106509,-0.718454,-14.2546,27.5282,-13.291,0.106509,5.39654,13.2273,-2.39968,7.78861,11.611,-1.54972,-1.27903,8.98881,14.3581,-0.0599458,5,-17.3292,-1.47623,2.3739,0.538841,-0.0565378,68,78,74,78,72,32,93,76,74,71,77,7
1.16583,10,-0.106466,-0.718533,-14.4702,27.5282,-13.0755,0.106466,-0.106466,-0.718533,-14.2546,27.5282,-13.2911,0.106466,5.3963,13.2276,-2.39925,7.7887,11.6108,-1.5498,-1.27902,8.98896,14.3579,-0.0599398,5,-17.329,-1.47664,2.37371,0.5389,-0.0565147,68,78,74,78,72,32,93,76,74,71,77,7
1.16588,10,-0.106422,-0.718614,-14.4702,27.5282,-13.0755,0.106422,-0.106422,-0.718614,-14.2546,27.5282,-13.2911,0.106422,5.39606,13.2279,-2.39882,7.78878,11.6106,-1.54988,-1.27901,8.98913,14.3577,-0.059973,5,-17.3287,-1.47707,2.37349,0.53896,-0.0564916,68,78,74,78,72,32,93,76,74,71,77,7
1.16592,10,-0.106379,-0.718695,-14.4702,27.5282,-13.0755,0.106379,-0.106379,-0.718695,-14.2546,27.5282,-13.2911,0.106379,5.39583,13.2282,-2.39839,7.78886,11.6104,-1.54994,-1.27901,8.9893,14.3576,-0.0600524,5,-17.3284,-1.47753,2.37323,0.539021,-0.0564686,68,78,74,78,72,32,93,76,74,71,77,7
1.16596,10,-0.106336,-0.718778,-14.4702,27.5282,-13.0755,0.106336,-0.106336,-0.718778,-14.2546,27.5282,-13.2911,0.106336,5.3956,13.2285,-2.39796,7.78894,11.6102,-1.55001,-1.27901,8.98949,14.3574,-0.0601835,5,-17.328,-1.478,2.37294,0.539084,-0.0564457,68,78,74,78,72,32,93,76,74,71,77,7
1.16601,10,-0.106293,-0.718864,-14.4702,27.5282,-13.0754,0.106293,-0.106293,-0.718864,-14.2545,27.5282,-13.2911,0.106293,5.39538,13.2287,-2.39754,7.78901,11.61,-1.55006,-1.27901,8.9897,14.3572,-0.0603861,5,-17.3277,-1.4785,2.3726,0.539148,-0.0564231,68,78,74,78,72,32,93,76,74,71,77,7
1.16605,10,-0.106251,-0.718952,-14.4702,27.5282,-13.0754,0.106251,-0.106251,-0.718952,-14.2545,27.5282,-13.2911,0.106251,5.39517,13.229,-2.39712,7.78909,11.6098,-1.55011,-1.27901,8.98993,14.357,-0.0606567,5,-17.3273,-1.47903,2.37222,0.539214,-0.0564007,68,78,74,78,72,32,93,76,74,71,77,7
1.16608,10,-0.106209,-0.719042,-14.4702,27.5282,-13.0754,0.106209,-0.106209,-0.719042,-14.2545,27.5282,-13.2911,0.106209,5.39496,13.2293,-2.3967,7.78916,11.6096,-1.55015,-1.27902,8.99017,14.3569,-0.0609924,5,-17.3269,-1.47958,2.37179,0.539282,-0.0563786,68,78,74,78,72,32,93,76,74,71,77,7
1.16612,10,-0.106168,-0.719135,-14.4702,27.5282,-13.0754,0.106168,-0.106168,-0.719135,-14.2545,27.5282,-13.2911,0.106168,5.39476,13.2295,-2.39629,7.78922,11.6093,-1.55019,-1.27903,8.99044,14.3567,-0.0613907,5,-17.3264,-1.48015,2.37131,0.539351,-0.0563566,68,78,74,78,72,32,93,76,74,71,77,7
1.16614,10,-0.106127,-0.71923,-14.4703,27.5282,-13.0754,0.106127,-0.106127,-0.71923,-14.2545,27.5282,-13.2912,0.106127,5.39457,13.2298,-2.39589,7.78928,11.6091,-1.55022,-1.27905,8.99072,14.3565,-0.0618492,5,-17.3259,-1.48076,2.37077,0.539422,-0.0563349,68,78,74,78,72,32,93,76,74,71,77,7
1.16617,10,-0.106087,-0.719327,-14.4703,27.5282,-13.0754,0.106087,-0.106087,-0.719327,-14.2545,27.5282,-13.2912,0.106087,5.39438,13.23,-2.3955,7.78933,11.6089,-1.55024,-1.27906,8.99102,14.3563,-0.0623659,5,-17.3254,-1.4814,2.37018,0.539495,-0.0563133,68,78,74,78,72,32,93,76,74,71,77,7
1.16618,10,-0.106046,-0.719426,-14.4703,27.5282,-13.0753,0.106046,-0.106046,-0.719426,-14.2545,27.5282,-13.2912,0.106046,5.3942,13.2302,-2.39512,7.78938,11.6086,-1.55026,-1.27908,8.99133,14.3561,-0.0629387,5,-17.3249,-1.48207,2.36953,0.53957,-0.0562919,68,78,74,78,72,32,93,76,74,71,77,7
1.16619,10,-0.106007,-0.719528,-14.4703,27.5282,-13.0753,0.106007,-0.106007,-0.719528,-14.2545,27.5282,-13.2912,0.106007,5.39403,13.2305,-2.39475,7.78941,11.6084,-1.55028,-1.27909,8.99167,14.3559,-0.0635719,5,-17.3243,-1.48278,2.36883,0.539646,-0.0562708,68,78,74,78,72,32,93,76,74,71,77,7
1.16619,10,-0.105967,-0.719632,-14.4703,27.5282,-13.0753,0.105967,-0.105967,-0.719632,-14.2544,27.5282,-13.2912,0.105967,5.39386,13.2307,-2.39439,7.78944,11.6082,-1.55029,-1.27911,8.99202,14.3557,-0.0642619,5,-17.3238,-1.48353,2.36808,0.539724,-0.0562498,68,78,74,78,72,32,93,76,74,71,77,7
1.16618,10,-0.105928,-0.719738,-14.4704,27.5282,-13.0753,0.105928,-0.105928,-0.719738,-14.2544,27.5282,-13.2912,0.105928,5.39371,13.2309,-2.39404,7.78946,11.6079,-1.5503,-1.27913,8.9924,14.3554,-0.0650057,5,-17.3232,-1.48432,2.36728,0.539804,-0.0562289,68,78,74,78,72,32,93,76,74,71,77,7
1.16616,10,-0.105889,-0.719847,-14.4704,27.5282,-13.0752,0.105889,-0.105889,-0.719847,-14.2544,27.5282,-13.2912,0.105889,5.39356,13.2311,-2.39371,7.78947,11.6077,-1.5503,-1.27914,8.99279,14.3552,-0.0658013,5,-17.3226,-1.48516,2.36642,0.539885,-0.0562081,68,78,74,78,72,32,93,76,74,71,77,7
1.16614,10,-0.105849,-0.719957,-14.4704,27.5282,-13.0752,0.105849,-0.105849,-0.719957,-14.2544,27.5282,-13.2912,0.105849,5.39341,13.2313,-2.3934,7.78947,11.6075,-1.5503,-1.27916,8.9932,14.355,-0.0666473,5,-17.322,-1.48605,2.36551,0.539968,-0.0561872,68,78,74,78,72,32,93,76,74,71,77,7
1.16611,10,-0.10581,-0.72007,-14.4704,27.5282,-13.0752,0.10581,-0.10581,-0.72007,-14.2544,27.5282,-13.2912,0.10581,5.39328,13.2314,-2.39309,7.78947,11.6072,-1.5503,-1.27918,8.99363,14.3548,-0.0675428,5,-17.3214,-1.48699,2.36455,0.540052,-0.0561664,68,78,74,78,72,32,93,76,74,71,77,7
1.16608,10,-0.105771,-0.720184,-14.4705,27.5282,-13.0752,0.105771,-0.105771,-0.720184,-14.2544,27.5282,-13.2912,0.105771,5.39315,13.2316,-2.3928,7.78946,11.607,-1.5503,-1.27921,8.99407,14.3545,-0.0684872,5,-17.3208,-1.48799,2.36354,0.540138,-0.0561455,68,78,74,78,72,32,93,76,74,71,77,7
1.16605,10,-0.105731,-0.720299,-14.4705,27.5282,-13.0751,0.105731,-0.105731,-0.720299,-14.2544,27.5282,-13.2912,0.105731,5.39303,13.2318,-2.39252,7.78944,11.6068,-1.55029,-1.27924,8.99452,14.3543,-0.0694463,5,-17.3201,-1.48902,2.36247,0.540224,-0.0561245,68,78,74,78,72,32,93,76,74,71,77,7
1.16602,10,-0.105692,-0.720414,-14.4705,27.5282,-13.0751,0.105692,-0.105692,-0.720414,-14.2544,27.5282,-13.2912,0.105692,5.39292,13.2319,-2.39225,7.78942,11.6066,-1.55028,-1.27927,8.99499,14.354,-0.0704386,5,-17.3194,-1.4901,2.36135,0.540311,-0.0561035,68,78,74,78,72,32,93,76,74,71,77,7
1.16598,10,-0.105652,-0.720531,-14.4706,27.5282,-13.0751,0.105652,-0.105652,-0.720531,-14.2544,27.5282,-13.2912,0.105652,5.39282,13.2321,-2.39199,7.78939,11.6064,-1.55027,-1.2793,8.99547,14.3537,-0.0714803,5,-17.3188,-1.49125,2.36019,0.540399,-0.0560823,68,78,74,78,72,32,93,76,74,71,77,7
1.16594,10,-0.105612,-0.720652,-14.4706,27.5282,-13.075,0.105612,-0.105612,-0.720652,-14.2544,27.5282,-13.2912,0.105612,5.39272,13.2323,-2.39175,7.78935,11.6062,-1.55025,-1.27934,8.99598,14.3535,-0.0725847,5,-17.3181,-1.49248,2.359,0.540489,-0.0560609,68,78,74,78,72,32,93,76,74,71,77,7
1.16589,10,-0.105571,-0.720776,-14.4706,27.5282,-13.075,0.105571,-0.105571,-0.720776,-14.2544,27.5282,-13.2912,0.105571,5.39263,13.2324,-2.39153,7.78931,11.606,-1.55024,-1.27938,8.99651,14.3532,-0.0737627,5,-17.3175,-1.49381,2.35779,0.540582,-0.0560393,68,78,74,78,72,32,93,76,74,71,77,7
1.16585,10,-0.10553,-0.720904,-14.4707,27.5282,-13.075,0.10553,-0.10553,-0.720904,-14.2544,27.5282,-13.2912,0.10553,5.39254,13.2325,-2.39133,7.78926,11.6058,-1.55023,-1.27942,8.99706,14.3529,-0.0750229,5,-17.317,-1.49525,2.35657,0.540678,-0.0560176,68,78,74,78,72,32,93,76,74,71,77,7
1.1658,10,-0.105489,-0.721036,-14.4704,27.528,-13.0749,0.105489,-0.105489,-0.721036,-14.2541,27.528,-13.2912,0.105489,5.39247,13.2327,-2.39115,7.78921,11.6056,-1.55021,-1.27947,8.99764,14.3526,-0.0763705,5,-17.3166,-1.49681,2.35534,0.540777,-0.0559956,68,78,74,78,72,32,93,76,74,71,77,7
1.16574,10,-0.105447,-0.721175,-14.4704,27.528,-13.0748,0.105447,-0.105447,-0.721175,-14.2541,27.528,-13.2912,0.105447,5.39239,13.2328,-2.39101,7.78915,11.6055,-1.5502,-1.27952,8.99827,14.3523,-0.0778644,5,-17.3163,-1.49853,2.35412,0.540881,-0.0559733,68,78,74,78,72,32,93,76,74,71,77,7
1.16568,10,-0.105404,-0.72132,-14.4705,27.528,-13.0748,0.105404,-0.105404,-0.72132,-14.2541,27.528,-13.2912,0.105404,5.39233,13.233,-2.39089,7.78908,11.6053,-1.55019,-1.27958,8.99893,14.352,-0.0794795,5,-17.3162,-1.50041,2.35292,0.54099,-0.0559507,68,78,74,78,72,32,93,76,74,71,77,7
1.16562,10,-0.105361,-0.72147,-14.4705,27.528,-13.0747,0.105361,-0.105361,-0.72147,-14.2541,27.528,-13.2912,0.105361,5.39227,13.2331,-2.3908,7.78902,11.6052,-1.55018,-1.27964,8.99962,14.3516,-0.0811938,5,-17.3162,-1.50241,2.35172,0.541102,-0.0559278,68,78,74,78,72,32,93,76,74,71,77,7
1.16556,10,-0.105318,-0.721624,-14.4706,27.528,-13.0747,0.105318,-0.105318,-0.721624,-14.2541,27.528,-13.2912,0.105318,5.39222,13.2332,-2.39073,7.78894,11.6051,-1.55017,-1.2797,9.00034,14.3513,-0.0829878,5,-17.3163,-1.50452,2.35054,0.541218,-0.0559049,68,78,74,78,72,32,93,76,74,71,77,7
1.16549,10,-0.105275,-0.721782,-14.4706,27.528,-13.0746,0.105275,-0.105275,-0.721782,-14.2541,27.528,-13.2912,0.105275,5.39217,13.2333,-2.39068,7.78887,11.605,-1.55016,-1.27977,9.00107,14.351,-0.0848449,5,-17.3165,-1.50671,2.34936,0.541336,-0.0558819,68,78,74,78,72,32,93,76,74,71,77,7
1.16542,10,-0.105232,-0.721942,-14.4707,27.528,-13.0746,0.105232,-0.105232,-0.721942,-14.2541,27.528,-13.2911,0.105232,5.39212,13.2334,-2.39064,7.78879,11.605,-1.55015,-1.27984,9.00183,14.3506,-0.086751,5,-17.3168,-1.50898,2.3482,0.541456,-0.0558589,68,78,74,78,72,32,93,76,74,71,77,7
1.16535,10,-0.105189,-0.722104,-14.4707,27.528,-13.0745,0.105189,-0.105189,-0.722104,-14.2541,27.528,-13.2911,0.105189,5.39208,13.2336,-2.39062,7.78871,11.6049,-1.55014,-1.27991,9.0026,14.3503,-0.0886939,5,-17.3171,-1.5113,2.34704,0.541578,-0.0558361,68,78,74,78,72,32,93,76,74,71,77,7
1.16528,10,-0.105146,-0.722267,-14.4708,27.528,-13.0745,0.105146,-0.105146,-0.722267,-14.2541,27.528,-13.2911,0.105146,5.39203,13.2337,-2.39061,7.78863,11.6049,-1.55013,-1.27998,9.00337,14.3499,-0.0906487,5,-17.3175,-1.51364,2.34591,0.5417,-0.0558132,68,78,74,78,72,32,93,76,74,71,77,7
1.16521,10,-0.105103,-0.722431,-14.4709,27.528,-13.0744,0.105103,-0.105103,-0.722431,-14.2541,27.528,-13.2911,0.105103,5.39199,13.2338,-2.3906,7.78855,11.6048,-1.55012,-1.28005,9.00415,14.3496,-0.0926169,5,-17.3179,-1.51599,2.34478,0.541823,-0.0557906,68,78,74,78,72,32,93,76,74,71,77,7
1.16513,10,-0.105061,-0.722595,-14.4709,27.528,-13.0743,0.105061,-0.105061,-0.722595,-14.2541,27.528,-13.2911,0.105061,5.39196,13.2339,-2.39061,7.78847,11.6048,-1.55011,-1.28012,9.00493,14.3492,-0.0946004,5,-17.3184,-1.51837,2.34368,0.541946,-0.0557681,68,78,74,78,72,32,93,76,74,71,77,7
