565950964-design/kaipule_sdk/control/csv_file/tanshou.csv
Head_1,Head_2,Joint_1,Joint_2,Joint_3,Joint_4,Joint_5,Joint_6,Joint_7,Joint_8,Joint_9,Joint_10,Joint_11,Joint_12,Joint_13,Joint_14,Joint_15,Joint_16,Joint_17,Joint_18,Joint_19,Joint_20,Joint_21,Joint_22,Joint_23,Joint_24,Joint_25,Joint_26,Joint_27,Joint_28,Finger_1,Finger_2,Finger_3,Finger_4,Finger_5,Finger_6,Finger_7,Finger_8,Finger_9,Finger_10,Finger_11,Finger_12
-1.47955,10,-0.373978,-0.99268,-14.8997,27.513,-12.6206,0.373978,-0.373978,-0.99268,-14.6019,27.513,-12.9184,0.373978,9.8271,14.0286,2.78761,11.0165,14.644,-5.33018,4.0106,14.7905,18.0258,7.28961,5.07397,-6.29361,-8.78261,4.49156,0.74451,-0.199857,62,94,94,96,92,38,68,94,97,94,99,32
-1.47954,10,-0.37398,-0.992684,-14.8997,27.513,-12.6206,0.37398,-0.37398,-0.992684,-14.6019,27.513,-12.9184,0.37398,9.82708,14.0286,2.78765,11.0165,14.644,-5.33018,4.01059,14.7905,18.0258,7.28959,5.07398,-6.2936,-8.78261,4.49156,0.744513,-0.199858,62,94,94,96,92,38,68,94,97,94,99,32
-1.47952,10,-0.373983,-0.992692,-14.8997,27.513,-12.6206,0.373983,-0.373983,-0.992692,-14.6018,27.513,-12.9184,0.373983,9.82703,14.0286,2.78773,11.0164,14.6439,-5.3302,4.01057,14.7905,18.0258,7.28955,5.074,-6.29357,-8.7826,4.49155,0.744519,-0.19986,62,94,94,96,92,38,68,94,97,94,99,32
-1.47949,10,-0.373987,-0.992703,-14.8997,27.513,-12.6206,0.373987,-0.373987,-0.992703,-14.6018,27.513,-12.9184,0.373987,9.82695,14.0286,2.78784,11.0164,14.6439,-5.33021,4.01054,14.7905,18.0259,7.28948,5.07403,-6.29354,-8.78259,4.49153,0.744527,-0.199862,62,94,94,96,92,38,68,94,97,94,99,32
-1.47945,10,-0.373993,-0.992718,-14.8996,27.513,-12.6206,0.373993,-0.373993,-0.992718,-14.6018,27.513,-12.9184,0.373993,9.82685,14.0286,2.78799,11.0164,14.6438,-5.33023,4.0105,14.7904,18.0259,7.2894,5.07407,-6.29349,-8.78257,4.49151,0.744538,-0.199865,62,94,94,96,92,38,68,94,97,94,99,32
-1.4794,10,-0.373999,-0.992736,-14.8996,27.513,-12.6206,0.373999,-0.373999,-0.992736,-14.6018,27.513,-12.9184,0.373999,9.82673,14.0286,2.78817,11.0164,14.6438,-5.33026,4.01046,14.7904,18.026,7.28929,5.07412,-6.29344,-8.78255,4.49149,0.744552,-0.199869,62,94,94,96,92,38,68,94,97,94,99,32
-1.47935,10,-0.374007,-0.992757,-14.8996,27.513,-12.6206,0.374007,-0.374007,-0.992757,-14.6018,27.513,-12.9184,0.374007,9.82659,14.0286,2.78838,11.0163,14.6437,-5.33028,4.01041,14.7904,18.0261,7.28916,5.07419,-6.29336,-8.78252,4.49147,0.744567,-0.199873,62,94,94,96,92,38,68,94,97,94,99,32
-1.47928,10,-0.374015,-0.992781,-14.8996,27.513,-12.6206,0.374015,-0.374015,-0.992781,-14.6018,27.513,-12.9185,0.374015,9.82643,14.0286,2.78861,11.0163,14.6436,-5.3303,4.01036,14.7903,18.0262,7.289,5.07426,-6.29328,-8.78248,4.49144,0.744586,-0.199877,62,94,94,96,92,38,68,94,97,94,99,32
-1.4792,10,-0.374024,-0.992807,-14.8996,27.513,-12.6206,0.374024,-0.374024,-0.992807,-14.6018,27.513,-12.9185,0.374024,9.82625,14.0286,2.78888,11.0162,14.6436,-5.33033,4.0103,14.7903,18.0263,7.28883,5.07434,-6.29318,-8.78244,4.49141,0.744605,-0.199882,62,94,94,96,92,38,68,94,97,94,99,32
-1.47912,10,-0.374034,-0.992835,-14.8996,27.513,-12.6206,0.374034,-0.374034,-0.992835,-14.6018,27.513,-12.9185,0.374034,9.82605,14.0286,2.78917,11.0162,14.6435,-5.33035,4.01024,14.7902,18.0264,7.28863,5.07443,-6.29307,-8.7824,4.49138,0.744626,-0.199888,62,94,94,96,92,38,68,94,97,94,99,32
-1.47903,10,-0.374044,-0.992867,-14.8996,27.513,-12.6206,0.374044,-0.374044,-0.992867,-14.6018,27.513,-12.9185,0.374044,9.82583,14.0286,2.78948,11.0162,14.6434,-5.33038,4.01017,14.7902,18.0265,7.28841,5.07452,-6.29294,-8.78234,4.49134,0.74465,-0.199893,62,94,94,96,92,38,68,94,97,94,99,32
-1.47892,10,-0.374055,-0.992901,-14.8996,27.513,-12.6207,0.374055,-0.374055,-0.992901,-14.6017,27.513,-12.9185,0.374055,9.82559,14.0286,2.78979,11.0161,14.6433,-5.3304,4.0101,14.7901,18.0266,7.28817,5.07463,-6.2928,-8.78228,4.49131,0.744676,-0.199899,62,94,94,96,92,38,68,94,97,94,99,32
-1.47881,10,-0.374066,-0.992938,-14.8996,27.513,-12.6207,0.374066,-0.374066,-0.992938,-14.6017,27.513,-12.9185,0.374066,9.82533,14.0287,2.79009,11.0161,14.6433,-5.33042,4.01003,14.79,18.0268,7.28791,5.07475,-6.29266,-8.7822,4.49127,0.744703,-0.199905,62,94,94,96,92,38,68,94,97,94,99,32
-1.47869,10,-0.374077,-0.992979,-14.8996,27.513,-12.6207,0.374077,-0.374077,-0.992979,-14.6017,27.513,-12.9186,0.374077,9.82504,14.0287,2.79039,11.016,14.6433,-5.33043,4.00996,14.7899,18.0269,7.28763,5.07487,-6.29251,-8.78212,4.49123,0.744734,-0.199911,62,94,94,96,92,38,68,94,97,94,99,32
-1.47856,10,-0.374087,-0.993022,-14.8984,27.5121,-12.6204,0.374087,-0.374087,-0.993022,-14.6005,27.5121,-12.9183,0.374087,9.82473,14.0287,2.79067,11.016,14.6433,-5.33045,4.00989,14.7898,18.0271,7.28733,5.07501,-6.29235,-8.78201,4.49119,0.744767,-0.199917,62,94,95,96,92,38,68,94,97,94,99,32
-1.47842,10,-0.374098,-0.993071,-14.8984,27.5121,-12.6204,0.374098,-0.374098,-0.993071,-14.6004,27.5121,-12.9184,0.374098,9.82439,14.0288,2.7909,11.0159,14.6433,-5.33045,4.00983,14.7897,18.0272,7.28702,5.07515,-6.29218,-8.78189,4.49115,0.744803,-0.199922,62,94,95,96,92,38,68,94,97,94,99,32
-1.47827,10,-0.374107,-0.993123,-14.8984,27.5121,-12.6204,0.374107,-0.374107,-0.993123,-14.6004,27.5121,-12.9184,0.374107,9.82402,14.0289,2.7911,11.0159,14.6434,-5.33045,4.00976,14.7896,18.0274,7.28669,5.0753,-6.29202,-8.78175,4.4911,0.744842,-0.199927,62,94,95,96,92,38,68,94,97,94,99,32
-1.47812,10,-0.374116,-0.993179,-14.8983,27.5121,-12.6205,0.374116,-0.374116,-0.993179,-14.6004,27.5121,-12.9184,0.374116,9.82362,14.029,2.79126,11.0159,14.6436,-5.33045,4.00969,14.7895,18.0276,7.28635,5.07546,-6.29185,-8.7816,4.49106,0.744884,-0.199932,62,94,95,96,92,38,68,94,97,94,99,32
-1.47795,10,-0.374125,-0.993237,-14.8983,27.5121,-12.6205,0.374125,-0.374125,-0.993237,-14.6004,27.5121,-12.9184,0.374125,9.8232,14.0291,2.79141,11.0159,14.6437,-5.33045,4.00963,14.7894,18.0279,7.28599,5.07562,-6.29168,-8.78143,4.49101,0.744928,-0.199937,62,94,95,96,92,38,68,94,97,94,99,32
-1.47778,10,-0.374133,-0.993298,-14.8983,27.5121,-12.6205,0.374133,-0.374133,-0.993298,-14.6003,27.5121,-12.9185,0.374133,9.82277,14.0292,2.79153,11.0159,14.6439,-5.33044,4.00957,14.7893,18.0281,7.28562,5.07579,-6.29151,-8.78125,4.49096,0.744974,-0.199941,62,94,95,96,92,38,68,94,97,94,99,32
-1.4776,10,-0.374141,-0.993361,-14.8983,27.5121,-12.6205,0.374141,-0.374141,-0.993361,-14.6003,27.5121,-12.9185,0.374141,9.82233,14.0294,2.79164,11.0158,14.6441,-5.33043,4.00951,14.7891,18.0283,7.28525,5.07596,-6.29133,-8.78107,4.49092,0.745021,-0.199946,62,94,95,96,92,38,68,94,97,94,99,32
-1.47742,10,-0.374149,-0.993425,-14.8975,27.5115,-12.6203,0.374149,-0.374149,-0.993425,-14.5994,27.5115,-12.9184,0.374149,9.82187,14.0295,2.79173,11.0158,14.6444,-5.33042,4.00946,14.789,18.0285,7.28486,5.07614,-6.29115,-8.78087,4.49087,0.745069,-0.19995,62,94,95,96,92,38,69,94,97,94,99,32
-1.47724,10,-0.374156,-0.993489,-14.8975,27.5115,-12.6203,0.374156,-0.374156,-0.993489,-14.5994,27.5115,-12.9184,0.374156,9.82142,14.0297,2.79184,11.0158,14.6446,-5.3304,4.00941,14.7889,18.0287,7.28447,5.07631,-6.29096,-8.78068,4.49083,0.745117,-0.199954,62,94,95,96,92,38,69,94,97,94,99,32
-1.47705,10,-0.374164,-0.993554,-14.8974,27.5115,-12.6204,0.374164,-0.374164,-0.993554,-14.5994,27.5115,-12.9184,0.374164,9.82096,14.0298,2.79196,11.0158,14.6448,-5.33039,4.00936,14.7887,18.029,7.28408,5.07649,-6.29077,-8.78048,4.49079,0.745165,-0.199958,62,94,95,96,92,38,69,94,97,94,99,32
-1.47686,10,-0.374171,-0.993619,-14.8974,27.5115,-12.6204,0.374171,-0.374171,-0.993619,-14.5993,27.5115,-12.9185,0.374171,9.8205,14.0299,2.79206,11.0158,14.6451,-5.33038,4.00931,14.7886,18.0292,7.28368,5.07666,-6.29058,-8.78027,4.49075,0.745214,-0.199962,62,94,95,96,92,38,69,94,97,94,99,32
-1.47667,10,-0.374178,-0.993685,-14.8974,27.5115,-12.6204,0.374178,-0.374178,-0.993685,-14.5993,27.5115,-12.9185,0.374178,9.82004,14.0301,2.79215,11.0157,14.6453,-5.33036,4.00926,14.7885,18.0294,7.28328,5.07683,-6.29038,-8.78007,4.49072,0.745264,-0.199966,62,94,95,96,92,38,69,94,97,94,99,32
-1.47647,10,-0.374185,-0.993752,-14.8974,27.5115,-12.6204,0.374185,-0.374185,-0.993752,-14.5993,27.5115,-12.9185,0.374185,9.81956,14.0302,2.79221,11.0157,14.6456,-5.33034,4.00922,14.7883,18.0296,7.28288,5.07701,-6.29019,-8.77985,4.49068,0.745314,-0.19997,62,94,95,96,92,38,69,94,97,94,99,32
-1.47628,10,-0.374191,-0.99382,-14.8974,27.5115,-12.6204,0.374191,-0.374191,-0.99382,-14.5992,27.5115,-12.9186,0.374191,9.81908,14.0304,2.79224,11.0157,14.6459,-5.33032,4.00917,14.7882,18.0299,7.28248,5.07719,-6.29001,-8.77963,4.49063,0.745365,-0.199973,62,94,95,96,92,38,69,94,97,94,99,32
-1.47609,10,-0.374197,-0.993889,-14.8974,27.5115,-12.6204,0.374197,-0.374197,-0.993889,-14.5992,27.5115,-12.9186,0.374197,9.81859,14.0306,2.79223,11.0157,14.6462,-5.3303,4.00913,14.788,18.0301,7.28209,5.07737,-6.28984,-8.77941,4.49059,0.745416,-0.199976,62,94,95,96,92,38,69,94,97,94,99,31
-1.4759,10,-0.374202,-0.993959,-14.8974,27.5115,-12.6204,0.374202,-0.374202,-0.993959,-14.5992,27.5115,-12.9186,0.374202,9.81809,14.0308,2.79217,11.0157,14.6465,-5.33027,4.00909,14.7879,18.0304,7.2817,5.07755,-6.28968,-8.77918,4.49054,0.745469,-0.199979,62,94,95,96,92,38,69,94,97,94,99,31
-1.47572,10,-0.374206,-0.99403,-14.8973,27.5115,-12.6205,0.374206,-0.374206,-0.99403,-14.5991,27.5115,-12.9187,0.374206,9.81759,14.031,2.79206,11.0157,14.6469,-5.33024,4.00904,14.7877,18.0306,7.28131,5.07774,-6.28953,-8.77893,4.49048,0.745523,-0.199981,62,94,95,96,92,38,69,94,97,94,99,31
-1.47553,10,-0.374209,-0.994103,-14.8973,27.5115,-12.6205,0.374209,-0.374209,-0.994103,-14.5991,27.5115,-12.9187,0.374209,9.81707,14.0312,2.79189,11.0158,14.6474,-5.3302,4.009,14.7876,18.0309,7.28092,5.07793,-6.28939,-8.77869,4.49042,0.745577,-0.199983,62,94,95,96,92,38,69,94,97,94,99,31
-1.47535,10,-0.374212,-0.994176,-14.8973,27.5115,-12.6205,0.374212,-0.374212,-0.994176,-14.5991,27.5115,-12.9188,0.374212,9.81654,14.0315,2.79167,11.0158,14.6478,-5.33017,4.00895,14.7874,18.0312,7.28055,5.07812,-6.28927,-8.77843,4.49036,0.745632,-0.199984,62,94,95,96,92,38,69,94,97,94,99,31
-1.47518,10,-0.374215,-0.99425,-14.8973,27.5115,-12.6205,0.374215,-0.374215,-0.99425,-14.599,27.5115,-12.9188,0.374215,9.816,14.0317,2.79141,11.0158,14.6483,-5.33013,4.0089,14.7873,18.0315,7.28019,5.07832,-6.28916,-8.77818,4.49028,0.745688,-0.199986,62,94,95,96,92,38,69,94,97,94,99,31
-1.475,10,-0.374216,-0.994325,-14.8973,27.5115,-12.6205,0.374216,-0.374216,-0.994325,-14.599,27.5115,-12.9188,0.374216,9.81546,14.032,2.79109,11.0159,14.6488,-5.33008,4.00884,14.7871,18.0318,7.27983,5.07851,-6.28907,-8.77792,4.4902,0.745744,-0.199987,62,94,95,96,92,38,69,94,97,94,99,31
-1.47483,10,-0.374218,-0.994401,-14.897,27.5113,-12.6205,0.374218,-0.374218,-0.994401,-14.5986,27.5113,-12.9188,0.374218,9.81491,14.0323,2.79073,11.0159,14.6494,-5.33003,4.00877,14.7869,18.0321,7.2795,5.0787,-6.289,-8.77766,4.49011,0.745801,-0.199987,62,94,95,96,92,38,69,94,97,94,99,31
-1.47465,10,-0.374219,-0.994477,-14.8969,27.5113,-12.6205,0.374219,-0.374219,-0.994477,-14.5986,27.5113,-12.9188,0.374219,9.81435,14.0327,2.79032,11.0159,14.6499,-5.32998,4.0087,14.7867,18.0324,7.27918,5.07889,-6.28894,-8.7774,4.49001,0.745858,-0.199988,62,94,95,96,92,38,69,94,97,94,99,31
-1.47447,10,-0.37422,-0.994553,-14.8969,27.5113,-12.6205,0.37422,-0.37422,-0.994553,-14.5986,27.5113,-12.9189,0.37422,9.81379,14.0331,2.78987,11.016,14.6505,-5.32993,4.00861,14.7866,18.0328,7.27887,5.07908,-6.2889,-8.77714,4.4899,0.745915,-0.199988,62,94,95,96,92,38,69,94,97,94,99,31
-1.4743,10,-0.37422,-0.99463,-14.8969,27.5113,-12.6205,0.37422,-0.37422,-0.99463,-14.5985,27.5113,-12.9189,0.37422,9.81322,14.0334,2.78937,11.016,14.6511,-5.32987,4.00851,14.7864,18.0332,7.27859,5.07927,-6.28888,-8.77688,4.48978,0.745972,-0.199989,62,94,95,96,92,38,69,94,97,94,99,31
-1.47413,10,-0.37422,-0.994706,-14.8969,27.5113,-12.6206,0.37422,-0.37422,-0.994706,-14.5985,27.5113,-12.919,0.37422,9.81264,14.0338,2.78884,11.016,14.6518,-5.32981,4.0084,14.7862,18.0336,7.27831,5.07945,-6.28887,-8.77662,4.48965,0.74603,-0.199989,62,94,95,96,92,38,69,94,97,94,99,31
-1.47397,10,-0.37422,-0.994782,-14.8969,27.5113,-12.6206,0.37422,-0.37422,-0.994782,-14.5984,27.5113,-12.919,0.37422,9.81207,14.0343,2.78828,11.0161,14.6524,-5.32975,4.00829,14.786,18.034,7.27806,5.07963,-6.28887,-8.77637,4.48952,0.746087,-0.199989,62,94,95,96,92,38,69,94,97,94,99,31
-1.47381,10,-0.37422,-0.994858,-14.8969,27.5113,-12.6206,0.37422,-0.37422,-0.994858,-14.5984,27.5113,-12.9191,0.37422,9.81149,14.0347,2.7877,11.0161,14.6531,-5.32968,4.00818,14.7858,18.0345,7.27781,5.07981,-6.28888,-8.77612,4.48939,0.746144,-0.199988,62,94,95,96,92,38,69,94,97,94,99,31
-1.47366,10,-0.374219,-0.994934,-14.8977,27.5119,-12.6208,0.374219,-0.374219,-0.994934,-14.5992,27.5119,-12.9193,0.374219,9.81092,14.0351,2.78709,11.0161,14.6538,-5.32962,4.00806,14.7856,18.0349,7.27757,5.07999,-6.28891,-8.77587,4.48925,0.746201,-0.199988,62,94,95,96,92,38,69,94,97,94,99,31
-1.47352,10,-0.374218,-0.995009,-14.8977,27.5119,-12.6208,0.374218,-0.374218,-0.995009,-14.5992,27.5119,-12.9193,0.374218,9.81035,14.0356,2.78647,11.0162,14.6544,-5.32955,4.00794,14.7854,18.0353,7.27735,5.08016,-6.28894,-8.77562,4.4891,0.746257,-0.199988,62,94,95,96,92,38,69,94,97,94,99,31
-1.47339,10,-0.374217,-0.995083,-14.8977,27.5119,-12.6208,0.374217,-0.374217,-0.995083,-14.5992,27.5119,-12.9194,0.374217,9.80979,14.036,2.78583,11.0162,14.6551,-5.32948,4.00782,14.7852,18.0358,7.27714,5.08034,-6.28898,-8.77537,4.48896,0.746313,-0.199987,62,94,95,96,92,38,69,94,97,94,99,31
-1.47328,10,-0.374216,-0.995157,-14.8977,27.5119,-12.6209,0.374216,-0.374216,-0.995157,-14.5991,27.5119,-12.9194,0.374216,9.80922,14.0365,2.78518,11.0162,14.6558,-5.32942,4.0077,14.785,18.0362,7.27694,5.08051,-6.28902,-8.77513,4.48881,0.746368,-0.199986,62,94,95,96,92,38,69,94,97,94,99,31
-1.47317,10,-0.374214,-0.99523,-14.8976,27.5119,-12.6209,0.374214,-0.374214,-0.99523,-14.5991,27.5119,-12.9195,0.374214,9.80867,14.0369,2.78452,11.0163,14.6565,-5.32935,4.00758,14.7848,18.0366,7.27674,5.08068,-6.28908,-8.77489,4.48866,0.746422,-0.199986,62,94,95,96,92,38,69,94,97,94,99,31
-1.47306,10,-0.374213,-0.995301,-14.8976,27.5119,-12.6209,0.374213,-0.374213,-0.995301,-14.599,27.5119,-12.9195,0.374213,9.80812,14.0374,2.78386,11.0163,14.6572,-5.32928,4.00745,14.7846,18.0371,7.27656,5.08084,-6.28913,-8.77466,4.48851,0.746476,-0.199985,62,94,95,96,92,38,69,94,97,94,99,31
-1.47297,10,-0.374211,-0.995372,-14.8976,27.5119,-12.6209,0.374211,-0.374211,-0.995372,-14.599,27.5119,-12.9195,0.374211,9.80757,14.0379,2.78318,11.0163,14.6578,-5.32921,4.00732,14.7844,18.0375,7.27639,5.081,-6.2892,-8.77442,4.48836,0.746529,-0.199984,62,94,95,96,92,38,69,94,97,94,99,31
-1.47288,10,-0.37421,-0.995442,-14.8971,27.5115,-12.6208,0.37421,-0.37421,-0.995442,-14.5984,27.5115,-12.9195,0.37421,9.80704,14.0383,2.7825,11.0164,14.6585,-5.32914,4.00719,14.7842,18.038,7.27622,5.08116,-6.28927,-8.7742,4.4882,0.746581,-0.199983,62,94,95,96,92,38,69,94,97,94,99,31
-1.47279,10,-0.374208,-0.99551,-14.8971,27.5115,-12.6208,0.374208,-0.374208,-0.99551,-14.5984,27.5115,-12.9195,0.374208,9.80651,14.0388,2.78182,11.0164,14.6592,-5.32907,4.00705,14.7841,18.0384,7.27606,5.08131,-6.28934,-8.77398,4.48805,0.746632,-0.199982,62,94,95,96,92,38,69,94,97,94,99,31
-1.47271,10,-0.374207,-0.995577,-14.897,27.5115,-12.6209,0.374207,-0.374207,-0.995577,-14.5984,27.5115,-12.9195,0.374207,9.80599,14.0393,2.78113,11.0164,14.6599,-5.32901,4.00691,14.7839,18.0389,7.27591,5.08145,-6.28942,-8.77376,4.4879,0.746683,-0.199982,62,94,95,96,92,38,69,94,97,94,99,31
-1.47264,10,-0.374206,-0.995643,-14.897,27.5115,-12.6209,0.374206,-0.374206,-0.995643,-14.5983,27.5115,-12.9196,0.374206,9.80547,14.0397,2.78045,11.0164,14.6606,-5.32894,4.00676,14.7837,18.0394,7.27576,5.08159,-6.2895,-8.77355,4.48774,0.746732,-0.199981,62,94,95,96,92,38,69,94,97,94,99,31
-1.47257,10,-0.374205,-0.995707,-14.897,27.5115,-12.6209,0.374205,-0.374205,-0.995707,-14.5983,27.5115,-12.9196,0.374205,9.80496,14.0402,2.77977,11.0164,14.6612,-5.32887,4.0066,14.7835,18.0398,7.27563,5.08172,-6.28959,-8.77334,4.48759,0.74678,-0.19998,62,94,95,96,92,38,69,94,97,94,99,31
-1.4725,10,-0.374203,-0.995771,-14.897,27.5115,-12.6209,0.374203,-0.374203,-0.995771,-14.5982,27.5115,-12.9197,0.374203,9.80446,14.0407,2.77909,11.0164,14.6619,-5.3288,4.00643,14.7833,18.0403,7.27551,5.08185,-6.28969,-8.77314,4.48743,0.746828,-0.19998,62,94,95,96,92,38,69,94,97,94,99,31
-1.47244,10,-0.374202,-0.995833,-14.897,27.5115,-12.6209,0.374202,-0.374202,-0.995833,-14.5982,27.5115,-12.9197,0.374202,9.80397,14.0412,2.77843,11.0164,14.6625,-5.32873,4.00625,14.7831,18.0408,7.2754,5.08197,-6.28978,-8.77294,4.48727,0.746874,-0.199979,62,94,95,96,92,38,69,94,97,94,99,31
-1.47239,10,-0.3742,-0.995893,-14.8969,27.5115,-12.621,0.3742,-0.3742,-0.995893,-14.5982,27.5115,-12.9197,0.3742,9.80348,14.0417,2.77779,11.0164,14.6631,-5.32867,4.00606,14.7829,18.0412,7.27531,5.08207,-6.28989,-8.77275,4.48712,0.74692,-0.199978,62,94,95,96,92,38,69,94,97,94,99,31
-1.47234,10,-0.374199,-0.995953,-14.8969,27.5115,-12.621,0.374199,-0.374199,-0.995953,-14.5981,27.5115,-12.9198,0.374199,9.803,14.0422,2.77715,11.0164,14.6637,-5.3286,4.00586,14.7828,18.0417,7.27523,5.08218,-6.29,-8.77257,4.48696,0.746965,-0.199977,62,94,95,96,92,38,69,94,97,94,99,31
-1.4723,10,-0.374197,-0.996012,-14.8969,27.5115,-12.621,0.374197,-0.374197,-0.996012,-14.5981,27.5115,-12.9198,0.374197,9.80252,14.0427,2.77654,11.0163,14.6643,-5.32852,4.00564,14.7826,18.0422,7.27516,5.08227,-6.29011,-8.7724,4.4868,0.747009,-0.199976,62,94,95,96,92,38,69,94,97,94,99,31
-1.47227,10,-0.374195,-0.996069,-14.8969,27.5115,-12.621,0.374195,-0.374195,-0.996069,-14.5981,27.5115,-12.9198,0.374195,9.80205,14.0432,2.77594,11.0163,14.6649,-5.32845,4.00542,14.7824,18.0427,7.27511,5.08235,-6.29023,-8.77223,4.48664,0.747052,-0.199975,62,94,95,96,92,38,69,94,97,94,99,31
-1.47224,10,-0.374192,-0.996125,-14.8969,27.5115,-12.621,0.374192,-0.374192,-0.996125,-14.598,27.5115,-12.9199,0.374192,9.80158,14.0438,2.77537,11.0162,14.6654,-5.32838,4.00518,14.7822,18.0432,7.27508,5.08243,-6.29035,-8.77207,4.48648,0.747094,-0.199973,62,94,95,96,92,38,69,94,97,94,99,31
-1.47223,10,-0.374189,-0.99618,-14.8969,27.5115,-12.621,0.374189,-0.374189,-0.99618,-14.598,27.5115,-12.9199,0.374189,9.80111,14.0443,2.77484,11.0161,14.6659,-5.32831,4.00492,14.782,18.0438,7.27507,5.08249,-6.29048,-8.77191,4.48632,0.747135,-0.199972,62,94,95,96,92,38,69,94,97,94,99,31
-1.47222,10,-0.374185,-0.996233,-14.8968,27.5115,-12.6211,0.374185,-0.374185,-0.996233,-14.598,27.5115,-12.9199,0.374185,9.80065,14.0449,2.77433,11.016,14.6664,-5.32824,4.00466,14.7818,18.0443,7.27508,5.08255,-6.29061,-8.77175,4.48616,0.747175,-0.19997,62,94,95,96,92,38,69,94,97,94,99,31
-1.47223,10,-0.37418,-0.996285,-14.897,27.5117,-12.6211,0.37418,-0.37418,-0.996285,-14.5981,27.5117,-12.92,0.37418,9.80019,14.0455,2.77386,11.0159,14.6668,-5.32817,4.00439,14.7816,18.0448,7.2751,5.08261,-6.29074,-8.77159,4.486,0.747214,-0.199967,62,94,95,96,92,38,69,94,97,94,99,31
-1.47226,10,-0.374175,-0.996336,-14.897,27.5117,-12.6211,0.374175,-0.374175,-0.996336,-14.5981,27.5117,-12.92,0.374175,9.79973,14.0461,2.77343,11.0158,14.6672,-5.32811,4.0041,14.7814,18.0454,7.27515,5.08265,-6.29088,-8.77142,4.48584,0.747252,-0.199964,62,94,95,96,92,38,69,94,97,94,99,31
-1.4723,10,-0.374168,-0.996386,-14.8969,27.5117,-12.6212,0.374168,-0.374168,-0.996386,-14.598,27.5117,-12.9201,0.374168,9.79927,14.0467,2.77306,11.0156,14.6676,-5.32805,4.00379,14.7812,18.0459,7.27521,5.08269,-6.29102,-8.77125,4.48568,0.747289,-0.19996,62,94,95,96,92,38,69,94,97,94,99,31
-1.47235,10,-0.374161,-0.996434,-14.8969,27.5117,-12.6212,0.374161,-0.374161,-0.996434,-14.598,27.5117,-12.9201,0.374161,9.79881,14.0473,2.77272,11.0155,14.6679,-5.32799,4.00348,14.781,18.0464,7.2753,5.08272,-6.29115,-8.77107,4.48552,0.747325,-0.199956,62,94,95,96,92,38,69,94,97,94,99,31
-1.47242,10,-0.374153,-0.99648,-14.8969,27.5117,-12.6212,0.374153,-0.374153,-0.99648,-14.598,27.5117,-12.9201,0.374153,9.79835,14.048,2.77241,11.0153,14.6682,-5.32793,4.00316,14.7807,18.047,7.2754,5.08274,-6.29129,-8.7709,4.48536,0.74736,-0.199952,62,94,95,96,92,38,69,94,97,94,99,31
-1.4725,10,-0.374144,-0.996526,-14.8969,27.5117,-12.6212,0.374144,-0.374144,-0.996526,-14.5979,27.5117,-12.9202,0.374144,9.79789,14.0486,2.77214,11.0151,14.6685,-5.32788,4.00284,14.7805,18.0475,7.27551,5.08276,-6.29143,-8.77072,4.4852,0.747394,-0.199947,62,94,95,96,92,38,69,94,97,94,99,31
-1.47259,10,-0.374135,-0.99657,-14.8969,27.5117,-12.6212,0.374135,-0.374135,-0.99657,-14.5979,27.5117,-12.9202,0.374135,9.79745,14.0492,2.77189,11.0149,14.6688,-5.32783,4.00251,14.7803,18.0481,7.27564,5.08277,-6.29157,-8.77054,4.48505,0.747427,-0.199943,62,94,95,96,92,38,69,94,97,94,99,31
-1.4727,10,-0.374126,-0.996612,-14.8963,27.5112,-12.6211,0.374126,-0.374126,-0.996612,-14.5973,27.5112,-12.9201,0.374126,9.797,14.0499,2.77166,11.0147,14.669,-5.32778,4.00217,14.7801,18.0486,7.27577,5.08278,-6.29171,-8.77036,4.48489,0.747459,-0.199938,62,94,95,96,92,38,69,94,97,94,99,31
-1.47282,10,-0.374116,-0.996654,-14.8962,27.5112,-12.6212,0.374116,-0.374116,-0.996654,-14.5973,27.5112,-12.9202,0.374116,9.79657,14.0505,2.77145,11.0145,14.6692,-5.32774,4.00184,14.7798,18.0492,7.27591,5.08279,-6.29185,-8.77018,4.48474,0.74749,-0.199932,62,94,95,96,92,38,69,94,97,94,99,31
-1.47295,10,-0.374106,-0.996694,-14.8962,27.5112,-12.6212,0.374106,-0.374106,-0.996694,-14.5972,27.5112,-12.9202,0.374106,9.79614,14.0512,2.77125,11.0143,14.6695,-5.3277,4.0015,14.7796,18.0497,7.27605,5.08279,-6.29199,-8.77001,4.48459,0.74752,-0.199927,62,94,95,96,92,38,69,94,97,94,99,31
-1.4731,10,-0.374096,-0.996732,-14.8962,27.5112,-12.6212,0.374096,-0.374096,-0.996732,-14.5972,27.5112,-12.9202,0.374096,9.79572,14.0518,2.77108,11.0141,14.6697,-5.32766,4.00116,14.7794,18.0502,7.2762,5.08279,-6.29213,-8.76983,4.48444,0.747549,-0.199922,62,94,95,96,92,38,69,94,97,94,99,31
-1.47326,10,-0.374086,-0.99677,-14.8962,27.5112,-12.6212,0.374086,-0.374086,-0.99677,-14.5972,27.5112,-12.9202,0.374086,9.7953,14.0524,2.77092,11.0139,14.6698,-5.32762,4.00083,14.7792,18.0508,7.27635,5.08278,-6.29226,-8.76965,4.4843,0.747578,-0.199916,62,94,95,96,92,38,69,94,97,94,99,31
-1.47343,10,-0.374076,-0.996807,-14.8962,27.5112,-12.6212,0.374076,-0.374076,-0.996807,-14.5971,27.5112,-12.9203,0.374076,9.79489,14.0531,2.77078,11.0137,14.67,-5.32758,4.00049,14.7789,18.0513,7.27651,5.08277,-6.2924,-8.76948,4.48415,0.747605,-0.19991,62,94,95,96,92,38,69,94,97,94,99,31
-1.47362,10,-0.374065,-0.996843,-14.8961,27.5112,-12.6213,0.374065,-0.374065,-0.996843,-14.5971,27.5112,-12.9203,0.374065,9.79449,14.0537,2.77067,11.0134,14.6701,-5.32754,4.00015,14.7787,18.0518,7.27668,5.08276,-6.29253,-8.76931,4.48401,0.747632,-0.199904,62,94,95,96,92,38,69,94,97,94,99,31
-1.47382,10,-0.374054,-0.996877,-14.8966,27.5116,-12.6214,0.374054,-0.374054,-0.996877,-14.5975,27.5116,-12.9204,0.374054,9.79409,14.0543,2.77058,11.0132,14.6703,-5.32751,3.99982,14.7785,18.0523,7.27686,5.08275,-6.29266,-8.76913,4.48387,0.747658,-0.199899,62,94,95,96,92,38,69,94,97,94,99,31
-1.47404,10,-0.374043,-0.996912,-14.8965,27.5116,-12.6214,0.374043,-0.374043,-0.996912,-14.5975,27.5116,-12.9205,0.374043,9.79369,14.055,2.77051,11.013,14.6704,-5.32747,3.99949,14.7783,18.0528,7.27704,5.08274,-6.29279,-8.76896,4.48373,0.747684,-0.199893,62,94,95,96,92,38,69,94,97,94,99,31
-1.47428,10,-0.374032,-0.996945,-14.8965,27.5116,-12.6214,0.374032,-0.374032,-0.996945,-14.5974,27.5116,-12.9205,0.374032,9.7933,14.0556,2.77046,11.0128,14.6705,-5.32743,3.99916,14.778,18.0533,7.27722,5.08272,-6.29291,-8.76879,4.48359,0.747709,-0.199887,62,94,95,96,92,38,69,94,97,94,99,31
-1.47453,10,-0.374021,-0.996978,-14.8965,27.5116,-12.6214,0.374021,-0.374021,-0.996978,-14.5974,27.5116,-12.9205,0.374021,9.79292,14.0562,2.77044,11.0125,14.6706,-5.32739,3.99883,14.7778,18.0538,7.27742,5.08271,-6.29303,-8.76862,4.48345,0.747734,-0.199881,62,94,95,96,92,38,69,94,97,94,99,31
-1.4748,10,-0.374009,-0.99701,-14.8965,27.5116,-12.6214,0.374009,-0.374009,-0.99701,-14.5974,27.5116,-12.9206,0.374009,9.79253,14.0568,2.77045,11.0123,14.6706,-5.32735,3.9985,14.7776,18.0543,7.27763,5.08269,-6.29315,-8.76845,4.48332,0.747758,-0.199874,62,94,95,96,92,38,69,94,97,94,99,31
-1.47507,10,-0.373996,-0.997042,-14.8965,27.5116,-12.6215,0.373996,-0.373996,-0.997042,-14.5974,27.5116,-12.9206,0.373996,9.79215,14.0575,2.7705,11.012,14.6706,-5.32732,3.99817,14.7774,18.0548,7.27785,5.08267,-6.29327,-8.76827,4.48318,0.747781,-0.199867,62,94,95,96,92,38,69,94,97,94,99,31
-1.47535,10,-0.373983,-0.997073,-14.8964,27.5116,-12.6215,0.373983,-0.373983,-0.997073,-14.5973,27.5116,-12.9206,0.373983,9.79176,14.0581,2.7706,11.0117,14.6706,-5.32729,3.99784,14.7771,18.0553,7.27809,5.08264,-6.29339,-8.7681,4.48304,0.747804,-0.19986,62,94,95,96,92,38,69,94,97,94,99,31
-1.47563,10,-0.373968,-0.997103,-14.8965,27.5116,-12.6215,0.373968,-0.373968,-0.997103,-14.5973,27.5116,-12.9207,0.373968,9.79137,14.0588,2.77074,11.0115,14.6706,-5.32726,3.9975,14.7769,18.0558,7.27834,5.08261,-6.29352,-8.76791,4.4829,0.747827,-0.199852,62,94,95,96,92,38,69,94,97,94,99,31
-1.4759,10,-0.373952,-0.997132,-14.8965,27.5116,-12.6215,0.373952,-0.373952,-0.997132,-14.5973,27.5116,-12.9207,0.373952,9.79097,14.0594,2.77094,11.0112,14.6705,-5.32724,3.99715,14.7766,18.0563,7.27862,5.08258,-6.29364,-8.76773,4.48276,0.747849,-0.199843,62,94,95,96,92,38,69,94,97,94,99,31
-1.47618,10,-0.373934,-0.99716,-14.8964,27.5116,-12.6216,0.373934,-0.373934,-0.99716,-14.5973,27.5116,-12.9207,0.373934,9.79057,14.0601,2.77119,11.0109,14.6704,-5.32723,3.9968,14.7764,18.0568,7.27892,5.08254,-6.29377,-8.76754,4.48261,0.74787,-0.199833,62,94,95,96,92,38,69,94,97,94,99,31
-1.47645,10,-0.373915,-0.997188,-14.8964,27.5116,-12.6216,0.373915,-0.373915,-0.997188,-14.5973,27.5116,-12.9207,0.373915,9.79016,14.0608,2.77149,11.0106,14.6702,-5.32722,3.99645,14.7761,18.0573,7.27923,5.0825,-6.29391,-8.76734,4.48247,0.747891,-0.199823,62,94,95,96,92,38,69,94,97,94,99,31
-1.47673,10,-0.373894,-0.997215,-14.8964,27.5116,-12.6216,0.373894,-0.373894,-0.997215,-14.5972,27.5116,-12.9208,0.373894,9.78974,14.0615,2.77185,11.0103,14.67,-5.32722,3.99609,14.7758,18.0577,7.27957,5.08245,-6.29404,-8.76714,4.48232,0.747912,-0.199812,62,94,95,96,92,38,69,94,97,94,99,31
-1.47702,10,-0.373872,-0.997242,-14.8964,27.5116,-12.6216,0.373872,-0.373872,-0.997242,-14.5972,27.5116,-12.9208,0.373872,9.78931,14.0622,2.77225,11.01,14.6698,-5.32722,3.99572,14.7755,18.0582,7.27992,5.0824,-6.29418,-8.76693,4.48217,0.747931,-0.1998,62,94,95,96,92,38,69,94,97,94,99,31
-1.47731,10,-0.37385,-0.997268,-14.8963,27.5116,-12.6217,0.37385,-0.37385,-0.997268,-14.5972,27.5116,-12.9208,0.37385,9.78888,14.0629,2.7727,11.0096,14.6696,-5.32723,3.99535,14.7752,18.0587,7.28028,5.08235,-6.29431,-8.76672,4.48201,0.747951,-0.199788,62,94,95,96,92,38,69,94,97,94,99,31
-1.47761,10,-0.373826,-0.997293,-14.8962,27.5115,-12.6217,0.373826,-0.373826,-0.997293,-14.597,27.5115,-12.9209,0.373826,9.78844,14.0637,2.7732,11.0093,14.6693,-5.32724,3.99497,14.7749,18.0592,7.28066,5.08229,-6.29445,-8.7665,4.48186,0.74797,-0.199775,62,94,95,96,92,38,69,94,97,94,99,31
-1.47793,10,-0.373802,-0.997319,-14.8962,27.5115,-12.6217,0.373802,-0.373802,-0.997319,-14.597,27.5115,-12.9209,0.373802,9.788,14.0644,2.77373,11.009,14.669,-5.32726,3.99459,14.7746,18.0596,7.28104,5.08223,-6.29458,-8.76628,4.4817,0.747989,-0.199762,62,94,95,96,92,38,69,94,97,94,99,31
-1.47826,10,-0.373777,-0.997343,-14.8961,27.5115,-12.6217,0.373777,-0.373777,-0.997343,-14.5969,27.5115,-12.9209,0.373777,9.78755,14.0651,2.77431,11.0086,14.6687,-5.32728,3.9942,14.7743,18.0601,7.28144,5.08217,-6.29471,-8.76605,4.48155,0.748008,-0.199748,62,94,95,96,92,38,69,94,97,94,99,31
-1.4786,10,-0.373751,-0.997368,-14.8961,27.5115,-12.6217,0.373751,-0.373751,-0.997368,-14.5969,27.5115,-12.921,0.373751,9.78709,14.0658,2.77492,11.0083,14.6683,-5.32731,3.99381,14.7739,18.0605,7.28185,5.0821,-6.29484,-8.76581,4.48138,0.748026,-0.199734,62,94,95,96,92,38,69,94,97,94,99,31
-1.47896,10,-0.373724,-0.997392,-14.8961,27.5115,-12.6218,0.373724,-0.373724,-0.997392,-14.5969,27.5115,-12.921,0.373724,9.78662,14.0666,2.77558,11.0079,14.6679,-5.32734,3.99342,14.7736,18.061,7.28226,5.08203,-6.29497,-8.76558,4.48122,0.748044,-0.19972,62,94,95,96,92,38,69,94,97,94,99,31
-1.47932,10,-0.373696,-0.997415,-14.896,27.5115,-12.6218,0.373696,-0.373696,-0.997415,-14.5968,27.5115,-12.921,0.373696,9.78614,14.0673,2.77628,11.0076,14.6675,-5.32738,3.99302,14.7732,18.0614,7.28268,5.08195,-6.2951,-8.76533,4.48105,0.748061,-0.199705,62,94,95,96,92,38,69,94,97,94,99,31
-1.47969,10,-0.373667,-0.997438,-14.896,27.5115,-12.6218,0.373667,-0.373667,-0.997438,-14.5968,27.5115,-12.9211,0.373667,9.78564,14.0681,2.77703,11.0072,14.6671,-5.32741,3.99262,14.7728,18.0619,7.2831,5.08186,-6.29524,-8.76509,4.48088,0.748079,-0.199689,62,94,95,96,92,38,69,94,97,94,99,31
-1.48008,10,-0.373636,-0.997461,-14.8963,27.5118,-12.6219,0.373636,-0.373636,-0.997461,-14.5971,27.5118,-12.9212,0.373636,9.78514,14.0689,2.77781,11.0068,14.6666,-5.32745,3.99222,14.7724,18.0623,7.28353,5.08177,-6.29538,-8.76484,4.48071,0.748095,-0.199672,62,94,95,96,92,38,69,94,97,94,99,31
-1.48046,10,-0.373603,-0.997482,-14.8963,27.5118,-12.622,0.373603,-0.373603,-0.997482,-14.5971,27.5118,-12.9212,0.373603,9.78462,14.0697,2.77863,11.0065,14.6661,-5.3275,3.99181,14.772,18.0627,7.28396,5.08167,-6.29552,-8.76458,4.48053,0.748112,-0.199654,62,94,95,96,92,38,69,94,97,94,99,31
-1.48086,10,-0.373569,-0.997503,-14.8963,27.5118,-12.622,0.373569,-0.373569,-0.997503,-14.597,27.5118,-12.9213,0.373569,9.78409,14.0705,2.7795,11.0061,14.6656,-5.32754,3.9914,14.7716,18.0632,7.2844,5.08155,-6.29568,-8.76432,4.48035,0.748127,-0.199635,62,94,95,96,92,38,69,94,97,94,99,31
-1.48125,10,-0.373533,-0.997524,-14.8962,27.5118,-12.6221,0.373533,-0.373533,-0.997524,-14.597,27.5118,-12.9213,0.373533,9.78355,14.0713,2.7804,11.0057,14.6651,-5.32759,3.991,14.7712,18.0636,7.28483,5.08143,-6.29583,-8.76405,4.48016,0.748143,-0.199616,62,94,95,96,92,38,69,94,97,94,99,31
-1.48166,10,-0.373495,-0.997544,-14.8962,27.5118,-12.6221,0.373495,-0.373495,-0.997544,-14.5969,27.5118,-12.9214,0.373495,9.78299,14.0721,2.78134,11.0053,14.6646,-5.32763,3.99059,14.7707,18.064,7.28526,5.0813,-6.296,-8.76379,4.47997,0.748158,-0.199595,62,94,95,96,92,38,69,94,97,94,99,31
-1.48206,10,-0.373456,-0.997564,-14.8962,27.5118,-12.6221,0.373456,-0.373456,-0.997564,-14.5969,27.5118,-12.9214,0.373456,9.78242,14.0729,2.78231,11.0049,14.664,-5.32767,3.99018,14.7702,18.0644,7.28569,5.08117,-6.29616,-8.76353,4.47977,0.748173,-0.199574,62,94,95,96,92,38,69,94,97,94,99,31
-1.48247,10,-0.373415,-0.997584,-14.8961,27.5118,-12.6222,0.373415,-0.373415,-0.997584,-14.5969,27.5118,-12.9214,0.373415,9.78184,14.0738,2.78331,11.0045,14.6634,-5.32772,3.98978,14.7698,18.0648,7.28611,5.08103,-6.29633,-8.76326,4.47957,0.748188,-0.199552,62,94,95,96,92,38,69,94,97,94,99,31
-1.48289,10,-0.373373,-0.997604,-14.8954,27.5113,-12.6221,0.373373,-0.373373,-0.997604,-14.5961,27.5113,-12.9213,0.373373,9.78124,14.0746,2.78433,11.0041,14.6629,-5.32776,3.98938,14.7693,18.0652,7.28653,5.08088,-6.2965,-8.763,4.47936,0.748203,-0.199529,62,94,95,95,92,38,69,94,97,94,99,31
-1.4833,10,-0.37333,-0.997624,-14.8954,27.5113,-12.6221,0.37333,-0.37333,-0.997624,-14.5961,27.5113,-12.9214,0.37333,9.78063,14.0755,2.78537,11.0037,14.6623,-5.32781,3.98898,14.7688,18.0656,7.28693,5.08073,-6.29668,-8.76274,4.47914,0.748218,-0.199506,62,94,95,95,92,38,69,94,97,94,99,31
-1.48372,10,-0.373285,-0.997644,-14.8953,27.5113,-12.6221,0.373285,-0.373285,-0.997644,-14.596,27.5113,-12.9214,0.373285,9.78001,14.0764,2.78644,11.0033,14.6617,-5.32785,3.98859,14.7682,18.066,7.28732,5.08057,-6.29686,-8.76248,4.47893,0.748233,-0.199482,62,94,95,95,92,38,69,94,97,94,99,31
-1.48415,10,-0.37324,-0.997665,-14.8953,27.5113,-12.6222,0.37324,-0.37324,-0.997665,-14.596,27.5113,-12.9215,0.37324,9.77939,14.0772,2.78752,11.0029,14.6611,-5.32789,3.9882,14.7677,18.0664,7.2877,5.08041,-6.29705,-8.76223,4.4787,0.748249,-0.199457,62,94,95,95,92,38,69,94,97,94,99,31
-1.48457,10,-0.373193,-0.997686,-14.8952,27.5113,-12.6222,0.373193,-0.373193,-0.997686,-14.5959,27.5113,-12.9215,0.373193,9.77874,14.0781,2.78862,11.0025,14.6604,-5.32792,3.98782,14.7672,18.0668,7.28806,5.08024,-6.29722,-8.76198,4.47848,0.748265,-0.199432,62,94,95,95,92,38,69,94,97,94,99,31
-1.48499,10,-0.373145,-0.997708,-14.8952,27.5113,-12.6223,0.373145,-0.373145,-0.997708,-14.5959,27.5113,-12.9216,0.373145,9.77809,14.079,2.78972,11.0021,14.6598,-5.32796,3.98745,14.7666,18.0671,7.28842,5.08007,-6.2974,-8.76173,4.47824,0.748281,-0.199406,62,94,95,95,92,38,69,94,97,94,99,31
-1.48541,10,-0.373097,-0.997731,-14.8952,27.5113,-12.6223,0.373097,-0.373097,-0.997731,-14.5958,27.5113,-12.9216,0.373097,9.77743,14.0799,2.79083,11.0017,14.6592,-5.32798,3.98707,14.7661,18.0675,7.28876,5.0799,-6.29757,-8.76148,4.478,0.748298,-0.199379,62,94,95,95,92,38,69,94,97,94,99,31
-1.48583,10,-0.373047,-0.997755,-14.8956,27.5116,-12.6225,0.373047,-0.373047,-0.997755,-14.5963,27.5116,-12.9218,0.373047,9.77675,14.0808,2.79194,11.0013,14.6587,-5.328,3.98671,14.7655,18.0678,7.28909,5.07972,-6.29772,-8.76124,4.47776,0.748316,-0.199353,62,94,95,95,92,38,69,94,97,94,99,31
-1.48625,10,-0.372997,-0.997781,-14.8956,27.5116,-12.6225,0.372997,-0.372997,-0.997781,-14.5962,27.5116,-12.9219,0.372997,9.77606,14.0817,2.79303,11.001,14.6581,-5.32802,3.98635,14.765,18.0682,7.28941,5.07954,-6.29787,-8.76099,4.47751,0.748335,-0.199325,62,94,95,95,92,38,69,94,97,94,99,31
-1.48666,10,-0.372946,-0.997808,-14.8955,27.5116,-12.6226,0.372946,-0.372946,-0.997808,-14.5962,27.5116,-12.9219,0.372946,9.77535,14.0826,2.79413,11.0006,14.6575,-5.32802,3.986,14.7644,18.0685,7.28972,5.07936,-6.298,-8.76075,4.47725,0.748356,-0.199298,62,94,95,95,92,38,69,94,97,94,99,31
-1.48707,10,-0.372894,-0.997836,-14.8955,27.5116,-12.6226,0.372894,-0.372894,-0.997836,-14.5961,27.5116,-12.922,0.372894,9.77464,14.0835,2.79521,11.0002,14.657,-5.32802,3.98565,14.7638,18.0689,7.29001,5.07917,-6.29812,-8.76051,4.47698,0.748377,-0.199269,62,94,95,95,92,38,69,94,97,94,99,31
-1.48747,10,-0.372842,-0.997864,-14.8954,27.5116,-12.6227,0.372842,-0.372842,-0.997864,-14.596,27.5116,-12.922,0.372842,9.77391,14.0844,2.79628,10.9999,14.6565,-5.32801,3.98531,14.7632,18.0692,7.2903,5.07898,-6.29823,-8.76027,4.47672,0.748398,-0.199241,62,94,95,95,92,38,69,94,97,94,99,31
-1.48787,10,-0.372789,-0.997894,-14.8954,27.5116,-12.6227,0.372789,-0.372789,-0.997894,-14.596,27.5116,-12.9221,0.372789,9.77319,14.0853,2.79735,10.9995,14.656,-5.32799,3.98498,14.7627,18.0696,7.29057,5.07879,-6.29833,-8.76003,4.47645,0.74842,-0.199213,62,94,95,95,92,38,69,94,97,94,99,31
-1.48826,10,-0.372737,-0.997923,-14.8953,27.5116,-12.6228,0.372737,-0.372737,-0.997923,-14.5959,27.5116,-12.9221,0.372737,9.77246,14.0862,2.7984,10.9992,14.6555,-5.32798,3.98465,14.7621,18.0699,7.29083,5.0786,-6.29842,-8.7598,4.47618,0.748443,-0.199184,62,94,95,95,92,38,69,94,97,94,99,31
-1.48865,10,-0.372685,-0.997953,-14.8948,27.5113,-12.6227,0.372685,-0.372685,-0.997953,-14.5954,27.5113,-12.9221,0.372685,9.77174,14.0871,2.79944,10.9989,14.655,-5.32795,3.98432,14.7615,18.0703,7.29109,5.0784,-6.2985,-8.75957,4.4759,0.748465,-0.199156,62,94,95,95,92,38,69,94,96,94,99,31
-1.48903,10,-0.372633,-0.997982,-14.8948,27.5113,-12.6228,0.372633,-0.372633,-0.997982,-14.5954,27.5113,-12.9222,0.372633,9.77102,14.088,2.80049,10.9986,14.6545,-5.32793,3.984,14.7609,18.0706,7.29133,5.07822,-6.29858,-8.75934,4.47564,0.748487,-0.199128,62,94,95,95,92,38,69,94,96,94,99,31
-1.4894,10,-0.372581,-0.998011,-14.8947,27.5113,-12.6228,0.372581,-0.372581,-0.998011,-14.5953,27.5113,-12.9222,0.372581,9.77031,14.0889,2.80152,10.9982,14.654,-5.3279,3.98369,14.7604,18.0709,7.29156,5.07803,-6.29866,-8.75911,4.47537,0.748508,-0.1991,62,94,95,95,92,38,69,94,96,94,99,31
-1.48976,10,-0.37253,-0.998039,-14.8947,27.5113,-12.6229,0.37253,-0.37253,-0.998039,-14.5953,27.5113,-12.9223,0.37253,9.7696,14.0898,2.80254,10.9979,14.6535,-5.32786,3.98338,14.7598,18.0712,7.29178,5.07785,-6.29873,-8.7589,4.4751,0.748529,-0.199072,62,94,95,95,92,38,69,94,96,94,99,31
-1.49012,10,-0.372479,-0.998067,-14.8946,27.5113,-12.6229,0.372479,-0.372479,-0.998067,-14.5952,27.5113,-12.9223,0.372479,9.7689,14.0906,2.80354,10.9976,14.653,-5.32783,3.98308,14.7592,18.0715,7.292,5.07767,-6.29879,-8.75868,4.47484,0.74855,-0.199044,62,94,95,95,92,38,69,94,96,94,99,31
-1.49048,10,-0.372429,-0.998096,-14.8946,27.5113,-12.6229,0.372429,-0.372429,-0.998096,-14.5952,27.5113,-12.9224,0.372429,9.76821,14.0915,2.80452,10.9974,14.6526,-5.32779,3.98278,14.7587,18.0718,7.2922,5.07749,-6.29885,-8.75847,4.47458,0.748572,-0.199017,62,94,95,95,92,38,69,94,96,94,99,31
-1.49083,10,-0.372379,-0.998126,-14.8945,27.5113,-12.623,0.372379,-0.372379,-0.998126,-14.5951,27.5113,-12.9224,0.372379,9.76751,14.0923,2.80547,10.9971,14.6522,-5.32775,3.9825,14.7581,18.0721,7.29241,5.0773,-6.29889,-8.75826,4.47431,0.748594,-0.19899,62,94,95,95,92,38,69,94,96,94,99,31
-1.49117,10,-0.372329,-0.998156,-14.894,27.511,-12.6229,0.372329,-0.372329,-0.998156,-14.5946,27.511,-12.9224,0.372329,9.76682,14.0931,2.8064,10.9968,14.6518,-5.32771,3.98222,14.7576,18.0724,7.2926,5.07712,-6.29893,-8.75805,4.47405,0.748617,-0.198963,62,94,95,95,92,38,68,94,96,94,99,31
-1.49152,10,-0.37228,-0.998189,-14.894,27.511,-12.623,0.37228,-0.37228,-0.998189,-14.5945,27.511,-12.9224,0.37228,9.76613,14.094,2.80729,10.9965,14.6514,-5.32767,3.98195,14.7571,18.0727,7.2928,5.07694,-6.29896,-8.75785,4.47378,0.748641,-0.198936,62,94,95,95,92,38,68,94,96,94,99,31
-1.49187,10,-0.372231,-0.998222,-14.8939,27.511,-12.623,0.372231,-0.372231,-0.998222,-14.5945,27.511,-12.9225,0.372231,9.76544,14.0948,2.80814,10.9963,14.6511,-5.32762,3.98169,14.7565,18.073,7.29299,5.07675,-6.29898,-8.75765,4.47351,0.748666,-0.19891,62,94,95,95,92,38,68,94,96,94,99,31
-1.49222,10,-0.372182,-0.998257,-14.8939,27.511,-12.6231,0.372182,-0.372182,-0.998257,-14.5944,27.511,-12.9225,0.372182,9.76475,14.0956,2.80896,10.996,14.6507,-5.32758,3.98145,14.756,18.0733,7.29318,5.07657,-6.29899,-8.75745,4.47324,0.748693,-0.198884,62,94,95,95,92,38,68,94,96,94,99,31
-1.49255,10,-0.372134,-0.998293,-14.8938,27.511,-12.6231,0.372134,-0.372134,-0.998293,-14.5944,27.511,-12.9226,0.372134,9.76406,14.0964,2.80975,10.9958,14.6504,-5.32753,3.98121,14.7555,18.0736,7.29336,5.07638,-6.29899,-8.75726,4.47298,0.74872,-0.198857,62,94,95,95,92,38,68,94,96,94,99,31
-1.49287,10,-0.372087,-0.998331,-14.8938,27.511,-12.6231,0.372087,-0.372087,-0.998331,-14.5943,27.511,-12.9226,0.372087,9.76337,14.0972,2.81051,10.9956,14.6502,-5.32747,3.98099,14.755,18.0738,7.29354,5.07619,-6.29898,-8.75707,4.47271,0.748748,-0.198832,62,94,95,95,92,38,68,94,96,94,99,31
-1.49318,10,-0.372039,-0.99837,-14.8938,27.511,-12.6232,0.372039,-0.372039,-0.99837,-14.5942,27.511,-12.9227,0.372039,9.76269,14.098,2.81125,10.9954,14.6499,-5.32742,3.98077,14.7545,18.0741,7.29371,5.076,-6.29897,-8.75687,4.47246,0.748777,-0.198806,62,94,95,95,92,38,68,94,96,94,99,31
-1.49348,10,-0.371992,-0.99841,-14.8938,27.511,-12.6232,0.371992,-0.371992,-0.99841,-14.5943,27.511,-12.9228,0.371992,9.762,14.0988,2.81196,10.9952,14.6497,-5.32735,3.98057,14.7541,18.0744,7.29387,5.0758,-6.29895,-8.75668,4.4722,0.748808,-0.198781,62,94,95,95,92,38,68,94,96,94,99,32
-1.49375,10,-0.371946,-0.998452,-14.8938,27.511,-12.6233,0.371946,-0.371946,-0.998452,-14.5942,27.511,-12.9228,0.371946,9.76132,14.0996,2.81265,10.995,14.6495,-5.32728,3.98037,14.7536,18.0747,7.29402,5.0756,-6.29892,-8.75649,4.47196,0.748839,-0.198755,62,94,95,95,92,38,68,94,96,94,99,32
-1.494,10,-0.3719,-0.998494,-14.8937,27.511,-12.6233,0.3719,-0.3719,-0.998494,-14.5942,27.511,-12.9229,0.3719,9.76065,14.1004,2.81333,10.9948,14.6493,-5.3272,3.98019,14.7531,18.075,7.29416,5.0754,-6.29888,-8.7563,4.47173,0.748871,-0.19873,62,94,95,95,92,38,68,94,96,94,99,32
-1.49423,10,-0.371854,-0.998538,-14.8937,27.511,-12.6234,0.371854,-0.371854,-0.998538,-14.5941,27.511,-12.9229,0.371854,9.75997,14.1011,2.81398,10.9946,14.6491,-5.32712,3.98002,14.7527,18.0752,7.29429,5.07519,-6.29884,-8.7561,4.4715,0.748904,-0.198706,62,94,95,95,92,38,68,94,96,94,99,32
-1.49443,10,-0.371809,-0.998583,-14.8937,27.511,-12.6234,0.371809,-0.371809,-0.998583,-14.5941,27.511,-12.923,0.371809,9.7593,14.1019,2.81462,10.9945,14.649,-5.32702,3.97985,14.7522,18.0755,7.29441,5.07498,-6.29879,-8.75591,4.47129,0.748938,-0.198681,62,94,95,95,92,38,68,94,96,94,99,32
-1.49462,10,-0.371764,-0.99863,-14.8936,27.511,-12.6234,0.371764,-0.371764,-0.99863,-14.594,27.511,-12.923,0.371764,9.75862,14.1026,2.81525,10.9943,14.6488,-5.32692,3.9797,14.7518,18.0758,7.29453,5.07477,-6.29875,-8.75572,4.47109,0.748973,-0.198657,62,94,95,95,92,38,68,94,96,94,99,32
-1.49478,10,-0.371719,-0.998679,-14.8936,27.511,-12.6235,0.371719,-0.371719,-0.998679,-14.594,27.511,-12.9231,0.371719,9.75794,14.1034,2.81585,10.9942,14.6487,-5.32681,3.97955,14.7513,18.076,7.29465,5.07457,-6.2987,-8.75554,4.47089,0.749009,-0.198632,62,94,95,95,92,38,68,94,96,94,99,32
-1.49492,10,-0.371674,-0.998729,-14.8931,27.5107,-12.6234,0.371674,-0.371674,-0.998729,-14.5935,27.5107,-12.923,0.371674,9.75726,14.1041,2.81645,10.9941,14.6486,-5.32669,3.97942,14.7509,18.0763,7.29476,5.07436,-6.29866,-8.75536,4.47071,0.749047,-0.198608,62,94,95,95,92,38,68,94,96,94,99,32
-1.49504,10,-0.37163,-0.998782,-14.8931,27.5107,-12.6235,0.37163,-0.37163,-0.998782,-14.5934,27.5107,-12.9231,0.37163,9.75657,14.1049,2.81703,10.994,14.6485,-5.32655,3.97928,14.7505,18.0766,7.29487,5.07416,-6.29862,-8.75519,4.47054,0.749086,-0.198584,62,94,95,95,92,38,68,94,96,94,99,32
-1.49512,10,-0.371585,-0.998836,-14.893,27.5107,-12.6235,0.371585,-0.371585,-0.998836,-14.5934,27.5107,-12.9231,0.371585,9.75587,14.1056,2.8176,10.994,14.6484,-5.32641,3.97916,14.7501,18.0768,7.29499,5.07396,-6.29858,-8.75503,4.47038,0.749127,-0.19856,62,94,95,95,92,38,68,94,96,94,99,32
-1.49519,10,-0.371541,-0.998892,-14.893,27.5107,-12.6235,0.371541,-0.371541,-0.998892,-14.5933,27.5107,-12.9232,0.371541,9.75518,14.1064,2.81817,10.9939,14.6483,-5.32626,3.97904,14.7496,18.0771,7.2951,5.07377,-6.29855,-8.75487,4.47023,0.749169,-0.198536,62,94,95,95,92,38,68,94,96,94,99,32
-1.49524,10,-0.371497,-0.99895,-14.893,27.5107,-12.6236,0.371497,-0.371497,-0.99895,-14.5933,27.5107,-12.9233,0.371497,9.75448,14.1071,2.81871,10.9939,14.6483,-5.3261,3.97893,14.7492,18.0774,7.29521,5.07358,-6.29852,-8.75472,4.47009,0.749212,-0.198512,62,94,95,95,92,38,68,94,96,94,99,32
-1.49527,10,-0.371454,-0.999008,-14.8929,27.5107,-12.6236,0.371454,-0.371454,-0.999008,-14.5932,27.5107,-12.9233,0.371454,9.75378,14.1079,2.81925,10.9939,14.6483,-5.32593,3.97883,14.7488,18.0776,7.29532,5.0734,-6.2985,-8.75458,4.46996,0.749256,-0.198489,62,94,95,95,92,38,68,94,96,94,99,32
-1.4953,10,-0.371411,-0.999067,-14.8929,27.5107,-12.6236,0.371411,-0.371411,-0.999067,-14.5932,27.5107,-12.9234,0.371411,9.75309,14.1086,2.81977,10.9938,14.6482,-5.32576,3.97873,14.7484,18.0779,7.29543,5.07321,-6.29847,-8.75444,4.46984,0.7493,-0.198465,62,94,95,95,92,38,68,94,96,94,99,32
-1.49531,10,-0.371369,-0.999127,-14.8936,27.5112,-12.6238,0.371369,-0.371369,-0.999127,-14.5938,27.5112,-12.9236,0.371369,9.7524,14.1093,2.82028,10.9938,14.6482,-5.32558,3.97864,14.748,18.0782,7.29553,5.07303,-6.29844,-8.75431,4.46972,0.749345,-0.198442,62,94,95,95,92,38,68,94,96,94,99,32
-1.49532,10,-0.371328,-0.999186,-14.8935,27.5112,-12.6239,0.371328,-0.371328,-0.999186,-14.5938,27.5112,-12.9236,0.371328,9.75172,14.11,2.82078,10.9938,14.6482,-5.3254,3.97855,14.7477,18.0784,7.29563,5.07284,-6.29841,-8.75419,4.46961,0.74939,-0.19842,62,94,95,95,92,38,68,94,96,94,99,32
-1.49532,10,-0.371287,-0.999245,-14.8935,27.5112,-12.6239,0.371287,-0.371287,-0.999245,-14.5937,27.5112,-12.9237,0.371287,9.75105,14.1107,2.82126,10.9938,14.6482,-5.32521,3.97847,14.7473,18.0787,7.29573,5.07266,-6.29838,-8.75406,4.46951,0.749434,-0.198398,62,94,95,95,92,38,68,94,96,94,99,32
-1.49532,10,-0.371248,-0.999304,-14.8935,27.5112,-12.6239,0.371248,-0.371248,-0.999304,-14.5937,27.5112,-12.9237,0.371248,9.7504,14.1114,2.82173,10.9938,14.6483,-5.32502,3.9784,14.7469,18.0789,7.29582,5.07248,-6.29835,-8.75395,4.4694,0.749478,-0.198377,62,94,95,95,92,38,68,94,96,94,99,32
-1.49531,10,-0.371208,-0.999364,-14.8934,27.5112,-12.624,0.371208,-0.371208,-0.999364,-14.5936,27.5112,-12.9238,0.371208,9.74974,14.1121,2.82219,10.9939,14.6483,-5.32482,3.97833,14.7466,18.0792,7.29591,5.0723,-6.29832,-8.75383,4.46931,0.749523,-0.198356,62,94,95,95,92,38,68,94,96,94,99,32
-1.49529,10,-0.37117,-0.999423,-14.8934,27.5112,-12.624,0.37117,-0.37117,-0.999423,-14.5936,27.5112,-12.9238,0.37117,9.7491,14.1127,2.82264,10.9939,14.6483,-5.32463,3.97826,14.7462,18.0794,7.296,5.07213,-6.29829,-8.75373,4.46922,0.749567,-0.198335,62,94,95,95,92,38,68,94,96,94,99,32
-1.49525,10,-0.371132,-0.999482,-14.8934,27.5112,-12.624,0.371132,-0.371132,-0.999482,-14.5935,27.5112,-12.9239,0.371132,9.74846,14.1134,2.82308,10.9939,14.6484,-5.32444,3.9782,14.7459,18.0797,7.2961,5.07197,-6.29827,-8.75363,4.46914,0.749612,-0.198314,62,94,95,95,92,38,68,94,96,94,99,32
-1.4952,10,-0.371094,-0.999541,-14.8922,27.5104,-12.6238,0.371094,-0.371094,-0.999541,-14.5923,27.5104,-12.9237,0.371094,9.74782,14.1141,2.82351,10.9939,14.6484,-5.32425,3.97813,14.7455,18.0799,7.29619,5.07181,-6.29826,-8.75353,4.46907,0.749656,-0.198293,62,94,95,95,92,38,68,94,96,94,99,32
-1.49511,10,-0.371057,-0.999601,-14.8921,27.5104,-12.6238,0.371057,-0.371057,-0.999601,-14.5922,27.5104,-12.9237,0.371057,9.74717,14.1147,2.82393,10.994,14.6485,-5.32406,3.97807,14.7452,18.0802,7.29628,5.07167,-6.29826,-8.75344,4.469,0.749701,-0.198273,62,94,95,95,92,38,68,94,96,94,99,32
-1.49501,10,-0.371019,-0.99966,-14.8921,27.5104,-12.6239,0.371019,-0.371019,-0.99966,-14.5922,27.5104,-12.9237,0.371019,9.74653,14.1153,2.82434,10.994,14.6485,-5.32387,3.97801,14.7448,18.0804,7.29637,5.07153,-6.29827,-8.75336,4.46895,0.749745,-0.198253,62,94,95,95,92,38,68,94,96,94,99,32
-1.49488,10,-0.370982,-0.99972,-14.8921,27.5104,-12.6239,0.370982,-0.370982,-0.99972,-14.5921,27.5104,-12.9238,0.370982,9.74589,14.116,2.82475,10.9941,14.6486,-5.32369,3.97795,14.7445,18.0806,7.29647,5.07141,-6.29829,-8.75328,4.4689,0.74979,-0.198233,62,94,95,95,92,38,68,94,96,94,99,32
-1.49474,10,-0.370945,-0.999779,-14.892,27.5104,-12.6239,0.370945,-0.370945,-0.999779,-14.5921,27.5104,-12.9238,0.370945,9.74526,14.1166,2.82516,10.9942,14.6486,-5.32351,3.97789,14.7442,18.0809,7.29657,5.07131,-6.29832,-8.75321,4.46886,0.749835,-0.198213,62,94,95,95,92,38,68,94,96,94,99,32
-1.49459,10,-0.370908,-0.999839,-14.892,27.5104,-12.6239,0.370908,-0.370908,-0.999839,-14.5921,27.5104,-12.9239,0.370908,9.74462,14.1172,2.82556,10.9942,14.6487,-5.32333,3.97783,14.7438,18.0811,7.29668,5.07121,-6.29836,-8.75314,4.46882,0.74988,-0.198193,62,94,95,95,92,38,68,94,96,94,99,32
-1.49442,10,-0.370871,-0.999899,-14.892,27.5104,-12.624,0.370871,-0.370871,-0.999899,-14.592,27.5104,-12.9239,0.370871,9.744,14.1179,2.82596,10.9943,14.6487,-5.32316,3.97776,14.7435,18.0813,7.29681,5.07113,-6.29842,-8.75306,4.4688,0.749925,-0.198173,62,94,95,95,92,38,68,94,96,94,99,32
-1.49424,10,-0.370834,-0.99996,-14.8919,27.5104,-12.624,0.370834,-0.370834,-0.99996,-14.592,27.5104,-12.924,0.370834,9.74337,14.1185,2.82635,10.9944,14.6487,-5.323,3.97769,14.7432,18.0815,7.29694,5.07106,-6.29848,-8.75299,4.46878,0.74997,-0.198152,62,94,95,95,92,38,68,94,96,94,99,32
-1.49406,10,-0.370796,-1.00002,-14.8919,27.5104,-12.624,0.370796,-0.370796,-1.00002,-14.5919,27.5104,-12.924,0.370796,9.74276,14.1191,2.82674,10.9944,14.6487,-5.32285,3.97762,14.7429,18.0818,7.2971,5.07101,-6.29856,-8.75291,4.46877,0.750015,-0.198132,62,94,95,95,92,38,68,94,96,94,99,32
-1.49388,10,-0.370757,-1.00008,-14.8919,27.5104,-12.6241,0.370757,-0.370757,-1.00008,-14.5919,27.5104,-12.9241,0.370757,9.74216,14.1198,2.82714,10.9945,14.6487,-5.3227,3.97754,14.7426,18.082,7.29728,5.07098,-6.29865,-8.75282,4.46877,0.750061,-0.198111,62,94,95,95,92,38,68,94,96,94,99,32
-1.49369,10,-0.370718,-1.00014,-14.8919,27.5104,-12.6241,0.370718,-0.370718,-1.00014,-14.5918,27.5104,-12.9241,0.370718,9.74156,14.1204,2.82753,10.9946,14.6486,-5.32256,3.97746,14.7423,18.0822,7.29748,5.07096,-6.29875,-8.75273,4.46877,0.750106,-0.19809,62,94,95,95,92,38,68,94,96,94,99,32
-1.49349,10,-0.37068,-1.0002,-14.8918,27.5104,-12.6241,0.37068,-0.37068,-1.0002,-14.5918,27.5104,-12.9242,0.37068,9.74098,14.121,2.82792,10.9947,14.6486,-5.32242,3.97737,14.742,18.0824,7.29769,5.07095,-6.29886,-8.75264,4.46878,0.750152,-0.198069,62,94,95,95,92,38,68,94,96,94,99,32
-1.49328,10,-0.370641,-1.00026,-14.8918,27.5104,-12.6241,0.370641,-0.370641,-1.00026,-14.5917,27.5104,-12.9242,0.370641,9.7404,14.1217,2.8283,10.9948,14.6485,-5.3223,3.97728,14.7417,18.0826,7.29791,5.07096,-6.29898,-8.75254,4.46879,0.750197,-0.198048,62,94,95,95,92,38,68,94,96,94,99,32
-1.49307,10,-0.370602,-1.00032,-14.8918,27.5104,-12.6242,0.370602,-0.370602,-1.00032,-14.5917,27.5104,-12.9243,0.370602,9.73983,14.1223,2.82868,10.9948,14.6484,-5.32217,3.97719,14.7414,18.0828,7.29814,5.07097,-6.2991,-8.75245,4.46881,0.750242,-0.198027,62,94,95,95,92,38,68,94,96,94,99,32
-1.49284,10,-0.370564,-1.00038,-14.8911,27.5099,-12.624,0.370564,-0.370564,-1.00038,-14.591,27.5099,-12.9242,0.370564,9.73928,14.1229,2.82906,10.9949,14.6483,-5.32205,3.97709,14.7412,18.0831,7.29838,5.07099,-6.29923,-8.75235,4.46883,0.750287,-0.198006,62,94,95,96,92,38,69,94,96,94,99,32
-1.49259,10,-0.370526,-1.00044,-14.8911,27.5099,-12.6241,0.370526,-0.370526,-1.00044,-14.591,27.5099,-12.9242,0.370526,9.73873,14.1236,2.82943,10.995,14.6482,-5.32194,3.977,14.7409,18.0833,7.29861,5.07101,-6.29936,-8.75226,4.46886,0.750331,-0.197985,62,94,95,96,92,38,69,94,96,94,99,32
-1.49233,10,-0.370488,-1.0005,-14.8911,27.5099,-12.6241,0.370488,-0.370488,-1.0005,-14.5909,27.5099,-12.9242,0.370488,9.73819,14.1242,2.82979,10.9951,14.6481,-5.32182,3.9769,14.7407,18.0835,7.29885,5.07104,-6.29949,-8.75218,4.46888,0.750375,-0.197965,62,94,95,96,92,38,69,94,96,94,99,32
-1.49205,10,-0.370451,-1.00056,-14.8911,27.5099,-12.6241,0.370451,-0.370451,-1.00056,-14.5909,27.5099,-12.9243,0.370451,9.73766,14.1248,2.83015,10.9952,14.648,-5.32171,3.9768,14.7404,18.0837,7.29908,5.07108,-6.29962,-8.75209,4.46891,0.750418,-0.197945,62,94,95,96,92,38,69,94,96,94,99,32
-1.49177,10,-0.370414,-1.00062,-14.891,27.5099,-12.6241,0.370414,-0.370414,-1.00062,-14.5909,27.5099,-12.9243,0.370414,9.73714,14.1254,2.8305,10.9952,14.6479,-5.32161,3.9767,14.7402,18.0839,7.29933,5.07112,-6.29976,-8.75201,4.46895,0.750461,-0.197925,62,94,95,96,92,38,69,94,96,94,99,32
-1.49147,10,-0.370378,-1.00067,-14.891,27.5099,-12.6242,0.370378,-0.370378,-1.00067,-14.5908,27.5099,-12.9244,0.370378,9.73663,14.1259,2.83085,10.9953,14.6478,-5.32151,3.97661,14.74,18.0841,7.29958,5.07117,-6.2999,-8.75192,4.46898,0.750504,-0.197905,62,94,95,96,92,38,69,94,96,94,99,32
-1.49118,10,-0.370341,-1.00073,-14.891,27.5099,-12.6242,0.370341,-0.370341,-1.00073,-14.5908,27.5099,-12.9244,0.370341,9.73613,14.1265,2.83119,10.9954,14.6477,-5.32141,3.97651,14.7398,18.0842,7.29984,5.07122,-6.30005,-8.75183,4.46902,0.750545,-0.197885,62,94,95,96,92,38,69,94,96,94,99,32
-1.49088,10,-0.370305,-1.00078,-14.891,27.5099,-12.6242,0.370305,-0.370305,-1.00078,-14.5907,27.5099,-12.9244,0.370305,9.73565,14.1271,2.83153,10.9955,14.6476,-5.32132,3.97641,14.7396,18.0844,7.3001,5.07129,-6.3002,-8.75173,4.46906,0.750586,-0.197866,62,94,95,96,92,38,69,94,96,94,99,31
-1.49058,10,-0.370269,-1.00084,-14.891,27.5099,-12.6242,0.370269,-0.370269,-1.00084,-14.5907,27.5099,-12.9245,0.370269,9.73519,14.1277,2.83186,10.9955,14.6474,-5.32125,3.97631,14.7394,18.0846,7.30038,5.07136,-6.30035,-8.75161,4.4691,0.750627,-0.197846,62,94,95,96,92,38,69,94,96,94,99,31
-1.49029,10,-0.370233,-1.00089,-14.8909,27.5099,-12.6242,0.370233,-0.370233,-1.00089,-14.5907,27.5099,-12.9245,0.370233,9.73474,14.1282,2.83219,10.9956,14.6472,-5.32118,3.97622,14.7392,18.0848,7.30067,5.07144,-6.3005,-8.75148,4.46915,0.750666,-0.197827,62,94,95,96,92,38,69,94,96,94,99,31
-1.49,10,-0.370198,-1.00094,-14.8909,27.5099,-12.6242,0.370198,-0.370198,-1.00094,-14.5906,27.5099,-12.9245,0.370198,9.73431,14.1288,2.83252,10.9957,14.647,-5.32111,3.97613,14.739,18.085,7.30098,5.07153,-6.30066,-8.75134,4.4692,0.750705,-0.197808,62,94,95,96,92,38,69,94,96,94,99,31
-1.4897,10,-0.370162,-1.00099,-14.8909,27.5099,-12.6243,0.370162,-0.370162,-1.00099,-14.5906,27.5099,-12.9246,0.370162,9.73389,14.1294,2.83284,10.9957,14.6468,-5.32106,3.97604,14.7388,18.0851,7.30129,5.07163,-6.30083,-8.75119,4.46926,0.750744,-0.197788,62,94,95,96,92,38,69,94,96,94,99,31
-1.4894,10,-0.370127,-1.00104,-14.8909,27.5099,-12.6243,0.370127,-0.370127,-1.00104,-14.5906,27.5099,-12.9246,0.370127,9.73348,14.1299,2.83315,10.9958,14.6466,-5.32101,3.97595,14.7387,18.0853,7.30161,5.07173,-6.301,-8.75104,4.46931,0.750781,-0.197769,62,94,95,96,92,38,69,94,96,94,99,31
-1.4891,10,-0.370092,-1.00109,-14.8909,27.5099,-12.6243,0.370092,-0.370092,-1.00109,-14.5906,27.5099,-12.9246,0.370092,9.73309,14.1304,2.83347,10.9958,14.6464,-5.32096,3.97586,14.7385,18.0854,7.30193,5.07184,-6.30117,-8.75088,4.46936,0.750818,-0.19775,62,94,95,96,92,38,69,94,96,94,99,31
-1.48878,10,-0.370058,-1.00114,-14.8921,27.5108,-12.6246,0.370058,-0.370058,-1.00114,-14.5917,27.5108,-12.9249,0.370058,9.7327,14.131,2.83378,10.9959,14.6461,-5.32092,3.97577,14.7384,18.0856,7.30226,5.07195,-6.30134,-8.75073,4.46942,0.750854,-0.197732,62,94,95,96,92,38,69,94,96,94,99,31
-1.48845,10,-0.370024,-1.00119,-14.892,27.5108,-12.6246,0.370024,-0.370024,-1.00119,-14.5917,27.5108,-12.9249,0.370024,9.73233,14.1315,2.83408,10.9959,14.6459,-5.32089,3.97567,14.7383,18.0858,7.30259,5.07205,-6.30151,-8.75059,4.46946,0.750889,-0.197714,62,94,95,96,92,38,69,94,96,94,99,31
-1.4881,10,-0.369991,-1.00123,-14.892,27.5108,-12.6246,0.369991,-0.369991,-1.00123,-14.5917,27.5108,-12.925,0.369991,9.73196,14.132,2.83439,10.996,14.6456,-5.32086,3.97558,14.7381,18.0859,7.30292,5.07215,-6.30169,-8.75046,4.4695,0.750923,-0.197696,62,94,95,96,92,38,69,94,96,94,99,31
-1.48774,10,-0.369959,-1.00128,-14.892,27.5108,-12.6246,0.369959,-0.369959,-1.00128,-14.5916,27.5108,-12.925,0.369959,9.7316,14.1325,2.83469,10.996,14.6454,-5.32083,3.97549,14.738,18.086,7.30326,5.07225,-6.30186,-8.75033,4.46955,0.750957,-0.197678,62,94,95,96,92,38,69,94,96,94,99,31
-1.48737,10,-0.369927,-1.00132,-14.892,27.5108,-12.6246,0.369927,-0.369927,-1.00132,-14.5916,27.5108,-12.925,0.369927,9.73126,14.133,2.83498,10.996,14.6451,-5.32081,3.9754,14.7379,18.0862,7.30359,5.07236,-6.30204,-8.75019,4.46959,0.75099,-0.197661,62,94,95,96,92,38,69,94,96,94,99,31
-1.48699,10,-0.369896,-1.00136,-14.892,27.5108,-12.6246,0.369896,-0.369896,-1.00136,-14.5916,27.5108,-12.925,0.369896,9.73093,14.1334,2.83526,10.9961,14.6448,-5.32079,3.97532,14.7377,18.0863,7.30392,5.07247,-6.30221,-8.75005,4.46963,0.751022,-0.197644,62,94,95,96,92,38,69,94,96,94,99,31
-1.48661,10,-0.369864,-1.0014,-14.892,27.5108,-12.6246,0.369864,-0.369864,-1.0014,-14.5916,27.5108,-12.9251,0.369864,9.73061,14.1339,2.83554,10.9961,14.6446,-5.32078,3.97523,14.7376,18.0864,7.30426,5.07258,-6.30239,-8.74989,4.46968,0.751053,-0.197627,62,94,95,96,92,38,69,94,96,94,99,31
-1.48622,10,-0.369834,-1.00145,-14.892,27.5108,-12.6246,0.369834,-0.369834,-1.00145,-14.5915,27.5108,-12.9251,0.369834,9.7303,14.1344,2.83581,10.9961,14.6443,-5.32077,3.97516,14.7375,18.0866,7.30459,5.0727,-6.30256,-8.74972,4.46974,0.751084,-0.19761,62,94,95,96,92,38,69,94,96,94,99,31
-1.48583,10,-0.369803,-1.00149,-14.892,27.5108,-12.6246,0.369803,-0.369803,-1.00149,-14.5915,27.5108,-12.9251,0.369803,9.73002,14.1348,2.83607,10.9962,14.644,-5.32076,3.97509,14.7374,18.0867,7.30493,5.07284,-6.30272,-8.74952,4.46981,0.751114,-0.197594,62,94,95,96,92,38,69,94,96,94,99,31
-1.48544,10,-0.369773,-1.00152,-14.8919,27.5108,-12.6247,0.369773,-0.369773,-1.00152,-14.5915,27.5108,-12.9251,0.369773,9.72975,14.1353,2.83632,10.9962,14.6438,-5.32075,3.97503,14.7374,18.0868,7.30526,5.07298,-6.30288,-8.7493,4.46989,0.751144,-0.197577,62,94,95,96,92,38,69,94,96,94,99,31
-1.48505,10,-0.369743,-1.00156,-14.8919,27.5108,-12.6247,0.369743,-0.369743,-1.00156,-14.5915,27.5108,-12.9251,0.369743,9.72949,14.1357,2.83655,10.9962,14.6435,-5.32075,3.97497,14.7373,18.087,7.30559,5.07314,-6.30303,-8.74905,4.46998,0.751173,-0.197561,62,94,95,96,92,38,69,94,96,94,99,31
-1.48466,10,-0.369713,-1.0016,-14.8919,27.5108,-12.6247,0.369713,-0.369713,-1.0016,-14.5915,27.5108,-12.9252,0.369713,9.72926,14.1362,2.83678,10.9962,14.6432,-5.32074,3.97493,14.7373,18.0871,7.30591,5.0733,-6.30317,-8.74878,4.47008,0.751201,-0.197545,62,94,95,96,92,38,69,94,96,94,99,31
-1.48427,10,-0.369684,-1.00164,-14.8919,27.5108,-12.6247,0.369684,-0.369684,-1.00164,-14.5914,27.5108,-12.9252,0.369684,9.72903,14.1366,2.83699,10.9962,14.643,-5.32074,3.97488,14.7372,18.0872,7.30623,5.07347,-6.3033,-8.7485,4.47019,0.751229,-0.197529,62,94,95,96,92,38,69,94,96,94,99,31
-1.48387,10,-0.369655,-1.00167,-14.8919,27.5108,-12.6247,0.369655,-0.369655,-1.00167,-14.5914,27.5108,-12.9252,0.369655,9.72882,14.1371,2.83719,10.9962,14.6428,-5.32074,3.97485,14.7372,18.0873,7.30653,5.07364,-6.30343,-8.74819,4.47032,0.751256,-0.197513,62,94,95,96,92,38,69,94,96,94,99,31
-1.48348,10,-0.369626,-1.00171,-14.8929,27.5115,-12.6249,0.369626,-0.369626,-1.00171,-14.5924,27.5115,-12.9254,0.369626,9.72863,14.1375,2.83737,10.9962,14.6425,-5.32074,3.97482,14.7372,18.0875,7.30683,5.07383,-6.30354,-8.74786,4.47045,0.751282,-0.197498,62,94,95,96,92,38,69,94,96,94,99,31
-1.48309,10,-0.369599,-1.00174,-14.8929,27.5115,-12.6249,0.369599,-0.369599,-1.00174,-14.5924,27.5115,-12.9254,0.369599,9.72844,14.1379,2.83755,10.9962,14.6423,-5.32074,3.97479,14.7372,18.0876,7.30712,5.07402,-6.30365,-8.74752,4.47059,0.751308,-0.197483,62,94,95,96,92,38,69,94,96,94,99,31
-1.4827,10,-0.369572,-1.00178,-14.8929,27.5115,-12.6249,0.369572,-0.369572,-1.00178,-14.5924,27.5115,-12.9254,0.369572,9.72827,14.1384,2.83771,10.9962,14.6421,-5.32075,3.97476,14.7372,18.0877,7.3074,5.07421,-6.30376,-8.74716,4.47074,0.751334,-0.197468,62,94,95,96,92,38,69,94,96,94,99,31
-1.48231,10,-0.369545,-1.00181,-14.8929,27.5115,-12.6249,0.369545,-0.369545,-1.00181,-14.5923,27.5115,-12.9254,0.369545,9.72811,14.1388,2.83786,10.9962,14.6419,-5.32075,3.97474,14.7372,18.0879,7.30766,5.07441,-6.30385,-8.74679,4.47089,0.751359,-0.197454,62,94,95,96,92,38,69,94,96,94,99,31
-1.48192,10,-0.369519,-1.00184,-14.8929,27.5115,-12.6249,0.369519,-0.369519,-1.00184,-14.5923,27.5115,-12.9254,0.369519,9.72797,14.1392,2.838,10.9961,14.6417,-5.32076,3.97472,14.7372,18.088,7.3079,5.07461,-6.30391,-8.7464,4.47106,0.751384,-0.19744,62,94,95,96,92,38,69,94,96,94,99,31
-1.48153,10,-0.369494,-1.00188,-14.8929,27.5115,-12.6249,0.369494,-0.369494,-1.00188,-14.5923,27.5115,-12.9255,0.369494,9.72784,14.1396,2.83811,10.9961,14.6416,-5.32076,3.97472,14.7372,18.0881,7.30812,5.07481,-6.30393,-8.746,4.47125,0.751408,-0.197426,62,94,95,96,92,38,69,94,96,94,99,31
-1.48114,10,-0.369469,-1.00191,-14.8929,27.5115,-12.6249,0.369469,-0.369469,-1.00191,-14.5923,27.5115,-12.9255,0.369469,9.72772,14.14,2.8382,10.9961,14.6415,-5.32075,3.97472,14.7373,18.0883,7.3083,5.07502,-6.30392,-8.74558,4.47145,0.751431,-0.197413,62,94,95,96,92,38,69,94,96,94,99,31
-1.48075,10,-0.369445,-1.00194,-14.8935,27.5119,-12.625,0.369445,-0.369445,-1.00194,-14.5929,27.5119,-12.9256,0.369445,9.72762,14.1404,2.83827,10.9961,14.6415,-5.32074,3.97474,14.7373,18.0884,7.30844,5.07522,-6.30386,-8.74515,4.47167,0.751455,-0.197399,62,94,95,96,92,38,69,94,96,94,99,31
-1.48037,10,-0.369421,-1.00197,-14.8935,27.5119,-12.625,0.369421,-0.369421,-1.00197,-14.5929,27.5119,-12.9256,0.369421,9.72753,14.1408,2.83831,10.996,14.6415,-5.32073,3.97477,14.7374,18.0885,7.30853,5.07543,-6.30372,-8.7447,4.47191,0.751478,-0.197386,62,94,95,96,92,38,69,94,96,94,99,31
-1.47998,10,-0.369397,-1.002,-14.8935,27.5119,-12.625,0.369397,-0.369397,-1.002,-14.5929,27.5119,-12.9256,0.369397,9.72746,14.1411,2.83832,10.996,14.6416,-5.3207,3.97482,14.7375,18.0886,7.30858,5.07564,-6.30352,-8.74423,4.47218,0.7515,-0.197374,62,94,95,96,92,38,69,94,96,94,99,31
-1.47959,10,-0.369374,-1.00203,-14.8935,27.5119,-12.625,0.369374,-0.369374,-1.00203,-14.5929,27.5119,-12.9256,0.369374,9.72741,14.1415,2.83831,10.996,14.6418,-5.32067,3.97488,14.7376,18.0887,7.30858,5.07585,-6.30326,-8.74375,4.47246,0.751523,-0.197361,62,94,95,96,92,38,69,94,96,94,99,31
-1.4792,10,-0.369351,-1.00206,-14.8935,27.5119,-12.625,0.369351,-0.369351,-1.00206,-14.5929,27.5119,-12.9256,0.369351,9.72737,14.1418,2.83827,10.996,14.6419,-5.32063,3.97495,14.7377,18.0888,7.30855,5.07605,-6.30296,-8.74325,4.47275,0.751544,-0.197349,62,94,95,96,92,38,69,94,96,94,99,31
-1.47881,10,-0.369329,-1.00209,-14.8935,27.5119,-12.625,0.369329,-0.369329,-1.00209,-14.5929,27.5119,-12.9256,0.369329,9.72734,14.1422,2.83822,10.9959,14.6422,-5.32059,3.97503,14.7378,18.0889,7.30848,5.07626,-6.30261,-8.74275,4.47306,0.751566,-0.197337,62,94,95,96,92,38,69,94,96,94,99,31
-1.47842,10,-0.369308,-1.00212,-14.8935,27.5119,-12.625,0.369308,-0.369308,-1.00212,-14.5929,27.5119,-12.9256,0.369308,9.72732,14.1425,2.83815,10.9959,14.6424,-5.32054,3.97511,14.7379,18.089,7.30839,5.07646,-6.30224,-8.74225,4.47338,0.751587,-0.197325,62,94,95,96,92,38,69,94,96,94,99,31
-1.47803,10,-0.369286,-1.00214,-14.8935,27.5119,-12.625,0.369286,-0.369286,-1.00214,-14.5928,27.5119,-12.9256,0.369286,9.72731,14.1428,2.83807,10.9959,14.6427,-5.32049,3.97521,14.738,18.0891,7.30828,5.07667,-6.30183,-8.74174,4.47371,0.751607,-0.197314,62,94,94,96,92,38,69,94,97,94,99,31
-1.47764,10,-0.369265,-1.00217,-14.8935,27.5119,-12.6249,0.369265,-0.369265,-1.00217,-14.5928,27.5119,-12.9256,0.369265,9.7273,14.1431,2.83798,10.9959,14.643,-5.32044,3.97531,14.7381,18.0892,7.30815,5.07687,-6.30142,-8.74123,4.47405,0.751627,-0.197302,62,94,94,96,92,38,69,94,97,94,99,31
-1.47725,10,-0.369245,-1.00219,-14.8935,27.5119,-12.6249,0.369245,-0.369245,-1.00219,-14.5928,27.5119,-12.9256,0.369245,9.72731,14.1434,2.83788,10.9958,14.6434,-5.32039,3.97541,14.7383,18.0892,7.30801,5.07707,-6.30099,-8.74072,4.47439,0.751646,-0.197291,62,94,94,96,92,38,69,94,97,94,99,31
-1.47686,10,-0.369225,-1.00222,-14.8935,27.5119,-12.6249,0.369225,-0.369225,-1.00222,-14.5928,27.5119,-12.9256,0.369225,9.72732,14.1437,2.83778,10.9958,14.6437,-5.32034,3.97551,14.7384,18.0893,7.30786,5.07726,-6.30054,-8.74021,4.47473,0.751664,-0.19728,62,94,94,96,92,38,69,94,97,94,99,31
-1.47647,10,-0.369206,-1.00224,-14.8935,27.5119,-12.6249,0.369206,-0.369206,-1.00224,-14.5928,27.5119,-12.9256,0.369206,9.72734,14.144,2.83766,10.9958,14.6441,-5.32029,3.97562,14.7386,18.0894,7.30769,5.07746,-6.30007,-8.73971,4.47508,0.751682,-0.19727,62,94,94,96,92,38,69,94,97,94,99,31
-1.47609,10,-0.369187,-1.00227,-14.8935,27.5119,-12.6249,0.369187,-0.369187,-1.00227,-14.5928,27.5119,-12.9256,0.369187,9.72736,14.1442,2.83753,10.9957,14.6445,-5.32024,3.97574,14.7387,18.0894,7.3075,5.07765,-6.29958,-8.7392,4.47543,0.7517,-0.197259,62,94,94,96,92,38,69,94,97,94,99,31
-1.4757,10,-0.369168,-1.00229,-14.8935,27.5119,-12.6249,0.369168,-0.369168,-1.00229,-14.5928,27.5119,-12.9256,0.369168,9.72739,14.1445,2.83739,10.9957,14.6449,-5.32018,3.97586,14.7388,18.0895,7.30729,5.07784,-6.29907,-8.73869,4.47578,0.751718,-0.197249,62,94,94,96,92,38,69,94,97,94,99,31
-1.47532,10,-0.36915,-1.00231,-14.8933,27.5117,-12.6248,0.36915,-0.36915,-1.00231,-14.5926,27.5117,-12.9255,0.36915,9.72743,14.1448,2.83724,10.9957,14.6453,-5.32011,3.97598,14.739,18.0895,7.30706,5.07802,-6.29853,-8.73818,4.47614,0.751735,-0.19724,62,94,94,96,92,38,69,94,97,94,99,31
-1.47494,10,-0.369132,-1.00234,-14.8933,27.5117,-12.6248,0.369132,-0.369132,-1.00234,-14.5926,27.5117,-12.9255,0.369132,9.72747,14.145,2.83708,10.9957,14.6458,-5.32004,3.97611,14.7392,18.0896,7.30681,5.0782,-6.29796,-8.73768,4.4765,0.751753,-0.19723,62,94,94,96,92,38,69,94,97,94,99,31
-1.47456,10,-0.369115,-1.00236,-14.8933,27.5117,-12.6248,0.369115,-0.369115,-1.00236,-14.5926,27.5117,-12.9255,0.369115,9.72751,14.1452,2.83691,10.9957,14.6463,-5.31997,3.97625,14.7393,18.0896,7.30653,5.07838,-6.29737,-8.73717,4.47686,0.751771,-0.197221,62,94,94,96,92,38,69,94,97,94,99,31
-1.47419,10,-0.369098,-1.00238,-14.8933,27.5117,-12.6248,0.369098,-0.369098,-1.00238,-14.5926,27.5117,-12.9255,0.369098,9.72756,14.1454,2.83672,10.9956,14.6468,-5.31989,3.97639,14.7395,18.0897,7.30624,5.07855,-6.29674,-8.73666,4.47723,0.751788,-0.197211,62,94,94,96,92,38,69,94,97,94,99,31
-1.47382,10,-0.369082,-1.00241,-14.8934,27.5117,-12.6248,0.369082,-0.369082,-1.00241,-14.5926,27.5117,-12.9255,0.369082,9.72762,14.1457,2.83652,10.9956,14.6473,-5.3198,3.97653,14.7397,18.0897,7.30592,5.07872,-6.29608,-8.73615,4.4776,0.751806,-0.197203,62,94,94,96,92,38,69,94,97,94,99,31
-1.47345,10,-0.369066,-1.00243,-14.8934,27.5117,-12.6248,0.369066,-0.369066,-1.00243,-14.5926,27.5117,-12.9255,0.369066,9.72768,14.1458,2.83631,10.9956,14.6478,-5.3197,3.97669,14.7398,18.0897,7.30557,5.07889,-6.29538,-8.73564,4.47797,0.751824,-0.197194,62,94,94,96,92,38,69,94,97,94,99,31
-1.47309,10,-0.369051,-1.00245,-14.8934,27.5117,-12.6248,0.369051,-0.369051,-1.00245,-14.5927,27.5117,-12.9255,0.369051,9.72774,14.146,2.83609,10.9956,14.6484,-5.31959,3.97685,14.74,18.0898,7.3052,5.07906,-6.29464,-8.73513,4.47834,0.751841,-0.197186,62,94,94,96,92,38,69,94,97,94,99,31
-1.47273,10,-0.369037,-1.00248,-14.8935,27.5117,-12.6248,0.369037,-0.369037,-1.00248,-14.5927,27.5117,-12.9255,0.369037,9.72782,14.1462,2.83585,10.9956,14.649,-5.31948,3.97702,14.7402,18.0898,7.30481,5.07922,-6.29386,-8.73462,4.4787,0.751858,-0.197178,62,94,94,96,92,38,69,94,97,94,99,31
-1.47238,10,-0.369024,-1.0025,-14.8935,27.5117,-12.6248,0.369024,-0.369024,-1.0025,-14.5927,27.5117,-12.9255,0.369024,9.7279,14.1463,2.8356,10.9956,14.6497,-5.31935,3.97721,14.7404,18.0898,7.30439,5.07939,-6.29303,-8.73411,4.47907,0.751875,-0.197171,62,94,94,96,92,38,69,94,97,94,99,31
-1.47202,10,-0.369011,-1.00252,-14.8935,27.5117,-12.6247,0.369011,-0.369011,-1.00252,-14.5927,27.5117,-12.9255,0.369011,9.72798,14.1465,2.83533,10.9957,14.6503,-5.31921,3.9774,14.7406,18.0898,7.30394,5.07955,-6.29215,-8.7336,4.47943,0.751891,-0.197164,62,94,94,96,92,38,69,94,97,94,99,31
-1.47168,10,-0.368999,-1.00254,-14.8935,27.5117,-12.6247,0.368999,-0.368999,-1.00254,-14.5927,27.5117,-12.9255,0.368999,9.72807,14.1466,2.83505,10.9957,14.651,-5.31906,3.97761,14.7408,18.0898,7.30347,5.07971,-6.29123,-8.73308,4.4798,0.751907,-0.197158,62,94,94,96,92,38,69,94,97,94,99,31
-1.47133,10,-0.368988,-1.00256,-14.8935,27.5117,-12.6247,0.368988,-0.368988,-1.00256,-14.5928,27.5117,-12.9255,0.368988,9.72817,14.1467,2.83476,10.9958,14.6517,-5.3189,3.97782,14.741,18.0897,7.30298,5.07988,-6.29027,-8.73257,4.48015,0.751922,-0.197152,62,94,94,96,92,38,69,94,97,94,99,31
-1.471,10,-0.368978,-1.00258,-14.8935,27.5117,-12.6247,0.368978,-0.368978,-1.00258,-14.5928,27.5117,-12.9255,0.368978,9.72827,14.1468,2.83447,10.9958,14.6524,-5.31873,3.97804,14.7412,18.0897,7.30247,5.08004,-6.28928,-8.73206,4.48051,0.751936,-0.197146,62,94,94,96,92,38,69,94,97,94,99,31
-1.47067,10,-0.368968,-1.0026,-14.8936,27.5117,-12.6247,0.368968,-0.368968,-1.0026,-14.5928,27.5117,-12.9255,0.368968,9.72838,14.1469,2.83416,10.9959,14.6532,-5.31856,3.97828,14.7414,18.0897,7.30195,5.0802,-6.28826,-8.73155,4.48086,0.751949,-0.197141,62,94,94,96,92,38,69,94,97,94,99,31
-1.47034,10,-0.368958,-1.00262,-14.8932,27.5115,-12.6246,0.368958,-0.368958,-1.00262,-14.5924,27.5115,-12.9254,0.368958,9.7285,14.147,2.83385,10.996,14.6539,-5.31837,3.97852,14.7416,18.0897,7.30142,5.08036,-6.28722,-8.73104,4.4812,0.751961,-0.197136,62,94,94,96,92,38,69,94,97,94,99,31
-1.47002,10,-0.368949,-1.00263,-14.8932,27.5115,-12.6246,0.368949,-0.368949,-1.00263,-14.5924,27.5115,-12.9254,0.368949,9.72863,14.147,2.83354,10.996,14.6546,-5.31818,3.97877,14.7418,18.0896,7.30088,5.08052,-6.28614,-8.73053,4.48155,0.751972,-0.197131,62,94,94,96,92,38,69,94,97,94,99,31
-1.46971,10,-0.368941,-1.00264,-14.8932,27.5115,-12.6246,0.368941,-0.368941,-1.00264,-14.5924,27.5115,-12.9253,0.368941,9.72876,14.1471,2.83322,10.9961,14.6554,-5.31799,3.97902,14.742,18.0896,7.30032,5.08069,-6.28505,-8.73003,4.48188,0.751982,-0.197126,62,94,94,96,92,38,69,94,97,94,99,31
-1.46941,10,-0.368933,-1.00265,-14.8933,27.5115,-12.6245,0.368933,-0.368933,-1.00265,-14.5925,27.5115,-12.9253,0.368933,9.7289,14.1471,2.8329,10.9962,14.6561,-5.31778,3.97929,14.7422,18.0895,7.29977,5.08085,-6.28395,-8.72952,4.48221,0.751991,-0.197122,62,94,94,96,92,38,69,94,97,94,99,31
-1.46911,10,-0.368925,-1.00266,-14.8933,27.5115,-12.6245,0.368925,-0.368925,-1.00266,-14.5925,27.5115,-12.9253,0.368925,9.72904,14.1471,2.83257,10.9963,14.6569,-5.31757,3.97956,14.7424,18.0895,7.29922,5.08101,-6.28284,-8.72902,4.48254,0.751998,-0.197118,62,94,94,96,92,38,69,94,97,94,99,31
-1.46882,10,-0.368917,-1.00267,-14.8933,27.5115,-12.6245,0.368917,-0.368917,-1.00267,-14.5925,27.5115,-12.9253,0.368917,9.72919,14.1472,2.83225,10.9964,14.6576,-5.31736,3.97984,14.7426,18.0894,7.29867,5.08117,-6.28173,-8.72852,4.48286,0.752005,-0.197113,62,94,94,96,92,38,69,94,97,94,99,31
-1.46853,10,-0.368909,-1.00268,-14.8933,27.5115,-12.6245,0.368909,-0.368909,-1.00268,-14.5925,27.5115,-12.9253,0.368909,9.72934,14.1472,2.83193,10.9965,14.6583,-5.31714,3.98013,14.7427,18.0894,7.29813,5.08133,-6.28063,-8.72802,4.48318,0.75201,-0.197109,62,94,94,96,92,38,69,94,97,94,99,31
-1.46826,10,-0.368901,-1.00269,-14.8933,27.5115,-12.6245,0.368901,-0.368901,-1.00269,-14.5925,27.5115,-12.9253,0.368901,9.7295,14.1472,2.83162,10.9966,14.659,-5.31691,3.98043,14.7429,18.0893,7.29759,5.0815,-6.27953,-8.72753,4.48348,0.752014,-0.197105,62,94,94,95,92,38,69,94,97,94,99,31
-1.46798,10,-0.368893,-1.00269,-14.8933,27.5115,-12.6245,0.368893,-0.368893,-1.00269,-14.5925,27.5115,-12.9253,0.368893,9.72966,14.1472,2.83131,10.9968,14.6597,-5.31668,3.98074,14.7431,18.0892,7.29709,5.08166,-6.27846,-8.72703,4.48378,0.752017,-0.1971,62,94,94,95,92,38,69,94,97,94,99,31
-1.46772,10,-0.368884,-1.00269,-14.8933,27.5115,-12.6245,0.368884,-0.368884,-1.00269,-14.5925,27.5115,-12.9253,0.368884,9.72982,14.1472,2.831,10.9969,14.6604,-5.31644,3.98106,14.7433,18.0891,7.2966,5.08183,-6.27742,-8.72654,4.48408,0.752018,-0.197095,62,94,94,95,92,38,69,94,97,94,99,31
-1.46746,10,-0.368875,-1.00269,-14.8934,27.5115,-12.6244,0.368875,-0.368875,-1.00269,-14.5926,27.5115,-12.9252,0.368875,9.72999,14.1472,2.8307,10.997,14.661,-5.3162,3.98138,14.7434,18.089,7.29613,5.08199,-6.27639,-8.72605,4.48436,0.752018,-0.19709,62,94,94,95,92,38,69,94,97,94,99,31
-1.46721,10,-0.368865,-1.00269,-14.8934,27.5115,-12.6244,0.368865,-0.368865,-1.00269,-14.5926,27.5115,-12.9252,0.368865,9.73016,14.1472,2.8304,10.9972,14.6616,-5.31595,3.98171,14.7436,18.0889,7.29567,5.08216,-6.27539,-8.72557,4.48464,0.752017,-0.197085,62,94,94,95,92,38,69,94,97,94,99,31
-1.46697,10,-0.368855,-1.00269,-14.8934,27.5115,-12.6244,0.368855,-0.368855,-1.00269,-14.5926,27.5115,-12.9252,0.368855,9.73034,14.1472,2.83012,10.9973,14.6622,-5.31571,3.98205,14.7438,18.0888,7.29522,5.08232,-6.2744,-8.72509,4.48492,0.752016,-0.19708,62,94,94,95,92,38,69,94,97,94,99,31
-1.46674,10,-0.368846,-1.00269,-14.8934,27.5115,-12.6244,0.368846,-0.368846,-1.00269,-14.5926,27.5115,-12.9252,0.368846,9.73051,14.1472,2.82983,10.9975,14.6628,-5.31546,3.98238,14.7439,18.0887,7.29479,5.08248,-6.27342,-8.72462,4.48519,0.752014,-0.197075,62,94,94,95,92,38,69,94,97,94,99,31
-1.46653,10,-0.368836,-1.00268,-14.8929,27.5111,-12.6243,0.368836,-0.368836,-1.00268,-14.5921,27.5111,-12.9251,0.368836,9.73068,14.1472,2.82956,10.9977,14.6634,-5.31521,3.98272,14.7441,18.0886,7.29436,5.08264,-6.27246,-8.72416,4.48545,0.752012,-0.19707,62,94,94,95,92,38,69,94,97,94,99,31
-1.46633,10,-0.368827,-1.00268,-14.8929,27.5111,-12.6243,0.368827,-0.368827,-1.00268,-14.5921,27.5111,-12.9251,0.368827,9.73085,14.1471,2.82929,10.9978,14.664,-5.31496,3.98305,14.7443,18.0884,7.29393,5.0828,-6.27151,-8.72371,4.4857,0.75201,-0.197065,62,94,94,95,92,38,69,94,97,94,99,31
-1.46614,10,-0.368819,-1.00268,-14.8929,27.5111,-12.6243,0.368819,-0.368819,-1.00268,-14.5921,27.5111,-12.9251,0.368819,9.73102,14.1471,2.82902,10.998,14.6645,-5.31472,3.98338,14.7444,18.0883,7.29351,5.08295,-6.27056,-8.72327,4.48595,0.752008,-0.19706,62,94,94,95,92,38,69,94,97,94,99,31
-1.46597,10,-0.36881,-1.00267,-14.893,27.5111,-12.6242,0.36881,-0.36881,-1.00267,-14.5922,27.5111,-12.925,0.36881,9.73118,14.1471,2.82876,10.9981,14.6651,-5.31447,3.9837,14.7446,18.0882,7.29309,5.0831,-6.26963,-8.72283,4.4862,0.752006,-0.197055,62,94,94,95,92,38,69,94,97,94,99,31
-1.46581,10,-0.368801,-1.00267,-14.893,27.5111,-12.6242,0.368801,-0.368801,-1.00267,-14.5922,27.5111,-12.925,0.368801,9.73135,14.1471,2.82851,10.9983,14.6656,-5.31423,3.98403,14.7447,18.0881,7.29269,5.08325,-6.26872,-8.72241,4.48643,0.752003,-0.197051,62,94,94,95,92,38,69,94,97,94,99,31
-1.46566,10,-0.368792,-1.00267,-14.893,27.5111,-12.6242,0.368792,-0.368792,-1.00267,-14.5922,27.5111,-12.925,0.368792,9.73152,14.147,2.82827,10.9984,14.6661,-5.31399,3.98436,14.7448,18.088,7.29231,5.08339,-6.26784,-8.72199,4.48666,0.752,-0.197046,62,94,94,95,92,38,69,94,97,94,99,31
-1.46552,10,-0.368783,-1.00266,-14.893,27.5111,-12.6242,0.368783,-0.368783,-1.00266,-14.5922,27.5111,-12.925,0.368783,9.73168,14.147,2.82802,10.9986,14.6666,-5.31375,3.98468,14.745,18.0878,7.29195,5.08354,-6.26699,-8.72157,4.48689,0.751996,-0.197041,62,94,94,95,92,38,69,94,97,94,99,31
-1.46539,10,-0.368773,-1.00265,-14.8924,27.5107,-12.6241,0.368773,-0.368773,-1.00265,-14.5916,27.5107,-12.9249,0.368773,9.73185,14.147,2.82779,10.9988,14.667,-5.31351,3.98501,14.7451,18.0877,7.29161,5.08369,-6.26618,-8.72116,4.4871,0.75199,-0.197036,62,94,94,95,92,38,69,94,97,94,99,31
-1.46527,10,-0.368763,-1.00265,-14.8924,27.5107,-12.6241,0.368763,-0.368763,-1.00265,-14.5916,27.5107,-12.9248,0.368763,9.73201,14.147,2.82756,10.9989,14.6675,-5.31327,3.98535,14.7452,18.0876,7.2913,5.08383,-6.2654,-8.72075,4.48732,0.751984,-0.19703,62,94,94,95,92,38,69,94,97,94,99,31
-1.46515,10,-0.368752,-1.00264,-14.8924,27.5107,-12.624,0.368752,-0.368752,-1.00264,-14.5916,27.5107,-12.9248,0.368752,9.73217,14.147,2.82733,10.9991,14.6679,-5.31303,3.9857,14.7454,18.0874,7.29102,5.08398,-6.26468,-8.72035,4.48752,0.751977,-0.197024,62,94,94,95,92,38,69,94,97,94,99,31
-1.46504,10,-0.36874,-1.00262,-14.8924,27.5107,-12.624,0.36874,-0.36874,-1.00262,-14.5916,27.5107,-12.9248,0.36874,9.73234,14.1469,2.82711,10.9993,14.6683,-5.3128,3.98604,14.7455,18.0873,7.29077,5.08413,-6.26399,-8.71995,4.48772,0.751968,-0.197017,62,94,94,95,92,38,69,94,97,94,99,31
-1.46494,10,-0.368728,-1.00261,-14.8924,27.5107,-12.624,0.368728,-0.368728,-1.00261,-14.5916,27.5107,-12.9248,0.368728,9.73251,14.1469,2.82689,10.9995,14.6686,-5.31256,3.98639,14.7456,18.0872,7.29056,5.08428,-6.26336,-8.71955,4.48791,0.751958,-0.197011,62,94,94,95,92,38,69,94,97,94,99,31
-1.46485,10,-0.368714,-1.00259,-14.8924,27.5107,-12.624,0.368714,-0.368714,-1.00259,-14.5916,27.5107,-12.9248,0.368714,9.73268,14.1469,2.82668,10.9996,14.6689,-5.31234,3.98675,14.7457,18.087,7.29038,5.08444,-6.26278,-8.71915,4.48809,0.751946,-0.197003,62,94,94,95,92,38,69,94,97,94,99,31
-1.46476,10,-0.3687,-1.00258,-14.8924,27.5107,-12.624,0.3687,-0.3687,-1.00258,-14.5917,27.5107,-12.9248,0.3687,9.73285,14.1469,2.82647,10.9998,14.6692,-5.31211,3.9871,14.7457,18.0868,7.29023,5.08459,-6.26226,-8.71876,4.48827,0.751933,-0.196996,62,94,94,95,92,38,69,94,97,94,99,31
-1.46469,10,-0.368685,-1.00256,-14.8925,27.5107,-12.624,0.368685,-0.368685,-1.00256,-14.5917,27.5107,-12.9248,0.368685,9.73303,14.1469,2.82626,11,14.6695,-5.31189,3.98745,14.7458,18.0867,7.29012,5.08475,-6.26179,-8.71836,4.48844,0.751917,-0.196988,62,94,94,95,92,38,69,94,97,94,99,31
-1.46462,10,-0.36867,-1.00253,-14.8925,27.5107,-12.624,0.36867,-0.36867,-1.00253,-14.5917,27.5107,-12.9248,0.36867,9.73323,14.1469,2.82605,11.0002,14.6697,-5.31168,3.9878,14.7459,18.0865,7.29005,5.08491,-6.26139,-8.71797,4.48861,0.751899,-0.196979,62,94,94,95,92,38,69,94,97,94,99,31
-1.46456,10,-0.368653,-1.00251,-14.8925,27.5107,-12.624,0.368653,-0.368653,-1.00251,-14.5917,27.5107,-12.9248,0.368653,9.73343,14.1469,2.82584,11.0004,14.6699,-5.31148,3.98815,14.746,18.0864,7.29002,5.08508,-6.26105,-8.71758,4.48877,0.751879,-0.19697,62,94,94,95,92,38,69,94,97,94,99,31
-1.46451,10,-0.368636,-1.00248,-14.8925,27.5107,-12.624,0.368636,-0.368636,-1.00248,-14.5918,27.5107,-12.9247,0.368636,9.73364,14.147,2.82564,11.0006,14.6701,-5.31128,3.98849,14.746,18.0862,7.29003,5.08525,-6.26077,-8.71719,4.48892,0.751857,-0.196961,62,94,94,95,92,38,69,94,97,94,99,31
-1.46447,10,-0.368618,-1.00244,-14.8925,27.5107,-12.624,0.368618,-0.368618,-1.00244,-14.5918,27.5107,-12.9247,0.368618,9.73386,14.147,2.82543,11.0008,14.6702,-5.31109,3.98884,14.7461,18.086,7.29007,5.08543,-6.26054,-8.7168,4.48907,0.751833,-0.196951,62,94,94,95,92,38,69,94,97,94,99,31
-1.46444,10,-0.3686,-1.00241,-14.8925,27.5107,-12.624,0.3686,-0.3686,-1.00241,-14.5918,27.5107,-12.9247,0.3686,9.73407,14.147,2.82523,11.001,14.6704,-5.31091,3.98918,14.7461,18.0858,7.29013,5.0856,-6.26035,-8.71641,4.48921,0.751808,-0.196941,62,94,94,95,92,38,69,94,97,94,99,31
-1.46442,10,-0.368581,-1.00238,-14.8925,27.5107,-12.624,0.368581,-0.368581,-1.00238,-14.5918,27.5107,-12.9247,0.368581,9.73429,14.147,2.82503,11.0012,14.6705,-5.31072,3.98952,14.7462,18.0856,7.29021,5.08577,-6.26019,-8.71603,4.48935,0.751782,-0.196931,62,94,94,95,92,38,69,94,97,94,99,31
-1.46442,10,-0.368562,-1.00234,-14.8925,27.5107,-12.624,0.368562,-0.368562,-1.00234,-14.5918,27.5107,-12.9247,0.368562,9.7345,14.147,2.82484,11.0014,14.6706,-5.31054,3.98985,14.7462,18.0854,7.29031,5.08595,-6.26006,-8.71565,4.48948,0.751756,-0.196921,62,94,94,95,92,38,69,94,97,94,99,31
-1.46442,10,-0.368544,-1.00231,-14.8925,27.5107,-12.624,0.368544,-0.368544,-1.00231,-14.5918,27.5107,-12.9247,0.368544,9.7347,14.147,2.82466,11.0016,14.6707,-5.31036,3.99019,14.7462,18.0853,7.29042,5.08612,-6.25994,-8.71527,4.48961,0.751731,-0.196911,62,94,94,95,92,38,69,94,97,94,99,31
-1.46444,10,-0.368525,-1.00227,-14.8925,27.5107,-12.624,0.368525,-0.368525,-1.00227,-14.5919,27.5107,-12.9246,0.368525,9.73488,14.1471,2.82449,11.0018,14.6708,-5.31018,3.99053,14.7463,18.0851,7.29053,5.08628,-6.25983,-8.7149,4.48974,0.751706,-0.196901,62,94,94,95,92,38,69,94,97,94,99,31
-1.46447,10,-0.368507,-1.00224,-14.8925,27.5107,-12.624,0.368507,-0.368507,-1.00224,-14.5919,27.5107,-12.9246,0.368507,9.73507,14.1471,2.82432,11.002,14.6709,-5.31,3.99087,14.7463,18.0849,7.29066,5.08645,-6.25974,-8.71453,4.48986,0.75168,-0.196891,62,94,94,95,92,38,69,94,97,94,99,31
-1.46452,10,-0.368488,-1.00221,-14.8925,27.5107,-12.624,0.368488,-0.368488,-1.00221,-14.5919,27.5107,-12.9246,0.368488,9.73526,14.1471,2.82416,11.0022,14.671,-5.30983,3.9912,14.7463,18.0847,7.2908,5.08661,-6.25968,-8.71417,4.48997,0.751655,-0.196881,62,94,94,95,92,38,69,94,97,94,99,31
-1.46457,10,-0.368469,-1.00217,-14.8925,27.5107,-12.624,0.368469,-0.368469,-1.00217,-14.5919,27.5107,-12.9246,0.368469,9.73545,14.1471,2.82399,11.0024,14.671,-5.30966,3.99152,14.7463,18.0845,7.29096,5.08678,-6.25966,-8.71381,4.49009,0.751628,-0.196871,62,94,94,95,92,38,69,94,97,94,99,31
-1.46464,10,-0.36845,-1.00213,-14.8925,27.5107,-12.624,0.36845,-0.36845,-1.00213,-14.5919,27.5107,-12.9246,0.36845,9.73565,14.1471,2.82383,11.0026,14.6711,-5.30951,3.99183,14.7463,18.0843,7.29114,5.08695,-6.25967,-8.71346,4.49019,0.751599,-0.19686,62,94,94,95,92,38,69,94,97,94,99,31
-1.46472,10,-0.368431,-1.00209,-14.8927,27.5108,-12.624,0.368431,-0.368431,-1.00209,-14.5921,27.5108,-12.9246,0.368431,9.73587,14.1471,2.82365,11.0028,14.6711,-5.30937,3.99213,14.7463,18.0841,7.29134,5.08711,-6.25973,-8.71312,4.4903,0.751569,-0.19685,62,94,94,95,92,38,69,94,97,94,99,31
-1.46481,10,-0.368411,-1.00205,-14.8927,27.5108,-12.624,0.368411,-0.368411,-1.00205,-14.5921,27.5108,-12.9246,0.368411,9.73612,14.1472,2.82347,11.003,14.671,-5.30924,3.99241,14.7464,18.084,7.29157,5.08729,-6.25984,-8.71278,4.4904,0.751536,-0.196839,62,94,94,95,92,38,69,94,97,94,99,31
-1.46491,10,-0.368391,-1.002,-14.8927,27.5108,-12.624,0.368391,-0.368391,-1.002,-14.5921,27.5108,-12.9246,0.368391,9.73639,14.1472,2.82328,11.0033,14.6709,-5.30913,3.99267,14.7464,18.0838,7.29181,5.08746,-6.26002,-8.71246,4.49049,0.751501,-0.196828,62,94,94,95,92,38,69,94,97,94,99,31
-1.46503,10,-0.36837,-1.00195,-14.8927,27.5108,-12.624,0.36837,-0.36837,-1.00195,-14.5922,27.5108,-12.9246,0.36837,9.73668,14.1473,2.82308,11.0035,14.6708,-5.30903,3.99292,14.7464,18.0836,7.29208,5.08764,-6.26024,-8.71214,4.49058,0.751463,-0.196817,62,94,94,95,92,38,69,94,97,94,99,31
-1.46516,10,-0.368349,-1.0019,-14.8928,27.5108,-12.624,0.368349,-0.368349,-1.0019,-14.5922,27.5108,-12.9245,0.368349,9.73698,14.1473,2.82287,11.0037,14.6707,-5.30894,3.99316,14.7465,18.0834,7.29237,5.08782,-6.26051,-8.71183,4.49066,0.751424,-0.196806,62,94,94,95,92,38,69,94,97,94,99,31
-1.46529,10,-0.368328,-1.00184,-14.8928,27.5108,-12.624,0.368328,-0.368328,-1.00184,-14.5922,27.5108,-12.9245,0.368328,9.7373,14.1474,2.82266,11.0039,14.6705,-5.30887,3.99338,14.7465,18.0832,7.29268,5.088,-6.26082,-8.71153,4.49075,0.751383,-0.196794,62,94,94,95,92,38,69,94,97,94,99,31
-1.46543,10,-0.368307,-1.00179,-14.8928,27.5108,-12.624,0.368307,-0.368307,-1.00179,-14.5922,27.5108,-12.9245,0.368307,9.73763,14.1474,2.82244,11.0041,14.6703,-5.3088,3.99359,14.7466,18.0831,7.293,5.08818,-6.26116,-8.71124,4.49082,0.751341,-0.196782,62,94,94,95,92,38,69,94,97,94,99,31
-1.46558,10,-0.368285,-1.00173,-14.8932,27.5111,-12.624,0.368285,-0.368285,-1.00173,-14.5927,27.5111,-12.9246,0.368285,9.73797,14.1475,2.82223,11.0043,14.6701,-5.30875,3.99379,14.7466,18.0829,7.29334,5.08836,-6.26153,-8.71095,4.4909,0.751298,-0.196771,62,94,95,95,92,38,69,94,97,94,99,31
-1.46573,10,-0.368264,-1.00167,-14.8932,27.5111,-12.624,0.368264,-0.368264,-1.00167,-14.5927,27.5111,-12.9245,0.368264,9.73831,14.1476,2.82201,11.0045,14.6698,-5.3087,3.99399,14.7467,18.0827,7.29368,5.08854,-6.26192,-8.71066,4.49097,0.751255,-0.19676,62,94,95,95,92,38,69,94,97,94,99,31
-1.46588,10,-0.368243,-1.00161,-14.8932,27.5111,-12.624,0.368243,-0.368243,-1.00161,-14.5927,27.5111,-12.9245,0.368243,9.73866,14.1476,2.82179,11.0047,14.6696,-5.30866,3.99417,14.7467,18.0826,7.29403,5.08872,-6.26234,-8.71039,4.49104,0.751211,-0.196748,62,94,95,95,92,38,69,94,97,94,99,31
-1.46603,10,-0.368223,-1.00156,-14.8932,27.5111,-12.624,0.368223,-0.368223,-1.00156,-14.5928,27.5111,-12.9245,0.368223,9.73901,14.1477,2.82157,11.0049,14.6693,-5.30863,3.99435,14.7468,18.0824,7.29439,5.0889,-6.26277,-8.71012,4.49111,0.751167,-0.196737,62,94,95,95,92,38,69,94,97,94,99,31
-1.46619,10,-0.368202,-1.0015,-14.8932,27.5111,-12.624,0.368202,-0.368202,-1.0015,-14.5928,27.5111,-12.9245,0.368202,9.73936,14.1477,2.82135,11.0052,14.6691,-5.3086,3.99452,14.7468,18.0823,7.29475,5.08908,-6.26322,-8.70985,4.49117,0.751123,-0.196726,62,94,95,95,92,38,69,94,97,94,99,31
-1.46635,10,-0.368181,-1.00144,-14.8932,27.5111,-12.624,0.368181,-0.368181,-1.00144,-14.5928,27.5111,-12.9244,0.368181,9.73972,14.1478,2.82113,11.0054,14.6688,-5.30858,3.99468,14.7469,18.0821,7.29512,5.08925,-6.26369,-8.7096,4.49124,0.751078,-0.196715,62,94,95,95,92,38,69,94,97,94,99,31
-1.46652,10,-0.368161,-1.00138,-14.8932,27.5111,-12.624,0.368161,-0.368161,-1.00138,-14.5928,27.5111,-12.9244,0.368161,9.74008,14.1479,2.82091,11.0056,14.6685,-5.30857,3.99482,14.747,18.082,7.2955,5.08943,-6.26417,-8.70935,4.49129,0.751033,-0.196703,62,94,95,95,92,38,69,94,97,94,99,31
-1.46669,10,-0.36814,-1.00132,-14.8933,27.5112,-12.624,0.36814,-0.36814,-1.00132,-14.5929,27.5112,-12.9244,0.36814,9.74045,14.148,2.82068,11.0058,14.6682,-5.30856,3.99496,14.747,18.0818,7.29587,5.0896,-6.26466,-8.70911,4.49135,0.750987,-0.196692,62,94,95,96,92,38,69,94,97,94,99,31
-1.46686,10,-0.368119,-1.00126,-14.8933,27.5112,-12.624,0.368119,-0.368119,-1.00126,-14.5929,27.5112,-12.9244,0.368119,9.74083,14.148,2.82045,11.006,14.6679,-5.30856,3.99509,14.7471,18.0817,7.29624,5.08977,-6.26517,-8.70888,4.4914,0.750942,-0.196681,62,94,95,96,92,38,69,94,97,94,99,31
-1.46703,10,-0.368098,-1.00119,-14.8933,27.5112,-12.624,0.368098,-0.368098,-1.00119,-14.5929,27.5112,-12.9243,0.368098,9.74121,14.1481,2.82022,11.0062,14.6675,-5.30857,3.99521,14.7472,18.0815,7.29662,5.08994,-6.26569,-8.70866,4.49145,0.750896,-0.196669,62,94,95,96,92,38,69,94,97,94,99,31
-1.4672,10,-0.368077,-1.00113,-14.8933,27.5112,-12.624,0.368077,-0.368077,-1.00113,-14.593,27.5112,-12.9243,0.368077,9.7416,14.1482,2.81998,11.0063,14.6672,-5.30858,3.99531,14.7473,18.0814,7.29698,5.09011,-6.26622,-8.70845,4.49149,0.75085,-0.196658,62,94,95,96,92,38,69,94,97,94,99,31
-1.46738,10,-0.368056,-1.00107,-14.8933,27.5112,-12.624,0.368056,-0.368056,-1.00107,-14.593,27.5112,-12.9243,0.368056,9.74199,14.1483,2.81975,11.0065,14.6668,-5.30859,3.9954,14.7473,18.0812,7.29734,5.09028,-6.26675,-8.70825,4.49154,0.750802,-0.196647,62,94,95,96,92,38,69,94,97,94,99,31
-1.46757,10,-0.368035,-1.00101,-14.8933,27.5112,-12.6239,0.368035,-0.368035,-1.00101,-14.593,27.5112,-12.9242,0.368035,9.74241,14.1484,2.81952,11.0067,14.6665,-5.30861,3.99548,14.7474,18.0811,7.29769,5.09044,-6.26727,-8.70806,4.49157,0.750754,-0.196635,62,94,95,96,92,38,69,94,97,94,99,31
-1.46776,10,-0.368015,-1.00094,-14.8933,27.5112,-12.6239,0.368015,-0.368015,-1.00094,-14.5931,27.5112,-12.9242,0.368015,9.74283,14.1485,2.81929,11.0069,14.6661,-5.30862,3.99555,14.7475,18.081,7.29803,5.09061,-6.2678,-8.70788,4.49161,0.750704,-0.196624,62,94,95,96,92,38,69,94,97,94,99,31
-1.46795,10,-0.367995,-1.00087,-14.8933,27.5111,-12.6239,0.367995,-0.367995,-1.00087,-14.593,27.5111,-12.9242,0.367995,9.74327,14.1486,2.81907,11.0071,14.6657,-5.30864,3.9956,14.7476,18.0809,7.29834,5.09078,-6.26832,-8.7077,4.49164,0.750653,-0.196614,62,94,95,96,92,38,69,94,97,94,99,31
-1.46816,10,-0.367976,-1.0008,-14.8933,27.5111,-12.6239,0.367976,-0.367976,-1.0008,-14.593,27.5111,-12.9241,0.367976,9.74373,14.1487,2.81885,11.0072,14.6653,-5.30865,3.99565,14.7477,18.0807,7.29864,5.09094,-6.26883,-8.70754,4.49167,0.750599,-0.196603,62,94,95,96,92,38,69,94,97,94,99,31
-1.46837,10,-0.367958,-1.00072,-14.8933,27.5111,-12.6239,0.367958,-0.367958,-1.00072,-14.5931,27.5111,-12.9241,0.367958,9.74421,14.1488,2.81864,11.0074,14.6648,-5.30866,3.99568,14.7478,18.0806,7.29892,5.09111,-6.26932,-8.70739,4.49169,0.750543,-0.196593,62,94,95,96,92,38,69,94,97,94,99,31
-1.4686,10,-0.36794,-1.00065,-14.8933,27.5111,-12.6239,0.36794,-0.36794,-1.00065,-14.5931,27.5111,-12.9241,0.36794,9.74471,14.1489,2.81844,11.0075,14.6644,-5.30868,3.99569,14.7479,18.0805,7.29917,5.09128,-6.2698,-8.70724,4.49171,0.750485,-0.196584,62,94,95,96,92,38,69,94,97,94,99,31
-1.46882,10,-0.367923,-1.00057,-14.8933,27.5111,-12.6239,0.367923,-0.367923,-1.00057,-14.5931,27.5111,-12.924,0.367923,9.74522,14.149,2.81825,11.0077,14.6639,-5.30868,3.9957,14.7481,18.0804,7.2994,5.09145,-6.27026,-8.70711,4.49173,0.750425,-0.196575,62,94,95,96,92,38,69,94,97,94,99,31
-1.46904,10,-0.367907,-1.00049,-14.8933,27.5111,-12.6238,0.367907,-0.367907,-1.00049,-14.5932,27.5111,-12.924,0.367907,9.74574,14.149,2.81807,11.0078,14.6634,-5.30869,3.99569,14.7482,18.0804,7.29958,5.09161,-6.27071,-8.70698,4.49175,0.750365,-0.196566,62,94,95,96,92,38,69,94,97,94,99,31
-1.46926,10,-0.367891,-1.0004,-14.8933,27.5111,-12.6238,0.367891,-0.367891,-1.0004,-14.5932,27.5111,-12.9239,0.367891,9.74628,14.1491,2.8179,11.008,14.6628,-5.30869,3.99567,14.7483,18.0803,7.29973,5.09178,-6.27115,-8.70686,4.49177,0.750303,-0.196557,62,94,95,96,92,38,69,94,97,94,99,31
-1.46948,10,-0.367876,-1.00032,-14.8931,27.5109,-12.6238,0.367876,-0.367876,-1.00032,-14.593,27.5109,-12.9238,0.367876,9.74682,14.1492,2.81774,11.0081,14.6623,-5.30868,3.99563,14.7484,18.0802,7.29983,5.09194,-6.27157,-8.70676,4.49178,0.750241,-0.196549,62,94,95,95,92,38,69,94,97,94,99,31
-1.46969,10,-0.367861,-1.00024,-14.8931,27.5109,-12.6237,0.367861,-0.367861,-1.00024,-14.593,27.5109,-12.9238,0.367861,9.74737,14.1493,2.8176,11.0082,14.6617,-5.30867,3.99558,14.7486,18.0801,7.29989,5.09211,-6.27198,-8.70666,4.4918,0.750178,-0.196541,62,94,95,95,92,38,69,94,97,94,99,31
-1.46988,10,-0.367846,-1.00015,-14.8931,27.5109,-12.6237,0.367846,-0.367846,-1.00015,-14.5931,27.5109,-12.9238,0.367846,9.74792,14.1494,2.81747,11.0084,14.6611,-5.30865,3.99551,14.7487,18.08,7.2999,5.09227,-6.27237,-8.70656,4.49183,0.750116,-0.196533,62,94,95,95,92,38,69,94,97,94,99,31
-1.47007,10,-0.367832,-1.00007,-14.8931,27.5109,-12.6237,0.367832,-0.367832,-1.00007,-14.5931,27.5109,-12.9237,0.367832,9.74848,14.1494,2.81736,11.0085,14.6605,-5.30862,3.99543,14.7488,18.08,7.29986,5.09243,-6.27274,-8.70648,4.49185,0.750053,-0.196525,62,94,95,95,92,38,69,94,97,94,99,31
-1.47025,10,-0.367819,-0.999986,-14.8931,27.5109,-12.6237,0.367819,-0.367819,-0.999986,-14.5931,27.5109,-12.9237,0.367819,9.74904,14.1495,2.81727,11.0086,14.6599,-5.30859,3.99533,14.749,18.0799,7.29977,5.09259,-6.2731,-8.7064,4.49187,0.749989,-0.196518,62,94,95,95,92,38,69,94,97,94,99,31
-1.47041,10,-0.367807,-0.9999,-14.8931,27.5109,-12.6237,0.367807,-0.367807,-0.9999,-14.5932,27.5109,-12.9236,0.367807,9.74962,14.1496,2.81718,11.0088,14.6592,-5.30856,3.99524,14.7491,18.0798,7.29963,5.09275,-6.27343,-8.70634,4.4919,0.749925,-0.196511,62,94,95,95,92,38,69,94,97,94,99,31
-1.47057,10,-0.367795,-0.999814,-14.8932,27.5109,-12.6237,0.367795,-0.367795,-0.999814,-14.5932,27.5109,-12.9236,0.367795,9.7502,14.1496,2.81712,11.0089,14.6586,-5.30852,3.99513,14.7493,18.0798,7.29943,5.09291,-6.27373,-8.70628,4.49192,0.749861,-0.196505,62,94,95,95,92,38,69,94,97,94,99,31
-1.47071,10,-0.367785,-0.999727,-14.893,27.5108,-12.6236,0.367785,-0.367785,-0.999727,-14.5931,27.5108,-12.9235,0.367785,9.75079,14.1497,2.81706,11.009,14.6579,-5.30847,3.99503,14.7494,18.0797,7.29918,5.09306,-6.27401,-8.70622,4.49194,0.749795,-0.1965,62,94,95,95,92,38,69,94,97,94,99,31
-1.47084,10,-0.367776,-0.999639,-14.893,27.5108,-12.6236,0.367776,-0.367776,-0.999639,-14.5931,27.5108,-12.9235,0.367776,9.7514,14.1497,2.81703,11.0091,14.6572,-5.30842,3.99492,14.7496,18.0796,7.29887,5.09322,-6.27425,-8.70618,4.49196,0.749729,-0.196495,62,94,95,95,92,38,69,94,97,94,99,31
-1.47095,10,-0.367769,-0.99955,-14.8931,27.5108,-12.6236,0.367769,-0.367769,-0.99955,-14.5932,27.5108,-12.9234,0.367769,9.75201,14.1498,2.817,11.0092,14.6564,-5.30837,3.99481,14.7498,18.0796,7.2985,5.09337,-6.27446,-8.70614,4.49198,0.749662,-0.196491,62,94,95,95,92,38,69,94,97,94,99,31
-1.47105,10,-0.367763,-0.999459,-14.8931,27.5108,-12.6236,0.367763,-0.367763,-0.999459,-14.5932,27.5108,-12.9234,0.367763,9.75264,14.1498,2.817,11.0093,14.6557,-5.30832,3.99471,14.7499,18.0795,7.29808,5.09353,-6.27465,-8.70611,4.492,0.749594,-0.196488,62,94,95,95,92,38,69,94,97,94,99,31
-1.47114,10,-0.367758,-0.999368,-14.8931,27.5108,-12.6235,0.367758,-0.367758,-0.999368,-14.5933,27.5108,-12.9233,0.367758,9.75327,14.1498,2.817,11.0094,14.6549,-5.30826,3.99461,14.7501,18.0795,7.2976,5.09368,-6.2748,-8.70609,4.49201,0.749526,-0.196485,62,94,95,95,92,38,69,94,97,94,99,31
-1.47122,10,-0.367755,-0.999276,-14.8931,27.5108,-12.6235,0.367755,-0.367755,-0.999276,-14.5933,27.5108,-12.9233,0.367755,9.75392,14.1498,2.81702,11.0095,14.6542,-5.3082,3.99451,14.7503,18.0794,7.29707,5.09383,-6.27492,-8.70607,4.49202,0.749457,-0.196484,62,94,95,95,92,38,69,94,97,94,99,31
-1.47128,10,-0.367753,-0.999183,-14.8931,27.5108,-12.6235,0.367753,-0.367753,-0.999183,-14.5934,27.5108,-12.9232,0.367753,9.75457,14.1497,2.81705,11.0096,14.6534,-5.30813,3.99441,14.7505,18.0794,7.2965,5.09398,-6.27501,-8.70607,4.49203,0.749387,-0.196483,62,94,95,95,92,38,69,94,97,94,99,31
-1.47134,10,-0.367753,-0.999089,-14.8933,27.5109,-12.6235,0.367753,-0.367753,-0.999089,-14.5936,27.5109,-12.9232,0.367753,9.75523,14.1497,2.81708,11.0097,14.6526,-5.30807,3.99432,14.7507,18.0793,7.29589,5.09413,-6.27507,-8.70607,4.49204,0.749317,-0.196482,62,94,95,95,92,38,69,94,97,94,99,31
-1.47138,10,-0.367753,-0.998995,-14.8933,27.5109,-12.6235,0.367753,-0.367753,-0.998995,-14.5936,27.5109,-12.9232,0.367753,9.7559,14.1496,2.81713,11.0098,14.6519,-5.30799,3.99423,14.7509,18.0793,7.29523,5.09428,-6.27511,-8.70608,4.49205,0.749246,-0.196483,62,94,95,95,92,38,69,94,97,94,99,31
-1.47141,10,-0.367755,-0.9989,-14.8934,27.5109,-12.6235,0.367755,-0.367755,-0.9989,-14.5937,27.5109,-12.9231,0.367755,9.75658,14.1496,2.81718,11.0099,14.6511,-5.30791,3.99415,14.7511,18.0793,7.29454,5.09442,-6.27512,-8.70609,4.49206,0.749175,-0.196484,62,94,95,95,92,38,69,94,97,94,99,31
-1.47144,10,-0.367759,-0.998805,-14.8934,27.5109,-12.6234,0.367759,-0.367759,-0.998805,-14.5937,27.5109,-12.9231,0.367759,9.75726,14.1495,2.81724,11.0099,14.6503,-5.30783,3.99408,14.7513,18.0792,7.29381,5.09456,-6.2751,-8.70612,4.49207,0.749104,-0.196486,62,94,95,95,92,38,69,94,97,94,99,31
-1.47145,10,-0.367763,-0.99871,-14.8934,27.5109,-12.6234,0.367763,-0.367763,-0.99871,-14.5938,27.5109,-12.923,0.367763,9.75794,14.1494,2.81731,11.01,14.6495,-5.30775,3.99401,14.7515,18.0792,7.29305,5.0947,-6.27506,-8.70615,4.49207,0.749032,-0.196488,62,94,95,95,92,38,69,94,97,94,99,31
-1.47145,10,-0.367769,-0.998615,-14.8934,27.5109,-12.6234,0.367769,-0.367769,-0.998615,-14.5938,27.5109,-12.923,0.367769,9.75863,14.1494,2.81739,11.0101,14.6488,-5.30766,3.99394,14.7517,18.0792,7.29226,5.09484,-6.27499,-8.70618,4.49208,0.748961,-0.196491,62,94,95,95,92,38,69,94,97,94,99,31
-1.47145,10,-0.367776,-0.998519,-14.8934,27.5109,-12.6234,0.367776,-0.367776,-0.998519,-14.5939,27.5109,-12.9229,0.367776,9.75932,14.1493,2.81748,11.0101,14.648,-5.30758,3.99388,14.7519,18.0792,7.29145,5.09497,-6.2749,-8.70622,4.49209,0.74889,-0.196495,62,94,95,95,92,38,69,94,97,94,99,31
-1.47144,10,-0.367784,-0.998424,-14.8935,27.5109,-12.6234,0.367784,-0.367784,-0.998424,-14.5939,27.5109,-12.9229,0.367784,9.76001,14.1492,2.81757,11.0102,14.6472,-5.30749,3.99383,14.7521,18.0792,7.2906,5.09511,-6.27479,-8.70627,4.4921,0.748818,-0.196499,62,94,95,95,92,38,69,94,97,94,99,31
-1.47142,10,-0.367793,-0.99833,-14.8935,27.5109,-12.6233,0.367793,-0.367793,-0.99833,-14.594,27.5109,-12.9228,0.367793,9.7607,14.1491,2.81767,11.0103,14.6465,-5.3074,3.99378,14.7524,18.0791,7.28974,5.09524,-6.27465,-8.70631,4.4921,0.748748,-0.196504,62,94,95,95,92,38,69,94,97,94,99,31
-1.4714,10,-0.367803,-0.998237,-14.8935,27.5109,-12.6233,0.367803,-0.367803,-0.998237,-14.594,27.5109,-12.9228,0.367803,9.76139,14.1489,2.81778,11.0103,14.6457,-5.30731,3.99374,14.7526,18.0791,7.28885,5.09536,-6.27448,-8.70637,4.49211,0.748677,-0.19651,62,94,95,95,92,38,69,94,97,94,99,31
-1.47136,10,-0.367814,-0.998143,-14.8935,27.5109,-12.6233,0.367814,-0.367814,-0.998143,-14.5941,27.5109,-12.9227,0.367814,9.76208,14.1488,2.8179,11.0104,14.645,-5.30722,3.99371,14.7528,18.0791,7.28794,5.09549,-6.2743,-8.70642,4.49212,0.748608,-0.196516,62,94,95,95,92,38,69,94,97,94,99,31
-1.47132,10,-0.367826,-0.998051,-14.8936,27.5109,-12.6233,0.367826,-0.367826,-0.998051,-14.5941,27.5109,-12.9227,0.367826,9.76277,14.1487,2.81802,11.0105,14.6442,-5.30713,3.99368,14.753,18.0791,7.28702,5.09562,-6.27409,-8.70648,4.49213,0.748538,-0.196522,62,94,95,95,92,38,69,94,97,94,99,31
-1.47127,10,-0.36784,-0.997958,-14.8936,27.5109,-12.6232,0.36784,-0.36784,-0.997958,-14.5942,27.5109,-12.9226,0.36784,9.76346,14.1486,2.81814,11.0105,14.6435,-5.30704,3.99366,14.7533,18.0791,7.28609,5.09575,-6.27388,-8.70654,4.49214,0.748468,-0.19653,62,94,95,95,92,38,69,94,97,94,99,31
-1.4712,10,-0.367856,-0.997865,-14.8936,27.5109,-12.6232,0.367856,-0.367856,-0.997865,-14.5942,27.5109,-12.9226,0.367856,9.76416,14.1484,2.81826,11.0106,14.6428,-5.30695,3.99364,14.7535,18.0792,7.28515,5.09588,-6.27365,-8.70659,4.49216,0.748399,-0.196538,62,94,95,95,92,38,69,94,97,94,99,31
-1.47113,10,-0.367873,-0.997773,-14.8939,27.5111,-12.6233,0.367873,-0.367873,-0.997773,-14.5946,27.5111,-12.9226,0.367873,9.76487,14.1483,2.81837,11.0107,14.642,-5.30685,3.99363,14.7537,18.0792,7.28421,5.09601,-6.27341,-8.70665,4.49218,0.74833,-0.196548,62,94,95,95,92,38,69,94,97,94,99,31
-1.47103,10,-0.367893,-0.99768,-14.8939,27.5111,-12.6232,0.367893,-0.367893,-0.99768,-14.5946,27.5111,-12.9225,0.367893,9.76558,14.1481,2.81847,11.0108,14.6413,-5.30675,3.99363,14.754,18.0793,7.28327,5.09615,-6.27317,-8.7067,4.49221,0.74826,-0.196558,62,94,95,95,92,38,69,94,97,94,99,31
-1.47092,10,-0.367915,-0.997586,-14.894,27.5111,-12.6232,0.367915,-0.367915,-0.997586,-14.5947,27.5111,-12.9225,0.367915,9.76631,14.1479,2.81855,11.0109,14.6407,-5.30665,3.99363,14.7542,18.0793,7.28233,5.0963,-6.27292,-8.70675,4.49225,0.74819,-0.19657,62,94,95,95,92,38,69,94,97,94,99,31
-1.47079,10,-0.367939,-0.997493,-14.894,27.5111,-12.6232,0.367939,-0.367939,-0.997493,-14.5947,27.5111,-12.9224,0.367939,9.76704,14.1477,2.81863,11.011,14.64,-5.30655,3.99364,14.7545,18.0794,7.2814,5.09645,-6.27267,-8.7068,4.4923,0.74812,-0.196583,62,94,95,95,92,38,69,94,97,94,99,31
-1.47065,10,-0.367964,-0.9974,-14.894,27.5111,-12.6232,0.367964,-0.367964,-0.9974,-14.5948,27.5111,-12.9224,0.367964,9.76777,14.1475,2.81869,11.0111,14.6393,-5.30645,3.99365,14.7548,18.0795,7.28047,5.09661,-6.27241,-8.70684,4.49235,0.74805,-0.196597,62,94,95,95,92,38,69,94,97,94,99,31
-1.4705,10,-0.367991,-0.997307,-14.894,27.5111,-12.6231,0.367991,-0.367991,-0.997307,-14.5949,27.5111,-12.9223,0.367991,9.76851,14.1473,2.81875,11.0113,14.6387,-5.30634,3.99366,14.755,18.0796,7.27955,5.09677,-6.27216,-8.70688,4.49241,0.74798,-0.196611,62,94,95,95,92,38,69,94,97,94,99,31
-1.47035,10,-0.368018,-0.997215,-14.8941,27.5111,-12.6231,0.368018,-0.368018,-0.997215,-14.5949,27.5111,-12.9223,0.368018,9.76924,14.1471,2.81881,11.0114,14.638,-5.30623,3.99368,14.7553,18.0797,7.27863,5.09693,-6.27189,-8.70692,4.49247,0.747911,-0.196626,62,94,95,95,92,38,69,94,97,94,99,31
-1.47019,10,-0.368047,-0.997124,-14.8943,27.5112,-12.6231,0.368047,-0.368047,-0.997124,-14.5951,27.5112,-12.9223,0.368047,9.76997,14.1469,2.81886,11.0115,14.6374,-5.30612,3.9937,14.7556,18.0798,7.27773,5.09709,-6.27163,-8.70697,4.49254,0.747843,-0.196642,62,94,95,95,92,38,69,94,97,94,99,31
-1.47002,10,-0.368075,-0.997034,-14.8943,27.5112,-12.6231,0.368075,-0.368075,-0.997034,-14.5952,27.5112,-12.9222,0.368075,9.7707,14.1467,2.8189,11.0117,14.6368,-5.30601,3.99372,14.7559,18.0799,7.27683,5.09726,-6.27136,-8.707,4.4926,0.747775,-0.196657,62,94,95,95,92,38,69,94,97,94,99,31
-1.46986,10,-0.368105,-0.996945,-14.8943,27.5112,-12.6231,0.368105,-0.368105,-0.996945,-14.5952,27.5112,-12.9221,0.368105,9.77141,14.1465,2.81895,11.0118,14.6362,-5.3059,3.99375,14.7561,18.08,7.27594,5.09742,-6.27109,-8.70704,4.49267,0.747708,-0.196673,62,94,95,95,92,38,69,94,97,94,99,31
-1.46969,10,-0.368135,-0.996857,-14.8943,27.5112,-12.623,0.368135,-0.368135,-0.996857,-14.5953,27.5112,-12.9221,0.368135,9.77212,14.1463,2.81899,11.012,14.6356,-5.30579,3.99377,14.7564,18.0801,7.27506,5.09758,-6.27082,-8.70708,4.49274,0.747643,-0.196689,62,94,95,95,92,38,69,94,97,94,99,31
-1.46952,10,-0.368165,-0.99677,-14.8944,27.5112,-12.623,0.368165,-0.368165,-0.99677,-14.5953,27.5112,-12.922,0.368165,9.77282,14.1461,2.81903,11.0121,14.635,-5.30567,3.9938,14.7567,18.0802,7.27419,5.09775,-6.27055,-8.70712,4.49282,0.747578,-0.196706,62,94,95,95,92,38,69,94,97,94,99,31
-1.46934,10,-0.368195,-0.996685,-14.8944,27.5112,-12.623,0.368195,-0.368195,-0.996685,-14.5954,27.5112,-12.922,0.368195,9.77352,14.1459,2.81906,11.0123,14.6344,-5.30556,3.99383,14.7569,18.0803,7.27334,5.09791,-6.27029,-8.70715,4.49289,0.747514,-0.196722,62,94,95,95,92,38,69,94,97,94,99,31
-1.46916,10,-0.368227,-0.9966,-14.8944,27.5112,-12.623,0.368227,-0.368227,-0.9966,-14.5954,27.5112,-12.9219,0.368227,9.77421,14.1457,2.81908,11.0124,14.6339,-5.30545,3.99386,14.7572,18.0805,7.27251,5.09807,-6.27003,-8.70718,4.49297,0.74745,-0.196739,62,94,95,95,92,38,69,94,97,94,99,31
-1.46897,10,-0.368258,-0.996517,-14.8946,27.5113,-12.623,0.368258,-0.368258,-0.996517,-14.5957,27.5113,-12.9219,0.368258,9.77489,14.1455,2.81909,11.0126,14.6334,-5.30534,3.9939,14.7575,18.0806,7.27169,5.09824,-6.26977,-8.70721,4.49305,0.747388,-0.196756,62,94,95,95,92,38,69,94,97,94,99,31
-1.46878,10,-0.368289,-0.996435,-14.8946,27.5113,-12.6229,0.368289,-0.368289,-0.996435,-14.5957,27.5113,-12.9219,0.368289,9.77558,14.1453,2.8191,11.0127,14.6328,-5.30524,3.99394,14.7577,18.0807,7.27089,5.0984,-6.26952,-8.70724,4.49314,0.747326,-0.196773,62,94,95,95,92,38,69,94,97,94,99,31
-1.46859,10,-0.368321,-0.996353,-14.8947,27.5113,-12.6229,0.368321,-0.368321,-0.996353,-14.5958,27.5113,-12.9218,0.368321,9.77625,14.1451,2.8191,11.0129,14.6323,-5.30513,3.99398,14.758,18.0809,7.2701,5.09855,-6.26927,-8.70727,4.49323,0.747265,-0.19679,62,94,95,95,92,38,69,94,97,94,99,31
