565950964-design/kaipule_sdk/control/csv_file/wanmei.csv
Head_1,Head_2,Joint_1,Joint_2,Joint_3,Joint_4,Joint_5,Joint_6,Joint_7,Joint_8,Joint_9,Joint_10,Joint_11,Joint_12,Joint_13,Joint_14,Joint_15,Joint_16,Joint_17,Joint_18,Joint_19,Joint_20,Joint_21,Joint_22,Joint_23,Joint_24,Joint_25,Joint_26,Joint_27,Joint_28,Finger_1,Finger_2,Finger_3,Finger_4,Finger_5,Finger_6,Finger_7,Finger_8,Finger_9,Finger_10,Finger_11,Finger_12
5.70461,10,0.0734055,-1.38735,-14.8107,27.7676,-13.1339,-0.0734055,0.0734055,-1.38735,-14.3945,27.7676,-13.5501,-0.0734055,1.66002,19.8004,8.77814,5,-6.64509,-5.25211,-3.36147,3.68626,18.755,14.48,5,1.18098,-11.3394,1.62288,0.303936,0.0522677,90,95,95,97,100,10,76,100,98,94,97,24
5.69547,10,0.0737051,-1.38677,-14.8116,27.7676,-13.133,-0.0737051,0.0737051,-1.38677,-14.3956,27.7676,-13.549,-0.0737051,1.67426,19.8373,8.76992,5,-6.6318,-5.26438,-3.36213,3.69758,18.7888,14.4689,5,1.17372,-11.3417,1.62072,0.303498,0.0524268,90,95,95,97,100,10,76,100,98,94,97,24
5.68563,10,0.0740054,-1.38611,-14.8126,27.7676,-13.132,-0.0740054,0.0740054,-1.38611,-14.3967,27.7676,-13.5479,-0.0740054,1.68935,19.8762,8.76107,5,-6.61767,-5.27737,-3.36287,3.70937,18.8245,14.4572,5,1.16594,-11.3442,1.61842,0.303003,0.0525864,90,95,95,97,100,10,76,100,98,94,97,24
5.67518,10,0.0743055,-1.38538,-14.8136,27.7676,-13.131,-0.0743055,0.0743055,-1.38538,-14.398,27.7676,-13.5466,-0.0743055,1.70518,19.9168,8.75167,5,-6.60283,-5.29099,-3.36368,3.72157,18.8619,14.4451,5,1.15769,-11.3468,1.61602,0.302459,0.0527459,90,95,95,97,100,10,76,100,98,94,97,24
5.66419,10,0.074605,-1.3846,-14.8146,27.7676,-13.13,-0.074605,0.074605,-1.3846,-14.3992,27.7676,-13.5453,-0.074605,1.72165,19.9588,8.7418,5,-6.58739,-5.30513,-3.36455,3.73412,18.9007,14.4326,5,1.14905,-11.3495,1.61351,0.301871,0.052905,90,95,95,97,100,10,76,100,98,94,97,24
5.65275,10,0.074903,-1.38376,-14.8157,27.7676,-13.1289,-0.074903,0.074903,-1.38376,-14.4006,27.7676,-13.544,-0.074903,1.73865,20.002,8.73153,5,-6.57143,-5.31973,-3.36546,3.74694,18.9407,14.4197,5,1.14007,-11.3522,1.61092,0.301244,0.0530633,90,95,95,97,100,10,76,100,98,94,97,24
5.64092,10,0.075199,-1.38288,-14.8168,27.7676,-13.1278,-0.075199,0.075199,-1.38288,-14.4019,27.7676,-13.5427,-0.075199,1.7561,20.0462,8.72093,5,-6.55505,-5.3347,-3.36642,3.75999,18.9818,14.4065,5,1.1308,-11.355,1.60826,0.300584,0.0532206,90,95,95,97,100,10,76,100,98,94,97,24
5.62878,10,0.0754925,-1.38196,-14.8177,27.7674,-13.1267,-0.0754925,0.0754925,-1.38196,-14.4031,27.7674,-13.5413,-0.0754925,1.7739,20.0912,8.71006,5,-6.53835,-5.34997,-3.36742,3.77321,19.0237,14.3932,5,1.12129,-11.3578,1.60555,0.299896,0.0533765,90,95,95,96,100,10,76,100,98,94,97,24
5.6164,10,0.0757826,-1.38102,-14.8188,27.7674,-13.1255,-0.0757826,0.0757826,-1.38102,-14.4045,27.7674,-13.5399,-0.0757826,1.79198,20.1367,8.69898,5,-6.52141,-5.36545,-3.36845,3.78654,19.0661,14.3797,5,1.1116,-11.3607,1.60279,0.299185,0.0535307,90,95,95,96,100,10,76,100,98,94,97,24
5.60383,10,0.0760692,-1.38004,-14.8199,27.7674,-13.1244,-0.0760692,0.0760692,-1.38004,-14.4059,27.7674,-13.5384,-0.0760692,1.81025,20.1827,8.68775,5,-6.5043,-5.38109,-3.3695,3.79994,19.1091,14.366,5,1.10175,-11.3636,1.59999,0.298453,0.053683,90,95,95,96,100,10,76,100,98,94,97,24
5.5911,10,0.0763521,-1.37904,-14.821,27.7674,-13.1233,-0.0763521,0.0763521,-1.37904,-14.4073,27.7674,-13.537,-0.0763521,1.82867,20.229,8.67641,5,-6.48707,-5.39685,-3.37057,3.81338,19.1523,14.3523,5,1.0918,-11.3665,1.59717,0.297706,0.0538333,90,95,95,96,100,10,76,100,98,94,97,24
5.57826,10,0.0766311,-1.37803,-14.8222,27.7674,-13.1222,-0.0766311,0.0766311,-1.37803,-14.4088,27.7674,-13.5356,-0.0766311,1.84718,20.2754,8.66498,5,-6.46977,-5.41267,-3.37167,3.82682,19.1958,14.3386,5,1.08177,-11.3694,1.59433,0.296945,0.0539815,90,95,95,96,100,10,76,100,98,94,97,24
5.56534,10,0.076906,-1.377,-14.8233,27.7674,-13.1211,-0.076906,0.076906,-1.377,-14.4102,27.7674,-13.5342,-0.076906,1.86573,20.3219,8.65351,5,-6.45245,-5.42853,-3.37278,3.84023,19.2393,14.3248,5,1.07169,-11.3723,1.59148,0.296175,0.0541276,90,95,95,96,100,10,76,100,98,94,97,24
5.55238,10,0.0771767,-1.37597,-14.8244,27.7674,-13.1199,-0.0771767,0.0771767,-1.37597,-14.4116,27.7674,-13.5327,-0.0771767,1.88427,20.3683,8.64203,5,-6.43515,-5.44438,-3.3739,3.8536,19.2829,14.311,5,1.06159,-11.3752,1.58862,0.295399,0.0542715,90,95,95,96,100,10,76,100,98,94,97,24
5.5394,10,0.0774432,-1.37493,-14.8255,27.7674,-13.1188,-0.0774432,0.0774432,-1.37493,-14.4131,27.7674,-13.5313,-0.0774432,1.90276,20.4146,8.63057,5,-6.41792,-5.46018,-3.37503,3.86688,19.3263,14.2973,5,1.0515,-11.3781,1.58575,0.294618,0.054413,90,96,95,96,100,10,76,100,98,94,97,24
5.52644,10,0.0777051,-1.37388,-14.8266,27.7674,-13.1177,-0.0777051,0.0777051,-1.37388,-14.4145,27.7674,-13.5299,-0.0777051,1.92115,20.4605,8.61917,5,-6.40082,-5.47589,-3.37618,3.88006,19.3695,14.2836,5,1.04144,-11.381,1.58289,0.293837,0.0545522,90,96,95,96,100,10,76,100,98,94,97,24
5.51352,10,0.0779625,-1.37284,-14.8277,27.7674,-13.1166,-0.0779625,0.0779625,-1.37284,-14.4159,27.7674,-13.5285,-0.0779625,1.93941,20.5062,8.60784,5,-6.38385,-5.49149,-3.37732,3.89312,19.4124,14.2701,5,1.03143,-11.3838,1.58004,0.293056,0.054689,90,96,95,96,100,10,76,100,98,94,97,24
5.50067,10,0.0782153,-1.37181,-14.8288,27.7674,-13.1155,-0.0782153,0.0782153,-1.37181,-14.4173,27.7674,-13.5271,-0.0782153,1.95751,20.5515,8.5966,5,-6.36704,-5.50695,-3.37847,3.90603,19.455,14.2566,5,1.0215,-11.3866,1.5772,0.292278,0.0548233,90,96,95,96,100,10,76,100,98,94,97,24
5.48789,10,0.0784635,-1.37077,-14.8299,27.7674,-13.1145,-0.0784635,0.0784635,-1.37077,-14.4187,27.7674,-13.5257,-0.0784635,1.97543,20.5963,8.58546,5,-6.3504,-5.52227,-3.37963,3.9188,19.4972,14.2432,5,1.01165,-11.3894,1.57437,0.291504,0.0549553,90,96,95,96,100,10,76,100,98,94,97,24
5.47521,10,0.0787072,-1.36975,-14.831,27.7674,-13.1134,-0.0787072,0.0787072,-1.36975,-14.42,27.7674,-13.5243,-0.0787072,1.99315,20.6406,8.57443,5,-6.33395,-5.53742,-3.38079,3.93139,19.5389,14.23,5,1.00191,-11.3921,1.57157,0.290737,0.0550847,90,96,95,96,100,10,76,100,98,94,97,24
5.46265,10,0.0789462,-1.36874,-14.832,27.7674,-13.1124,-0.0789462,0.0789462,-1.36874,-14.4214,27.7674,-13.523,-0.0789462,2.01065,20.6844,8.56353,5,-6.31769,-5.55238,-3.38195,3.94382,19.5802,14.2169,5,0.992274,-11.3948,1.56878,0.289976,0.0552118,90,96,95,96,100,10,76,100,98,94,97,24
5.45022,10,0.0791806,-1.36773,-14.8327,27.7672,-13.1113,-0.0791806,0.0791806,-1.36773,-14.4224,27.7672,-13.5216,-0.0791806,2.0279,20.7276,8.55277,5,-6.30164,-5.56714,-3.38311,3.95606,19.6209,14.2039,5,0.982769,-11.3975,1.56602,0.289224,0.0553363,90,96,95,96,100,10,76,100,98,94,97,24
5.43793,10,0.0794112,-1.36675,-14.8337,27.7672,-13.1102,-0.0794112,0.0794112,-1.36675,-14.4237,27.7672,-13.5203,-0.0794112,2.04488,20.7702,8.54216,5,-6.28579,-5.58169,-3.38427,3.9681,19.661,14.1912,5,0.973413,-11.4001,1.5633,0.288483,0.0554589,90,96,95,96,100,10,76,100,98,94,97,24
5.42581,10,0.0796376,-1.36577,-14.8347,27.7672,-13.1093,-0.0796376,0.0796376,-1.36577,-14.425,27.7672,-13.519,-0.0796376,2.06158,20.8121,8.53171,5,-6.27015,-5.59601,-3.38544,3.97994,19.7005,14.1786,5,0.964209,-11.4026,1.5606,0.287755,0.0555792,90,96,95,96,100,10,76,100,98,94,97,24
5.41384,10,0.0798595,-1.36482,-14.8357,27.7672,-13.1083,-0.0798595,0.0798595,-1.36482,-14.4263,27.7672,-13.5177,-0.0798595,2.078,20.8533,8.52142,5,-6.25475,-5.6101,-3.38661,3.99158,19.7393,14.1662,5,0.955159,-11.4052,1.55793,0.287037,0.0556971,90,96,95,96,100,10,76,100,98,94,97,24
5.40206,10,0.0800765,-1.36388,-14.8367,27.7672,-13.1073,-0.0800765,0.0800765,-1.36388,-14.4275,27.7672,-13.5165,-0.0800765,2.09413,20.8938,8.51129,5,-6.2396,-5.62395,-3.38777,4.003,19.7775,14.1539,5,0.946265,-11.4077,1.55531,0.286331,0.0558124,90,96,95,96,100,10,76,100,98,94,97,24
5.39046,10,0.0802886,-1.36295,-14.8376,27.7672,-13.1064,-0.0802886,0.0802886,-1.36295,-14.4287,27.7672,-13.5153,-0.0802886,2.10997,20.9336,8.50134,5,-6.2247,-5.63756,-3.38893,4.01421,19.8151,14.1419,5,0.937529,-11.4101,1.55271,0.285636,0.0559251,90,96,95,96,100,10,76,100,98,94,97,24
5.37905,10,0.0804957,-1.36204,-14.8385,27.7672,-13.1054,-0.0804957,0.0804957,-1.36204,-14.4299,27.7672,-13.5141,-0.0804957,2.1255,20.9726,8.49156,5,-6.21008,-5.65091,-3.39007,4.02519,19.8519,14.1301,5,0.928955,-11.4125,1.55016,0.284953,0.0560352,90,96,95,96,100,10,76,100,98,94,97,24
5.36784,10,0.0806976,-1.36114,-14.8392,27.767,-13.1045,-0.0806976,0.0806976,-1.36114,-14.4309,27.767,-13.5128,-0.0806976,2.14074,21.0109,8.48196,5,-6.19573,-5.664,-3.39121,4.03594,19.8881,14.1185,5,0.920544,-11.4149,1.54765,0.284281,0.0561425,90,96,95,96,100,10,75,100,98,94,97,25
5.35684,10,0.0808931,-1.36026,-14.8401,27.767,-13.1036,-0.0808931,0.0808931,-1.36026,-14.432,27.767,-13.5117,-0.0808931,2.15567,21.0484,8.47254,5,-6.18171,-5.67683,-3.39232,4.04646,19.9235,14.1071,5,0.912284,-11.4172,1.54517,0.283619,0.0562464,90,96,95,96,100,10,75,100,98,94,97,25
5.34605,10,0.0810829,-1.35939,-14.841,27.767,-13.1027,-0.0810829,0.0810829,-1.35939,-14.4332,27.767,-13.5106,-0.0810829,2.17029,21.0851,8.46331,5,-6.16799,-5.68939,-3.39342,4.05674,19.9582,14.0959,5,0.904185,-11.4194,1.54274,0.282967,0.0563472,90,96,95,96,100,10,75,100,98,94,97,25
5.33548,10,0.0812677,-1.35854,-14.8418,27.767,-13.1019,-0.0812677,0.0812677,-1.35854,-14.4343,27.767,-13.5095,-0.0812677,2.1846,21.1211,8.45426,5,-6.15456,-5.70168,-3.3945,4.06679,19.9922,14.085,5,0.896254,-11.4216,1.54035,0.282328,0.0564455,90,96,95,96,100,10,75,100,98,94,97,25
5.32512,10,0.0814482,-1.3577,-14.8427,27.767,-13.1011,-0.0814482,0.0814482,-1.3577,-14.4354,27.767,-13.5084,-0.0814482,2.1986,21.1562,8.44541,5,-6.14141,-5.71371,-3.39557,4.07661,20.0254,14.0742,5,0.888497,-11.4237,1.53801,0.281702,0.0565414,90,96,95,96,100,10,75,100,98,94,97,25
5.31496,10,0.081625,-1.35689,-14.8435,27.767,-13.1003,-0.081625,0.081625,-1.35689,-14.4364,27.767,-13.5073,-0.081625,2.21228,21.1906,8.43675,5,-6.12851,-5.72548,-3.39662,4.08622,20.0579,14.0637,5,0.88092,-11.4259,1.53572,0.281091,0.0566353,90,96,95,96,100,10,75,100,98,94,97,25
5.30502,10,0.0817986,-1.3561,-14.8443,27.767,-13.0995,-0.0817986,0.0817986,-1.3561,-14.4374,27.767,-13.5063,-0.0817986,2.22564,21.2243,8.42828,5,-6.11588,-5.73698,-3.39766,4.09562,20.0897,14.0535,5,0.873525,-11.4279,1.53348,0.280496,0.0567276,90,96,95,96,100,10,75,100,98,94,97,25
5.29529,10,0.0819694,-1.35533,-14.8451,27.7671,-13.0987,-0.0819694,0.0819694,-1.35533,-14.4385,27.7671,-13.5053,-0.0819694,2.23869,21.2572,8.42001,5,-6.10348,-5.74823,-3.3987,4.10481,20.1208,14.0434,5,0.866316,-11.4299,1.53129,0.279918,0.0568184,90,96,95,96,100,10,75,100,98,94,97,25
5.28577,10,0.082138,-1.35458,-14.8459,27.7671,-13.098,-0.082138,0.082138,-1.35458,-14.4395,27.7671,-13.5043,-0.082138,2.25141,21.2893,8.41192,5,-6.0913,-5.75923,-3.39972,4.1138,20.1511,14.0336,5,0.859309,-11.4319,1.52915,0.279359,0.056908,90,96,95,96,100,10,75,100,98,94,97,25
5.27646,10,0.0823046,-1.35386,-14.8466,27.7671,-13.0972,-0.0823046,0.0823046,-1.35386,-14.4405,27.7671,-13.5034,-0.0823046,2.26381,21.3207,8.40404,5,-6.07934,-5.76997,-3.40075,4.1226,20.1808,14.024,5,0.852497,-11.4339,1.52706,0.278818,0.0569965,90,96,95,96,100,10,75,100,98,94,97,25
5.26735,10,0.0824696,-1.35316,-14.8473,27.7671,-13.0965,-0.0824696,0.0824696,-1.35316,-14.4414,27.7671,-13.5024,-0.0824696,2.2759,21.3514,8.39635,5,-6.0676,-5.78046,-3.40176,4.1312,20.2097,14.0146,5,0.845874,-11.4358,1.52503,0.278295,0.0570842,90,96,95,96,100,10,75,100,98,94,97,25
5.25845,10,0.0826331,-1.35249,-14.848,27.7671,-13.0958,-0.0826331,0.0826331,-1.35249,-14.4423,27.7671,-13.5015,-0.0826331,2.28767,21.3814,8.38885,5,-6.05608,-5.7907,-3.40276,4.13961,20.2379,14.0054,5,0.839434,-11.4376,1.52305,0.277791,0.0571711,90,96,95,96,100,10,75,100,98,94,97,25
5.24976,10,0.0827954,-1.35184,-14.8487,27.7671,-13.0951,-0.0827954,0.0827954,-1.35184,-14.4432,27.7671,-13.5006,-0.0827954,2.29913,21.4106,8.38156,5,-6.04479,-5.80069,-3.40375,4.14783,20.2655,13.9965,5,0.833171,-11.4394,1.52112,0.277304,0.0572573,90,96,95,96,100,10,75,100,98,94,97,25
5.24127,10,0.0829564,-1.35122,-14.8494,27.7671,-13.0944,-0.0829564,0.0829564,-1.35122,-14.444,27.7671,-13.4998,-0.0829564,2.31029,21.4392,8.37446,5,-6.03372,-5.81043,-3.40472,4.15586,20.2924,13.9878,5,0.827079,-11.4412,1.51924,0.276836,0.0573429,90,96,95,96,100,10,75,100,98,94,97,25
5.23297,10,0.0831164,-1.35062,-14.8501,27.7671,-13.0938,-0.0831164,0.0831164,-1.35062,-14.4449,27.7671,-13.4989,-0.0831164,2.32114,21.4671,8.36757,5,-6.02288,-5.81992,-3.40567,4.1637,20.3185,13.9794,5,0.821155,-11.4429,1.51742,0.276385,0.057428,90,96,95,96,100,10,75,100,98,94,97,25
5.22488,10,0.0832769,-1.35004,-14.8507,27.7671,-13.0931,-0.0832769,0.0832769,-1.35004,-14.4457,27.7671,-13.4981,-0.0832769,2.33168,21.4943,8.36091,5,-6.0123,-5.82915,-3.40659,4.17137,20.3441,13.9712,5,0.815382,-11.4446,1.51564,0.275953,0.0575132,90,96,95,96,100,10,75,100,98,94,97,25
5.21699,10,0.083437,-1.34949,-14.8513,27.7671,-13.0925,-0.083437,0.083437,-1.34949,-14.4465,27.7671,-13.4973,-0.083437,2.34193,21.5209,8.35446,5,-6.00197,-5.83815,-3.40749,4.17885,20.3689,13.9633,5,0.809761,-11.4463,1.51391,0.275538,0.0575984,90,96,95,96,100,10,75,100,98,94,97,25
5.20929,10,0.0835964,-1.34896,-14.8519,27.7671,-13.0919,-0.0835964,0.0835964,-1.34896,-14.4473,27.7671,-13.4966,-0.0835964,2.35188,21.5468,8.34821,5,-5.99186,-5.8469,-3.40836,4.18615,20.3932,13.9556,5,0.804292,-11.4479,1.51223,0.27514,0.0576831,90,96,95,96,100,10,75,100,98,94,97,25
5.20178,10,0.0837543,-1.34845,-14.8525,27.7671,-13.0913,-0.0837543,0.0837543,-1.34845,-14.448,27.7671,-13.4958,-0.0837543,2.36156,21.5721,8.34214,5,-5.98198,-5.85541,-3.40922,4.19328,20.4168,13.9482,5,0.798973,-11.4494,1.5106,0.274758,0.057767,90,96,95,96,100,10,75,100,98,94,97,25
5.19447,10,0.0839106,-1.34796,-14.8531,27.7671,-13.0907,-0.0839106,0.0839106,-1.34796,-14.4487,27.7671,-13.4951,-0.0839106,2.37096,21.5967,8.33625,5,-5.97231,-5.8637,-3.41005,4.20023,20.4397,13.941,5,0.793804,-11.451,1.50901,0.274391,0.0578501,90,96,95,96,100,10,75,100,98,94,97,25
5.18734,10,0.0840648,-1.34748,-14.8537,27.7671,-13.0901,-0.0840648,0.0840648,-1.34748,-14.4494,27.7671,-13.4944,-0.0840648,2.38009,21.6208,8.33051,5,-5.96286,-5.87177,-3.41087,4.207,20.4621,13.9339,5,0.788783,-11.4524,1.50747,0.274037,0.057932,90,96,95,96,100,10,75,100,98,94,97,25
5.18041,10,0.0842167,-1.34703,-14.8559,27.7683,-13.0899,-0.0842167,0.0842167,-1.34703,-14.4518,27.7683,-13.494,-0.0842167,2.38897,21.6441,8.32493,5,-5.95361,-5.87961,-3.41167,4.21361,20.4839,13.9271,5,0.783906,-11.4539,1.50597,0.273696,0.0580127,90,96,95,96,100,10,75,100,98,94,97,25
5.17366,10,0.0843641,-1.34659,-14.8564,27.7683,-13.0894,-0.0843641,0.0843641,-1.34659,-14.4524,27.7683,-13.4934,-0.0843641,2.3976,21.6669,8.31942,5,-5.9445,-5.88725,-3.41247,4.22004,20.5051,13.9205,5,0.77919,-11.4553,1.50452,0.273366,0.0580911,90,96,95,96,100,10,75,100,98,94,97,25
5.1671,10,0.0845079,-1.34617,-14.8569,27.7683,-13.0889,-0.0845079,0.0845079,-1.34617,-14.4531,27.7683,-13.4927,-0.0845079,2.40599,21.6891,8.31403,5,-5.93557,-5.89469,-3.41327,4.22631,20.5257,13.914,5,0.774621,-11.4566,1.5031,0.273047,0.0581675,90,96,95,96,100,10,75,100,98,94,97,25
5.16072,10,0.0846491,-1.34575,-14.8574,27.7683,-13.0884,-0.0846491,0.0846491,-1.34575,-14.4537,27.7683,-13.4921,-0.0846491,2.41414,21.7106,8.30878,5,-5.92684,-5.90192,-3.41404,4.23241,20.5458,13.9077,5,0.770187,-11.458,1.50172,0.272739,0.0582426,90,96,95,96,100,10,75,100,98,94,97,25
5.15451,10,0.0847883,-1.34536,-14.8579,27.7683,-13.0879,-0.0847883,0.0847883,-1.34536,-14.4543,27.7683,-13.4915,-0.0847883,2.42206,21.7316,8.30369,5,-5.91833,-5.90895,-3.4148,4.23835,20.5653,13.9016,5,0.765877,-11.4592,1.50038,0.272443,0.0583165,90,96,95,96,100,10,75,100,98,94,97,25
5.14847,10,0.0849261,-1.34498,-14.8584,27.7683,-13.0874,-0.0849261,0.0849261,-1.34498,-14.4549,27.7683,-13.4909,-0.0849261,2.42974,21.7521,8.29879,5,-5.91007,-5.91577,-3.41552,4.24413,20.5843,13.8957,5,0.76168,-11.4605,1.49909,0.272159,0.0583898,90,96,95,96,100,10,75,100,98,94,97,25
5.14259,10,0.085063,-1.34462,-14.8589,27.7683,-13.0869,-0.085063,0.085063,-1.34462,-14.4555,27.7683,-13.4903,-0.085063,2.43718,21.772,8.29409,5,-5.90207,-5.9224,-3.41622,4.24977,20.6027,13.89,5,0.75759,-11.4617,1.49783,0.271887,0.0584626,90,96,95,96,100,10,75,100,98,94,97,25
5.13688,10,0.0851995,-1.34427,-14.8605,27.7691,-13.0867,-0.0851995,0.0851995,-1.34427,-14.4572,27.7691,-13.49,-0.0851995,2.4444,21.7913,8.2896,5,-5.89435,-5.92883,-3.41688,4.25525,20.6206,13.8845,5,0.753596,-11.4629,1.4966,0.271627,0.0585351,90,96,95,96,100,10,75,100,98,94,97,25
5.13132,10,0.085337,-1.34394,-14.8609,27.7691,-13.0863,-0.085337,0.085337,-1.34394,-14.4577,27.7691,-13.4895,-0.085337,2.45139,21.8102,8.2854,5,-5.88696,-5.93506,-3.41749,4.26059,20.638,13.8793,5,0.749676,-11.464,1.49542,0.271381,0.0586082,90,96,95,96,100,10,75,100,98,94,97,25
5.12591,10,0.0854752,-1.34363,-14.8614,27.7691,-13.0858,-0.0854752,0.0854752,-1.34363,-14.4583,27.7691,-13.4889,-0.0854752,2.45815,21.8286,8.28146,5,-5.87988,-5.9411,-3.41806,4.2658,20.6549,13.8743,5,0.745833,-11.4652,1.49427,0.271147,0.0586817,90,96,95,96,100,10,75,100,98,94,97,25
5.12065,10,0.0856139,-1.34334,-14.8618,27.7691,-13.0854,-0.0856139,0.0856139,-1.34334,-14.4588,27.7691,-13.4884,-0.0856139,2.46469,21.8465,8.27776,5,-5.8731,-5.94695,-3.41858,4.27086,20.6713,13.8695,5,0.742069,-11.4663,1.49316,0.270925,0.0587554,90,96,95,96,100,10,75,100,98,94,97,25
5.11554,10,0.0857526,-1.34305,-14.8622,27.7691,-13.085,-0.0857526,0.0857526,-1.34305,-14.4593,27.7691,-13.4879,-0.0857526,2.47103,21.8639,8.27429,5,-5.8666,-5.95262,-3.41907,4.27579,20.6873,13.865,5,0.738385,-11.4674,1.49208,0.270714,0.0588291,90,96,95,96,100,10,75,100,98,94,97,25
5.11059,10,0.0858911,-1.34279,-14.8626,27.7691,-13.0846,-0.0858911,0.0858911,-1.34279,-14.4597,27.7691,-13.4875,-0.0858911,2.47716,21.8808,8.27102,5,-5.86036,-5.95812,-3.41952,4.28059,20.7028,13.8606,5,0.734783,-11.4684,1.49104,0.270513,0.0589027,90,96,95,96,100,10,75,100,98,94,97,25
5.10577,10,0.0860292,-1.34253,-14.863,27.7691,-13.0842,-0.0860292,0.0860292,-1.34253,-14.4602,27.7691,-13.487,-0.0860292,2.4831,21.8973,8.26794,5,-5.85437,-5.96345,-3.41994,4.28525,20.7178,13.8564,5,0.731263,-11.4695,1.49002,0.270323,0.0589761,90,96,95,96,100,10,75,100,98,94,97,25
5.10111,10,0.0861667,-1.34229,-14.864,27.7696,-13.084,-0.0861667,0.0861667,-1.34229,-14.4613,27.7696,-13.4867,-0.0861667,2.48886,21.9133,8.26504,5,-5.84862,-5.96861,-3.42033,4.2898,20.7324,13.8524,5,0.727826,-11.4704,1.48904,0.270141,0.0590492,90,96,95,96,100,10,75,100,98,94,97,25
5.09659,10,0.086303,-1.34206,-14.8644,27.7696,-13.0836,-0.086303,0.086303,-1.34206,-14.4617,27.7696,-13.4862,-0.086303,2.49443,21.9289,8.26227,5,-5.84306,-5.97361,-3.4207,4.29421,20.7465,13.8486,5,0.724484,-11.4714,1.4881,0.269967,0.0591217,90,96,95,96,100,10,75,100,98,94,97,25
5.09221,10,0.0864382,-1.34184,-14.8647,27.7696,-13.0833,-0.0864382,0.0864382,-1.34184,-14.4622,27.7696,-13.4858,-0.0864382,2.49984,21.9441,8.25965,5,-5.8377,-5.97845,-3.42104,4.29851,20.7603,13.8449,5,0.721228,-11.4723,1.48719,0.269801,0.0591935,90,96,95,96,100,10,75,100,98,94,97,25
5.08798,10,0.086572,-1.34163,-14.8651,27.7696,-13.0829,-0.086572,0.086572,-1.34163,-14.4626,27.7696,-13.4854,-0.086572,2.50507,21.9589,8.25717,5,-5.83255,-5.98315,-3.42136,4.30269,20.7736,13.8413,5,0.718054,-11.4732,1.4863,0.269642,0.0592647,90,96,95,96,100,10,75,100,98,94,97,25
5.08388,10,0.0867043,-1.34142,-14.8654,27.7696,-13.0826,-0.0867043,0.0867043,-1.34142,-14.463,27.7696,-13.485,-0.0867043,2.51014,21.9732,8.25484,5,-5.8276,-5.9877,-3.42165,4.30675,20.7865,13.838,5,0.714955,-11.4741,1.48544,0.269491,0.059335,90,96,95,96,100,10,75,100,98,94,97,25
5.07992,10,0.0868349,-1.34123,-14.8657,27.7696,-13.0823,-0.0868349,0.0868349,-1.34123,-14.4634,27.7696,-13.4846,-0.0868349,2.51504,21.9872,8.25264,5,-5.82285,-5.99211,-3.42192,4.31069,20.7991,13.8347,5,0.711927,-11.475,1.48461,0.269348,0.0594044,90,96,95,96,100,10,75,100,98,94,97,25
5.0761,10,0.0869637,-1.34105,-14.866,27.7696,-13.082,-0.0869637,0.0869637,-1.34105,-14.4637,27.7696,-13.4843,-0.0869637,2.51979,22.0007,8.2506,5,-5.81831,-5.99638,-3.42217,4.31453,20.8113,13.8316,5,0.708964,-11.4758,1.4838,0.269211,0.0594729,90,96,95,96,100,10,75,100,98,94,97,25
5.07241,10,0.0870905,-1.34088,-14.8668,27.7699,-13.0817,-0.0870905,0.0870905,-1.34088,-14.4645,27.7699,-13.484,-0.0870905,2.52438,22.0139,8.24869,5,-5.81397,-6.00052,-3.4224,4.31825,20.8231,13.8286,5,0.706065,-11.4766,1.48302,0.269081,0.0595402,90,96,95,96,100,10,75,100,98,94,97,25
5.06885,10,0.0872152,-1.34071,-14.8671,27.7699,-13.0814,-0.0872152,0.0872152,-1.34071,-14.4649,27.7699,-13.4837,-0.0872152,2.52882,22.0267,8.24693,5,-5.80984,-6.00453,-3.42261,4.32187,20.8346,13.8258,5,0.703222,-11.4775,1.48225,0.268958,0.0596066,90,96,95,96,100,10,75,100,98,94,97,25
5.06542,10,0.0873378,-1.34056,-14.8674,27.7699,-13.0812,-0.0873378,0.0873378,-1.34056,-14.4652,27.7699,-13.4833,-0.0873378,2.5331,22.0391,8.24532,5,-5.8059,-6.00843,-3.42279,4.32538,20.8457,13.8231,5,0.700434,-11.4783,1.4815,0.268842,0.0596717,90,96,95,96,100,10,75,100,98,94,97,25
5.06211,10,0.0874578,-1.34041,-14.8677,27.7699,-13.0809,-0.0874578,0.0874578,-1.34041,-14.4655,27.7699,-13.483,-0.0874578,2.53725,22.0512,8.24383,5,-5.80216,-6.0122,-3.42296,4.32879,20.8565,13.8205,5,0.697699,-11.4791,1.48077,0.268732,0.0597355,90,96,95,96,100,10,75,100,98,94,97,25
5.05892,10,0.0875752,-1.34027,-14.8679,27.7699,-13.0806,-0.0875752,0.0875752,-1.34027,-14.4658,27.7699,-13.4827,-0.0875752,2.54125,22.0629,8.24246,5,-5.79859,-6.01586,-3.42311,4.3321,20.8669,13.818,5,0.695015,-11.4799,1.48006,0.268628,0.0597979,90,96,95,96,100,10,75,100,98,94,97,25
5.05585,10,0.0876896,-1.34014,-14.8682,27.7699,-13.0803,-0.0876896,0.0876896,-1.34014,-14.4661,27.7699,-13.4824,-0.0876896,2.54512,22.0743,8.2412,5,-5.79519,-6.01941,-3.42325,4.33532,20.8771,13.8156,5,0.692383,-11.4807,1.47936,0.26853,0.0598587,90,96,95,96,100,10,75,100,98,94,97,25
5.0529,10,0.0878011,-1.34002,-14.8684,27.7699,-13.0801,-0.0878011,0.0878011,-1.34002,-14.4664,27.7699,-13.4821,-0.0878011,2.54887,22.0853,8.24003,5,-5.79194,-6.02285,-3.42338,4.33845,20.8869,13.8133,5,0.689801,-11.4815,1.47869,0.268437,0.0599179,90,96,95,96,100,10,75,100,98,94,97,25
5.05005,10,0.0879092,-1.3399,-14.8687,27.7699,-13.0798,-0.0879092,0.0879092,-1.3399,-14.4667,27.7699,-13.4818,-0.0879092,2.55248,22.096,8.23895,5,-5.78884,-6.02619,-3.4235,4.34148,20.8965,13.8111,5,0.687268,-11.4823,1.47803,0.26835,0.0599754,90,96,95,96,100,10,75,100,98,94,97,25
5.0473,10,0.0880146,-1.33979,-14.8689,27.7699,-13.0796,-0.0880146,0.0880146,-1.33979,-14.467,27.7699,-13.4815,-0.0880146,2.55598,22.1064,8.23797,5,-5.78589,-6.02943,-3.42361,4.34443,20.9058,13.809,5,0.684776,-11.483,1.47739,0.268268,0.0600314,90,96,95,96,100,10,75,100,98,94,97,25
5.04466,10,0.0881166,-1.33969,-14.8692,27.7699,-13.0794,-0.0881166,0.0881166,-1.33969,-14.4673,27.7699,-13.4813,-0.0881166,2.55936,22.1165,8.23707,5,-5.78307,-6.03257,-3.42372,4.3473,20.9148,13.807,5,0.682329,-11.4838,1.47677,0.268192,0.0600857,90,96,95,96,100,10,75,100,98,94,97,25
5.04212,10,0.0882151,-1.3396,-14.8694,27.7699,-13.0791,-0.0882151,0.0882151,-1.3396,-14.4675,27.7699,-13.481,-0.0882151,2.56262,22.1263,8.23623,5,-5.78037,-6.03562,-3.42382,4.35009,20.9235,13.805,5,0.67993,-11.4846,1.47617,0.26812,0.060138,90,96,95,96,100,10,75,100,98,94,97,25
5.03967,10,0.0883096,-1.33951,-14.8696,27.7699,-13.0789,-0.0883096,0.0883096,-1.33951,-14.4678,27.7699,-13.4808,-0.0883096,2.56578,22.1358,8.23543,5,-5.77776,-6.03859,-3.42392,4.35279,20.932,13.8031,5,0.677583,-11.4854,1.47559,0.268052,0.0601882,90,96,95,96,100,10,75,100,98,94,97,25
5.03731,10,0.0883998,-1.33942,-14.8698,27.7699,-13.0787,-0.0883998,0.0883998,-1.33942,-14.468,27.7699,-13.4805,-0.0883998,2.56883,22.145,8.23467,5,-5.77524,-6.04147,-3.42402,4.35542,20.9402,13.8012,5,0.675289,-11.4861,1.47502,0.267988,0.0602362,90,96,95,96,100,10,75,100,98,94,97,25
5.03505,10,0.0884857,-1.33934,-14.87,27.7699,-13.0785,-0.0884857,0.0884857,-1.33934,-14.4682,27.7699,-13.4803,-0.0884857,2.57179,22.1539,8.23392,5,-5.77278,-6.04428,-3.42412,4.35797,20.9482,13.7994,5,0.67305,-11.4869,1.47447,0.267928,0.0602819,90,96,95,96,100,10,75,100,98,94,97,25
5.03287,10,0.088567,-1.33926,-14.8706,27.7702,-13.0784,-0.088567,0.088567,-1.33926,-14.4688,27.7702,-13.4801,-0.088567,2.57465,22.1625,8.23319,5,-5.77038,-6.04701,-3.42422,4.36045,20.956,13.7976,5,0.670868,-11.4877,1.47393,0.26787,0.0603251,90,96,95,96,100,10,75,100,98,94,97,25
5.03078,10,0.0886423,-1.33919,-14.8708,27.7702,-13.0782,-0.0886423,0.0886423,-1.33919,-14.469,27.7702,-13.4799,-0.0886423,2.57741,22.1709,8.23242,5,-5.76798,-6.04967,-3.42433,4.36285,20.9636,13.7959,5,0.668755,-11.4884,1.47342,0.267815,0.0603651,90,96,95,96,100,10,75,100,98,94,97,25
5.02877,10,0.0887123,-1.33912,-14.871,27.7702,-13.078,-0.0887123,0.0887123,-1.33912,-14.4692,27.7702,-13.4797,-0.0887123,2.58009,22.179,8.23164,5,-5.76559,-6.05227,-3.42444,4.36517,20.971,13.7941,5,0.666705,-11.4892,1.47292,0.267763,0.0604023,90,96,95,96,100,10,75,100,98,94,97,25
5.02684,10,0.0887775,-1.33905,-14.8712,27.7702,-13.0778,-0.0887775,0.0887775,-1.33905,-14.4694,27.7702,-13.4795,-0.0887775,2.58268,22.1869,8.23084,5,-5.76324,-6.0548,-3.42457,4.36742,20.9781,13.7924,5,0.664715,-11.4899,1.47243,0.267712,0.060437,90,96,95,96,100,10,75,100,98,94,97,25
5.02499,10,0.0888384,-1.33899,-14.8713,27.7702,-13.0776,-0.0888384,0.0888384,-1.33899,-14.4696,27.7702,-13.4793,-0.0888384,2.58518,22.1945,8.23003,5,-5.76092,-6.05726,-3.42469,4.36961,20.9851,13.7907,5,0.662782,-11.4907,1.47196,0.267663,0.0604693,90,96,95,96,100,10,75,100,98,94,97,25
5.02321,10,0.0888954,-1.33892,-14.8715,27.7702,-13.0774,-0.0888954,0.0888954,-1.33892,-14.4698,27.7702,-13.4791,-0.0888954,2.58761,22.2018,8.22923,5,-5.75864,-6.05966,-3.42482,4.37172,20.9918,13.789,5,0.660903,-11.4914,1.4715,0.267617,0.0604997,90,96,95,96,100,10,75,100,98,94,97,25
5.0215,10,0.0889491,-1.33887,-14.8717,27.7702,-13.0773,-0.0889491,0.0889491,-1.33887,-14.47,27.7702,-13.4789,-0.0889491,2.58996,22.209,8.22843,5,-5.75642,-6.062,-3.42495,4.37378,20.9984,13.7873,5,0.659076,-11.4921,1.47106,0.267572,0.0605282,90,96,95,96,100,10,75,100,98,94,97,25
5.01985,10,0.0889995,-1.33881,-14.8719,27.7702,-13.0771,-0.0889995,0.0889995,-1.33881,-14.4702,27.7702,-13.4788,-0.0889995,2.59224,22.2159,8.22764,5,-5.75424,-6.06427,-3.42507,4.37577,21.0048,13.7857,5,0.657298,-11.4928,1.47063,0.26753,0.060555,90,96,95,96,100,10,75,100,98,94,97,25
5.01826,10,0.0890485,-1.33875,-14.872,27.7702,-13.077,-0.0890485,0.0890485,-1.33875,-14.4704,27.7702,-13.4786,-0.0890485,2.59445,22.2226,8.2269,5,-5.75217,-6.06647,-3.42519,4.37771,21.011,13.7841,5,0.655563,-11.4935,1.47021,0.267489,0.0605811,90,96,95,96,100,10,75,100,98,94,97,25
5.01672,10,0.0890955,-1.3387,-14.8722,27.7702,-13.0768,-0.0890955,0.0890955,-1.3387,-14.4706,27.7702,-13.4784,-0.0890955,2.59659,22.2291,8.22618,5,-5.75017,-6.0686,-3.42531,4.37959,21.017,13.7826,5,0.653871,-11.4942,1.46981,0.26745,0.060606,90,96,95,96,100,10,75,100,98,94,97,25
5.01525,10,0.0891399,-1.33865,-14.8723,27.7702,-13.0767,-0.0891399,0.0891399,-1.33865,-14.4707,27.7702,-13.4783,-0.0891399,2.59866,22.2354,8.22548,5,-5.74823,-6.07068,-3.42543,4.38141,21.0228,13.7811,5,0.652226,-11.4949,1.46941,0.267413,0.0606297,90,96,95,96,100,10,75,100,98,94,97,25
5.01382,10,0.0891815,-1.33861,-14.8725,27.7702,-13.0765,-0.0891815,0.0891815,-1.33861,-14.4709,27.7702,-13.4781,-0.0891815,2.60066,22.2415,8.22478,5,-5.74632,-6.0727,-3.42555,4.38318,21.0285,13.7796,5,0.65063,-11.4955,1.46903,0.267377,0.0606518,90,96,95,96,100,10,75,100,98,94,97,25
5.01246,10,0.0892199,-1.33856,-14.8726,27.7702,-13.0764,-0.0892199,0.0892199,-1.33856,-14.471,27.7702,-13.4779,-0.0892199,2.60261,22.2474,8.22407,5,-5.74443,-6.07467,-3.42567,4.38489,21.034,13.7782,5,0.649085,-11.4962,1.46866,0.267343,0.0606721,90,96,95,96,100,10,75,100,98,94,97,25
5.01114,10,0.0892547,-1.33851,-14.8727,27.7702,-13.0762,-0.0892547,0.0892547,-1.33851,-14.4712,27.7702,-13.4778,-0.0892547,2.60448,22.2531,8.22333,5,-5.74253,-6.07659,-3.42579,4.38655,21.0393,13.7767,5,0.647592,-11.4968,1.4683,0.26731,0.0606907,90,96,95,96,100,10,75,100,98,94,97,25
5.00988,10,0.089286,-1.33847,-14.8727,27.7701,-13.0761,-0.089286,0.089286,-1.33847,-14.4712,27.7701,-13.4776,-0.089286,2.6063,22.2587,8.22257,5,-5.74062,-6.07846,-3.42592,4.38815,21.0445,13.7753,5,0.646154,-11.4975,1.46795,0.267277,0.0607073,90,96,95,96,100,10,75,100,98,94,97,25
5.00867,10,0.0893129,-1.33843,-14.8729,27.7701,-13.076,-0.0893129,0.0893129,-1.33843,-14.4713,27.7701,-13.4775,-0.0893129,2.60806,22.264,8.22176,5,-5.73867,-6.08029,-3.42606,4.38969,21.0496,13.7739,5,0.644773,-11.4981,1.46762,0.267245,0.0607216,90,96,95,96,100,10,75,100,98,94,97,25
5.00751,10,0.0893356,-1.33839,-14.873,27.7701,-13.0758,-0.0893356,0.0893356,-1.33839,-14.4715,27.7701,-13.4773,-0.0893356,2.60975,22.2692,8.2209,5,-5.73668,-6.08208,-3.42621,4.39118,21.0545,13.7725,5,0.643449,-11.4987,1.4673,0.267214,0.0607337,90,96,95,96,100,10,75,100,98,94,97,25
5.00639,10,0.0893543,-1.33835,-14.8731,27.7701,-13.0757,-0.0893543,0.0893543,-1.33835,-14.4716,27.7701,-13.4772,-0.0893543,2.61139,22.2742,8.21999,5,-5.73464,-6.08383,-3.42637,4.39262,21.0593,13.771,5,0.642184,-11.4993,1.46699,0.267184,0.0607436,90,96,95,96,100,10,75,100,98,94,97,25
5.00533,10,0.0893692,-1.33831,-14.8732,27.7701,-13.0756,-0.0893692,0.0893692,-1.33831,-14.4717,27.7701,-13.4771,-0.0893692,2.61297,22.2791,8.21904,5,-5.73256,-6.08554,-3.42654,4.394,21.064,13.7696,5,0.640977,-11.4999,1.4667,0.267155,0.0607515,90,96,95,96,100,10,75,100,98,94,97,25
5.0043,10,0.0893805,-1.33827,-14.8733,27.7701,-13.0755,-0.0893805,0.0893805,-1.33827,-14.4718,27.7701,-13.477,-0.0893805,2.61449,22.2838,8.21805,5,-5.73043,-6.0872,-3.42671,4.39534,21.0686,13.7682,5,0.639829,-11.5005,1.46642,0.267127,0.0607575,90,96,95,96,100,10,75,100,98,94,97,25
5.00332,10,0.0893884,-1.33824,-14.8734,27.7701,-13.0754,-0.0893884,0.0893884,-1.33824,-14.472,27.7701,-13.4769,-0.0893884,2.61596,22.2883,8.21702,5,-5.72826,-6.08884,-3.4269,4.39663,21.0731,13.7667,5,0.638739,-11.5011,1.46615,0.2671,0.0607617,90,96,95,96,100,10,75,100,98,94,97,25
5.00237,10,0.089393,-1.3382,-14.8731,27.7698,-13.0752,-0.089393,0.089393,-1.3382,-14.4717,27.7698,-13.4767,-0.089393,2.61738,22.2927,8.21595,5,-5.72605,-6.09043,-3.42709,4.39787,21.0774,13.7653,5,0.637709,-11.5016,1.46589,0.267074,0.0607642,90,96,95,96,100,10,75,100,98,94,97,25
5.00146,10,0.0893946,-1.33817,-14.8732,27.7698,-13.0751,-0.0893946,0.0893946,-1.33817,-14.4718,27.7698,-13.4766,-0.0893946,2.61875,22.2969,8.21484,5,-5.7238,-6.09199,-3.4273,4.39908,21.0816,13.7638,5,0.636731,-11.5022,1.46565,0.26705,0.060765,90,96,95,96,100,10,75,100,98,94,97,25
5.00059,10,0.0893933,-1.33814,-14.8733,27.7698,-13.075,-0.0893933,0.0893933,-1.33814,-14.4719,27.7698,-13.4764,-0.0893933,2.62007,22.3011,8.21369,5,-5.72151,-6.09352,-3.42751,4.40024,21.0858,13.7623,5,0.635809,-11.5027,1.46541,0.267026,0.0607644,90,96,95,96,100,10,75,100,98,94,97,25
4.99975,10,0.0893895,-1.33811,-14.8734,27.7698,-13.0749,-0.0893895,0.0893895,-1.33811,-14.472,27.7698,-13.4763,-0.0893895,2.62134,22.305,8.21252,5,-5.71919,-6.095,-3.42773,4.40137,21.0898,13.7609,5,0.634947,-11.5032,1.46519,0.267004,0.0607623,90,96,95,96,100,10,75,100,98,94,97,25
4.99894,10,0.0893833,-1.33808,-14.8735,27.7698,-13.0748,-0.0893833,0.0893833,-1.33808,-14.4721,27.7698,-13.4763,-0.0893833,2.62256,22.3089,8.21134,5,-5.71684,-6.09645,-3.42796,4.40245,21.0937,13.7594,5,0.634147,-11.5037,1.46498,0.266984,0.060759,90,96,95,96,100,10,75,100,98,94,97,25
4.99817,10,0.0893749,-1.33805,-14.8736,27.7698,-13.0747,-0.0893749,0.0893749,-1.33805,-14.4722,27.7698,-13.4762,-0.0893749,2.62374,22.3126,8.21015,5,-5.71446,-6.09785,-3.42819,4.4035,21.0975,13.7579,5,0.633411,-11.5042,1.46479,0.266965,0.0607546,90,96,95,96,100,10,75,100,98,94,97,25
4.99742,10,0.0893647,-1.33803,-14.8737,27.7698,-13.0747,-0.0893647,0.0893647,-1.33803,-14.4722,27.7698,-13.4761,-0.0893647,2.62486,22.3162,8.20896,5,-5.71207,-6.09921,-3.42843,4.40451,21.1013,13.7565,5,0.63274,-11.5046,1.46461,0.266947,0.0607491,90,96,95,96,100,10,75,100,98,94,97,25
4.9967,10,0.0893528,-1.33801,-14.8731,27.7693,-13.0744,-0.0893528,0.0893528,-1.33801,-14.4717,27.7693,-13.4759,-0.0893528,2.62593,22.3197,8.20779,5,-5.70967,-6.10051,-3.42867,4.40547,21.1049,13.755,5,0.632137,-11.505,1.46444,0.266931,0.0607428,90,96,95,96,100,10,75,100,98,94,97,25
4.99602,10,0.0893393,-1.33799,-14.8732,27.7693,-13.0744,-0.0893393,0.0893393,-1.33799,-14.4718,27.7693,-13.4758,-0.0893393,2.62695,22.3231,8.20664,5,-5.70725,-6.10176,-3.4289,4.4064,21.1084,13.7535,5,0.631604,-11.5054,1.46428,0.266917,0.0607356,90,96,95,96,100,10,75,100,98,94,97,25
4.99536,10,0.0893246,-1.33798,-14.8733,27.7693,-13.0743,-0.0893246,0.0893246,-1.33798,-14.4719,27.7693,-13.4757,-0.0893246,2.62792,22.3264,8.20551,5,-5.70483,-6.10296,-3.42914,4.40729,21.1119,13.7521,5,0.63114,-11.5057,1.46414,0.266905,0.0607278,90,96,95,96,100,10,75,100,98,94,97,25
4.99473,10,0.0893089,-1.33796,-14.8733,27.7693,-13.0742,-0.0893089,0.0893089,-1.33796,-14.4719,27.7693,-13.4756,-0.0893089,2.62884,22.3296,8.20441,5,-5.70242,-6.1041,-3.42938,4.40814,21.1153,13.7506,5,0.630742,-11.506,1.46401,0.266895,0.0607195,90,96,95,96,100,10,75,100,98,94,97,25
4.99412,10,0.0892925,-1.33795,-14.8734,27.7693,-13.0742,-0.0892925,0.0892925,-1.33795,-14.472,27.7693,-13.4756,-0.0892925,2.62972,22.3328,8.20335,5,-5.70003,-6.10519,-3.42961,4.40895,21.1185,13.7491,5,0.630409,-11.5063,1.4639,0.266885,0.0607107,90,96,95,96,100,10,75,100,98,94,97,25
4.99354,10,0.0892757,-1.33794,-14.8735,27.7693,-13.0741,-0.0892757,0.0892757,-1.33794,-14.4721,27.7693,-13.4755,-0.0892757,2.63055,22.3358,8.20233,5,-5.69766,-6.10623,-3.42984,4.40973,21.1217,13.7477,5,0.630136,-11.5065,1.46379,0.266877,0.0607018,90,96,95,96,100,10,75,100,98,94,97,25
4.99298,10,0.0892587,-1.33793,-14.8735,27.7693,-13.074,-0.0892587,0.0892587,-1.33793,-14.4721,27.7693,-13.4754,-0.0892587,2.63134,22.3387,8.20135,5,-5.69533,-6.10721,-3.43006,4.41047,21.1249,13.7463,5,0.629922,-11.5066,1.46369,0.266871,0.0606928,90,96,95,96,100,10,75,100,98,94,97,25
4.99244,10,0.0892419,-1.33792,-14.8736,27.7693,-13.074,-0.0892419,0.0892419,-1.33792,-14.4722,27.7693,-13.4754,-0.0892419,2.63208,22.3416,8.20043,5,-5.69305,-6.10814,-3.43028,4.41118,21.1279,13.7448,5,0.629762,-11.5068,1.46359,0.266865,0.0606838,90,96,95,96,100,10,75,100,98,94,97,25
4.99192,10,0.0892247,-1.33792,-14.8736,27.7693,-13.0739,-0.0892247,0.0892247,-1.33792,-14.4723,27.7693,-13.4753,-0.0892247,2.6328,22.3444,8.19954,5,-5.6908,-6.10902,-3.4305,4.41186,21.1309,13.7434,5,0.629661,-11.5069,1.46351,0.26686,0.0606747,90,96,95,96,100,10,75,100,98,94,97,25
4.99143,10,0.0892079,-1.33791,-14.8737,27.7693,-13.0739,-0.0892079,0.0892079,-1.33791,-14.4723,27.7693,-13.4753,-0.0892079,2.63347,22.3471,8.1987,5,-5.68861,-6.10985,-3.43071,4.41251,21.1337,13.7421,5,0.629612,-11.507,1.46343,0.266856,0.0606658,90,96,95,96,100,10,75,100,98,94,97,25
4.99094,10,0.0891917,-1.33791,-14.8737,27.7693,-13.0738,-0.0891917,0.0891917,-1.33791,-14.4724,27.7693,-13.4752,-0.0891917,2.63411,22.3497,8.19792,5,-5.68647,-6.11063,-3.43091,4.41313,21.1365,13.7407,5,0.629609,-11.507,1.46335,0.266853,0.0606572,90,96,95,96,100,10,75,100,98,94,97,25
4.99048,10,0.0891767,-1.3379,-14.8738,27.7693,-13.0738,-0.0891767,0.0891767,-1.3379,-14.4724,27.7693,-13.4752,-0.0891767,2.63471,22.3523,8.19721,5,-5.68442,-6.11136,-3.43111,4.41371,21.1393,13.7394,5,0.629647,-11.507,1.46328,0.26685,0.0606492,90,96,95,96,100,10,75,100,98,94,97,25
4.99003,10,0.0891632,-1.3379,-14.8738,27.7693,-13.0737,-0.0891632,0.0891632,-1.3379,-14.4725,27.7693,-13.4751,-0.0891632,2.63528,22.3548,8.19656,5,-5.68246,-6.11205,-3.43129,4.41426,21.1419,13.738,5,0.629722,-11.507,1.46321,0.266847,0.060642,90,96,95,96,100,10,75,100,98,94,97,25
4.9896,10,0.0891514,-1.33789,-14.8739,27.7693,-13.0737,-0.0891514,0.0891514,-1.33789,-14.4725,27.7693,-13.4751,-0.0891514,2.63582,22.3572,8.19598,5,-5.68059,-6.11268,-3.43146,4.41478,21.1445,13.7368,5,0.629828,-11.507,1.46313,0.266844,0.0606357,90,96,95,96,100,10,75,100,98,94,97,25
4.98917,10,0.0891415,-1.33789,-14.8741,27.7695,-13.0737,-0.0891415,0.0891415,-1.33789,-14.4727,27.7695,-13.4751,-0.0891415,2.63633,22.3597,8.19548,5,-5.67882,-6.11326,-3.43163,4.41527,21.1471,13.7355,5,0.629961,-11.5069,1.46306,0.266841,0.0606305,90,96,95,96,100,10,75,100,98,94,97,25
4.98876,10,0.0891348,-1.33789,-14.8741,27.7695,-13.0737,-0.0891348,0.0891348,-1.33789,-14.4727,27.7695,-13.475,-0.0891348,2.63681,22.362,8.19509,5,-5.67721,-6.11379,-3.43177,4.41572,21.1495,13.7343,5,0.63011,-11.5068,1.46298,0.266837,0.0606269,90,96,95,96,100,10,75,100,98,94,97,25
4.98835,10,0.0891309,-1.33788,-14.8741,27.7695,-13.0736,-0.0891309,0.0891309,-1.33788,-14.4728,27.7695,-13.475,-0.0891309,2.63725,22.3644,8.19479,5,-5.67573,-6.11427,-3.4319,4.41614,21.1519,13.7332,5,0.630274,-11.5067,1.46289,0.266833,0.0606248,90,96,95,96,100,10,75,100,98,94,97,25
4.98796,10,0.0891293,-1.33787,-14.8742,27.7695,-13.0736,-0.0891293,0.0891293,-1.33787,-14.4728,27.7695,-13.475,-0.0891293,2.63767,22.3667,8.19457,5,-5.67437,-6.11471,-3.43202,4.41653,21.1542,13.7321,5,0.630455,-11.5066,1.46281,0.266828,0.060624,90,96,95,96,100,10,75,100,98,94,97,25
4.98757,10,0.0891298,-1.33787,-14.8742,27.7695,-13.0736,-0.0891298,0.0891298,-1.33787,-14.4728,27.7695,-13.4749,-0.0891298,2.63807,22.369,8.19442,5,-5.67311,-6.1151,-3.43213,4.41689,21.1565,13.731,5,0.630652,-11.5064,1.46272,0.266823,0.0606243,90,96,95,96,100,10,75,100,98,94,97,25
4.9872,10,0.0891322,-1.33786,-14.8742,27.7695,-13.0735,-0.0891322,0.0891322,-1.33786,-14.4729,27.7695,-13.4749,-0.0891322,2.63844,22.3712,8.19433,5,-5.67194,-6.11546,-3.43223,4.41722,21.1587,13.73,5,0.630866,-11.5063,1.46263,0.266818,0.0606255,90,96,95,96,100,10,75,100,98,94,97,25
4.98683,10,0.0891361,-1.33785,-14.8743,27.7695,-13.0735,-0.0891361,0.0891361,-1.33785,-14.4729,27.7695,-13.4749,-0.0891361,2.63879,22.3734,8.19428,5,-5.67085,-6.11578,-3.43232,4.41754,21.1608,13.729,5,0.631096,-11.5061,1.46254,0.266812,0.0606276,90,96,95,96,100,10,75,100,98,94,97,25
4.98647,10,0.0891413,-1.33785,-14.874,27.7692,-13.0734,-0.0891413,0.0891413,-1.33785,-14.4726,27.7692,-13.4748,-0.0891413,2.63912,22.3755,8.19427,5,-5.66982,-6.11608,-3.4324,4.41783,21.1629,13.728,5,0.63134,-11.5059,1.46245,0.266807,0.0606304,90,96,95,96,100,10,75,100,98,94,97,25
4.98612,10,0.0891471,-1.33784,-14.874,27.7692,-13.0734,-0.0891471,0.0891471,-1.33784,-14.4726,27.7692,-13.4748,-0.0891471,2.63943,22.3776,8.19424,5,-5.66881,-6.11635,-3.43248,4.41811,21.1649,13.727,5,0.631605,-11.5057,1.46236,0.266802,0.0606334,90,96,95,96,100,10,75,100,98,94,97,25
4.98577,10,0.0891535,-1.33783,-14.874,27.7692,-13.0734,-0.0891535,0.0891535,-1.33783,-14.4727,27.7692,-13.4747,-0.0891535,2.63973,22.3796,8.19422,5,-5.66783,-6.11661,-3.43256,4.41838,21.1669,13.7261,5,0.631886,-11.5054,1.46228,0.266798,0.0606369,90,96,95,96,100,10,75,100,98,94,97,25
4.98544,10,0.0891609,-1.33783,-14.874,27.7692,-13.0734,-0.0891609,0.0891609,-1.33783,-14.4727,27.7692,-13.4747,-0.0891609,2.64001,22.3816,8.19423,5,-5.66691,-6.11684,-3.43264,4.41863,21.1688,13.7252,5,0.632175,-11.5052,1.46219,0.266793,0.0606408,90,96,95,96,100,10,75,100,98,94,97,25
4.98511,10,0.0891693,-1.33782,-14.8741,27.7692,-13.0733,-0.0891693,0.0891693,-1.33782,-14.4727,27.7692,-13.4747,-0.0891693,2.64027,22.3835,8.19427,5,-5.66605,-6.11705,-3.43271,4.41886,21.1706,13.7243,5,0.632468,-11.505,1.46211,0.266788,0.0606453,90,96,95,96,100,10,75,100,98,94,97,25
4.98479,10,0.0891789,-1.33781,-14.8741,27.7692,-13.0733,-0.0891789,0.0891789,-1.33781,-14.4727,27.7692,-13.4747,-0.0891789,2.64052,22.3854,8.19437,5,-5.66528,-6.11723,-3.43277,4.41908,21.1724,13.7234,5,0.632759,-11.5048,1.46203,0.266783,0.0606504,90,96,95,96,100,10,75,100,98,94,97,25
4.98448,10,0.0891898,-1.33781,-14.8741,27.7692,-13.0733,-0.0891898,0.0891898,-1.33781,-14.4728,27.7692,-13.4746,-0.0891898,2.64075,22.3873,8.19454,5,-5.6646,-6.11738,-3.43282,4.41927,21.1742,13.7226,5,0.633043,-11.5045,1.46194,0.266778,0.0606561,90,96,95,96,100,10,75,100,98,94,97,25
4.98419,10,0.089202,-1.3378,-14.8741,27.7692,-13.0733,-0.089202,0.089202,-1.3378,-14.4728,27.7692,-13.4746,-0.089202,2.64097,22.3891,8.19478,5,-5.66403,-6.11751,-3.43285,4.41945,21.1759,13.7219,5,0.633315,-11.5043,1.46184,0.266772,0.0606627,90,96,95,96,100,10,75,100,98,94,97,25
4.98391,10,0.0892159,-1.33779,-14.8741,27.7692,-13.0733,-0.0892159,0.0892159,-1.33779,-14.4728,27.7692,-13.4746,-0.0892159,2.64116,22.3909,8.19512,5,-5.66359,-6.11761,-3.43287,4.4196,21.1775,13.7211,5,0.633579,-11.504,1.46175,0.266766,0.0606701,90,96,95,96,100,10,75,100,98,94,97,25
4.98365,10,0.0892314,-1.33778,-14.8741,27.7692,-13.0733,-0.0892314,0.0892314,-1.33778,-14.4728,27.7692,-13.4746,-0.0892314,2.64134,22.3927,8.19557,5,-5.66328,-6.11767,-3.43288,4.41973,21.1791,13.7204,5,0.633828,-11.5037,1.46164,0.266759,0.0606783,90,96,95,96,100,10,75,100,98,94,97,25
4.9834,10,0.0892484,-1.33777,-14.8741,27.7692,-13.0733,-0.0892484,0.0892484,-1.33777,-14.4728,27.7692,-13.4746,-0.0892484,2.6415,22.3944,8.1961,5,-5.66309,-6.11771,-3.43288,4.41984,21.1807,13.7198,5,0.634054,-11.5035,1.46153,0.266751,0.0606873,90,96,95,96,100,10,75,100,98,94,97,25
4.98315,10,0.0892668,-1.33776,-14.8742,27.7692,-13.0733,-0.0892668,0.0892668,-1.33776,-14.4728,27.7692,-13.4746,-0.0892668,2.64165,22.3961,8.19672,5,-5.66302,-6.11773,-3.43286,4.41993,21.1822,13.7192,5,0.634251,-11.5032,1.46141,0.266742,0.0606971,90,96,95,96,100,10,75,100,98,94,97,25
4.98291,10,0.0892865,-1.33774,-14.8742,27.7692,-13.0732,-0.0892865,0.0892865,-1.33774,-14.4728,27.7692,-13.4746,-0.0892865,2.64179,22.3978,8.19742,5,-5.66305,-6.11772,-3.43282,4.41999,21.1837,13.7186,5,0.634415,-11.5029,1.46129,0.26673,0.0607076,90,96,95,96,100,10,75,100,98,94,97,25
4.98267,10,0.0893074,-1.33772,-14.8742,27.7692,-13.0732,-0.0893074,0.0893074,-1.33772,-14.4728,27.7692,-13.4746,-0.0893074,2.64192,22.3995,8.19819,5,-5.6632,-6.11771,-3.43277,4.42003,21.1851,13.7181,5,0.634542,-11.5026,1.46116,0.266717,0.0607187,90,96,95,96,100,10,75,100,98,94,97,25
4.98242,10,0.0893294,-1.3377,-14.8749,27.7698,-13.0734,-0.0893294,0.0893294,-1.3377,-14.4736,27.7698,-13.4747,-0.0893294,2.64205,22.4011,8.19902,5,-5.66345,-6.11768,-3.4327,4.42005,21.1865,13.7177,5,0.634629,-11.5023,1.46102,0.2667,0.0607304,90,96,95,96,100,10,75,100,98,94,97,25
4.98215,10,0.0893523,-1.33767,-14.8749,27.7698,-13.0734,-0.0893523,0.0893523,-1.33767,-14.4736,27.7698,-13.4747,-0.0893523,2.6422,22.4028,8.1999,5,-5.66377,-6.11765,-3.43262,4.42005,21.1879,13.7173,5,0.634646,-11.502,1.46087,0.266677,0.0607426,90,96,95,96,100,10,75,100,98,94,97,25
4.98188,10,0.0893762,-1.33764,-14.8749,27.7698,-13.0734,-0.0893762,0.0893762,-1.33764,-14.4736,27.7698,-13.4747,-0.0893762,2.64234,22.4043,8.20082,5,-5.66417,-6.11762,-3.43252,4.42001,21.1892,13.717,5,0.634607,-11.5018,1.46071,0.26665,0.0607553,90,96,95,96,100,10,75,100,98,94,97,25
4.98159,10,0.0894009,-1.33759,-14.8749,27.7698,-13.0734,-0.0894009,0.0894009,-1.33759,-14.4736,27.7698,-13.4747,-0.0894009,2.64249,22.4059,8.20179,5,-5.66466,-6.11759,-3.43241,4.41996,21.1906,13.7168,5,0.634521,-11.5015,1.46055,0.266619,0.0607684,90,96,95,96,100,10,75,100,98,94,97,25
4.9813,10,0.0894264,-1.33755,-14.8749,27.7698,-13.0734,-0.0894264,0.0894264,-1.33755,-14.4736,27.7698,-13.4747,-0.0894264,2.64264,22.4075,8.2028,5,-5.66522,-6.11755,-3.43229,4.41989,21.1918,13.7166,5,0.634398,-11.5013,1.46038,0.266586,0.0607819,90,96,95,96,100,10,75,100,98,94,97,25
4.981,10,0.0894525,-1.33751,-14.8749,27.7698,-13.0734,-0.0894525,0.0894525,-1.33751,-14.4736,27.7698,-13.4747,-0.0894525,2.64279,22.409,8.20386,5,-5.66586,-6.1175,-3.43215,4.4198,21.1931,13.7164,5,0.634244,-11.5011,1.4602,0.266552,0.0607958,90,96,95,96,100,10,75,100,98,94,97,25
4.9807,10,0.0894792,-1.33746,-14.8749,27.7698,-13.0734,-0.0894792,0.0894792,-1.33746,-14.4736,27.7698,-13.4746,-0.0894792,2.64293,22.4105,8.20497,5,-5.66657,-6.11746,-3.43201,4.41971,21.1943,13.7163,5,0.634067,-11.5008,1.46002,0.266517,0.06081,90,96,95,96,100,10,75,100,98,94,97,25
4.9804,10,0.0895063,-1.33741,-14.8758,27.7704,-13.0736,-0.0895063,0.0895063,-1.33741,-14.4745,27.7704,-13.4748,-0.0895063,2.64306,22.4119,8.20611,5,-5.66735,-6.1174,-3.43186,4.41961,21.1955,13.7161,5,0.633871,-11.5006,1.45983,0.266482,0.0608244,90,96,95,96,100,10,75,100,98,94,97,25
4.9801,10,0.089534,-1.33737,-14.8758,27.7704,-13.0736,-0.089534,0.089534,-1.33737,-14.4745,27.7704,-13.4748,-0.089534,2.64317,22.4134,8.20732,5,-5.66824,-6.11734,-3.4317,4.41952,21.1966,13.716,5,0.633694,-11.5003,1.45965,0.266453,0.0608392,90,96,95,96,100,10,75,100,98,94,97,25
4.97982,10,0.0895622,-1.33734,-14.8758,27.7704,-13.0736,-0.0895622,0.0895622,-1.33734,-14.4746,27.7704,-13.4748,-0.0895622,2.64326,22.4148,8.20858,5,-5.6692,-6.11727,-3.43153,4.41944,21.1977,13.7159,5,0.63352,-11.5001,1.45946,0.266426,0.0608541,90,96,95,96,100,10,75,100,98,94,97,25
4.97953,10,0.0895905,-1.3373,-14.8757,27.7704,-13.0736,-0.0895905,0.0895905,-1.3373,-14.4746,27.7704,-13.4748,-0.0895905,2.64335,22.4162,8.20986,5,-5.6702,-6.11719,-3.43136,4.41935,21.1988,13.7159,5,0.633336,-11.4998,1.45927,0.2664,0.0608692,90,96,95,96,100,10,75,100,98,94,97,25
4.97924,10,0.0896188,-1.33726,-14.8757,27.7704,-13.0736,-0.0896188,0.0896188,-1.33726,-14.4746,27.7704,-13.4748,-0.0896188,2.64344,22.4175,8.21114,5,-5.67122,-6.11712,-3.43119,4.41925,21.1998,13.7158,5,0.63313,-11.4996,1.45908,0.266371,0.0608842,90,96,95,96,100,10,75,100,98,94,97,25
4.97895,10,0.0896469,-1.33722,-14.8757,27.7704,-13.0736,-0.0896469,0.0896469,-1.33722,-14.4746,27.7704,-13.4748,-0.0896469,2.64354,22.4188,8.2124,5,-5.67224,-6.11704,-3.43101,4.41913,21.2008,13.7158,5,0.63289,-11.4994,1.45888,0.26634,0.0608991,90,96,95,96,100,10,75,100,98,94,97,25
4.97865,10,0.0896746,-1.33717,-14.8757,27.7704,-13.0736,-0.0896746,0.0896746,-1.33717,-14.4746,27.7704,-13.4748,-0.0896746,2.64365,22.4201,8.21363,5,-5.67323,-6.11698,-3.43084,4.419,21.2018,13.7158,5,0.63261,-11.4992,1.45869,0.266303,0.0609139,90,96,95,96,100,10,75,100,98,94,97,25
4.97834,10,0.0897019,-1.33712,-14.8757,27.7704,-13.0737,-0.0897019,0.0897019,-1.33712,-14.4746,27.7704,-13.4748,-0.0897019,2.64378,22.4214,8.21481,5,-5.67419,-6.11692,-3.43066,4.41885,21.2028,13.7159,5,0.632282,-11.499,1.4585,0.26626,0.0609284,90,96,95,96,100,10,75,100,98,94,97,25
4.97802,10,0.0897286,-1.33705,-14.8757,27.7704,-13.0737,-0.0897286,0.0897286,-1.33705,-14.4746,27.7704,-13.4748,-0.0897286,2.64394,22.4226,8.21591,5,-5.67508,-6.11688,-3.43048,4.41866,21.2038,13.7161,5,0.63188,-11.4988,1.45831,0.266208,0.0609426,90,96,95,96,100,10,75,100,98,94,97,25
4.97769,10,0.0897546,-1.33697,-14.8757,27.7704,-13.0737,-0.0897546,0.0897546,-1.33697,-14.4746,27.7704,-13.4748,-0.0897546,2.64414,22.4239,8.21694,5,-5.6759,-6.11685,-3.4303,4.41845,21.2047,13.7162,5,0.631411,-11.4987,1.45812,0.266147,0.0609564,90,96,95,96,100,10,75,100,98,94,97,25
4.97735,10,0.0897798,-1.33687,-14.8757,27.7704,-13.0737,-0.0897798,0.0897798,-1.33687,-14.4746,27.7704,-13.4748,-0.0897798,2.64436,22.4251,8.21788,5,-5.67663,-6.11683,-3.43012,4.41821,21.2057,13.7165,5,0.630881,-11.4986,1.45793,0.266077,0.0609698,90,96,95,96,100,10,75,100,98,94,97,25
4.97699,10,0.0898041,-1.33677,-14.8757,27.7704,-13.0737,-0.0898041,0.0898041,-1.33677,-14.4746,27.7704,-13.4747,-0.0898041,2.64462,22.4262,8.21874,5,-5.67727,-6.11682,-3.42994,4.41794,21.2066,13.7168,5,0.630298,-11.4986,1.45775,0.265998,0.0609827,90,96,95,96,100,10,75,100,98,94,97,25
4.97662,10,0.0898274,-1.33665,-14.8756,27.7704,-13.0737,-0.0898274,0.0898274,-1.33665,-14.4746,27.7704,-13.4747,-0.0898274,2.64491,22.4274,8.2195,5,-5.67781,-6.11683,-3.42976,4.41764,21.2075,13.7171,5,0.629667,-11.4985,1.45757,0.26591,0.0609951,90,96,95,96,100,10,75,100,98,94,97,25
4.97625,10,0.0898497,-1.33652,-14.8756,27.7704,-13.0737,-0.0898497,0.0898497,-1.33652,-14.4747,27.7704,-13.4747,-0.0898497,2.64522,22.4285,8.22016,5,-5.67825,-6.11684,-3.42958,4.41731,21.2084,13.7175,5,0.628993,-11.4985,1.45739,0.265814,0.0610069,90,96,95,96,100,10,75,100,98,94,97,25
4.97586,10,0.0898709,-1.33638,-14.8776,27.7719,-13.0742,-0.0898709,0.0898709,-1.33638,-14.4767,27.7719,-13.4751,-0.0898709,2.64556,22.4296,8.22073,5,-5.67859,-6.11686,-3.42939,4.41696,21.2092,13.7179,5,0.628284,-11.4985,1.45723,0.26571,0.0610182,90,96,95,96,100,10,75,100,98,94,97,25
4.97546,10,0.0898909,-1.33623,-14.8776,27.7719,-13.0742,-0.0898909,0.0898909,-1.33623,-14.4767,27.7719,-13.4751,-0.0898909,2.64593,22.4307,8.22117,5,-5.67877,-6.11688,-3.42921,4.41657,21.2101,13.7184,5,0.627546,-11.4986,1.45707,0.265595,0.0610289,90,96,95,96,100,10,75,100,98,94,97,25
4.97506,10,0.0899099,-1.33606,-14.8775,27.7719,-13.0742,-0.0899099,0.0899099,-1.33606,-14.4767,27.7719,-13.4751,-0.0899099,2.64633,22.4317,8.22151,5,-5.67883,-6.11691,-3.42902,4.41614,21.2109,13.7188,5,0.626783,-11.4986,1.45693,0.265471,0.061039,90,96,95,96,100,10,75,100,98,94,97,25
4.97465,10,0.0899277,-1.33589,-14.8775,27.7719,-13.0743,-0.0899277,0.0899277,-1.33589,-14.4767,27.7719,-13.475,-0.0899277,2.64676,22.4327,8.22174,5,-5.67878,-6.11694,-3.42882,4.4157,21.2118,13.7194,5,0.625998,-11.4987,1.4568,0.265341,0.0610484,90,96,95,96,100,10,75,100,98,94,97,25
4.97423,10,0.0899444,-1.33571,-14.8775,27.7719,-13.0743,-0.0899444,0.0899444,-1.33571,-14.4768,27.7719,-13.475,-0.0899444,2.6472,22.4337,8.22189,5,-5.67863,-6.11698,-3.42863,4.41523,21.2126,13.7199,5,0.625193,-11.4987,1.45667,0.265205,0.0610573,90,96,95,96,100,10,75,100,98,94,97,25
4.97381,10,0.08996,-1.33552,-14.8775,27.7719,-13.0743,-0.08996,0.08996,-1.33552,-14.4768,27.7719,-13.475,-0.08996,2.64766,22.4347,8.22196,5,-5.6784,-6.11702,-3.42844,4.41475,21.2134,13.7204,5,0.624371,-11.4988,1.45655,0.265063,0.0610656,90,96,95,96,100,10,75,100,98,94,97,25
4.97338,10,0.0899746,-1.33533,-14.8774,27.7719,-13.0744,-0.0899746,0.0899746,-1.33533,-14.4768,27.7719,-13.475,-0.0899746,2.64814,22.4356,8.22198,5,-5.6781,-6.11707,-3.42825,4.41426,21.2142,13.721,5,0.623536,-11.4989,1.45644,0.264918,0.0610734,90,96,95,96,100,10,75,100,98,94,97,25
4.97296,10,0.0899882,-1.33513,-14.8772,27.7717,-13.0743,-0.0899882,0.0899882,-1.33513,-14.4766,27.7717,-13.4749,-0.0899882,2.64862,22.4365,8.22193,5,-5.67773,-6.11712,-3.42806,4.41376,21.2149,13.7216,5,0.622689,-11.499,1.45633,0.26477,0.0610806,90,96,95,96,100,10,75,100,98,94,97,25
4.97253,10,0.0900007,-1.33493,-14.8771,27.7717,-13.0744,-0.0900007,0.0900007,-1.33493,-14.4767,27.7717,-13.4748,-0.0900007,2.64911,22.4374,8.22186,5,-5.67735,-6.11718,-3.42788,4.41326,21.2157,13.7221,5,0.621831,-11.4991,1.45623,0.264623,0.0610873,90,96,95,96,100,10,75,100,98,94,97,25
4.97211,10,0.0900123,-1.33473,-14.8771,27.7717,-13.0744,-0.0900123,0.0900123,-1.33473,-14.4767,27.7717,-13.4748,-0.0900123,2.64959,22.4383,8.22177,5,-5.67693,-6.11726,-3.42771,4.41276,21.2164,13.7227,5,0.620966,-11.4992,1.45613,0.264474,0.0610934,90,96,95,96,100,10,75,100,98,94,97,25
4.97169,10,0.0900232,-1.33454,-14.8771,27.7717,-13.0744,-0.0900232,0.0900232,-1.33454,-14.4767,27.7717,-13.4748,-0.0900232,2.65009,22.4391,8.22163,5,-5.67648,-6.11733,-3.42754,4.41225,21.2172,13.7233,5,0.620098,-11.4994,1.45603,0.264325,0.0610992,90,96,95,96,100,10,75,100,98,94,97,25
4.97127,10,0.0900333,-1.33433,-14.8771,27.7717,-13.0745,-0.0900333,0.0900333,-1.33433,-14.4768,27.7717,-13.4748,-0.0900333,2.65058,22.44,8.22145,5,-5.67598,-6.11741,-3.42736,4.41175,21.2179,13.7239,5,0.619232,-11.4995,1.45594,0.264174,0.0611046,90,96,95,96,100,10,75,100,98,94,97,25
4.97085,10,0.090043,-1.33413,-14.877,27.7717,-13.0745,-0.090043,0.090043,-1.33413,-14.4768,27.7717,-13.4747,-0.090043,2.65109,22.4408,8.22122,5,-5.67542,-6.11748,-3.42719,4.41123,21.2186,13.7245,5,0.61837,-11.4996,1.45586,0.264022,0.0611097,90,96,95,96,100,10,75,100,98,94,97,25
4.97044,10,0.0900522,-1.33392,-14.877,27.7717,-13.0745,-0.0900522,0.0900522,-1.33392,-14.4768,27.7717,-13.4747,-0.0900522,2.6516,22.4415,8.22094,5,-5.6748,-6.11755,-3.42702,4.4107,21.2193,13.7251,5,0.617517,-11.4998,1.45578,0.263866,0.0611146,90,96,95,96,100,10,75,100,98,94,97,25
4.97003,10,0.0900612,-1.33371,-14.8801,27.774,-13.0752,-0.0900612,0.0900612,-1.33371,-14.48,27.774,-13.4753,-0.0900612,2.65211,22.4423,8.22059,5,-5.67412,-6.11761,-3.42684,4.41017,21.2199,13.7257,5,0.616675,-11.4999,1.45571,0.263709,0.0611194,90,96,95,96,100,10,75,100,98,94,97,25
4.96963,10,0.0900702,-1.3335,-14.8801,27.774,-13.0753,-0.0900702,0.0900702,-1.3335,-14.48,27.774,-13.4753,-0.0900702,2.65263,22.443,8.22018,5,-5.67337,-6.11766,-3.42666,4.40962,21.2206,13.7263,5,0.615854,-11.5,1.45565,0.263547,0.0611242,90,96,95,96,100,10,75,100,98,94,97,25
4.96922,10,0.0900794,-1.33328,-14.8801,27.774,-13.0753,-0.0900794,0.0900794,-1.33328,-14.4801,27.774,-13.4753,-0.0900794,2.65317,22.4438,8.21971,5,-5.67255,-6.1177,-3.42647,4.40905,21.2212,13.7269,5,0.615053,-11.5002,1.45559,0.263383,0.0611291,90,96,95,96,100,10,75,100,98,94,97,25
4.96883,10,0.0900886,-1.33306,-14.88,27.774,-13.0753,-0.0900886,0.0900886,-1.33306,-14.4801,27.774,-13.4753,-0.0900886,2.6537,22.4445,8.21917,5,-5.67166,-6.11773,-3.42628,4.40847,21.2218,13.7275,5,0.614272,-11.5003,1.45555,0.263215,0.061134,90,96,95,96,100,10,75,100,98,94,97,25
4.96844,10,0.090098,-1.33283,-14.88,27.774,-13.0754,-0.090098,0.090098,-1.33283,-14.4801,27.774,-13.4752,-0.090098,2.65425,22.4451,8.21857,5,-5.67071,-6.11775,-3.42608,4.40788,21.2224,13.7281,5,0.613512,-11.5005,1.45551,0.263045,0.0611389,90,96,95,96,100,10,75,100,98,94,97,25
4.96805,10,0.0901076,-1.3326,-14.88,27.774,-13.0754,-0.0901076,0.0901076,-1.3326,-14.4802,27.774,-13.4752,-0.0901076,2.65479,22.4458,8.21793,5,-5.6697,-6.11775,-3.42588,4.40727,21.2229,13.7287,5,0.612773,-11.5006,1.45548,0.262872,0.0611441,90,96,95,96,100,10,75,100,98,94,97,25
4.96767,10,0.0901176,-1.33237,-14.8799,27.774,-13.0754,-0.0901176,0.0901176,-1.33237,-14.4802,27.774,-13.4752,-0.0901176,2.65533,22.4465,8.21723,5,-5.66864,-6.11774,-3.42567,4.40666,21.2235,13.7292,5,0.612057,-11.5008,1.45545,0.262699,0.0611494,90,96,95,96,100,10,75,100,98,94,97,25
4.9673,10,0.0901279,-1.33213,-14.8799,27.774,-13.0755,-0.0901279,0.0901279,-1.33213,-14.4802,27.774,-13.4751,-0.0901279,2.65588,22.4471,8.21648,5,-5.66753,-6.11772,-3.42546,4.40604,21.224,13.7298,5,0.611364,-11.5009,1.45544,0.262523,0.0611549,90,96,95,96,100,10,75,100,98,94,97,25
4.96693,10,0.090138,-1.3319,-14.8798,27.774,-13.0755,-0.090138,0.090138,-1.3319,-14.4803,27.774,-13.4751,-0.090138,2.65642,22.4477,8.21568,5,-5.66636,-6.11769,-3.42524,4.40541,21.2245,13.7303,5,0.61068,-11.5011,1.45543,0.262348,0.0611602,90,96,95,96,100,10,75,100,98,94,97,25
4.96656,10,0.0901483,-1.33167,-14.8798,27.774,-13.0756,-0.0901483,0.0901483,-1.33167,-14.4803,27.774,-13.4751,-0.0901483,2.65696,22.4483,8.21484,5,-5.66514,-6.11764,-3.42502,4.40477,21.225,13.7308,5,0.610014,-11.5012,1.45544,0.262173,0.0611657,90,96,95,96,100,10,75,100,98,94,97,25
4.9662,10,0.0901592,-1.33143,-14.8798,27.774,-13.0756,-0.0901592,0.0901592,-1.33143,-14.4803,27.774,-13.475,-0.0901592,2.65749,22.4489,8.21396,5,-5.66389,-6.11757,-3.4248,4.40413,21.2255,13.7313,5,0.609375,-11.5014,1.45545,0.261997,0.0611715,90,96,95,96,100,10,75,100,98,94,97,25
4.96585,10,0.0901712,-1.3312,-14.8797,27.774,-13.0756,-0.0901712,0.0901712,-1.3312,-14.4804,27.774,-13.475,-0.0901712,2.65802,22.4495,8.21306,5,-5.66264,-6.11749,-3.42457,4.40349,21.226,13.7318,5,0.608771,-11.5015,1.45546,0.26182,0.0611779,90,96,95,96,100,10,75,100,98,94,97,25
4.96551,10,0.0901845,-1.33096,-14.8797,27.774,-13.0757,-0.0901845,0.0901845,-1.33096,-14.4804,27.774,-13.475,-0.0901845,2.65855,22.4501,8.21214,5,-5.66139,-6.1174,-3.42434,4.40283,21.2264,13.7323,5,0.608208,-11.5017,1.45548,0.261643,0.061185,90,96,95,96,100,10,75,100,98,94,97,25
4.96517,10,0.0901995,-1.33072,-14.8796,27.774,-13.0757,-0.0901995,0.0901995,-1.33072,-14.4804,27.774,-13.4749,-0.0901995,2.65907,22.4507,8.21122,5,-5.66016,-6.11729,-3.42409,4.40217,21.2268,13.7327,5,0.607691,-11.5018,1.45549,0.261465,0.0611929,90,96,95,96,100,10,75,100,98,94,97,25
4.96484,10,0.0902164,-1.33048,-14.8795,27.774,-13.0758,-0.0902164,0.0902164,-1.33048,-14.4804,27.774,-13.4749,-0.0902164,2.6596,22.4512,8.21031,5,-5.65896,-6.11717,-3.42384,4.40151,21.2272,13.733,5,0.607224,-11.5019,1.45551,0.261287,0.0612019,90,96,95,96,100,10,75,100,98,94,97,25
4.96452,10,0.0902365,-1.33024,-14.8795,27.774,-13.0758,-0.0902365,0.0902365,-1.33024,-14.4804,27.774,-13.4749,-0.0902365,2.66012,22.4518,8.20942,5,-5.65784,-6.11703,-3.42357,4.40083,21.2276,13.7333,5,0.606839,-11.5021,1.45551,0.261106,0.0612126,90,96,95,96,100,10,75,100,98,94,97,25
4.96421,10,0.0902593,-1.33,-14.8795,27.774,-13.0758,-0.0902593,0.0902593,-1.33,-14.4805,27.774,-13.4748,-0.0902593,2.66065,22.4524,8.20855,5,-5.65678,-6.11687,-3.42329,4.40015,21.2279,13.7335,5,0.606524,-11.5022,1.45551,0.260925,0.0612247,90,96,95,96,100,10,75,100,98,94,97,25
4.96391,10,0.0902844,-1.32976,-14.8794,27.774,-13.0759,-0.0902844,0.0902844,-1.32976,-14.4805,27.774,-13.4748,-0.0902844,2.66117,22.4529,8.2077,5,-5.65579,-6.1167,-3.423,4.39946,21.2282,13.7336,5,0.606266,-11.5024,1.45551,0.260743,0.0612381,90,96,95,96,100,10,75,100,98,94,97,25
4.96362,10,0.0903113,-1.32952,-14.8794,27.774,-13.0759,-0.0903113,0.0903113,-1.32952,-14.4805,27.774,-13.4748,-0.0903113,2.6617,22.4535,8.20687,5,-5.65484,-6.11652,-3.42271,4.39877,21.2285,13.7337,5,0.606058,-11.5026,1.4555,0.260561,0.0612524,90,96,95,96,100,10,75,100,98,94,97,25
4.96334,10,0.0903397,-1.32928,-14.8793,27.774,-13.076,-0.0903397,0.0903397,-1.32928,-14.4805,27.774,-13.4747,-0.0903397,2.66221,22.4541,8.20604,5,-5.65393,-6.11633,-3.4224,4.39808,21.2287,13.7337,5,0.605891,-11.5027,1.4555,0.26038,0.0612675,90,96,95,96,100,10,75,100,98,94,97,25
4.96307,10,0.0903693,-1.32904,-14.8793,27.774,-13.076,-0.0903693,0.0903693,-1.32904,-14.4806,27.774,-13.4747,-0.0903693,2.66273,22.4546,8.20523,5,-5.65305,-6.11612,-3.4221,4.39739,21.2289,13.7337,5,0.605758,-11.5029,1.45549,0.2602,0.0612832,90,96,95,96,100,10,75,100,98,94,97,25
4.9628,10,0.0903998,-1.3288,-14.8806,27.775,-13.0763,-0.0903998,0.0903998,-1.3288,-14.482,27.775,-13.475,-0.0903998,2.66323,22.4552,8.20443,5,-5.65221,-6.11591,-3.42179,4.39671,21.2292,13.7336,5,0.605654,-11.503,1.45547,0.260021,0.0612994,90,96,95,96,100,10,75,100,98,94,97,25
4.96254,10,0.0904297,-1.32856,-14.8806,27.775,-13.0764,-0.0904297,0.0904297,-1.32856,-14.482,27.775,-13.475,-0.0904297,2.66373,22.4557,8.2036,5,-5.65135,-6.11569,-3.42148,4.39605,21.2294,13.7336,5,0.60554,-11.5032,1.45547,0.259847,0.0613153,90,96,95,96,100,10,75,100,98,94,97,25
4.96229,10,0.0904595,-1.32834,-14.8805,27.775,-13.0764,-0.0904595,0.0904595,-1.32834,-14.482,27.775,-13.4749,-0.0904595,2.66423,22.4562,8.20277,5,-5.6505,-6.11546,-3.42118,4.39539,21.2296,13.7335,5,0.60543,-11.5033,1.45547,0.259675,0.0613312,90,96,95,96,100,10,75,100,98,94,97,25
4.96205,10,0.0904898,-1.32811,-14.8805,27.775,-13.0765,-0.0904898,0.0904898,-1.32811,-14.482,27.775,-13.4749,-0.0904898,2.66471,22.4567,8.20195,5,-5.64967,-6.11522,-3.42088,4.39475,21.2298,13.7334,5,0.605341,-11.5034,1.45547,0.259506,0.0613472,90,96,95,96,100,10,75,100,98,94,97,25
4.96181,10,0.0905208,-1.32789,-14.8804,27.775,-13.0765,-0.0905208,0.0905208,-1.32789,-14.4821,27.775,-13.4749,-0.0905208,2.66519,22.4572,8.20115,5,-5.64888,-6.11498,-3.42058,4.39411,21.2299,13.7333,5,0.605282,-11.5036,1.45547,0.259339,0.0613637,90,96,95,96,100,10,75,100,98,94,97,25
4.96158,10,0.0905529,-1.32767,-14.8804,27.775,-13.0765,-0.0905529,0.0905529,-1.32767,-14.4821,27.775,-13.4748,-0.0905529,2.66566,22.4577,8.20039,5,-5.64815,-6.11474,-3.42027,4.39348,21.2301,13.7331,5,0.605266,-11.5037,1.45546,0.259173,0.0613808,90,96,95,96,100,10,75,100,98,94,97,25
4.96137,10,0.0905863,-1.32745,-14.8804,27.775,-13.0766,-0.0905863,0.0905863,-1.32745,-14.4821,27.775,-13.4748,-0.0905863,2.66613,22.4582,8.19966,5,-5.64748,-6.1145,-3.41996,4.39284,21.2302,13.7329,5,0.6053,-11.5038,1.45545,0.259007,0.0613986,90,96,95,96,100,10,75,100,98,94,97,25
4.96116,10,0.0906213,-1.32723,-14.8803,27.775,-13.0766,-0.0906213,0.0906213,-1.32723,-14.4822,27.775,-13.4748,-0.0906213,2.66659,22.4587,8.19899,5,-5.64689,-6.11426,-3.41965,4.3922,21.2303,13.7327,5,0.605391,-11.504,1.45542,0.258843,0.0614172,90,96,95,96,100,10,75,100,98,94,97,25
4.96096,10,0.0906585,-1.327,-14.8803,27.775,-13.0767,-0.0906585,0.0906585,-1.327,-14.4822,27.775,-13.4748,-0.0906585,2.66704,22.4592,8.1984,5,-5.64642,-6.11404,-3.41933,4.39155,21.2304,13.7324,5,0.605571,-11.5042,1.45538,0.258677,0.0614369,90,96,95,96,100,10,75,100,98,94,97,25
4.96077,10,0.0906977,-1.32678,-14.8803,27.775,-13.0767,-0.0906977,0.0906977,-1.32678,-14.4822,27.775,-13.4747,-0.0906977,2.6675,22.4596,8.19788,5,-5.64605,-6.11382,-3.419,4.3909,21.2305,13.732,5,0.605829,-11.5043,1.45532,0.25851,0.0614578,90,96,95,96,100,10,75,100,98,94,97,25
4.9606,10,0.0907387,-1.32656,-14.8802,27.775,-13.0768,-0.0907387,0.0907387,-1.32656,-14.4823,27.775,-13.4747,-0.0907387,2.66795,22.4601,8.19742,5,-5.64577,-6.11361,-3.41867,4.39023,21.2305,13.7316,5,0.606158,-11.5046,1.45525,0.258342,0.0614796,90,96,95,96,100,10,75,100,98,94,97,25
4.96042,10,0.0907815,-1.32634,-14.8802,27.775,-13.0768,-0.0907815,0.0907815,-1.32634,-14.4823,27.775,-13.4747,-0.0907815,2.66839,22.4606,8.19703,5,-5.64558,-6.11341,-3.41833,4.38956,21.2306,13.7312,5,0.606546,-11.5048,1.45516,0.258176,0.0615023,90,96,95,96,100,10,75,100,98,94,97,25
4.96025,10,0.0908256,-1.32612,-14.8801,27.775,-13.0768,-0.0908256,0.0908256,-1.32612,-14.4823,27.775,-13.4747,-0.0908256,2.66883,22.4611,8.19668,5,-5.64546,-6.11321,-3.418,4.3889,21.2306,13.7307,5,0.606988,-11.505,1.45507,0.25801,0.0615258,90,96,95,96,100,10,75,100,98,94,97,25
4.96008,10,0.0908711,-1.3259,-14.8801,27.775,-13.0769,-0.0908711,0.0908711,-1.3259,-14.4823,27.775,-13.4746,-0.0908711,2.66926,22.4616,8.19639,5,-5.64541,-6.11302,-3.41766,4.38823,21.2306,13.7301,5,0.607475,-11.5052,1.45497,0.257846,0.0615499,90,96,95,96,100,10,75,100,98,94,97,25
4.95991,10,0.0909175,-1.32568,-14.8802,27.7751,-13.077,-0.0909175,0.0909175,-1.32568,-14.4825,27.7751,-13.4747,-0.0909175,2.66968,22.4621,8.19613,5,-5.64543,-6.11283,-3.41732,4.38756,21.2306,13.7295,5,0.608002,-11.5055,1.45486,0.257683,0.0615746,90,96,95,96,100,10,75,100,98,94,97,25
4.95973,10,0.0909651,-1.32547,-14.8802,27.7751,-13.077,-0.0909651,0.0909651,-1.32547,-14.4825,27.7751,-13.4746,-0.0909651,2.67008,22.4626,8.1959,5,-5.64547,-6.11264,-3.41698,4.38691,21.2306,13.7289,5,0.608547,-11.5057,1.45475,0.257523,0.0615999,90,96,95,96,100,10,75,100,98,94,97,25
4.95954,10,0.0910134,-1.32526,-14.8801,27.7751,-13.077,-0.0910134,0.0910134,-1.32526,-14.4826,27.7751,-13.4746,-0.0910134,2.67048,22.463,8.19569,5,-5.64556,-6.11245,-3.41665,4.38625,21.2305,13.7283,5,0.609115,-11.5059,1.45464,0.257366,0.0616256,90,96,95,96,100,10,75,100,98,94,97,25
4.95935,10,0.0910622,-1.32505,-14.8801,27.7751,-13.0771,-0.0910622,0.0910622,-1.32505,-14.4826,27.7751,-13.4746,-0.0910622,2.67087,22.4635,8.19551,5,-5.64569,-6.11227,-3.41631,4.38561,21.2305,13.7277,5,0.609707,-11.5062,1.45453,0.257211,0.0616515,90,96,95,96,100,10,75,100,98,94,97,25
4.95915,10,0.0911112,-1.32485,-14.8801,27.7751,-13.0771,-0.0911112,0.0911112,-1.32485,-14.4826,27.7751,-13.4746,-0.0911112,2.67125,22.464,8.19537,5,-5.64586,-6.1121,-3.41598,4.38497,21.2304,13.727,5,0.610324,-11.5064,1.45441,0.257058,0.0616776,90,96,95,96,100,10,75,100,98,94,97,25
4.95896,10,0.0911601,-1.32464,-14.88,27.7751,-13.0772,-0.0911601,0.0911601,-1.32464,-14.4826,27.7751,-13.4746,-0.0911601,2.67163,22.4645,8.19526,5,-5.64608,-6.11193,-3.41566,4.38434,21.2304,13.7264,5,0.610968,-11.5066,1.45429,0.256907,0.0617036,90,96,95,96,100,10,75,100,98,94,97,25
4.95876,10,0.0912087,-1.32444,-14.88,27.7751,-13.0772,-0.0912087,0.0912087,-1.32444,-14.4826,27.7751,-13.4745,-0.0912087,2.672,22.4649,8.19519,5,-5.64634,-6.11177,-3.41533,4.38371,21.2303,13.7257,5,0.611638,-11.5069,1.45416,0.256756,0.0617294,90,96,95,96,100,10,75,100,98,94,97,25
4.95856,10,0.0912567,-1.32425,-14.8804,27.7754,-13.0773,-0.0912567,0.0912567,-1.32425,-14.4831,27.7754,-13.4746,-0.0912567,2.67237,22.4654,8.19516,5,-5.64664,-6.11162,-3.415,4.38308,21.2303,13.725,5,0.612333,-11.5071,1.45402,0.256607,0.061755,90,96,95,96,100,10,75,100,98,94,97,25
4.95835,10,0.0913038,-1.32405,-14.8804,27.7754,-13.0774,-0.0913038,0.0913038,-1.32405,-14.4831,27.7754,-13.4746,-0.0913038,2.67274,22.4658,8.19517,5,-5.64698,-6.11148,-3.41468,4.38246,21.2302,13.7243,5,0.613057,-11.5074,1.45387,0.256458,0.06178,90,96,95,96,100,10,75,100,98,94,97,25
4.95815,10,0.0913499,-1.32385,-14.8803,27.7754,-13.0774,-0.0913499,0.0913499,-1.32385,-14.4832,27.7754,-13.4746,-0.0913499,2.6731,22.4662,8.19522,5,-5.64736,-6.11135,-3.41436,4.38183,21.2301,13.7237,5,0.613805,-11.5077,1.45371,0.256309,0.0618045,90,96,95,96,100,10,75,100,98,94,97,25
4.95794,10,0.0913948,-1.32365,-14.8803,27.7754,-13.0775,-0.0913948,0.0913948,-1.32365,-14.4832,27.7754,-13.4746,-0.0913948,2.67348,22.4666,8.1953,5,-5.64778,-6.11124,-3.41403,4.38121,21.23,13.723,5,0.614576,-11.508,1.45354,0.256161,0.0618284,90,96,95,96,100,10,75,100,98,94,97,25
4.95774,10,0.0914384,-1.32345,-14.8802,27.7754,-13.0775,-0.0914384,0.0914384,-1.32345,-14.4832,27.7754,-13.4745,-0.0914384,2.67385,22.4669,8.19542,5,-5.64822,-6.11114,-3.41371,4.3806,21.2299,13.7224,5,0.615366,-11.5084,1.45337,0.256012,0.0618516,90,96,95,96,100,10,75,100,98,94,97,25
4.95754,10,0.0914807,-1.32325,-14.8802,27.7754,-13.0775,-0.0914807,0.0914807,-1.32325,-14.4832,27.7754,-13.4745,-0.0914807,2.67422,22.4673,8.19557,5,-5.64869,-6.11106,-3.41339,4.37999,21.2298,13.7217,5,0.616171,-11.5087,1.45319,0.255864,0.0618741,90,96,95,96,100,10,75,100,98,94,97,25
4.95734,10,0.0915216,-1.32306,-14.8802,27.7754,-13.0776,-0.0915216,0.0915216,-1.32306,-14.4832,27.7754,-13.4745,-0.0915216,2.67461,22.4676,8.19574,5,-5.64918,-6.11099,-3.41307,4.37938,21.2297,13.7211,5,0.616989,-11.509,1.453,0.255716,0.0618958,90,96,95,96,100,10,75,100,98,94,97,25
4.95714,10,0.091561,-1.32286,-14.8802,27.7755,-13.0776,-0.091561,0.091561,-1.32286,-14.4834,27.7755,-13.4745,-0.091561,2.67499,22.4679,8.19594,5,-5.64967,-6.11094,-3.41276,4.37878,21.2296,13.7206,5,0.617814,-11.5094,1.4528,0.255569,0.0619167,90,96,95,96,100,10,75,100,98,94,97,25
4.95696,10,0.0915993,-1.32267,-14.8802,27.7755,-13.0777,-0.0915993,0.0915993,-1.32267,-14.4834,27.7755,-13.4745,-0.0915993,2.67538,22.4682,8.19617,5,-5.6502,-6.11092,-3.41244,4.37819,21.2294,13.72,5,0.618653,-11.5098,1.4526,0.255422,0.0619371,90,96,95,96,100,10,75,100,98,94,97,25
4.95678,10,0.0916362,-1.32247,-14.8801,27.7755,-13.0777,-0.0916362,0.0916362,-1.32247,-14.4834,27.7755,-13.4745,-0.0916362,2.67577,22.4684,8.19642,5,-5.65073,-6.11091,-3.41213,4.37761,21.2293,13.7195,5,0.619496,-11.5102,1.45239,0.255276,0.0619567,90,96,95,96,100,10,75,100,98,94,97,25
4.95661,10,0.0916712,-1.32228,-14.8801,27.7755,-13.0777,-0.0916712,0.0916712,-1.32228,-14.4834,27.7755,-13.4744,-0.0916712,2.67617,22.4687,8.19668,5,-5.65125,-6.11093,-3.41181,4.37704,21.2292,13.719,5,0.620336,-11.5105,1.45218,0.25513,0.0619753,90,96,95,96,100,10,75,100,98,94,97,25
4.95643,10,0.0917041,-1.32208,-14.8801,27.7755,-13.0778,-0.0917041,0.0917041,-1.32208,-14.4834,27.7755,-13.4744,-0.0917041,2.67658,22.4689,8.19693,5,-5.65176,-6.11096,-3.41151,4.37647,21.229,13.7186,5,0.621162,-11.5109,1.45197,0.254984,0.0619928,90,96,95,96,100,10,75,100,98,94,97,25
4.95623,10,0.0917345,-1.32188,-14.88,27.7755,-13.0778,-0.0917345,0.0917345,-1.32188,-14.4835,27.7755,-13.4744,-0.0917345,2.677,22.4691,8.19717,5,-5.65224,-6.11101,-3.4112,4.37591,21.2289,13.7182,5,0.621969,-11.5113,1.45177,0.254836,0.062009,90,96,95,96,100,10,75,100,98,94,97,25
4.95602,10,0.0917622,-1.32169,-14.88,27.7755,-13.0779,-0.0917622,0.0917622,-1.32169,-14.4835,27.7755,-13.4744,-0.0917622,2.67744,22.4693,8.19737,5,-5.65267,-6.11109,-3.4109,4.37536,21.2288,13.7178,5,0.62275,-11.5117,1.45157,0.254688,0.0620237,90,96,95,96,100,10,75,100,98,94,97,25
4.9558,10,0.091787,-1.32149,-14.8804,27.7758,-13.078,-0.091787,0.091787,-1.32149,-14.484,27.7758,-13.4744,-0.091787,2.6779,22.4694,8.19754,5,-5.65306,-6.11118,-3.41061,4.37482,21.2287,13.7176,5,0.623497,-11.512,1.45138,0.254538,0.0620369,90,96,95,96,100,10,75,100,98,94,97,25
4.95553,10,0.0918084,-1.32128,-14.8804,27.7758,-13.078,-0.0918084,0.0918084,-1.32128,-14.484,27.7758,-13.4744,-0.0918084,2.67838,22.4695,8.19766,5,-5.65339,-6.11129,-3.41032,4.37428,21.2286,13.7174,5,0.624216,-11.5123,1.4512,0.254386,0.0620482,90,96,95,96,100,10,75,100,98,94,97,25
4.95524,10,0.0918263,-1.32108,-14.8803,27.7758,-13.078,-0.0918263,0.0918263,-1.32108,-14.484,27.7758,-13.4744,-0.0918263,2.67888,22.4696,8.19774,5,-5.65366,-6.11142,-3.41004,4.37376,21.2285,13.7173,5,0.624895,-11.5126,1.45103,0.254232,0.0620578,90,96,95,96,100,10,75,100,98,94,97,25
4.95491,10,0.0918411,-1.32087,-14.8803,27.7758,-13.0781,-0.0918411,0.0918411,-1.32087,-14.484,27.7758,-13.4743,-0.0918411,2.6794,22.4697,8.19775,5,-5.65385,-6.11156,-3.40976,4.37324,21.2284,13.7172,5,0.625526,-11.5129,1.45088,0.254076,0.0620656,90,96,95,96,100,10,75,100,98,94,97,25
4.95457,10,0.0918529,-1.32066,-14.8803,27.7758,-13.0781,-0.0918529,0.0918529,-1.32066,-14.4841,27.7758,-13.4743,-0.0918529,2.67995,22.4698,8.1977,5,-5.65398,-6.11172,-3.40949,4.37274,21.2283,13.7172,5,0.626104,-11.5132,1.45074,0.253919,0.0620719,90,96,95,96,100,10,75,100,98,94,97,25
4.95421,10,0.0918618,-1.32045,-14.8803,27.7758,-13.0781,-0.0918618,0.0918618,-1.32045,-14.4841,27.7758,-13.4743,-0.0918618,2.68051,22.4698,8.19758,5,-5.65403,-6.1119,-3.40923,4.37224,21.2283,13.7173,5,0.626623,-11.5134,1.45061,0.25376,0.0620766,90,96,95,96,100,10,75,100,98,94,97,25
4.95383,10,0.091868,-1.32023,-14.8802,27.7758,-13.0782,-0.091868,0.091868,-1.32023,-14.4842,27.7758,-13.4742,-0.091868,2.68109,22.4699,8.19739,5,-5.654,-6.11209,-3.40897,4.37175,21.2283,13.7175,5,0.627078,-11.5136,1.45051,0.253599,0.0620799,90,96,95,96,100,10,75,100,98,94,97,25
4.95344,10,0.0918717,-1.32002,-14.8802,27.7758,-13.0782,-0.0918717,0.0918717,-1.32002,-14.4842,27.7758,-13.4742,-0.0918717,2.68169,22.4699,8.19713,5,-5.65389,-6.11229,-3.40872,4.37127,21.2282,13.7177,5,0.627467,-11.5137,1.45042,0.253437,0.0620819,90,96,95,96,100,10,75,100,98,94,97,25
4.95305,10,0.091873,-1.3198,-14.8802,27.7758,-13.0782,-0.091873,0.091873,-1.3198,-14.4842,27.7758,-13.4742,-0.091873,2.6823,22.4699,8.19678,5,-5.65369,-6.11252,-3.40848,4.3708,21.2282,13.718,5,0.627762,-11.5139,1.45034,0.253274,0.0620826,90,96,95,96,100,10,75,100,98,94,97,25
4.95265,10,0.0918721,-1.31958,-14.8801,27.7758,-13.0782,-0.0918721,0.0918721,-1.31958,-14.4843,27.7758,-13.4741,-0.0918721,2.68294,22.4699,8.19634,5,-5.6534,-6.11276,-3.40824,4.37034,21.2282,13.7184,5,0.627975,-11.514,1.45029,0.25311,0.0620821,90,96,95,96,100,10,75,100,98,94,97,25
4.95225,10,0.0918692,-1.31936,-14.8801,27.7758,-13.0783,-0.0918692,0.0918692,-1.31936,-14.4843,27.7758,-13.4741,-0.0918692,2.68359,22.4698,8.19583,5,-5.65303,-6.11301,-3.408,4.36989,21.2282,13.7189,5,0.628117,-11.514,1.45026,0.252945,0.0620806,90,96,95,96,100,10,75,100,98,94,97,25
4.95185,10,0.0918644,-1.31914,-14.8801,27.7758,-13.0783,-0.0918644,0.0918644,-1.31914,-14.4844,27.7758,-13.474,-0.0918644,2.68425,22.4698,8.19526,5,-5.6526,-6.11327,-3.40778,4.36945,21.2283,13.7194,5,0.628196,-11.5141,1.45023,0.25278,0.062078,90,96,95,96,100,10,75,100,98,94,97,25
4.95142,10,0.0918578,-1.31892,-14.8801,27.7758,-13.0783,-0.0918578,0.0918578,-1.31892,-14.4844,27.7758,-13.474,-0.0918578,2.68492,22.4698,8.19464,5,-5.65211,-6.11354,-3.40755,4.36901,21.2283,13.7199,5,0.62822,-11.5141,1.45022,0.252615,0.0620745,90,96,95,96,100,10,75,100,98,94,97,25
4.95099,10,0.0918497,-1.3187,-14.88,27.7758,-13.0783,-0.0918497,0.0918497,-1.3187,-14.4844,27.7758,-13.474,-0.0918497,2.68559,22.4697,8.19397,5,-5.65157,-6.11382,-3.40734,4.36859,21.2283,13.7205,5,0.628197,-11.5141,1.45023,0.25245,0.0620702,90,96,95,96,100,10,75,100,98,94,97,25
4.95054,10,0.0918401,-1.31848,-14.8827,27.7778,-13.0789,-0.0918401,0.0918401,-1.31848,-14.4871,27.7778,-13.4745,-0.0918401,2.68626,22.4697,8.19326,5,-5.65098,-6.1141,-3.40712,4.36817,21.2284,13.7211,5,0.628133,-11.5141,1.45024,0.252286,0.0620651,90,96,95,96,100,10,75,100,98,94,97,25
4.95006,10,0.0918302,-1.31827,-14.8827,27.7778,-13.079,-0.0918302,0.0918302,-1.31827,-14.4872,27.7778,-13.4744,-0.0918302,2.68693,22.4697,8.19255,5,-5.65039,-6.11438,-3.40692,4.36776,21.2285,13.7218,5,0.628057,-11.514,1.45025,0.252124,0.0620598,90,96,95,96,100,10,75,100,98,94,97,25
4.94955,10,0.0918197,-1.31805,-14.8826,27.7778,-13.079,-0.0918197,0.0918197,-1.31805,-14.4872,27.7778,-13.4744,-0.0918197,2.6876,22.4696,8.19183,5,-5.64978,-6.11467,-3.40672,4.36736,21.2285,13.7224,5,0.62796,-11.514,1.45028,0.251964,0.0620542,90,96,95,96,100,10,75,100,98,94,97,25
4.94902,10,0.0918083,-1.31784,-14.8826,27.7778,-13.079,-0.0918083,0.0918083,-1.31784,-14.4873,27.7778,-13.4743,-0.0918083,2.68827,22.4696,8.19109,5,-5.64915,-6.11495,-3.40652,4.36697,21.2286,13.7231,5,0.627835,-11.5139,1.45031,0.251806,0.0620482,90,96,95,96,100,10,75,100,98,94,97,25
4.94848,10,0.091796,-1.31763,-14.8826,27.7778,-13.079,-0.091796,0.091796,-1.31763,-14.4873,27.7778,-13.4743,-0.091796,2.68893,22.4695,8.19032,5,-5.64848,-6.11524,-3.40633,4.36659,21.2287,13.7238,5,0.627677,-11.5139,1.45035,0.251649,0.0620417,90,96,95,96,100,10,75,100,98,94,97,25
4.94793,10,0.0917826,-1.31743,-14.8826,27.7778,-13.079,-0.0917826,0.0917826,-1.31743,-14.4874,27.7778,-13.4743,-0.0917826,2.68959,22.4694,8.18952,5,-5.64778,-6.11553,-3.40615,4.36622,21.2287,13.7245,5,0.62748,-11.5138,1.45039,0.251494,0.0620346,90,96,95,96,100,10,75,100,98,94,97,25
4.94738,10,0.0917682,-1.31722,-14.8826,27.7778,-13.0791,-0.0917682,0.0917682,-1.31722,-14.4874,27.7778,-13.4742,-0.0917682,2.69025,22.4694,8.18868,5,-5.64704,-6.11583,-3.40597,4.36586,21.2288,13.7252,5,0.627241,-11.5137,1.45044,0.25134,0.0620269,90,96,95,96,100,10,75,100,98,94,97,25
4.94683,10,0.091753,-1.31702,-14.8825,27.7778,-13.0791,-0.091753,0.091753,-1.31702,-14.4874,27.7778,-13.4742,-0.091753,2.69091,22.4693,8.1878,5,-5.64627,-6.11613,-3.40579,4.3655,21.2289,13.726,5,0.626958,-11.5136,1.4505,0.251188,0.0620188,90,96,95,96,100,10,75,100,98,94,97,25
4.94632,10,0.0917339,-1.31682,-14.8825,27.7778,-13.0791,-0.0917339,0.0917339,-1.31682,-14.4875,27.7778,-13.4741,-0.0917339,2.69157,22.4692,8.18685,5,-5.64541,-6.11643,-3.40561,4.36515,21.229,13.7268,5,0.626609,-11.5135,1.45058,0.251038,0.0620087,90,96,95,96,100,10,75,100,98,94,97,25
4.94582,10,0.0917129,-1.31662,-14.8825,27.7778,-13.0791,-0.0917129,0.0917129,-1.31662,-14.4875,27.7778,-13.4741,-0.0917129,2.69223,22.4691,8.18584,5,-5.64449,-6.11674,-3.40544,4.36481,21.2291,13.7277,5,0.626205,-11.5133,1.45066,0.250888,0.0619975,90,96,95,96,100,10,75,100,98,94,97,25
4.94533,10,0.0916914,-1.31642,-14.8825,27.7778,-13.0791,-0.0916914,0.0916914,-1.31642,-14.4876,27.7778,-13.4741,-0.0916914,2.69288,22.4689,8.1848,5,-5.64353,-6.11706,-3.40528,4.36449,21.2292,13.7286,5,0.625753,-11.5132,1.45075,0.250741,0.0619861,90,96,95,96,100,10,75,100,98,94,97,25
4.94483,10,0.0916709,-1.31623,-14.8825,27.7778,-13.0791,-0.0916709,0.0916709,-1.31623,-14.4876,27.7778,-13.474,-0.0916709,2.69353,22.4688,8.18374,5,-5.64257,-6.11737,-3.40511,4.36417,21.2293,13.7295,5,0.625263,-11.513,1.45084,0.250596,0.0619752,90,96,95,96,100,10,75,100,98,94,97,25
4.94431,10,0.0916526,-1.31604,-14.8825,27.7778,-13.0792,-0.0916526,0.0916526,-1.31604,-14.4877,27.7778,-13.474,-0.0916526,2.69418,22.4687,8.18268,5,-5.64161,-6.11768,-3.40495,4.36388,21.2294,13.7304,5,0.624741,-11.5129,1.45094,0.250455,0.0619654,90,96,95,96,100,10,75,100,98,94,97,25
4.94377,10,0.0916375,-1.31586,-14.8825,27.7778,-13.0792,-0.0916375,0.0916375,-1.31586,-14.4877,27.7778,-13.4739,-0.0916375,2.69483,22.4687,8.18164,5,-5.64068,-6.11798,-3.4048,4.36361,21.2295,13.7312,5,0.624195,-11.5127,1.45104,0.250317,0.0619574,90,96,95,96,100,10,75,100,98,94,97,25
4.9432,10,0.0916262,-1.31568,-14.8824,27.7778,-13.0792,-0.0916262,0.0916262,-1.31568,-14.4877,27.7778,-13.4739,-0.0916262,2.69548,22.4686,8.18062,5,-5.63978,-6.11828,-3.40465,4.36336,21.2296,13.7321,5,0.623631,-11.5125,1.45115,0.250182,0.0619514,90,96,95,96,100,10,75,100,98,94,97,25
4.94256,10,0.0916218,-1.3155,-14.8824,27.7778,-13.0792,-0.0916218,0.0916218,-1.3155,-14.4878,27.7778,-13.4738,-0.0916218,2.69613,22.4687,8.17966,5,-5.63897,-6.11856,-3.4045,4.36314,21.2297,13.7328,5,0.62306,-11.5123,1.45126,0.250052,0.0619491,90,96,95,96,100,10,75,100,98,94,97,25
4.94188,10,0.0916236,-1.31534,-14.8824,27.7778,-13.0792,-0.0916236,0.0916236,-1.31534,-14.4878,27.7778,-13.4738,-0.0916236,2.69677,22.4687,8.17876,5,-5.63823,-6.11884,-3.40435,4.36295,21.2297,13.7335,5,0.622483,-11.512,1.45136,0.249926,0.06195,90,96,95,96,100,10,75,100,98,94,97,25
4.94115,10,0.0916309,-1.31518,-14.8824,27.7778,-13.0792,-0.0916309,0.0916309,-1.31518,-14.4879,27.7778,-13.4737,-0.0916309,2.69741,22.4689,8.17791,5,-5.63756,-6.1191,-3.40421,4.36278,21.2298,13.7341,5,0.621903,-11.5118,1.45147,0.249805,0.0619539,90,96,95,96,100,10,75,100,98,94,97,25
4.94038,10,0.0916433,-1.31502,-14.8824,27.7778,-13.0792,-0.0916433,0.0916433,-1.31502,-14.4879,27.7778,-13.4737,-0.0916433,2.69805,22.469,8.1771,5,-5.63695,-6.11935,-3.40408,4.36264,21.2298,13.7347,5,0.621321,-11.5115,1.45158,0.249688,0.0619605,90,96,95,96,100,10,75,100,98,94,97,25
4.93958,10,0.0916602,-1.31487,-14.8824,27.7778,-13.0792,-0.0916602,0.0916602,-1.31487,-14.488,27.7778,-13.4737,-0.0916602,2.69869,22.4692,8.17635,5,-5.6364,-6.11959,-3.40395,4.36252,21.2298,13.7351,5,0.620737,-11.5113,1.45168,0.249575,0.0619695,90,96,95,96,100,10,75,100,98,94,97,25
4.93874,10,0.0916812,-1.31472,-14.8824,27.7778,-13.0792,-0.0916812,0.0916812,-1.31472,-14.488,27.7778,-13.4736,-0.0916812,2.69932,22.4695,8.17564,5,-5.63591,-6.11983,-3.40382,4.36242,21.2298,13.7356,5,0.620155,-11.511,1.45179,0.249466,0.0619806,90,96,95,96,100,10,75,100,98,94,97,25
4.93789,10,0.0917057,-1.31458,-14.884,27.7789,-13.0795,-0.0917057,0.0917057,-1.31458,-14.4896,27.7789,-13.4739,-0.0917057,2.69994,22.4697,8.17497,5,-5.63546,-6.12005,-3.40369,4.36234,21.2298,13.736,5,0.619574,-11.5107,1.4519,0.24936,0.0619936,90,96,95,96,100,10,75,100,98,94,97,25
4.93702,10,0.0917339,-1.31445,-14.884,27.7789,-13.0795,-0.0917339,0.0917339,-1.31445,-14.4897,27.7789,-13.4739,-0.0917339,2.70055,22.47,8.17436,5,-5.63509,-6.12026,-3.40358,4.36228,21.2298,13.7363,5,0.619021,-11.5104,1.45199,0.249259,0.0620087,90,96,95,96,100,10,75,100,98,94,97,25
4.93615,10,0.0917653,-1.31432,-14.884,27.7789,-13.0795,-0.0917653,0.0917653,-1.31432,-14.4897,27.7789,-13.4738,-0.0917653,2.70115,22.4703,8.1738,5,-5.63477,-6.12046,-3.40347,4.36223,21.2298,13.7366,5,0.618485,-11.5101,1.45208,0.249162,0.0620253,90,96,95,96,100,10,75,100,98,94,97,25
4.93526,10,0.0917991,-1.31419,-14.884,27.7789,-13.0795,-0.0917991,0.0917991,-1.31419,-14.4897,27.7789,-13.4738,-0.0917991,2.70175,22.4707,8.17328,5,-5.6345,-6.12066,-3.40336,4.3622,21.2298,13.7368,5,0.617957,-11.5098,1.45217,0.249068,0.0620433,90,96,95,96,100,10,75,100,98,94,97,25
4.93436,10,0.0918348,-1.31407,-14.884,27.7789,-13.0795,-0.0918348,0.0918348,-1.31407,-14.4898,27.7789,-13.4737,-0.0918348,2.70233,22.471,8.17278,5,-5.63425,-6.12084,-3.40326,4.36218,21.2298,13.737,5,0.617429,-11.5095,1.45226,0.248977,0.0620623,90,96,95,96,100,10,75,100,98,94,97,25
4.93346,10,0.0918722,-1.31395,-14.884,27.7789,-13.0795,-0.0918722,0.0918722,-1.31395,-14.4898,27.7789,-13.4737,-0.0918722,2.70291,22.4714,8.1723,5,-5.63402,-6.12103,-3.40316,4.36217,21.2298,13.7372,5,0.616897,-11.5092,1.45235,0.248889,0.0620821,90,96,95,96,100,10,75,100,98,94,97,25
4.93255,10,0.0919106,-1.31384,-14.884,27.7789,-13.0795,-0.0919106,0.0919106,-1.31384,-14.4899,27.7789,-13.4737,-0.0919106,2.70348,22.4718,8.17184,5,-5.63381,-6.1212,-3.40306,4.36217,21.2297,13.7374,5,0.616357,-11.5089,1.45245,0.248803,0.0621026,90,96,95,96,100,10,75,100,98,94,97,25
4.93163,10,0.09195,-1.31373,-14.884,27.7789,-13.0795,-0.09195,0.09195,-1.31373,-14.4899,27.7789,-13.4736,-0.09195,2.70404,22.4722,8.17138,5,-5.63361,-6.12137,-3.40295,4.36217,21.2297,13.7376,5,0.61581,-11.5086,1.45254,0.24872,0.0621235,90,96,95,96,100,10,75,100,98,94,97,25
4.93071,10,0.0919883,-1.31362,-14.884,27.7789,-13.0795,-0.0919883,0.0919883,-1.31362,-14.4899,27.7789,-13.4736,-0.0919883,2.7046,22.4725,8.17086,5,-5.63335,-6.12155,-3.40284,4.36217,21.2297,13.7378,5,0.615197,-11.5083,1.45267,0.248635,0.0621439,90,96,95,96,100,10,75,100,98,94,97,25
4.92978,10,0.0920263,-1.31351,-14.884,27.7789,-13.0795,-0.0920263,0.0920263,-1.31351,-14.49,27.7789,-13.4736,-0.0920263,2.70515,22.4729,8.17032,5,-5.63307,-6.12172,-3.40271,4.36217,21.2296,13.738,5,0.614549,-11.508,1.4528,0.248552,0.0621641,90,96,95,96,100,10,75,100,98,94,97,25
4.92886,10,0.0920646,-1.3134,-14.884,27.7789,-13.0795,-0.0920646,0.0920646,-1.3134,-14.49,27.7789,-13.4735,-0.0920646,2.7057,22.4733,8.16978,5,-5.63279,-6.12189,-3.40258,4.36217,21.2296,13.7382,5,0.613895,-11.5077,1.45294,0.248471,0.0621844,90,96,95,96,100,10,75,100,98,94,97,25
4.92795,10,0.0921037,-1.31329,-14.884,27.7789,-13.0795,-0.0921037,0.0921037,-1.31329,-14.4901,27.7789,-13.4735,-0.0921037,2.70623,22.4737,8.16927,5,-5.63255,-6.12205,-3.40246,4.36218,21.2296,13.7384,5,0.61326,-11.5074,1.45307,0.248392,0.0622052,90,96,95,96,100,10,75,100,98,94,97,25
4.92704,10,0.092144,-1.31319,-14.8841,27.7789,-13.0795,-0.092144,0.092144,-1.31319,-14.4901,27.7789,-13.4734,-0.092144,2.70675,22.4741,8.16882,5,-5.63235,-6.12221,-3.40235,4.3622,21.2295,13.7386,5,0.612664,-11.5071,1.45319,0.248318,0.0622267,90,96,95,96,100,10,75,100,98,94,97,25
4.92616,10,0.092186,-1.3131,-14.8841,27.7789,-13.0795,-0.092186,0.092186,-1.3131,-14.4901,27.7789,-13.4734,-0.092186,2.70725,22.4745,8.16843,5,-5.63222,-6.12235,-3.40225,4.36223,21.2295,13.7387,5,0.612127,-11.5068,1.45329,0.248247,0.062249,90,96,95,96,100,10,75,100,98,94,97,25
4.9253,10,0.0922298,-1.31301,-14.8844,27.7792,-13.0795,-0.0922298,0.0922298,-1.31301,-14.4905,27.7792,-13.4734,-0.0922298,2.70773,22.4749,8.16814,5,-5.63218,-6.12248,-3.40218,4.36228,21.2294,13.7387,5,0.61166,-11.5065,1.45337,0.248182,0.0622723,90,96,95,96,100,10,75,100,98,94,97,25
4.92447,10,0.0922761,-1.31293,-14.8844,27.7792,-13.0795,-0.0922761,0.0922761,-1.31293,-14.4905,27.7792,-13.4734,-0.0922761,2.70819,22.4753,8.16799,5,-5.63226,-6.12259,-3.40213,4.36235,21.2294,13.7386,5,0.611303,-11.5062,1.45341,0.248124,0.0622969,90,96,95,96,100,10,75,100,98,94,97,25
4.92366,10,0.0923247,-1.31287,-14.8844,27.7792,-13.0795,-0.0923247,0.0923247,-1.31287,-14.4905,27.7792,-13.4734,-0.0923247,2.70862,22.4757,8.16797,5,-5.63248,-6.12269,-3.40212,4.36244,21.2293,13.7385,5,0.61105,-11.506,1.45341,0.248073,0.0623227,90,96,95,96,100,10,75,100,98,94,97,25
4.92289,10,0.0923757,-1.31281,-14.8844,27.7792,-13.0795,-0.0923757,0.0923757,-1.31281,-14.4906,27.7792,-13.4733,-0.0923757,2.70903,22.4762,8.16807,5,-5.6328,-6.12276,-3.40213,4.36255,21.2292,13.7382,5,0.610897,-11.5058,1.45338,0.248028,0.0623498,90,96,95,96,100,10,75,100,98,94,97,25
4.92215,10,0.0924288,-1.31275,-14.8844,27.7792,-13.0795,-0.0924288,0.0924288,-1.31275,-14.4906,27.7792,-13.4733,-0.0924288,2.70942,22.4767,8.16827,5,-5.63322,-6.12283,-3.40216,4.36268,21.2291,13.7378,5,0.610839,-11.5055,1.45331,0.247989,0.0623781,90,96,95,96,100,10,75,100,98,94,97,25
4.92143,10,0.0924841,-1.31271,-14.8844,27.7792,-13.0795,-0.0924841,0.0924841,-1.31271,-14.4906,27.7792,-13.4733,-0.0924841,2.70979,22.4772,8.16856,5,-5.63373,-6.12288,-3.40221,4.36282,21.229,13.7374,5,0.61087,-11.5053,1.45323,0.247954,0.0624075,90,96,95,96,100,10,75,100,98,94,97,25
4.92074,10,0.0925413,-1.31267,-14.8845,27.7792,-13.0795,-0.0925413,0.0925413,-1.31267,-14.4907,27.7792,-13.4733,-0.0925413,2.71015,22.4777,8.16894,5,-5.63432,-6.12292,-3.40227,4.36298,21.2289,13.7369,5,0.610985,-11.5052,1.45312,0.247924,0.0624379,90,96,95,96,100,10,75,100,98,94,97,25
4.92007,10,0.0926001,-1.31263,-14.8866,27.7807,-13.0799,-0.0926001,0.0926001,-1.31263,-14.4929,27.7807,-13.4737,-0.0926001,2.7105,22.4782,8.16939,5,-5.63497,-6.12294,-3.40235,4.36314,21.2288,13.7363,5,0.611174,-11.505,1.45299,0.247897,0.0624691,90,96,95,96,100,10,75,100,98,94,97,25
4.91943,10,0.0926621,-1.3126,-14.8867,27.7807,-13.0799,-0.0926621,0.0926621,-1.3126,-14.4929,27.7807,-13.4737,-0.0926621,2.71085,22.4787,8.16988,5,-5.63569,-6.12297,-3.40242,4.36332,21.2287,13.7356,5,0.611464,-11.5048,1.45286,0.247871,0.0625021,90,96,95,96,100,10,75,100,98,94,97,25
4.91882,10,0.0927261,-1.31256,-14.8867,27.7807,-13.0799,-0.0927261,0.0927261,-1.31256,-14.4929,27.7807,-13.4736,-0.0927261,2.7112,22.4793,8.17042,5,-5.63645,-6.12298,-3.4025,4.36351,21.2286,13.7349,5,0.611831,-11.5046,1.45272,0.247847,0.0625361,90,96,95,96,100,10,75,100,98,94,97,25
4.91822,10,0.092791,-1.31254,-14.8867,27.7807,-13.0799,-0.092791,0.092791,-1.31254,-14.4929,27.7807,-13.4736,-0.092791,2.71153,22.4799,8.17101,5,-5.63726,-6.12299,-3.40259,4.3637,21.2285,13.7341,5,0.612254,-11.5044,1.45256,0.247826,0.0625707,90,96,95,96,100,10,75,100,98,94,97,25
4.91765,10,0.092856,-1.31251,-14.8867,27.7807,-13.0798,-0.092856,0.092856,-1.31251,-14.493,27.7807,-13.4736,-0.092856,2.71185,22.4805,8.17165,5,-5.63811,-6.12299,-3.40269,4.3639,21.2284,13.7333,5,0.612712,-11.5042,1.4524,0.247808,0.0626052,90,96,95,96,100,10,75,100,98,94,97,25
4.9171,10,0.0929201,-1.31249,-14.8867,27.7807,-13.0798,-0.0929201,0.0929201,-1.31249,-14.493,27.7807,-13.4736,-0.0929201,2.71215,22.4811,8.17233,5,-5.639,-6.12298,-3.4028,4.36411,21.2283,13.7324,5,0.613189,-11.5041,1.45221,0.247793,0.0626393,90,96,95,96,100,10,75,100,98,94,97,25
4.91656,10,0.0929827,-1.31248,-14.8868,27.7807,-13.0798,-0.0929827,0.0929827,-1.31248,-14.493,27.7807,-13.4736,-0.0929827,2.71243,22.4816,8.17305,5,-5.63991,-6.12297,-3.40293,4.36432,21.2282,13.7316,5,0.613671,-11.5039,1.45201,0.247783,0.0626726,90,96,95,96,100,10,75,100,98,94,97,25
4.91604,10,0.0930433,-1.31247,-14.8868,27.7808,-13.0798,-0.0930433,0.0930433,-1.31247,-14.4931,27.7808,-13.4735,-0.0930433,2.71268,22.4821,8.17382,5,-5.64085,-6.12294,-3.40308,4.36453,21.228,13.7308,5,0.614145,-11.5038,1.4518,0.247778,0.0627048,90,96,95,96,100,10,75,100,98,94,97,25
4.91552,10,0.0930996,-1.31247,-14.8869,27.7808,-13.0798,-0.0930996,0.0930996,-1.31247,-14.4931,27.7808,-13.4735,-0.0930996,2.71289,22.4826,8.17463,5,-5.6418,-6.12291,-3.40326,4.36474,21.2279,13.7301,5,0.614564,-11.5037,1.45156,0.247778,0.0627347,90,96,95,96,100,10,75,100,98,94,97,25
4.91501,10,0.0931522,-1.31248,-14.8869,27.7808,-13.0798,-0.0931522,0.0931522,-1.31248,-14.4931,27.7808,-13.4735,-0.0931522,2.71307,22.483,8.17549,5,-5.64276,-6.12288,-3.40346,4.36496,21.2277,13.7294,5,0.614937,-11.5037,1.4513,0.247784,0.0627627,90,96,95,96,100,10,75,100,98,94,97,25
4.91451,10,0.0932014,-1.3125,-14.8869,27.7808,-13.0798,-0.0932014,0.0932014,-1.3125,-14.4931,27.7808,-13.4735,-0.0932014,2.71321,22.4834,8.17638,5,-5.64373,-6.12283,-3.40368,4.36517,21.2276,13.7288,5,0.615273,-11.5037,1.45102,0.247795,0.0627888,90,96,95,96,100,10,75,100,98,94,97,25
4.91403,10,0.0932475,-1.31252,-14.8869,27.7808,-13.0797,-0.0932475,0.0932475,-1.31252,-14.4932,27.7808,-13.4735,-0.0932475,2.71332,22.4837,8.1773,5,-5.64471,-6.12278,-3.40393,4.36539,21.2274,13.7282,5,0.615579,-11.5037,1.45073,0.24781,0.0628133,90,96,95,96,100,10,75,100,98,94,97,25
4.91358,10,0.0932908,-1.31254,-14.8869,27.7808,-13.0797,-0.0932908,0.0932908,-1.31254,-14.4932,27.7808,-13.4735,-0.0932908,2.71341,22.484,8.17825,5,-5.6457,-6.12272,-3.40419,4.3656,21.2272,13.7277,5,0.615861,-11.5037,1.45042,0.247828,0.0628364,90,96,95,96,100,10,75,100,98,94,97,25
4.91315,10,0.0933317,-1.31257,-14.8869,27.7808,-13.0797,-0.0933317,0.0933317,-1.31257,-14.4932,27.7808,-13.4735,-0.0933317,2.71348,22.4842,8.17922,5,-5.6467,-6.12266,-3.40446,4.36581,21.227,13.7272,5,0.616123,-11.5037,1.4501,0.24785,0.0628581,90,96,95,96,100,10,75,100,98,94,97,25
4.91275,10,0.0933702,-1.3126,-14.8886,27.782,-13.0801,-0.0933702,0.0933702,-1.3126,-14.4948,27.782,-13.4738,-0.0933702,2.71352,22.4844,8.18021,5,-5.64771,-6.1226,-3.40475,4.36602,21.2268,13.7268,5,0.616368,-11.5038,1.44977,0.247875,0.0628786,90,96,95,96,100,10,75,100,98,94,97,25
4.91239,10,0.093407,-1.31264,-14.8886,27.782,-13.08,-0.093407,0.093407,-1.31264,-14.4948,27.782,-13.4738,-0.093407,2.71355,22.4846,8.18123,5,-5.64873,-6.12253,-3.40504,4.36623,21.2266,13.7264,5,0.616616,-11.5038,1.44944,0.247902,0.0628982,90,96,95,96,100,10,75,100,98,94,97,25
4.91207,10,0.0934421,-1.31268,-14.8887,27.782,-13.08,-0.0934421,0.0934421,-1.31268,-14.4949,27.782,-13.4738,-0.0934421,2.71356,22.4848,8.18226,5,-5.64975,-6.12245,-3.40534,4.36643,21.2264,13.726,5,0.61686,-11.5039,1.4491,0.247931,0.0629168,90,96,95,96,100,10,75,100,98,94,97,25
4.91179,10,0.0934753,-1.31272,-14.8887,27.782,-13.08,-0.0934753,0.0934753,-1.31272,-14.4949,27.782,-13.4738,-0.0934753,2.71355,22.4849,8.1833,5,-5.65077,-6.12237,-3.40565,4.36663,21.2262,13.7256,5,0.617091,-11.5039,1.44875,0.247962,0.0629345,90,96,95,96,100,10,75,100,98,94,97,25
4.91153,10,0.0935066,-1.31276,-14.8887,27.782,-13.08,-0.0935066,0.0935066,-1.31276,-14.4949,27.782,-13.4738,-0.0935066,2.71353,22.485,8.18434,5,-5.65178,-6.12229,-3.40597,4.36683,21.226,13.7252,5,0.6173,-11.504,1.4484,0.247994,0.0629511,90,96,95,96,100,10,75,100,98,94,97,25
4.91131,10,0.0935357,-1.31281,-14.8887,27.782,-13.08,-0.0935357,0.0935357,-1.31281,-14.4949,27.782,-13.4738,-0.0935357,2.7135,22.4851,8.18538,5,-5.65278,-6.12221,-3.40629,4.36702,21.2258,13.7249,5,0.617482,-11.5041,1.44805,0.248029,0.0629666,90,96,95,96,100,10,75,100,98,94,97,25
4.91111,10,0.0935626,-1.31285,-14.8887,27.782,-13.08,-0.0935626,0.0935626,-1.31285,-14.4949,27.782,-13.4738,-0.0935626,2.71345,22.4852,8.18641,5,-5.65376,-6.12212,-3.40661,4.36722,21.2256,13.7246,5,0.61763,-11.5042,1.44769,0.248064,0.0629809,90,96,95,96,100,10,75,100,98,94,97,25
4.91093,10,0.0935874,-1.3129,-14.8888,27.7821,-13.08,-0.0935874,0.0935874,-1.3129,-14.4949,27.7821,-13.4738,-0.0935874,2.7134,22.4853,8.18743,5,-5.65471,-6.12205,-3.40694,4.36741,21.2254,13.7244,5,0.617737,-11.5044,1.44733,0.248102,0.062994,90,96,95,96,100,10,75,100,98,94,97,25
4.91076,10,0.0936101,-1.31296,-14.8888,27.7821,-13.08,-0.0936101,0.0936101,-1.31296,-14.4949,27.7821,-13.4738,-0.0936101,2.71333,22.4853,8.18844,5,-5.65564,-6.12197,-3.40728,4.36759,21.2252,13.7242,5,0.617809,-11.5045,1.44697,0.24814,0.0630061,90,96,95,96,100,10,75,100,98,94,97,25
4.91061,10,0.0936306,-1.31301,-14.8888,27.7821,-13.0799,-0.0936306,0.0936306,-1.31301,-14.4949,27.7821,-13.4738,-0.0936306,2.71325,22.4853,8.18943,5,-5.65654,-6.1219,-3.40761,4.36778,21.225,13.7241,5,0.617835,-11.5047,1.4466,0.248179,0.063017,90,96,95,96,100,10,75,100,98,94,97,25
4.91048,10,0.0936487,-1.31306,-14.8888,27.7821,-13.0799,-0.0936487,0.0936487,-1.31306,-14.4949,27.7821,-13.4739,-0.0936487,2.71316,22.4853,8.19039,5,-5.6574,-6.12183,-3.40795,4.36796,21.2248,13.724,5,0.617807,-11.5048,1.44624,0.24822,0.0630267,90,96,95,96,100,10,75,100,98,94,97,25
4.91036,10,0.0936643,-1.31312,-14.8888,27.7821,-13.0799,-0.0936643,0.0936643,-1.31312,-14.4949,27.7821,-13.4739,-0.0936643,2.71306,22.4853,8.19133,5,-5.65822,-6.12176,-3.40828,4.36814,21.2246,13.724,5,0.617718,-11.505,1.44589,0.248263,0.0630349,90,96,95,96,100,10,75,100,98,94,97,25
4.91026,10,0.0936772,-1.31318,-14.8888,27.7821,-13.0799,-0.0936772,0.0936772,-1.31318,-14.4949,27.7821,-13.4739,-0.0936772,2.71294,22.4852,8.19223,5,-5.65898,-6.12169,-3.40862,4.36833,21.2244,13.724,5,0.617561,-11.5052,1.44554,0.248308,0.0630418,90,96,95,96,100,10,75,100,98,94,97,25
4.91019,10,0.0936875,-1.31324,-14.8889,27.7821,-13.0799,-0.0936875,0.0936875,-1.31324,-14.4949,27.7821,-13.4739,-0.0936875,2.71282,22.4851,8.1931,5,-5.65968,-6.12162,-3.40895,4.36851,21.2242,13.7241,5,0.617333,-11.5054,1.44522,0.248355,0.0630473,90,96,95,96,100,10,75,100,98,94,97,25
4.91013,10,0.093695,-1.31331,-14.8894,27.7824,-13.08,-0.093695,0.093695,-1.31331,-14.4954,27.7824,-13.474,-0.093695,2.71268,22.485,8.19392,5,-5.66032,-6.12155,-3.40928,4.36871,21.224,13.7242,5,0.617031,-11.5057,1.44491,0.248404,0.0630513,90,96,95,96,100,10,75,100,98,94,97,25
4.91011,10,0.0936996,-1.31338,-14.8894,27.7824,-13.08,-0.0936996,0.0936996,-1.31338,-14.4954,27.7824,-13.474,-0.0936996,2.71253,22.4849,8.19469,5,-5.66088,-6.12147,-3.40961,4.36891,21.2238,13.7245,5,0.61664,-11.5059,1.44463,0.248457,0.0630537,90,96,95,96,100,10,75,100,98,94,97,25
4.9101,10,0.0937012,-1.31345,-14.8894,27.7824,-13.08,-0.0937012,0.0937012,-1.31345,-14.4953,27.7824,-13.474,-0.0937012,2.71236,22.4847,8.19542,5,-5.66137,-6.12139,-3.40993,4.36911,21.2236,13.7248,5,0.616165,-11.5062,1.44438,0.248512,0.0630546,90,96,95,96,100,10,75,100,98,94,97,25
4.91012,10,0.0937002,-1.31353,-14.8894,27.7824,-13.08,-0.0937002,0.0937002,-1.31353,-14.4953,27.7824,-13.474,-0.0937002,2.71218,22.4845,8.1961,5,-5.66178,-6.12129,-3.41025,4.36932,21.2234,13.7252,5,0.615612,-11.5064,1.44415,0.248571,0.0630541,90,96,95,96,100,10,75,100,98,94,97,25
4.91016,10,0.0936967,-1.31361,-14.8894,27.7824,-13.0799,-0.0936967,0.0936967,-1.31361,-14.4953,27.7824,-13.474,-0.0936967,2.712,22.4843,8.19673,5,-5.66213,-6.1212,-3.41056,4.36954,21.2232,13.7256,5,0.614985,-11.5067,1.44395,0.248632,0.0630522,90,96,95,96,100,10,75,100,98,94,97,25
4.91021,10,0.093691,-1.3137,-14.8894,27.7824,-13.0799,-0.093691,0.093691,-1.3137,-14.4953,27.7824,-13.474,-0.093691,2.7118,22.484,8.19733,5,-5.66241,-6.12109,-3.41086,4.36977,21.2231,13.7261,5,0.614289,-11.507,1.44377,0.248695,0.0630491,90,96,95,96,100,10,75,100,98,94,97,25
4.91028,10,0.0936831,-1.31378,-14.8894,27.7824,-13.0799,-0.0936831,0.0936831,-1.31378,-14.4953,27.7824,-13.474,-0.0936831,2.7116,22.4838,8.19788,5,-5.66263,-6.12098,-3.41115,4.37001,21.2229,13.7267,5,0.613529,-11.5073,1.44362,0.248761,0.0630449,90,96,95,96,100,10,75,100,98,94,97,25
4.91036,10,0.0936733,-1.31387,-14.8898,27.7827,-13.08,-0.0936733,0.0936733,-1.31387,-14.4957,27.7827,-13.4741,-0.0936733,2.71139,22.4835,8.19839,5,-5.6628,-6.12086,-3.41143,4.37025,21.2227,13.7273,5,0.612712,-11.5075,1.4435,0.248829,0.0630397,90,96,95,96,100,10,75,100,98,94,97,25
4.91046,10,0.0936612,-1.31397,-14.8899,27.7827,-13.08,-0.0936612,0.0936612,-1.31397,-14.4957,27.7827,-13.4742,-0.0936612,2.71118,22.4832,8.19885,5,-5.66289,-6.12073,-3.4117,4.3705,21.2225,13.7279,5,0.611832,-11.5078,1.4434,0.248898,0.0630333,90,96,95,96,100,10,75,100,98,94,97,25
4.91056,10,0.0936475,-1.31406,-14.8899,27.7827,-13.0799,-0.0936475,0.0936475,-1.31406,-14.4957,27.7827,-13.4742,-0.0936475,2.71097,22.4829,8.19928,5,-5.66293,-6.1206,-3.41196,4.37076,21.2224,13.7286,5,0.610899,-11.5081,1.44333,0.248969,0.063026,90,96,95,96,100,10,75,100,98,94,97,25
4.91067,10,0.0936323,-1.31416,-14.8899,27.7827,-13.0799,-0.0936323,0.0936323,-1.31416,-14.4956,27.7827,-13.4742,-0.0936323,2.71075,22.4826,8.19967,5,-5.66292,-6.12046,-3.4122,4.37103,21.2222,13.7294,5,0.609923,-11.5084,1.44328,0.249042,0.0630179,90,96,95,96,100,10,75,100,98,94,97,25
4.91079,10,0.0936162,-1.31426,-14.8899,27.7827,-13.0799,-0.0936162,0.0936162,-1.31426,-14.4956,27.7827,-13.4742,-0.0936162,2.71052,22.4822,8.20004,5,-5.66288,-6.1203,-3.41243,4.3713,21.222,13.7301,5,0.608912,-11.5086,1.44326,0.249117,0.0630094,90,96,95,96,100,10,75,100,98,94,97,25
4.91092,10,0.0935993,-1.31436,-14.8899,27.7827,-13.0799,-0.0935993,0.0935993,-1.31436,-14.4956,27.7827,-13.4742,-0.0935993,2.7103,22.4819,8.20039,5,-5.66279,-6.12013,-3.41263,4.37159,21.2219,13.7309,5,0.607875,-11.5089,1.44326,0.249194,0.0630004,90,96,95,96,100,10,75,100,98,94,97,25
4.91105,10,0.0935822,-1.31447,-14.8899,27.7827,-13.0799,-0.0935822,0.0935822,-1.31447,-14.4956,27.7827,-13.4742,-0.0935822,2.71007,22.4815,8.20074,5,-5.66269,-6.11995,-3.41281,4.37189,21.2217,13.7317,5,0.606818,-11.5091,1.44329,0.249272,0.0629913,90,96,95,96,100,10,75,100,98,94,97,25
4.9112,10,0.0935648,-1.31457,-14.8927,27.7847,-13.0804,-0.0935648,0.0935648,-1.31457,-14.4983,27.7847,-13.4748,-0.0935648,2.70984,22.4812,8.20108,5,-5.66256,-6.11975,-3.41297,4.3722,21.2216,13.7325,5,0.605748,-11.5094,1.44334,0.249353,0.0629821,90,96,95,96,100,10,75,100,98,94,97,25
4.91135,10,0.0935484,-1.31469,-14.8927,27.7847,-13.0804,-0.0935484,0.0935484,-1.31469,-14.4983,27.7847,-13.4748,-0.0935484,2.70961,22.4809,8.20145,5,-5.66243,-6.11952,-3.41309,4.37253,21.2214,13.7333,5,0.604693,-11.5096,1.44342,0.249438,0.0629733,90,96,95,96,100,10,75,100,98,94,97,25
4.91151,10,0.0935327,-1.3148,-14.8927,27.7847,-13.0804,-0.0935327,0.0935327,-1.3148,-14.4983,27.7847,-13.4748,-0.0935327,2.70938,22.4806,8.20184,5,-5.66231,-6.11926,-3.41317,4.37288,21.2213,13.734,5,0.603647,-11.5098,1.44351,0.249526,0.062965,90,96,95,96,100,10,75,100,98,94,97,25
4.91167,10,0.0935175,-1.31492,-14.8927,27.7847,-13.0804,-0.0935175,0.0935175,-1.31492,-14.4983,27.7847,-13.4748,-0.0935175,2.70914,22.4803,8.20224,5,-5.66218,-6.11898,-3.41322,4.37325,21.2212,13.7348,5,0.602605,-11.51,1.44363,0.249616,0.0629569,90,96,95,96,100,10,75,100,98,94,97,25
4.91184,10,0.0935026,-1.31504,-14.8928,27.7847,-13.0803,-0.0935026,0.0935026,-1.31504,-14.4982,27.7847,-13.4749,-0.0935026,2.70891,22.48,8.20264,5,-5.66203,-6.11868,-3.41325,4.37362,21.221,13.7355,5,0.601564,-11.5102,1.44376,0.249707,0.062949,90,96,95,96,100,10,75,100,98,94,97,25
4.91201,10,0.0934879,-1.31517,-14.8928,27.7847,-13.0803,-0.0934879,0.0934879,-1.31517,-14.4982,27.7847,-13.4749,-0.0934879,2.70867,22.4797,8.20304,5,-5.66188,-6.11838,-3.41326,4.374,21.2209,13.7362,5,0.600523,-11.5104,1.44392,0.249799,0.0629412,90,96,95,96,100,10,75,100,98,94,97,25
4.91219,10,0.0934734,-1.31529,-14.8928,27.7847,-13.0803,-0.0934734,0.0934734,-1.31529,-14.4982,27.7847,-13.4749,-0.0934734,2.70843,22.4795,8.20343,5,-5.66171,-6.11808,-3.41326,4.37437,21.2208,13.737,5,0.59948,-11.5106,1.44408,0.249891,0.0629334,90,96,95,96,100,10,75,100,98,94,97,25
4.91237,10,0.093459,-1.31541,-14.8919,27.784,-13.0801,-0.093459,0.093459,-1.31541,-14.4973,27.784,-13.4747,-0.093459,2.7082,22.4792,8.2038,5,-5.66153,-6.11778,-3.41325,4.37475,21.2207,13.7377,5,0.598436,-11.5108,1.44426,0.249982,0.0629258,90,96,95,96,100,10,75,100,98,94,97,25
4.91255,10,0.0934435,-1.31553,-14.8919,27.784,-13.08,-0.0934435,0.0934435,-1.31553,-14.4972,27.784,-13.4747,-0.0934435,2.70797,22.4789,8.20412,5,-5.66129,-6.11751,-3.41325,4.3751,21.2206,13.7385,5,0.597355,-11.511,1.44446,0.250069,0.0629176,90,96,95,96,100,10,75,100,98,94,97,25
4.91273,10,0.0934276,-1.31564,-14.8919,27.784,-13.08,-0.0934276,0.0934276,-1.31564,-14.4972,27.784,-13.4747,-0.0934276,2.70773,22.4787,8.2044,5,-5.66103,-6.11725,-3.41326,4.37543,21.2205,13.7393,5,0.596257,-11.5112,1.44467,0.250154,0.0629091,90,96,95,96,100,10,75,100,98,94,97,25
4.91292,10,0.0934118,-1.31575,-14.8919,27.784,-13.08,-0.0934118,0.0934118,-1.31575,-14.4972,27.784,-13.4747,-0.0934118,2.7075,22.4784,8.20467,5,-5.66075,-6.11701,-3.41326,4.37576,21.2204,13.7402,5,0.595162,-11.5113,1.44489,0.250238,0.0629007,90,96,95,96,100,10,75,100,98,94,97,25
4.9131,10,0.0933965,-1.31586,-14.892,27.784,-13.08,-0.0933965,0.0933965,-1.31586,-14.4972,27.784,-13.4747,-0.0933965,2.70728,22.4781,8.20494,5,-5.66048,-6.11675,-3.41324,4.37609,21.2203,13.741,5,0.594088,-11.5115,1.44511,0.250322,0.0628926,90,96,95,96,100,10,75,100,98,94,97,25
4.91328,10,0.0933822,-1.31598,-14.892,27.784,-13.08,-0.0933822,0.0933822,-1.31598,-14.4972,27.784,-13.4748,-0.0933822,2.70705,22.4779,8.20524,5,-5.66023,-6.11647,-3.41321,4.37643,21.2202,13.7417,5,0.593049,-11.5117,1.44534,0.250407,0.062885,90,96,95,96,100,10,75,100,98,94,97,25
4.91347,10,0.0933692,-1.3161,-14.892,27.784,-13.0799,-0.0933692,0.0933692,-1.3161,-14.4972,27.784,-13.4748,-0.0933692,2.70683,22.4776,8.20557,5,-5.66001,-6.11617,-3.41314,4.3768,21.2201,13.7424,5,0.592059,-11.5118,1.44557,0.250495,0.062878,90,96,95,96,100,10,75,100,98,94,97,25
4.91365,10,0.0933577,-1.31622,-14.8923,27.7842,-13.08,-0.0933577,0.0933577,-1.31622,-14.4975,27.7842,-13.4748,-0.0933577,2.70661,22.4774,8.20596,5,-5.65983,-6.11582,-3.41304,4.37718,21.22,13.743,5,0.591126,-11.512,1.44579,0.250585,0.0628719,90,96,95,96,100,10,75,100,98,94,97,25
4.91383,10,0.0933487,-1.31634,-14.8924,27.7842,-13.08,-0.0933487,0.0933487,-1.31634,-14.4975,27.7842,-13.4749,-0.0933487,2.7064,22.4773,8.20643,5,-5.65973,-6.11541,-3.41288,4.37761,21.2199,13.7435,5,0.590281,-11.5121,1.44601,0.250682,0.0628671,90,96,95,96,100,10,75,100,98,94,97,25
4.914,10,0.0933419,-1.31648,-14.8924,27.7842,-13.0799,-0.0933419,0.0933419,-1.31648,-14.4975,27.7842,-13.4749,-0.0933419,2.70619,22.4771,8.20699,5,-5.6597,-6.11494,-3.41267,4.37808,21.2199,13.7439,5,0.58952,-11.5122,1.44622,0.250784,0.0628635,90,96,95,96,100,10,75,100,98,94,97,25
