565950964-design/kaipule_sdk/control/csv_file/weibolu.csv
Head_1,Head_2,Joint_1,Joint_2,Joint_3,Joint_4,Joint_5,Joint_6,Joint_7,Joint_8,Joint_9,Joint_10,Joint_11,Joint_12,Joint_13,Joint_14,Joint_15,Joint_16,Joint_17,Joint_18,Joint_19,Joint_20,Joint_21,Joint_22,Joint_23,Joint_24,Joint_25,Joint_26,Joint_27,Joint_28,Finger_1,Finger_2,Finger_3,Finger_4,Finger_5,Finger_6,Finger_7,Finger_8,Finger_9,Finger_10,Finger_11,Finger_12
-4.9361,-1.98804,0.0479202,0.177021,-13.0036,27.5459,-14.5715,-0.0479202,0.0479202,0.177021,-13.0568,27.5459,-14.5183,-0.0479202,5.91664,11.9892,-12.9238,10.7199,-8.84992,-0.133846,-5.2078,5.03153,11.4807,-11.8881,12.2678,-7.8004,2.07704,-0.661382,-0.132766,0.0254255,68,63,76,75,82,82,51,82,78,76,72,86
-4.93623,-1.98789,0.0479488,0.177186,-13.0036,27.5459,-14.5715,-0.0479488,0.0479488,0.177186,-13.0568,27.5459,-14.5183,-0.0479488,5.91719,11.9895,-12.9263,10.7204,-8.84874,-0.134252,-5.20773,5.03126,11.4806,-11.8878,12.2676,-7.80063,2.07751,-0.66161,-0.13289,0.0254406,68,63,76,75,82,82,51,82,78,76,72,86
-4.93636,-1.98773,0.0479773,0.177351,-13.0036,27.5459,-14.5715,-0.0479773,0.0479773,0.177351,-13.0568,27.5459,-14.5183,-0.0479773,5.91774,11.9898,-12.9289,10.7209,-8.84756,-0.134658,-5.20765,5.03098,11.4806,-11.8874,12.2674,-7.80085,2.07798,-0.661838,-0.133013,0.0254558,68,63,76,75,82,82,51,82,78,76,72,86
-4.9365,-1.98758,0.0480058,0.177516,-13.0036,27.5459,-14.5715,-0.0480058,0.0480058,0.177516,-13.0568,27.5459,-14.5183,-0.0480058,5.91829,11.99,-12.9314,10.7215,-8.84638,-0.135063,-5.20758,5.03071,11.4806,-11.8871,12.2672,-7.80107,2.07844,-0.662066,-0.133137,0.0254709,68,63,76,75,82,82,51,82,78,76,72,86
-4.93663,-1.98743,0.0480343,0.177681,-13.0036,27.5459,-14.5715,-0.0480343,0.0480343,0.177681,-13.0569,27.5459,-14.5182,-0.0480343,5.91884,11.9903,-12.9339,10.722,-8.8452,-0.135469,-5.20751,5.03043,11.4806,-11.8867,12.267,-7.80129,2.07891,-0.662294,-0.13326,0.025486,68,63,76,75,82,82,51,82,78,76,72,86
-4.93676,-1.98728,0.0480628,0.177845,-13.0035,27.5459,-14.5716,-0.0480628,0.0480628,0.177845,-13.0569,27.5459,-14.5182,-0.0480628,5.91939,11.9906,-12.9365,10.7225,-8.84401,-0.135875,-5.20744,5.03016,11.4806,-11.8864,12.2669,-7.80152,2.07938,-0.662522,-0.133384,0.0255012,68,63,76,75,82,82,51,82,78,76,72,86
-4.93689,-1.98713,0.0480914,0.17801,-13.0035,27.5459,-14.5716,-0.0480914,0.0480914,0.17801,-13.0569,27.5459,-14.5182,-0.0480914,5.91994,11.9909,-12.939,10.723,-8.84283,-0.13628,-5.20736,5.02988,11.4806,-11.886,12.2667,-7.80174,2.07985,-0.66275,-0.133508,0.0255163,68,63,76,75,82,82,51,82,78,76,72,86
-4.93702,-1.98698,0.0481199,0.178175,-13.0035,27.5459,-14.5716,-0.0481199,0.0481199,0.178175,-13.057,27.5459,-14.5181,-0.0481199,5.92049,11.9912,-12.9415,10.7235,-8.84165,-0.136686,-5.20729,5.02961,11.4806,-11.8857,12.2665,-7.80196,2.08032,-0.662977,-0.133631,0.0255314,68,63,76,75,82,82,51,82,78,76,72,86
-4.93712,-1.98686,0.0481421,0.178303,-13.0035,27.5459,-14.5716,-0.0481421,0.0481421,0.178303,-13.057,27.5459,-14.5181,-0.0481421,5.92091,11.9914,-12.9435,10.7239,-8.84073,-0.137001,-5.20723,5.0294,11.4806,-11.8854,12.2663,-7.80214,2.08069,-0.663155,-0.133728,0.0255432,68,63,76,75,82,82,51,82,78,76,72,86
-4.93721,-1.98678,0.0481598,0.178406,-13.0035,27.5459,-14.5716,-0.0481598,0.0481598,0.178406,-13.057,27.5459,-14.5181,-0.0481598,5.92125,11.9916,-12.9451,10.7242,-8.84,-0.137254,-5.20719,5.02922,11.4806,-11.8852,12.2662,-7.80227,2.08098,-0.663296,-0.133804,0.0255526,68,63,76,75,82,82,51,82,78,76,72,86
-4.93729,-1.98672,0.0481743,0.17849,-13.0035,27.5459,-14.5716,-0.0481743,0.0481743,0.17849,-13.057,27.5459,-14.5181,-0.0481743,5.92153,11.9918,-12.9463,10.7245,-8.8394,-0.13746,-5.20715,5.02908,11.4806,-11.8851,12.2661,-7.80239,2.08122,-0.663412,-0.133867,0.0255603,68,63,76,75,82,82,51,82,78,76,72,86
-4.93735,-1.98667,0.0481864,0.17856,-13.0035,27.5459,-14.5716,-0.0481864,0.0481864,0.17856,-13.057,27.5459,-14.5181,-0.0481864,5.92177,11.9919,-12.9474,10.7247,-8.8389,-0.137632,-5.20712,5.02897,11.4805,-11.8849,12.2661,-7.80248,2.08142,-0.663509,-0.13392,0.0255668,68,63,76,75,82,82,51,82,78,76,72,86
-4.93741,-1.98665,0.0481967,0.178619,-13.0035,27.5459,-14.5716,-0.0481967,0.0481967,0.178619,-13.057,27.5459,-14.5181,-0.0481967,5.92196,11.992,-12.9483,10.7249,-8.83847,-0.137778,-5.2071,5.02887,11.4805,-11.8848,12.266,-7.80256,2.08159,-0.663591,-0.133964,0.0255722,68,63,76,75,82,82,51,82,78,76,72,86
-4.93747,-1.98663,0.0482054,0.17867,-13.0035,27.5459,-14.5716,-0.0482054,0.0482054,0.17867,-13.0571,27.5459,-14.518,-0.0482054,5.92213,11.9921,-12.9491,10.7251,-8.83811,-0.137903,-5.20707,5.02878,11.4805,-11.8847,12.2659,-7.80263,2.08173,-0.663661,-0.134002,0.0255768,68,63,76,75,82,82,51,82,78,76,72,86
-4.93752,-1.98662,0.0482131,0.178714,-13.0034,27.5459,-14.5717,-0.0482131,0.0482131,0.178714,-13.0571,27.5459,-14.518,-0.0482131,5.92228,11.9922,-12.9498,10.7252,-8.83779,-0.138011,-5.20705,5.02871,11.4805,-11.8846,12.2659,-7.80269,2.08185,-0.663722,-0.134035,0.0255809,68,63,76,75,82,82,51,82,78,76,72,86
-4.93757,-1.98662,0.0482197,0.178752,-13.0034,27.5459,-14.5717,-0.0482197,0.0482197,0.178752,-13.0571,27.5459,-14.518,-0.0482197,5.92241,11.9922,-12.9504,10.7253,-8.83752,-0.138106,-5.20704,5.02865,11.4805,-11.8845,12.2658,-7.80274,2.08196,-0.663775,-0.134064,0.0255844,68,63,76,82,82,82,51,82,78,76,72,86
-4.93761,-1.98662,0.0482256,0.178786,-13.0035,27.5459,-14.5717,-0.0482256,0.0482256,0.178786,-13.0571,27.5459,-14.518,-0.0482256,5.92252,11.9923,-12.9509,10.7254,-8.83727,-0.138189,-5.20702,5.02859,11.4805,-11.8844,12.2658,-7.80279,2.08206,-0.663822,-0.13409,0.0255875,68,63,76,82,82,82,51,82,78,76,72,86
-4.9377,-1.98662,0.0482298,0.178825,-13.0036,27.546,-14.5717,-0.0482298,0.0482298,0.178825,-13.0572,27.546,-14.518,-0.0482298,5.92264,11.9924,-12.9516,10.7255,-8.83696,-0.13823,-5.20699,5.02852,11.4806,-11.8844,12.2658,-7.8028,2.08219,-0.663856,-0.134119,0.0255898,68,63,76,82,82,82,51,82,78,76,72,86
-4.93784,-1.98662,0.0482327,0.178869,-13.0036,27.546,-14.5717,-0.0482327,0.0482327,0.178869,-13.0573,27.546,-14.5181,-0.0482327,5.92278,11.9925,-12.9525,10.7257,-8.83659,-0.138234,-5.20696,5.02843,11.4806,-11.8843,12.2659,-7.80279,2.08235,-0.66388,-0.134152,0.0255913,68,63,76,82,82,82,51,82,78,76,72,86
-4.93801,-1.98661,0.0482343,0.178917,-13.0037,27.546,-14.5717,-0.0482343,0.0482343,0.178917,-13.0573,27.546,-14.5181,-0.0482343,5.92291,11.9926,-12.9535,10.7258,-8.83616,-0.138207,-5.20691,5.02833,11.4807,-11.8842,12.2659,-7.80275,2.08253,-0.663895,-0.134188,0.0255922,68,63,76,82,82,82,51,82,78,76,72,86
-4.93821,-1.98661,0.048235,0.178968,-13.0037,27.5461,-14.5717,-0.048235,0.048235,0.178968,-13.0574,27.5461,-14.5181,-0.048235,5.92306,11.9927,-12.9546,10.726,-8.8357,-0.138155,-5.20686,5.02822,11.4808,-11.8841,12.2661,-7.80269,2.08274,-0.663903,-0.134226,0.0255925,68,63,76,82,82,82,51,82,78,76,72,86
-4.93843,-1.98661,0.0482348,0.179022,-13.0037,27.5461,-14.5718,-0.0482348,0.0482348,0.179022,-13.0574,27.5461,-14.5181,-0.0482348,5.92321,11.9928,-12.9558,10.7262,-8.8352,-0.138079,-5.2068,5.0281,11.481,-11.8841,12.2662,-7.80262,2.08296,-0.663903,-0.134266,0.0255924,68,63,76,82,82,82,51,82,78,76,72,86
-4.93868,-1.98661,0.0482338,0.179078,-13.0038,27.5461,-14.5718,-0.0482338,0.0482338,0.179078,-13.0575,27.5461,-14.5181,-0.0482338,5.92337,11.993,-12.9571,10.7263,-8.83466,-0.137984,-5.20673,5.02798,11.4811,-11.884,12.2664,-7.80253,2.0832,-0.663898,-0.134309,0.0255919,68,63,76,82,82,82,51,82,78,76,72,86
-4.93895,-1.98661,0.0482322,0.179137,-13.0038,27.5462,-14.5718,-0.0482322,0.0482322,0.179137,-13.0575,27.5462,-14.5181,-0.0482322,5.92353,11.9931,-12.9585,10.7265,-8.8341,-0.137871,-5.20666,5.02784,11.4813,-11.8839,12.2665,-7.80243,2.08345,-0.663888,-0.134353,0.025591,68,63,76,82,82,82,51,82,78,76,72,86
-4.9392,-1.98661,0.0482307,0.179191,-13.0038,27.5462,-14.5718,-0.0482307,0.0482307,0.179191,-13.0576,27.5462,-14.5181,-0.0482307,5.92368,11.9933,-12.9598,10.7267,-8.83358,-0.137767,-5.20659,5.02772,11.4815,-11.8839,12.2667,-7.80233,2.08368,-0.663879,-0.134393,0.0255902,68,63,76,82,82,82,51,82,78,76,72,86
-4.93943,-1.98662,0.0482293,0.17924,-13.0038,27.5462,-14.5718,-0.0482293,0.0482293,0.17924,-13.0576,27.5462,-14.5181,-0.0482293,5.92381,11.9934,-12.961,10.7269,-8.8331,-0.137671,-5.20653,5.02761,11.4816,-11.8838,12.2669,-7.80225,2.0839,-0.663871,-0.13443,0.0255895,68,63,76,82,82,82,51,82,78,76,72,86
-4.93964,-1.98663,0.048228,0.179286,-13.0039,27.5462,-14.5718,-0.048228,0.048228,0.179286,-13.0577,27.5462,-14.5181,-0.048228,5.92394,11.9935,-12.9621,10.727,-8.83265,-0.137583,-5.20648,5.02751,11.4817,-11.8837,12.267,-7.80217,2.0841,-0.663863,-0.134465,0.0255888,68,63,76,82,82,82,51,82,78,76,72,86
-4.93984,-1.98664,0.0482268,0.179329,-13.0039,27.5462,-14.5718,-0.0482268,0.0482268,0.179329,-13.0577,27.5462,-14.518,-0.0482268,5.92405,11.9936,-12.9631,10.7271,-8.83224,-0.1375,-5.20642,5.02741,11.4818,-11.8837,12.2671,-7.80209,2.08428,-0.663855,-0.134497,0.0255882,68,63,76,82,82,82,51,82,78,76,72,86
-4.94003,-1.98665,0.0482257,0.179369,-13.0039,27.5463,-14.5719,-0.0482257,0.0482257,0.179369,-13.0577,27.5463,-14.518,-0.0482257,5.92416,11.9937,-12.964,10.7273,-8.83186,-0.137424,-5.20637,5.02732,11.482,-11.8836,12.2673,-7.80202,2.08445,-0.663849,-0.134527,0.0255876,68,63,76,82,82,82,51,82,78,76,72,86
-4.9402,-1.98667,0.0482247,0.179406,-13.0039,27.5463,-14.5719,-0.0482247,0.0482247,0.179406,-13.0577,27.5463,-14.518,-0.0482247,5.92427,11.9938,-12.9649,10.7274,-8.8315,-0.137352,-5.20633,5.02724,11.4821,-11.8836,12.2674,-7.80196,2.08461,-0.663842,-0.134554,0.0255871,68,63,76,82,82,82,51,82,78,76,72,86
-4.94037,-1.98669,0.0482237,0.179441,-13.0039,27.5463,-14.5719,-0.0482237,0.0482237,0.179441,-13.0578,27.5463,-14.518,-0.0482237,5.92436,11.9939,-12.9657,10.7275,-8.83117,-0.137285,-5.20629,5.02716,11.4822,-11.8835,12.2675,-7.8019,2.08476,-0.663836,-0.134581,0.0255865,68,63,76,82,82,82,51,82,78,76,72,86
-4.94053,-1.98671,0.0482228,0.179473,-13.004,27.5463,-14.5719,-0.0482228,0.0482228,0.179473,-13.0578,27.5463,-14.518,-0.0482228,5.92445,11.994,-12.9665,10.7276,-8.83085,-0.137222,-5.20625,5.02708,11.4823,-11.8835,12.2676,-7.80184,2.0849,-0.663831,-0.134605,0.0255861,68,63,76,82,82,82,51,82,78,76,72,86
-4.94067,-1.98673,0.048222,0.179504,-13.004,27.5463,-14.5719,-0.048222,0.048222,0.179504,-13.0578,27.5463,-14.518,-0.048222,5.92453,11.9941,-12.9672,10.7277,-8.83056,-0.137163,-5.20621,5.02701,11.4824,-11.8834,12.2677,-7.80179,2.08503,-0.663825,-0.134628,0.0255856,68,63,76,82,82,82,51,82,78,76,72,86
-4.94081,-1.98675,0.0482212,0.179533,-13.004,27.5463,-14.5719,-0.0482212,0.0482212,0.179533,-13.0578,27.5463,-14.518,-0.0482212,5.92461,11.9941,-12.9679,10.7278,-8.83028,-0.137108,-5.20617,5.02695,11.4824,-11.8834,12.2678,-7.80174,2.08516,-0.66382,-0.13465,0.0255852,68,63,76,82,82,82,51,82,78,76,72,86
-4.94094,-1.98677,0.0482204,0.17956,-13.004,27.5463,-14.5719,-0.0482204,0.0482204,0.17956,-13.0579,27.5463,-14.518,-0.0482204,5.92469,11.9942,-12.9685,10.7279,-8.83002,-0.137056,-5.20614,5.02689,11.4825,-11.8834,12.2679,-7.80169,2.08527,-0.663816,-0.13467,0.0255848,68,63,76,82,82,82,51,82,78,76,72,86
-4.94106,-1.98679,0.0482197,0.179585,-13.004,27.5464,-14.5719,-0.0482197,0.0482197,0.179585,-13.0579,27.5464,-14.518,-0.0482197,5.92476,11.9943,-12.9692,10.7279,-8.82977,-0.137006,-5.20611,5.02683,11.4826,-11.8833,12.2679,-7.80165,2.08538,-0.663811,-0.134689,0.0255844,68,63,76,82,82,82,51,82,78,76,72,86
-4.94118,-1.98681,0.048219,0.17961,-13.004,27.5464,-14.5719,-0.048219,0.048219,0.17961,-13.0579,27.5464,-14.518,-0.048219,5.92482,11.9943,-12.9697,10.728,-8.82954,-0.13696,-5.20608,5.02677,11.4827,-11.8833,12.268,-7.8016,2.08549,-0.663807,-0.134707,0.025584,68,63,76,82,82,82,51,82,78,76,72,86
-4.94129,-1.98682,0.0482184,0.179633,-13.004,27.5464,-14.5719,-0.0482184,0.0482184,0.179633,-13.0579,27.5464,-14.518,-0.0482184,5.92489,11.9944,-12.9703,10.7281,-8.82932,-0.136915,-5.20605,5.02672,11.4827,-11.8833,12.2681,-7.80156,2.08559,-0.663803,-0.134725,0.0255837,68,63,76,82,82,82,51,82,78,76,72,86
-4.94139,-1.98684,0.0482178,0.179655,-13.004,27.5464,-14.5719,-0.0482178,0.0482178,0.179655,-13.0579,27.5464,-14.518,-0.0482178,5.92495,11.9945,-12.9708,10.7282,-8.82911,-0.136873,-5.20603,5.02667,11.4828,-11.8832,12.2681,-7.80152,2.08568,-0.6638,-0.134741,0.0255834,68,63,76,82,82,82,51,82,78,76,72,86
-4.94149,-1.98685,0.0482172,0.179675,-13.0041,27.5464,-14.5719,-0.0482172,0.0482172,0.179675,-13.058,27.5464,-14.518,-0.0482172,5.925,11.9945,-12.9713,10.7282,-8.82891,-0.136833,-5.206,5.02663,11.4828,-11.8832,12.2682,-7.80149,2.08577,-0.663796,-0.134756,0.0255831,68,63,76,82,82,82,51,82,78,76,72,86
-4.94159,-1.98687,0.0482167,0.179695,-13.0041,27.5464,-14.572,-0.0482167,0.0482167,0.179695,-13.058,27.5464,-14.518,-0.0482167,5.92506,11.9946,-12.9717,10.7283,-8.82872,-0.136795,-5.20598,5.02658,11.4829,-11.8832,12.2683,-7.80145,2.08585,-0.663793,-0.134771,0.0255828,68,63,76,82,82,82,51,82,78,76,72,86
-4.94169,-1.98688,0.0482154,0.179717,-13.0041,27.5464,-14.572,-0.0482154,0.0482154,0.179717,-13.058,27.5464,-14.518,-0.0482154,5.92512,11.9946,-12.9722,10.7283,-8.82853,-0.136742,-5.20595,5.02653,11.483,-11.8832,12.2684,-7.80141,2.08594,-0.663786,-0.134788,0.0255821,68,63,76,82,82,82,51,82,78,76,72,86
-4.9418,-1.98689,0.0482134,0.179742,-13.0041,27.5465,-14.572,-0.0482134,0.0482134,0.179742,-13.058,27.5465,-14.518,-0.0482134,5.92519,11.9947,-12.9727,10.7284,-8.82833,-0.136675,-5.20591,5.02649,11.483,-11.8832,12.2684,-7.80135,2.08603,-0.663777,-0.134806,0.0255811,68,63,76,82,82,82,51,82,78,76,72,86
-4.94192,-1.98689,0.0482108,0.179768,-13.0041,27.5465,-14.572,-0.0482108,0.0482108,0.179768,-13.0581,27.5465,-14.518,-0.0482108,5.92528,11.9947,-12.9732,10.7284,-8.82814,-0.136595,-5.20587,5.02643,11.4831,-11.8832,12.2685,-7.80128,2.08613,-0.663765,-0.134826,0.0255797,68,63,76,82,82,82,51,82,78,76,72,86
-4.94205,-1.9869,0.0482077,0.179797,-13.0042,27.5465,-14.572,-0.0482077,0.0482077,0.179797,-13.0581,27.5465,-14.518,-0.0482077,5.92537,11.9948,-12.9737,10.7285,-8.82794,-0.136503,-5.20583,5.02638,11.4832,-11.8832,12.2687,-7.8012,2.08622,-0.663751,-0.134848,0.025578,68,63,76,82,82,82,51,82,78,76,72,86
-4.94219,-1.9869,0.0482039,0.179827,-13.0042,27.5465,-14.572,-0.0482039,0.0482039,0.179827,-13.0581,27.5465,-14.518,-0.0482039,5.92546,11.9948,-12.9742,10.7285,-8.82774,-0.136399,-5.20578,5.02633,11.4833,-11.8832,12.2688,-7.80112,2.08632,-0.663734,-0.13487,0.025576,68,63,76,82,82,82,51,82,78,76,72,86
-4.94233,-1.98691,0.0481997,0.17986,-13.0042,27.5465,-14.572,-0.0481997,0.0481997,0.17986,-13.0582,27.5465,-14.518,-0.0481997,5.92557,11.9949,-12.9747,10.7286,-8.82754,-0.136285,-5.20573,5.02627,11.4834,-11.8833,12.2689,-7.80102,2.08642,-0.663715,-0.134895,0.0255738,68,63,76,82,82,82,51,82,78,76,72,86
-4.94248,-1.98691,0.048195,0.179893,-13.0042,27.5465,-14.572,-0.048195,0.048195,0.179893,-13.0582,27.5465,-14.518,-0.048195,5.92568,11.995,-12.9752,10.7286,-8.82734,-0.136161,-5.20567,5.02621,11.4836,-11.8833,12.2691,-7.80092,2.08653,-0.663694,-0.13492,0.0255713,68,63,76,82,82,82,51,82,78,76,72,86
-4.94262,-1.98691,0.0481904,0.179926,-13.0043,27.5466,-14.572,-0.0481904,0.0481904,0.179926,-13.0583,27.5466,-14.518,-0.0481904,5.92579,11.995,-12.9757,10.7286,-8.82715,-0.136041,-5.20561,5.02616,11.4837,-11.8833,12.2692,-7.80082,2.08663,-0.663674,-0.134944,0.0255689,68,63,76,75,82,82,51,82,78,76,72,86
-4.94278,-1.98689,0.0481808,0.179967,-13.0043,27.5466,-14.572,-0.0481808,0.0481808,0.179967,-13.0583,27.5466,-14.5181,-0.0481808,5.92592,11.9951,-12.9762,10.7286,-8.82697,-0.135871,-5.20554,5.02608,11.4839,-11.8833,12.2694,-7.80077,2.08671,-0.663643,-0.134975,0.0255638,68,63,76,75,82,82,51,82,78,76,72,86
-4.94296,-1.98685,0.0481665,0.180015,-13.0044,27.5467,-14.5721,-0.0481665,0.0481665,0.180015,-13.0584,27.5467,-14.5181,-0.0481665,5.92606,11.9952,-12.9766,10.7286,-8.82679,-0.135651,-5.20546,5.02599,11.4841,-11.8833,12.2697,-7.80076,2.08679,-0.663601,-0.135011,0.0255562,68,63,76,75,82,82,51,82,78,76,72,86
-4.94316,-1.98679,0.0481476,0.18007,-13.0044,27.5467,-14.5721,-0.0481476,0.0481476,0.18007,-13.0584,27.5467,-14.5181,-0.0481476,5.92623,11.9953,-12.977,10.7286,-8.82662,-0.135385,-5.20536,5.02588,11.4844,-11.8832,12.27,-7.80079,2.08686,-0.663548,-0.135053,0.0255462,68,63,76,75,82,82,51,82,78,76,72,86
-4.94337,-1.98671,0.0481245,0.180132,-13.0044,27.5467,-14.5721,-0.0481245,0.0481245,0.180132,-13.0585,27.5467,-14.5181,-0.0481245,5.92641,11.9954,-12.9774,10.7285,-8.82646,-0.135077,-5.20524,5.02575,11.4847,-11.8831,12.2703,-7.80087,2.08692,-0.663486,-0.135099,0.0255339,68,63,76,75,82,82,51,82,78,76,72,86
-4.9436,-1.98662,0.0480975,0.180201,-13.0045,27.5468,-14.5721,-0.0480975,0.0480975,0.180201,-13.0585,27.5468,-14.5181,-0.0480975,5.92661,11.9955,-12.9778,10.7284,-8.82631,-0.134727,-5.20512,5.0256,11.4851,-11.883,12.2707,-7.80098,2.08697,-0.663415,-0.135151,0.0255195,68,63,76,75,82,82,51,82,78,76,72,86
-4.94385,-1.98651,0.0480666,0.180276,-13.0045,27.5468,-14.5721,-0.0480666,0.0480666,0.180276,-13.0586,27.5468,-14.518,-0.0480666,5.92682,11.9957,-12.9782,10.7283,-8.82616,-0.134339,-5.20498,5.02544,11.4856,-11.8829,12.2711,-7.80112,2.08701,-0.663336,-0.135207,0.0255032,68,63,76,75,82,82,51,82,78,76,72,86
-4.9441,-1.98639,0.0480322,0.180356,-13.0045,27.5468,-14.5722,-0.0480322,0.0480322,0.180356,-13.0586,27.5468,-14.518,-0.0480322,5.92705,11.9958,-12.9785,10.7282,-8.82602,-0.133915,-5.20483,5.02527,11.4861,-11.8827,12.2716,-7.8013,2.08704,-0.663249,-0.135267,0.0254849,68,63,76,75,82,82,51,82,78,76,72,86
-4.94435,-1.98627,0.0479989,0.180434,-13.0046,27.5468,-14.5722,-0.0479989,0.0479989,0.180434,-13.0587,27.5468,-14.518,-0.0479989,5.92727,11.9959,-12.9788,10.7281,-8.82588,-0.133505,-5.20468,5.0251,11.4866,-11.8826,12.272,-7.80148,2.08707,-0.663164,-0.135325,0.0254672,68,63,76,75,82,82,51,82,78,76,72,86
-4.94459,-1.98616,0.0479668,0.180508,-13.0046,27.5469,-14.5722,-0.0479668,0.0479668,0.180508,-13.0587,27.5469,-14.518,-0.0479668,5.92748,11.996,-12.9791,10.728,-8.82575,-0.133109,-5.20454,5.02494,11.487,-11.8824,12.2725,-7.80165,2.0871,-0.663083,-0.135381,0.0254502,68,63,76,75,82,82,51,82,78,76,72,86
-4.94482,-1.98605,0.0479358,0.180581,-13.0046,27.5469,-14.5722,-0.0479358,0.0479358,0.180581,-13.0588,27.5469,-14.518,-0.0479358,5.92769,11.9962,-12.9794,10.7279,-8.82562,-0.132727,-5.20441,5.02478,11.4875,-11.8822,12.2729,-7.80181,2.08713,-0.663004,-0.135436,0.0254338,68,63,76,75,82,82,51,82,78,76,72,86
-4.94504,-1.98595,0.0479059,0.180651,-13.0046,27.5469,-14.5722,-0.0479059,0.0479059,0.180651,-13.0588,27.5469,-14.518,-0.0479059,5.92789,11.9963,-12.9797,10.7278,-8.82549,-0.132358,-5.20428,5.02463,11.4879,-11.8821,12.2733,-7.80196,2.08716,-0.662928,-0.135488,0.0254179,68,63,76,75,82,82,51,82,78,76,72,86
-4.94525,-1.98586,0.0478769,0.180718,-13.0047,27.5469,-14.5722,-0.0478769,0.0478769,0.180718,-13.0589,27.5469,-14.518,-0.0478769,5.92808,11.9964,-12.98,10.7277,-8.82537,-0.132,-5.20415,5.02449,11.4883,-11.882,12.2737,-7.80212,2.08719,-0.662854,-0.135539,0.0254025,68,63,76,75,82,82,51,82,78,76,72,86
-4.94546,-1.98577,0.0478488,0.180784,-13.0047,27.547,-14.5723,-0.0478488,0.0478488,0.180784,-13.0589,27.547,-14.518,-0.0478488,5.92826,11.9965,-12.9803,10.7276,-8.82526,-0.131654,-5.20403,5.02434,11.4887,-11.8818,12.274,-7.80226,2.08721,-0.662783,-0.135588,0.0253876,68,63,76,75,82,82,51,82,78,76,72,86
-4.94566,-1.98569,0.0478217,0.180847,-13.0047,27.547,-14.5723,-0.0478217,0.0478217,0.180847,-13.059,27.547,-14.518,-0.0478217,5.92844,11.9966,-12.9805,10.7275,-8.82515,-0.131319,-5.20391,5.02421,11.4891,-11.8817,12.2744,-7.80241,2.08724,-0.662714,-0.135635,0.0253732,68,63,76,75,82,82,51,82,78,76,72,86
-4.94585,-1.98562,0.0477954,0.180909,-13.0047,27.547,-14.5723,-0.0477954,0.0477954,0.180909,-13.059,27.547,-14.518,-0.0477954,5.92862,11.9967,-12.9808,10.7274,-8.82504,-0.130995,-5.2038,5.02407,11.4895,-11.8816,12.2748,-7.80254,2.08726,-0.662647,-0.135681,0.0253592,68,63,76,75,82,82,51,82,78,76,72,86
-4.94604,-1.98555,0.0477699,0.180968,-13.0048,27.547,-14.5723,-0.0477699,0.0477699,0.180968,-13.0591,27.547,-14.518,-0.0477699,5.92879,11.9968,-12.981,10.7273,-8.82493,-0.130681,-5.20368,5.02394,11.4899,-11.8814,12.2751,-7.80268,2.08729,-0.662582,-0.135726,0.0253457,68,63,76,75,82,82,51,82,78,76,72,86
-4.94622,-1.98545,0.0477446,0.18103,-13.0048,27.5471,-14.5723,-0.0477446,0.0477446,0.18103,-13.0591,27.5471,-14.518,-0.0477446,5.92896,11.9969,-12.9812,10.7272,-8.82483,-0.130366,-5.20358,5.02381,11.4903,-11.8813,12.2754,-7.80286,2.0873,-0.662523,-0.135772,0.0253323,68,63,76,75,82,82,51,82,78,76,72,86
-4.9464,-1.98534,0.0477194,0.181093,-13.0048,27.5471,-14.5723,-0.0477194,0.0477194,0.181093,-13.0591,27.5471,-14.518,-0.0477194,5.92913,11.997,-12.9814,10.727,-8.82474,-0.13005,-5.20349,5.02366,11.4907,-11.8811,12.2758,-7.80308,2.0873,-0.662469,-0.13582,0.0253189,68,63,76,75,82,82,51,82,78,76,72,86
-4.94657,-1.98521,0.0476945,0.181158,-13.0048,27.5471,-14.5723,-0.0476945,0.0476945,0.181158,-13.0592,27.5471,-14.518,-0.0476945,5.9293,11.9972,-12.9815,10.7269,-8.82465,-0.129735,-5.2034,5.02351,11.4911,-11.8809,12.2761,-7.80335,2.08728,-0.66242,-0.135868,0.0253057,68,63,76,75,82,82,51,82,78,76,72,86
-4.94673,-1.98506,0.0476696,0.181224,-13.0048,27.5471,-14.5724,-0.0476696,0.0476696,0.181224,-13.0592,27.5471,-14.518,-0.0476696,5.92948,11.9973,-12.9816,10.7268,-8.82456,-0.129418,-5.20332,5.02336,11.4915,-11.8806,12.2765,-7.80366,2.08726,-0.662375,-0.135918,0.0252925,68,63,76,75,82,82,51,82,78,76,72,86
-4.94689,-1.98489,0.047645,0.181292,-13.0049,27.5471,-14.5724,-0.047645,0.047645,0.181292,-13.0593,27.5471,-14.518,-0.047645,5.92965,11.9975,-12.9817,10.7266,-8.82449,-0.129102,-5.20324,5.02319,11.4919,-11.8803,12.2769,-7.80401,2.08722,-0.662336,-0.135969,0.0252794,68,63,76,75,82,82,51,82,78,76,72,86
-4.94705,-1.98471,0.0476205,0.181362,-13.0049,27.5472,-14.5724,-0.0476205,0.0476205,0.181362,-13.0593,27.5472,-14.518,-0.0476205,5.92983,11.9977,-12.9817,10.7264,-8.82441,-0.128785,-5.20318,5.02302,11.4924,-11.88,12.2772,-7.8044,2.08718,-0.6623,-0.136022,0.0252664,68,63,76,75,82,82,51,82,78,76,72,86
-4.9472,-1.98451,0.0475961,0.181433,-13.0049,27.5472,-14.5724,-0.0475961,0.0475961,0.181433,-13.0593,27.5472,-14.518,-0.0475961,5.93001,11.9979,-12.9817,10.7262,-8.82434,-0.128467,-5.20311,5.02285,11.4928,-11.8796,12.2776,-7.80482,2.08712,-0.662269,-0.136075,0.0252535,68,63,76,75,82,82,51,82,78,76,72,86
-4.94734,-1.98432,0.0475724,0.181502,-13.0049,27.5472,-14.5724,-0.0475724,0.0475724,0.181502,-13.0594,27.5472,-14.518,-0.0475724,5.93019,11.9981,-12.9817,10.726,-8.82427,-0.128158,-5.20305,5.02267,11.4933,-11.8793,12.278,-7.80524,2.08706,-0.662239,-0.136127,0.0252409,68,63,76,75,82,82,51,82,78,76,72,86
-4.94748,-1.98414,0.0475494,0.18157,-13.0049,27.5472,-14.5724,-0.0475494,0.0475494,0.18157,-13.0594,27.5472,-14.518,-0.0475494,5.93036,11.9983,-12.9817,10.7258,-8.82421,-0.127858,-5.203,5.02251,11.4937,-11.879,12.2783,-7.80564,2.08701,-0.66221,-0.136177,0.0252287,68,63,76,75,82,82,51,82,78,76,72,86
-4.94762,-1.98396,0.0475269,0.181635,-13.0049,27.5472,-14.5725,-0.0475269,0.0475269,0.181635,-13.0594,27.5472,-14.518,-0.0475269,5.93052,11.9985,-12.9817,10.7256,-8.82414,-0.127565,-5.20294,5.02235,11.4941,-11.8786,12.2787,-7.80603,2.08696,-0.662181,-0.136226,0.0252167,68,63,76,75,82,82,51,82,78,76,72,86
-4.94775,-1.98379,0.0475051,0.181699,-13.005,27.5473,-14.5725,-0.0475051,0.0475051,0.181699,-13.0595,27.5473,-14.518,-0.0475051,5.93068,11.9987,-12.9817,10.7254,-8.82408,-0.127281,-5.20288,5.02219,11.4946,-11.8783,12.279,-7.80641,2.08691,-0.662153,-0.136274,0.0252051,68,63,76,75,82,82,51,82,78,76,72,86
-4.94788,-1.98362,0.0474838,0.181761,-13.005,27.5473,-14.5725,-0.0474838,0.0474838,0.181761,-13.0595,27.5473,-14.518,-0.0474838,5.93084,11.9988,-12.9817,10.7253,-8.82402,-0.127003,-5.20283,5.02203,11.495,-11.878,12.2794,-7.80678,2.08686,-0.662126,-0.136321,0.0251939,68,63,76,75,82,82,51,82,78,76,72,86
-4.94801,-1.98346,0.047463,0.181822,-13.005,27.5473,-14.5725,-0.047463,0.047463,0.181822,-13.0595,27.5473,-14.518,-0.047463,5.93099,11.999,-12.9817,10.7251,-8.82396,-0.126733,-5.20278,5.02188,11.4953,-11.8777,12.2797,-7.80714,2.08681,-0.6621,-0.136366,0.0251828,68,63,76,75,82,82,51,82,78,76,72,86
-4.94813,-1.9833,0.0474428,0.181881,-13.005,27.5473,-14.5725,-0.0474428,0.0474428,0.181881,-13.0596,27.5473,-14.518,-0.0474428,5.93114,11.9992,-12.9817,10.7249,-8.8239,-0.12647,-5.20273,5.02174,11.4957,-11.8774,12.28,-7.80749,2.08676,-0.662074,-0.13641,0.0251721,68,63,76,75,82,82,51,82,78,76,72,86
-4.94825,-1.98315,0.0474231,0.181938,-13.005,27.5473,-14.5725,-0.0474231,0.0474231,0.181938,-13.0596,27.5473,-14.5179,-0.0474231,5.93129,11.9993,-12.9817,10.7248,-8.82384,-0.126213,-5.20268,5.0216,11.4961,-11.8772,12.2803,-7.80784,2.08672,-0.662049,-0.136454,0.0251617,68,63,76,75,82,82,51,82,78,76,72,86
-4.94837,-1.98301,0.0474039,0.181994,-13.005,27.5473,-14.5725,-0.0474039,0.0474039,0.181994,-13.0596,27.5473,-14.5179,-0.0474039,5.93143,11.9995,-12.9817,10.7246,-8.82379,-0.125963,-5.20263,5.02146,11.4965,-11.8769,12.2806,-7.80817,2.08667,-0.662024,-0.136496,0.0251515,68,63,76,75,82,82,51,82,78,76,72,86
-4.94847,-1.98284,0.0473856,0.182049,-13.005,27.5474,-14.5726,-0.0473856,0.0473856,0.182049,-13.0597,27.5474,-14.5179,-0.0473856,5.93156,11.9997,-12.9816,10.7244,-8.82374,-0.125736,-5.20259,5.02131,11.4968,-11.8766,12.2809,-7.80851,2.08663,-0.662005,-0.136537,0.0251417,68,63,76,75,82,82,51,82,78,76,72,86
-4.94857,-1.98266,0.0473681,0.182103,-13.0051,27.5474,-14.5726,-0.0473681,0.0473681,0.182103,-13.0597,27.5474,-14.5179,-0.0473681,5.93168,11.9998,-12.9816,10.7243,-8.82371,-0.125531,-5.20257,5.02117,11.4972,-11.8763,12.2812,-7.80885,2.08658,-0.66199,-0.136577,0.0251325,68,63,76,75,82,82,51,82,78,76,72,86
-4.94866,-1.98246,0.0473515,0.182155,-13.0051,27.5474,-14.5726,-0.0473515,0.0473515,0.182155,-13.0597,27.5474,-14.5179,-0.0473515,5.93179,12,-12.9815,10.7241,-8.82369,-0.125349,-5.20255,5.02101,11.4976,-11.876,12.2815,-7.8092,2.08654,-0.66198,-0.136616,0.0251237,68,63,76,75,82,82,51,82,78,76,72,86
-4.94875,-1.98225,0.0473357,0.182206,-13.0051,27.5474,-14.5726,-0.0473357,0.0473357,0.182206,-13.0597,27.5474,-14.5179,-0.0473357,5.93189,12.0002,-12.9813,10.7239,-8.82368,-0.125188,-5.20254,5.02086,11.4979,-11.8757,12.2818,-7.80955,2.08649,-0.661975,-0.136654,0.0251153,68,63,76,75,82,82,51,82,78,76,72,86
-4.94882,-1.98202,0.0473207,0.182256,-13.0051,27.5474,-14.5726,-0.0473207,0.0473207,0.182256,-13.0598,27.5474,-14.5179,-0.0473207,5.93198,12.0005,-12.9812,10.7237,-8.82369,-0.125047,-5.20254,5.0207,11.4983,-11.8753,12.2821,-7.8099,2.08644,-0.661975,-0.136692,0.0251073,68,63,76,75,82,82,51,82,78,76,72,86
-4.94889,-1.98177,0.0473064,0.182304,-13.0051,27.5474,-14.5726,-0.0473064,0.0473064,0.182304,-13.0598,27.5474,-14.5179,-0.0473064,5.93206,12.0007,-12.981,10.7235,-8.8237,-0.124926,-5.20256,5.02054,11.4987,-11.875,12.2823,-7.81026,2.08639,-0.661978,-0.136728,0.0250997,68,63,76,75,82,82,51,82,78,76,72,86
-4.94895,-1.98151,0.0472929,0.182352,-13.0051,27.5475,-14.5726,-0.0472929,0.0472929,0.182352,-13.0598,27.5475,-14.5179,-0.0472929,5.93213,12.0009,-12.9808,10.7233,-8.82372,-0.124824,-5.20258,5.02037,11.4991,-11.8747,12.2826,-7.81062,2.08634,-0.661986,-0.136764,0.0250925,68,63,76,75,82,82,51,82,78,76,72,86
-4.94901,-1.98126,0.0472796,0.182399,-13.0051,27.5475,-14.5726,-0.0472796,0.0472796,0.182399,-13.0598,27.5475,-14.5179,-0.0472796,5.93221,12.0011,-12.9806,10.7231,-8.82375,-0.124724,-5.2026,5.02021,11.4994,-11.8743,12.2829,-7.81098,2.0863,-0.661993,-0.136799,0.0250855,68,63,76,75,82,82,51,82,78,76,72,86
-4.94907,-1.98101,0.0472667,0.182444,-13.0051,27.5475,-14.5727,-0.0472667,0.0472667,0.182444,-13.0599,27.5475,-14.5179,-0.0472667,5.93228,12.0014,-12.9804,10.7229,-8.82377,-0.124627,-5.20262,5.02006,11.4998,-11.874,12.2832,-7.81132,2.08625,-0.662,-0.136833,0.0250786,68,63,76,75,82,82,51,82,78,76,72,86
-4.94912,-1.98077,0.047254,0.182489,-13.0051,27.5475,-14.5727,-0.047254,0.047254,0.182489,-13.0599,27.5475,-14.5179,-0.047254,5.93234,12.0016,-12.9802,10.7227,-8.82379,-0.124531,-5.20263,5.0199,11.5001,-11.8737,12.2834,-7.81166,2.0862,-0.662007,-0.136866,0.0250719,68,63,76,75,82,82,51,82,78,76,72,86
-4.94918,-1.98054,0.0472416,0.182532,-13.0052,27.5475,-14.5727,-0.0472416,0.0472416,0.182532,-13.0599,27.5475,-14.5179,-0.0472416,5.93241,12.0018,-12.98,10.7225,-8.82381,-0.124438,-5.20265,5.01975,11.5005,-11.8734,12.2837,-7.81199,2.08616,-0.662014,-0.136899,0.0250653,68,63,76,75,82,82,51,82,78,76,72,86
-4.94923,-1.98031,0.0472295,0.182575,-13.0052,27.5475,-14.5727,-0.0472295,0.0472295,0.182575,-13.0599,27.5475,-14.5179,-0.0472295,5.93248,12.002,-12.9798,10.7223,-8.82383,-0.124347,-5.20267,5.0196,11.5008,-11.8731,12.284,-7.81231,2.08612,-0.662021,-0.136931,0.0250589,68,63,76,75,82,82,51,82,78,76,72,86
-4.94928,-1.98008,0.0472176,0.182616,-13.0052,27.5475,-14.5727,-0.0472176,0.0472176,0.182616,-13.06,27.5475,-14.5179,-0.0472176,5.93254,12.0022,-12.9796,10.7221,-8.82385,-0.124257,-5.20269,5.01946,11.5012,-11.8728,12.2842,-7.81263,2.08607,-0.662028,-0.136962,0.0250526,68,63,76,75,82,82,51,82,78,76,72,86
-4.94933,-1.97987,0.047206,0.182657,-13.0052,27.5475,-14.5727,-0.047206,0.047206,0.182657,-13.06,27.5475,-14.5179,-0.047206,5.9326,12.0024,-12.9795,10.7219,-8.82387,-0.12417,-5.20271,5.01932,11.5015,-11.8725,12.2845,-7.81294,2.08603,-0.662034,-0.136993,0.0250465,68,63,76,75,82,82,51,82,78,76,72,86
-4.94938,-1.97965,0.0471947,0.182697,-13.0052,27.5476,-14.5727,-0.0471947,0.0471947,0.182697,-13.06,27.5476,-14.5179,-0.0471947,5.93266,12.0026,-12.9793,10.7218,-8.82389,-0.124084,-5.20272,5.01918,11.5018,-11.8722,12.2847,-7.81324,2.08599,-0.662041,-0.137023,0.0250404,68,63,76,75,82,82,51,82,78,76,72,86
-4.94943,-1.97945,0.0471835,0.182736,-13.0052,27.5476,-14.5727,-0.0471835,0.0471835,0.182736,-13.06,27.5476,-14.5179,-0.0471835,5.93272,12.0028,-12.9791,10.7216,-8.82391,-0.124,-5.20274,5.01904,11.5021,-11.8719,12.2849,-7.81354,2.08595,-0.662047,-0.137052,0.0250345,68,63,76,75,82,82,50,82,78,76,72,86
-4.94947,-1.97922,0.0471726,0.182774,-13.0052,27.5476,-14.5728,-0.0471726,0.0471726,0.182774,-13.06,27.5476,-14.5179,-0.0471726,5.93277,12.003,-12.9789,10.7214,-8.82395,-0.123932,-5.20276,5.0189,11.5024,-11.8716,12.2852,-7.81381,2.08592,-0.662053,-0.13708,0.0250287,68,63,76,75,82,82,50,82,78,76,72,86
-4.94951,-1.97898,0.047162,0.182809,-13.0052,27.5476,-14.5728,-0.047162,0.047162,0.182809,-13.0601,27.5476,-14.5179,-0.047162,5.9328,12.0032,-12.9787,10.7212,-8.824,-0.12388,-5.20279,5.01876,11.5027,-11.8713,12.2854,-7.81407,2.08589,-0.66206,-0.137106,0.0250231,68,63,76,75,82,82,50,82,78,76,72,86
-4.94954,-1.97873,0.0471516,0.182842,-13.0052,27.5476,-14.5728,-0.0471516,0.0471516,0.182842,-13.0601,27.5476,-14.5179,-0.0471516,5.93283,12.0034,-12.9785,10.721,-8.82408,-0.123843,-5.20282,5.01862,11.5031,-11.871,12.2856,-7.8143,2.08587,-0.662067,-0.137131,0.0250176,68,63,76,75,82,82,50,82,78,76,72,86
-4.94956,-1.97846,0.0471414,0.182873,-13.0052,27.5476,-14.5728,-0.0471414,0.0471414,0.182873,-13.0601,27.5476,-14.5179,-0.0471414,5.93284,12.0036,-12.9782,10.7208,-8.82417,-0.12382,-5.20286,5.01847,11.5034,-11.8707,12.2859,-7.81452,2.08586,-0.662075,-0.137155,0.0250122,68,63,76,75,82,82,50,82,78,76,72,86
-4.94957,-1.97818,0.0471315,0.182902,-13.0052,27.5476,-14.5728,-0.0471315,0.0471315,0.182902,-13.0601,27.5476,-14.5179,-0.0471315,5.93284,12.0038,-12.9779,10.7206,-8.82427,-0.123811,-5.2029,5.01833,11.5037,-11.8704,12.2861,-7.81472,2.08586,-0.662082,-0.137177,0.0250069,68,63,76,75,82,82,50,82,78,76,72,86
-4.94958,-1.97788,0.0471217,0.18293,-13.0052,27.5476,-14.5728,-0.0471217,0.0471217,0.18293,-13.0601,27.5476,-14.5179,-0.0471217,5.93282,12.0041,-12.9776,10.7204,-8.82439,-0.123817,-5.20295,5.01818,11.504,-11.8701,12.2864,-7.8149,2.08587,-0.66209,-0.137197,0.0250017,68,63,76,75,82,82,50,82,78,76,72,86
-4.94958,-1.97757,0.0471122,0.182956,-13.0052,27.5476,-14.5728,-0.0471122,0.0471122,0.182956,-13.0601,27.5476,-14.5179,-0.0471122,5.9328,12.0043,-12.9773,10.7202,-8.82453,-0.123836,-5.203,5.01802,11.5044,-11.8698,12.2866,-7.81506,2.08588,-0.662098,-0.137217,0.0249966,68,63,76,75,82,82,50,82,78,76,72,86
-4.94958,-1.97727,0.0471028,0.182981,-13.0052,27.5476,-14.5728,-0.0471028,0.0471028,0.182981,-13.0601,27.5476,-14.5179,-0.0471028,5.93278,12.0045,-12.977,10.72,-8.82467,-0.123854,-5.20305,5.01787,11.5047,-11.8695,12.2868,-7.81522,2.08589,-0.662106,-0.137236,0.0249917,68,63,76,75,82,82,50,82,78,76,72,86
-4.94958,-1.97697,0.0470936,0.183006,-13.0052,27.5476,-14.5728,-0.0470936,0.0470936,0.183006,-13.0601,27.5476,-14.5179,-0.0470936,5.93276,12.0047,-12.9767,10.7197,-8.8248,-0.123872,-5.2031,5.01773,11.505,-11.8692,12.287,-7.81537,2.0859,-0.662114,-0.137254,0.0249868,68,63,76,75,82,82,50,82,78,76,72,86
-4.94958,-1.97668,0.0470846,0.18303,-13.0052,27.5476,-14.5728,-0.0470846,0.0470846,0.18303,-13.0601,27.5476,-14.5179,-0.0470846,5.93274,12.005,-12.9764,10.7195,-8.82493,-0.12389,-5.20314,5.01758,11.5053,-11.8689,12.2873,-7.81552,2.08591,-0.662122,-0.137273,0.024982,68,63,76,75,82,82,50,82,78,76,72,86
-4.94958,-1.97639,0.0470758,0.183054,-13.0052,27.5477,-14.5728,-0.0470758,0.0470758,0.183054,-13.0602,27.5477,-14.5179,-0.0470758,5.93271,12.0052,-12.9761,10.7193,-8.82506,-0.123907,-5.20319,5.01744,11.5056,-11.8686,12.2875,-7.81567,2.08592,-0.662129,-0.137291,0.0249773,68,63,76,75,82,82,50,82,78,76,72,86
-4.94958,-1.97611,0.0470671,0.183078,-13.0052,27.5477,-14.5729,-0.0470671,0.0470671,0.183078,-13.0602,27.5477,-14.5179,-0.0470671,5.93269,12.0054,-12.9758,10.7191,-8.82519,-0.123924,-5.20324,5.01731,11.5059,-11.8683,12.2877,-7.81582,2.08592,-0.662137,-0.137308,0.0249727,68,63,76,75,82,82,50,82,78,76,72,86
-4.94958,-1.97584,0.0470586,0.183101,-13.0052,27.5477,-14.5729,-0.0470586,0.0470586,0.183101,-13.0602,27.5477,-14.5179,-0.0470586,5.93267,12.0056,-12.9755,10.7189,-8.82531,-0.123941,-5.20328,5.01717,11.5062,-11.868,12.2879,-7.81597,2.08593,-0.662144,-0.137325,0.0249682,68,63,76,75,82,82,50,82,78,76,72,86
-4.94958,-1.97557,0.0470502,0.183123,-13.0052,27.5477,-14.5729,-0.0470502,0.0470502,0.183123,-13.0602,27.5477,-14.5179,-0.0470502,5.93265,12.0058,-12.9752,10.7187,-8.82543,-0.123957,-5.20333,5.01704,11.5065,-11.8678,12.2881,-7.81611,2.08594,-0.662151,-0.137342,0.0249638,68,63,76,75,82,82,50,82,78,76,72,86
-4.94959,-1.9753,0.047042,0.183146,-13.0053,27.5477,-14.5729,-0.047042,0.047042,0.183146,-13.0602,27.5477,-14.5179,-0.047042,5.93263,12.006,-12.9749,10.7185,-8.82555,-0.123974,-5.20337,5.01691,11.5068,-11.8675,12.2883,-7.81625,2.08595,-0.662158,-0.137359,0.0249594,68,63,76,75,82,82,50,82,78,76,72,86
-4.94959,-1.97505,0.0470339,0.183167,-13.0052,27.5477,-14.5729,-0.0470339,0.0470339,0.183167,-13.0602,27.5477,-14.5179,-0.0470339,5.93261,12.0062,-12.9747,10.7184,-8.82567,-0.12399,-5.20341,5.01678,11.5071,-11.8672,12.2885,-7.81638,2.08596,-0.662165,-0.137376,0.0249551,68,63,76,75,82,82,50,82,78,76,72,86
-4.94958,-1.97477,0.0470256,0.183187,-13.0052,27.5477,-14.5729,-0.0470256,0.0470256,0.183187,-13.0602,27.5477,-14.5179,-0.0470256,5.93258,12.0064,-12.9744,10.7182,-8.8258,-0.124011,-5.20346,5.01665,11.5074,-11.867,12.2887,-7.81651,2.08597,-0.662169,-0.13739,0.0249507,68,63,76,75,82,82,50,82,78,76,72,86
-4.94956,-1.97448,0.047017,0.183205,-13.0052,27.5477,-14.5729,-0.047017,0.047017,0.183205,-13.0602,27.5477,-14.5179,-0.047017,5.93254,12.0066,-12.9741,10.718,-8.82595,-0.124038,-5.2035,5.01652,11.5077,-11.8667,12.2889,-7.81662,2.08599,-0.66217,-0.137403,0.0249461,68,63,76,75,82,82,50,82,78,76,72,86
-4.94954,-1.97418,0.0470082,0.18322,-13.0052,27.5477,-14.5729,-0.0470082,0.0470082,0.18322,-13.0602,27.5477,-14.5179,-0.0470082,5.93249,12.0068,-12.9738,10.7178,-8.82611,-0.12407,-5.20355,5.01639,11.5079,-11.8664,12.2892,-7.81672,2.08601,-0.662169,-0.137415,0.0249415,68,63,76,75,82,82,50,82,78,76,72,86
-4.94951,-1.97386,0.0469992,0.183233,-13.0052,27.5477,-14.5729,-0.0469992,0.0469992,0.183233,-13.0602,27.5477,-14.5179,-0.0469992,5.93242,12.007,-12.9735,10.7176,-8.82629,-0.124107,-5.2036,5.01625,11.5082,-11.8661,12.2894,-7.81681,2.08604,-0.662165,-0.137425,0.0249367,68,63,76,75,82,82,50,82,78,76,72,86
-4.94948,-1.97354,0.0469899,0.183245,-13.0052,27.5477,-14.5729,-0.0469899,0.0469899,0.183245,-13.0602,27.5477,-14.5179,-0.0469899,5.93235,12.0072,-12.9732,10.7174,-8.82649,-0.124149,-5.20364,5.01612,11.5086,-11.8659,12.2896,-7.81689,2.08607,-0.662158,-0.137434,0.0249318,68,63,76,75,82,82,50,82,78,76,72,86
-4.94944,-1.97319,0.0469805,0.183254,-13.0052,27.5477,-14.5729,-0.0469805,0.0469805,0.183254,-13.0602,27.5477,-14.5179,-0.0469805,5.93226,12.0074,-12.9728,10.7172,-8.82669,-0.124196,-5.20369,5.01599,11.5089,-11.8656,12.2898,-7.81696,2.0861,-0.662149,-0.137441,0.0249267,68,63,76,75,82,82,50,82,78,76,72,86
-4.94939,-1.97284,0.0469708,0.183262,-13.0052,27.5477,-14.5729,-0.0469708,0.0469708,0.183262,-13.0602,27.5477,-14.518,-0.0469708,5.93216,12.0076,-12.9725,10.717,-8.82692,-0.124248,-5.20374,5.01585,11.5092,-11.8653,12.29,-7.81702,2.08614,-0.662138,-0.137446,0.0249216,68,63,76,75,82,82,50,82,78,76,72,86
-4.94934,-1.97249,0.0469612,0.183269,-13.0052,27.5477,-14.5729,-0.0469612,0.0469612,0.183269,-13.0602,27.5477,-14.518,-0.0469612,5.93207,12.0078,-12.9722,10.7168,-8.82714,-0.124299,-5.20379,5.01572,11.5095,-11.865,12.2903,-7.81708,2.08618,-0.662126,-0.137452,0.0249165,68,63,76,75,82,82,50,82,78,76,72,86
-4.94929,-1.97215,0.0469519,0.183277,-13.0052,27.5477,-14.5729,-0.0469519,0.0469519,0.183277,-13.0602,27.5477,-14.518,-0.0469519,5.93198,12.008,-12.9719,10.7166,-8.82735,-0.124349,-5.20384,5.01559,11.5098,-11.8647,12.2905,-7.81714,2.08622,-0.662115,-0.137458,0.0249116,68,63,76,75,82,82,50,82,78,76,72,86
-4.94925,-1.97181,0.0469426,0.183284,-13.0052,27.5477,-14.5729,-0.0469426,0.0469426,0.183284,-13.0602,27.5477,-14.518,-0.0469426,5.93189,12.0082,-12.9716,10.7164,-8.82756,-0.124399,-5.20389,5.01546,11.5101,-11.8645,12.2907,-7.8172,2.08625,-0.662104,-0.137463,0.0249067,68,63,76,75,82,82,50,82,78,76,72,86
-4.9492,-1.97148,0.0469336,0.183291,-13.0052,27.5477,-14.573,-0.0469336,0.0469336,0.183291,-13.0602,27.5477,-14.518,-0.0469336,5.9318,12.0084,-12.9712,10.7163,-8.82777,-0.124447,-5.20393,5.01534,11.5104,-11.8642,12.2909,-7.81726,2.08629,-0.662094,-0.137468,0.0249019,68,63,76,75,82,82,50,82,78,76,72,86
-4.94916,-1.97115,0.0469246,0.183298,-13.0052,27.5477,-14.573,-0.0469246,0.0469246,0.183298,-13.0602,27.5477,-14.518,-0.0469246,5.93171,12.0086,-12.9709,10.7161,-8.82797,-0.124495,-5.20398,5.01522,11.5107,-11.8639,12.2911,-7.81731,2.08632,-0.662083,-0.137474,0.0248971,68,63,76,75,82,82,50,82,78,76,72,86
-4.94911,-1.97083,0.0469159,0.183305,-13.0052,27.5477,-14.573,-0.0469159,0.0469159,0.183305,-13.0602,27.5477,-14.518,-0.0469159,5.93162,12.0088,-12.9706,10.7159,-8.82818,-0.124542,-5.20403,5.01509,11.511,-11.8637,12.2913,-7.81736,2.08636,-0.662073,-0.137479,0.0248925,68,63,76,75,82,82,50,82,78,76,72,86
-4.94907,-1.97051,0.0469072,0.183312,-13.0052,27.5477,-14.573,-0.0469072,0.0469072,0.183312,-13.0602,27.5477,-14.518,-0.0469072,5.93153,12.009,-12.9703,10.7157,-8.82837,-0.124588,-5.20407,5.01497,11.5113,-11.8634,12.2915,-7.81742,2.08639,-0.662062,-0.137484,0.0248879,68,63,76,75,82,82,50,82,78,76,72,86
-4.94903,-1.9702,0.0468987,0.183319,-13.0052,27.5477,-14.573,-0.0468987,0.0468987,0.183319,-13.0602,27.5477,-14.518,-0.0468987,5.93145,12.0092,-12.9701,10.7156,-8.82857,-0.124634,-5.20411,5.01486,11.5115,-11.8632,12.2917,-7.81747,2.08643,-0.662052,-0.137489,0.0248834,68,63,76,75,82,82,50,82,78,76,72,86
-4.94898,-1.9699,0.0468903,0.183325,-13.0052,27.5477,-14.573,-0.0468903,0.0468903,0.183325,-13.0602,27.5477,-14.518,-0.0468903,5.93137,12.0094,-12.9698,10.7154,-8.82876,-0.124679,-5.20416,5.01474,11.5118,-11.8629,12.2919,-7.81752,2.08646,-0.662042,-0.137494,0.0248789,68,63,76,75,82,82,50,82,78,76,72,86
-4.94894,-1.96958,0.046881,0.183329,-13.0052,27.5477,-14.573,-0.046881,0.046881,0.183329,-13.0602,27.5477,-14.518,-0.046881,5.93127,12.0096,-12.9695,10.7152,-8.82895,-0.124722,-5.2042,5.01463,11.5121,-11.8627,12.2921,-7.81758,2.08649,-0.662032,-0.137496,0.024874,68,63,76,75,82,82,50,82,78,76,72,86
-4.94889,-1.96926,0.0468709,0.183329,-13.0051,27.5477,-14.573,-0.0468709,0.0468709,0.183329,-13.0601,27.5477,-14.518,-0.0468709,5.93116,12.0097,-12.9692,10.7151,-8.82915,-0.124766,-5.20424,5.01451,11.5124,-11.8624,12.2924,-7.81765,2.08652,-0.662023,-0.137497,0.0248686,68,63,76,75,82,82,50,82,78,76,72,86
-4.94884,-1.96893,0.0468598,0.183326,-13.0051,27.5477,-14.573,-0.0468598,0.0468598,0.183326,-13.0601,27.5477,-14.518,-0.0468598,5.93103,12.0099,-12.9689,10.7149,-8.82934,-0.124808,-5.20428,5.0144,11.5127,-11.8621,12.2926,-7.81773,2.08656,-0.662013,-0.137495,0.0248627,68,63,76,75,82,82,50,82,78,76,72,86
-4.94879,-1.9686,0.046848,0.18332,-13.0051,27.5477,-14.573,-0.046848,0.046848,0.18332,-13.0601,27.5477,-14.518,-0.046848,5.93089,12.0101,-12.9686,10.7148,-8.82953,-0.124849,-5.20433,5.01429,11.513,-11.8619,12.2928,-7.81781,2.08659,-0.662003,-0.13749,0.0248564,68,63,76,75,82,82,50,82,78,76,72,86
-4.94873,-1.96826,0.0468353,0.183312,-13.0051,27.5477,-14.573,-0.0468353,0.0468353,0.183312,-13.0601,27.5477,-14.518,-0.0468353,5.93074,12.0102,-12.9683,10.7146,-8.82973,-0.12489,-5.20437,5.01418,11.5133,-11.8616,12.293,-7.81791,2.08662,-0.661993,-0.137484,0.0248497,68,63,76,75,82,82,50,82,78,76,72,86
-4.94867,-1.96791,0.0468218,0.1833,-13.0051,27.5477,-14.573,-0.0468218,0.0468218,0.1833,-13.0601,27.5477,-14.518,-0.0468218,5.93057,12.0104,-12.9681,10.7144,-8.82992,-0.12493,-5.20441,5.01407,11.5136,-11.8613,12.2933,-7.81801,2.08665,-0.661983,-0.137475,0.0248425,68,63,76,75,82,82,50,82,78,76,72,86
-4.94861,-1.96755,0.0468075,0.183286,-13.0051,27.5476,-14.573,-0.0468075,0.0468075,0.183286,-13.0601,27.5476,-14.518,-0.0468075,5.93039,12.0106,-12.9678,10.7143,-8.83012,-0.124969,-5.20445,5.01396,11.5139,-11.861,12.2935,-7.81812,2.08668,-0.661974,-0.137464,0.0248349,68,63,76,75,82,82,50,82,78,76,72,86
-4.94856,-1.9672,0.0467934,0.183272,-13.0051,27.5476,-14.573,-0.0467934,0.0467934,0.183272,-13.0601,27.5476,-14.518,-0.0467934,5.93021,12.0107,-12.9675,10.7142,-8.83031,-0.125007,-5.20449,5.01385,11.5142,-11.8607,12.2937,-7.81822,2.08671,-0.661964,-0.137454,0.0248275,68,63,76,75,82,82,50,82,78,76,72,86
-4.9485,-1.96686,0.0467795,0.183258,-13.0051,27.5476,-14.573,-0.0467795,0.0467795,0.183258,-13.06,27.5476,-14.518,-0.0467795,5.93004,12.0109,-12.9672,10.714,-8.8305,-0.125045,-5.20453,5.01375,11.5145,-11.8604,12.294,-7.81833,2.08674,-0.661954,-0.137443,0.0248201,68,63,76,75,82,82,50,82,78,76,72,86
-4.94844,-1.96652,0.0467659,0.183244,-13.005,27.5476,-14.573,-0.0467659,0.0467659,0.183244,-13.06,27.5476,-14.518,-0.0467659,5.92987,12.011,-12.967,10.7139,-8.83068,-0.125083,-5.20457,5.01364,11.5148,-11.8602,12.2942,-7.81843,2.08677,-0.661945,-0.137433,0.0248129,68,63,76,75,82,82,50,82,78,76,72,86
-4.94838,-1.96618,0.0467524,0.183231,-13.005,27.5476,-14.573,-0.0467524,0.0467524,0.183231,-13.06,27.5476,-14.518,-0.0467524,5.9297,12.0112,-12.9667,10.7137,-8.83086,-0.12512,-5.20461,5.01354,11.5151,-11.8599,12.2944,-7.81853,2.0868,-0.661936,-0.137423,0.0248057,68,63,76,75,82,82,50,82,78,76,72,86
-4.94833,-1.96585,0.0467391,0.183217,-13.005,27.5476,-14.573,-0.0467391,0.0467391,0.183217,-13.06,27.5476,-14.518,-0.0467391,5.92953,12.0113,-12.9664,10.7136,-8.83105,-0.125156,-5.20465,5.01344,11.5154,-11.8596,12.2946,-7.81863,2.08683,-0.661927,-0.137413,0.0247986,68,63,76,75,82,82,50,82,78,76,72,86
-4.94827,-1.96552,0.046726,0.183204,-13.005,27.5476,-14.573,-0.046726,0.046726,0.183204,-13.06,27.5476,-14.518,-0.046726,5.92936,12.0115,-12.9662,10.7135,-8.83122,-0.125192,-5.20469,5.01334,11.5157,-11.8594,12.2949,-7.81873,2.08685,-0.661918,-0.137403,0.0247917,68,63,76,75,82,82,50,82,78,76,72,86
-4.94822,-1.9652,0.0467131,0.183191,-13.005,27.5476,-14.573,-0.0467131,0.0467131,0.183191,-13.06,27.5476,-14.5181,-0.0467131,5.9292,12.0116,-12.9659,10.7133,-8.8314,-0.125227,-5.20472,5.01324,11.5159,-11.8591,12.2951,-7.81883,2.08688,-0.661909,-0.137393,0.0247848,68,63,76,75,82,82,50,82,78,76,72,86
-4.94817,-1.96489,0.0467003,0.183178,-13.005,27.5476,-14.573,-0.0467003,0.0467003,0.183178,-13.0599,27.5476,-14.5181,-0.0467003,5.92904,12.0118,-12.9657,10.7132,-8.83157,-0.125262,-5.20476,5.01315,11.5162,-11.8588,12.2953,-7.81893,2.08691,-0.6619,-0.137384,0.0247781,68,63,76,75,82,82,50,82,78,76,72,86
-4.94811,-1.96458,0.0466878,0.183166,-13.005,27.5476,-14.573,-0.0466878,0.0466878,0.183166,-13.0599,27.5476,-14.5181,-0.0466878,5.92888,12.0119,-12.9654,10.7131,-8.83174,-0.125296,-5.2048,5.01305,11.5165,-11.8586,12.2955,-7.81902,2.08694,-0.661892,-0.137374,0.0247714,68,63,76,75,82,82,50,82,78,76,72,86
-4.94806,-1.96426,0.0466749,0.183151,-13.005,27.5476,-14.573,-0.0466749,0.0466749,0.183151,-13.0599,27.5476,-14.5181,-0.0466749,5.92871,12.0121,-12.9652,10.7129,-8.8319,-0.125328,-5.20483,5.01295,11.5168,-11.8583,12.2957,-7.81914,2.08696,-0.661883,-0.137363,0.0247646,68,63,76,75,82,82,50,82,78,76,72,86
-4.94801,-1.96395,0.0466618,0.183134,-13.005,27.5476,-14.573,-0.0466618,0.0466618,0.183134,-13.0599,27.5476,-14.5181,-0.0466618,5.92852,12.0122,-12.9649,10.7128,-8.83205,-0.125356,-5.20487,5.01285,11.517,-11.8581,12.2959,-7.81927,2.08699,-0.661875,-0.13735,0.0247576,68,63,76,75,82,82,50,82,78,76,72,86
-4.94796,-1.96364,0.0466483,0.183114,-13.0049,27.5476,-14.573,-0.0466483,0.0466483,0.183114,-13.0599,27.5476,-14.5181,-0.0466483,5.92831,12.0123,-12.9647,10.7127,-8.83219,-0.125382,-5.20492,5.01274,11.5173,-11.8578,12.2961,-7.81942,2.08701,-0.661867,-0.137336,0.0247505,68,63,76,75,82,82,50,82,78,76,72,86
-4.9479,-1.96332,0.0466346,0.183092,-13.0049,27.5476,-14.573,-0.0466346,0.0466346,0.183092,-13.0599,27.5476,-14.5181,-0.0466346,5.92809,12.0125,-12.9645,10.7126,-8.83233,-0.125405,-5.20496,5.01263,11.5176,-11.8575,12.2964,-7.81958,2.08704,-0.661859,-0.137319,0.0247432,68,63,76,75,82,82,50,82,78,76,72,86
-4.94785,-1.96301,0.0466207,0.183068,-13.0049,27.5476,-14.573,-0.0466207,0.0466207,0.183068,-13.0598,27.5476,-14.5181,-0.0466207,5.92786,12.0126,-12.9642,10.7125,-8.83245,-0.125425,-5.20501,5.01252,11.5179,-11.8572,12.2966,-7.81977,2.08706,-0.661851,-0.137301,0.0247358,68,63,76,75,82,82,50,82,78,76,72,86
-4.9478,-1.96269,0.0466065,0.183042,-13.0049,27.5475,-14.573,-0.0466065,0.0466065,0.183042,-13.0598,27.5475,-14.5181,-0.0466065,5.92761,12.0127,-12.964,10.7123,-8.83256,-0.125443,-5.20505,5.0124,11.5182,-11.8569,12.2968,-7.81997,2.08709,-0.661844,-0.137282,0.0247283,68,63,76,75,82,82,50,82,78,76,72,86
-4.94775,-1.96238,0.046592,0.183014,-13.0049,27.5475,-14.573,-0.046592,0.046592,0.183014,-13.0598,27.5475,-14.5181,-0.046592,5.92735,12.0128,-12.9638,10.7122,-8.83266,-0.125458,-5.2051,5.01227,11.5184,-11.8566,12.2971,-7.82019,2.08711,-0.661836,-0.137261,0.0247206,68,63,76,75,82,82,50,82,78,76,72,86
-4.9477,-1.96207,0.0465777,0.182986,-13.0049,27.5475,-14.573,-0.0465777,0.0465777,0.182986,-13.0598,27.5475,-14.5181,-0.0465777,5.92709,12.013,-12.9636,10.7121,-8.83277,-0.125472,-5.20515,5.01215,11.5187,-11.8563,12.2973,-7.8204,2.08713,-0.661829,-0.13724,0.024713,68,63,76,75,82,82,50,82,78,76,72,86
-4.94764,-1.96176,0.0465636,0.182959,-13.0049,27.5475,-14.573,-0.0465636,0.0465636,0.182959,-13.0597,27.5475,-14.5181,-0.0465636,5.92683,12.0131,-12.9634,10.712,-8.83287,-0.125487,-5.2052,5.01203,11.519,-11.856,12.2975,-7.82061,2.08715,-0.661822,-0.137219,0.0247055,68,63,76,75,82,82,50,82,78,76,72,86
-4.94759,-1.96146,0.0465497,0.182932,-13.0048,27.5475,-14.573,-0.0465497,0.0465497,0.182932,-13.0597,27.5475,-14.5181,-0.0465497,5.92658,12.0132,-12.9632,10.7119,-8.83297,-0.125501,-5.20525,5.01192,11.5193,-11.8557,12.2977,-7.82082,2.08718,-0.661815,-0.137199,0.0246981,68,63,76,75,82,82,50,82,78,76,72,86
-4.94754,-1.96116,0.0465359,0.182905,-13.0048,27.5475,-14.573,-0.0465359,0.0465359,0.182905,-13.0597,27.5475,-14.5182,-0.0465359,5.92633,12.0133,-12.963,10.7118,-8.83307,-0.125515,-5.2053,5.0118,11.5195,-11.8554,12.298,-7.82103,2.0872,-0.661807,-0.137179,0.0246908,68,63,76,75,82,82,50,82,78,76,72,86
-4.9475,-1.96086,0.0465224,0.182879,-13.0048,27.5475,-14.573,-0.0465224,0.0465224,0.182879,-13.0597,27.5475,-14.5182,-0.0465224,5.92608,12.0135,-12.9628,10.7117,-8.83316,-0.12553,-5.20534,5.01169,11.5198,-11.8551,12.2982,-7.82123,2.08722,-0.6618,-0.137159,0.0246836,68,63,76,75,82,82,50,82,78,76,72,86
-4.94745,-1.96057,0.046509,0.182853,-13.0048,27.5475,-14.573,-0.046509,0.046509,0.182853,-13.0597,27.5475,-14.5182,-0.046509,5.92584,12.0136,-12.9625,10.7116,-8.83326,-0.125543,-5.20539,5.01157,11.52,-11.8549,12.2984,-7.82143,2.08724,-0.661794,-0.137139,0.0246765,68,63,76,75,82,82,50,82,78,76,72,86
-4.9474,-1.96028,0.0464957,0.182827,-13.0048,27.5475,-14.573,-0.0464957,0.0464957,0.182827,-13.0596,27.5475,-14.5182,-0.0464957,5.9256,12.0137,-12.9623,10.7115,-8.83335,-0.125557,-5.20543,5.01146,11.5203,-11.8546,12.2986,-7.82163,2.08726,-0.661787,-0.13712,0.0246695,68,63,76,75,82,82,50,82,78,76,72,86
-4.94735,-1.96,0.0464827,0.182801,-13.0048,27.5475,-14.573,-0.0464827,0.0464827,0.182801,-13.0596,27.5475,-14.5182,-0.0464827,5.92536,12.0138,-12.9622,10.7114,-8.83345,-0.125571,-5.20548,5.01135,11.5206,-11.8543,12.2988,-7.82183,2.08728,-0.66178,-0.137101,0.0246626,68,63,76,75,82,82,50,82,78,76,72,86
-4.94731,-1.95972,0.0464698,0.182776,-13.0048,27.5475,-14.573,-0.0464698,0.0464698,0.182776,-13.0596,27.5475,-14.5182,-0.0464698,5.92512,12.0139,-12.962,10.7113,-8.83354,-0.125584,-5.20552,5.01124,11.5208,-11.854,12.299,-7.82202,2.08731,-0.661773,-0.137082,0.0246557,68,63,76,75,82,82,50,82,78,76,72,86
-4.94726,-1.95944,0.0464572,0.18275,-13.0048,27.5475,-14.573,-0.0464572,0.0464572,0.18275,-13.0596,27.5475,-14.5182,-0.0464572,5.92488,12.014,-12.9618,10.7112,-8.83362,-0.125597,-5.20556,5.01113,11.5211,-11.8538,12.2992,-7.82222,2.08732,-0.661767,-0.137063,0.0246491,68,63,76,75,82,82,50,82,78,76,72,86
-4.94722,-1.95917,0.0464449,0.182723,-13.0048,27.5475,-14.573,-0.0464449,0.0464449,0.182723,-13.0596,27.5475,-14.5182,-0.0464449,5.92463,12.0142,-12.9616,10.7112,-8.83368,-0.125611,-5.2056,5.01101,11.5213,-11.8535,12.2994,-7.82243,2.08734,-0.661761,-0.137042,0.0246425,68,63,76,75,82,82,50,82,78,76,72,86
-4.94718,-1.95891,0.046433,0.182695,-13.0048,27.5475,-14.573,-0.046433,0.046433,0.182695,-13.0596,27.5475,-14.5182,-0.046433,5.92437,12.0143,-12.9614,10.7111,-8.83373,-0.125625,-5.20564,5.01089,11.5215,-11.8532,12.2997,-7.82264,2.08736,-0.661756,-0.137021,0.0246362,68,63,76,75,82,82,50,82,78,76,72,86
-4.94715,-1.95864,0.0464214,0.182666,-13.0048,27.5475,-14.573,-0.0464214,0.0464214,0.182666,-13.0596,27.5475,-14.5182,-0.0464214,5.9241,12.0144,-12.9612,10.711,-8.83377,-0.125638,-5.20568,5.01077,11.5218,-11.853,12.2999,-7.82286,2.08738,-0.661751,-0.136999,0.02463,68,63,76,75,82,82,50,82,78,76,72,86
-4.94711,-1.95838,0.04641,0.182635,-13.0048,27.5475,-14.573,-0.04641,0.04641,0.182635,-13.0595,27.5475,-14.5183,-0.04641,5.92382,12.0145,-12.961,10.7109,-8.8338,-0.125652,-5.20572,5.01064,11.522,-11.8527,12.3001,-7.82308,2.0874,-0.661747,-0.136977,0.024624,68,63,76,75,82,82,50,82,78,76,72,86
-4.94708,-1.95813,0.046399,0.182604,-13.0048,27.5475,-14.5731,-0.046399,0.046399,0.182604,-13.0595,27.5475,-14.5183,-0.046399,5.92354,12.0146,-12.9608,10.7109,-8.83381,-0.125666,-5.20575,5.01052,11.5223,-11.8524,12.3003,-7.82331,2.08741,-0.661743,-0.136953,0.0246182,68,63,76,75,82,82,50,82,78,76,72,86
-4.94705,-1.95787,0.0463882,0.182572,-13.0047,27.5475,-14.5731,-0.0463882,0.0463882,0.182572,-13.0595,27.5475,-14.5183,-0.0463882,5.92324,12.0148,-12.9607,10.7108,-8.83381,-0.12568,-5.20579,5.01038,11.5225,-11.8522,12.3005,-7.82355,2.08743,-0.66174,-0.136929,0.0246124,68,63,76,75,82,82,50,82,78,76,72,86
-4.94702,-1.95762,0.0463776,0.182541,-13.0047,27.5475,-14.5731,-0.0463776,0.0463776,0.182541,-13.0595,27.5475,-14.5183,-0.0463776,5.92296,12.0149,-12.9605,10.7108,-8.83381,-0.125694,-5.20582,5.01025,11.5227,-11.8519,12.3008,-7.82378,2.08744,-0.661736,-0.136905,0.0246068,68,63,76,75,82,82,50,82,78,76,72,86
-4.94699,-1.95738,0.0463671,0.182509,-13.0047,27.5475,-14.5731,-0.0463671,0.0463671,0.182509,-13.0595,27.5475,-14.5183,-0.0463671,5.92267,12.015,-12.9603,10.7107,-8.83381,-0.125708,-5.20585,5.01012,11.523,-11.8517,12.301,-7.82401,2.08746,-0.661733,-0.136882,0.0246012,68,63,76,75,82,82,50,82,78,76,72,86
-4.94696,-1.95714,0.0463567,0.182478,-13.0047,27.5475,-14.5731,-0.0463567,0.0463567,0.182478,-13.0595,27.5475,-14.5183,-0.0463567,5.92239,12.0151,-12.9602,10.7106,-8.83381,-0.125722,-5.20589,5.01,11.5232,-11.8514,12.3012,-7.82424,2.08747,-0.661729,-0.136859,0.0245957,68,63,76,75,82,82,50,82,78,76,72,86
-4.94694,-1.9569,0.0463465,0.182448,-13.0047,27.5475,-14.5731,-0.0463465,0.0463465,0.182448,-13.0595,27.5475,-14.5183,-0.0463465,5.92211,12.0152,-12.96,10.7106,-8.83381,-0.125735,-5.20592,5.00987,11.5234,-11.8512,12.3014,-7.82446,2.08749,-0.661726,-0.136836,0.0245903,68,63,76,75,82,82,50,82,78,76,72,86
-4.94691,-1.95666,0.0463363,0.182417,-13.0047,27.5475,-14.5731,-0.0463363,0.0463363,0.182417,-13.0595,27.5475,-14.5183,-0.0463363,5.92183,12.0154,-12.9598,10.7105,-8.83381,-0.125749,-5.20595,5.00974,11.5237,-11.8509,12.3016,-7.82469,2.0875,-0.661723,-0.136813,0.0245849,68,63,76,75,82,82,50,82,78,76,72,86
-4.94688,-1.95642,0.0463263,0.182388,-13.0047,27.5475,-14.5731,-0.0463263,0.0463263,0.182388,-13.0594,27.5475,-14.5184,-0.0463263,5.92156,12.0155,-12.9597,10.7105,-8.83381,-0.125762,-5.20598,5.00962,11.5239,-11.8507,12.3018,-7.82491,2.08751,-0.661719,-0.136791,0.0245796,68,63,76,75,82,82,50,82,78,76,72,86
-4.94685,-1.95619,0.0463164,0.182358,-13.0047,27.5475,-14.5731,-0.0463164,0.0463164,0.182358,-13.0594,27.5475,-14.5184,-0.0463164,5.92129,12.0156,-12.9595,10.7104,-8.83381,-0.125775,-5.20601,5.0095,11.5241,-11.8504,12.302,-7.82512,2.08753,-0.661716,-0.136769,0.0245743,68,63,76,75,82,82,50,82,78,76,72,86
-4.94683,-1.95597,0.0463066,0.182329,-13.0047,27.5475,-14.5731,-0.0463066,0.0463066,0.182329,-13.0594,27.5475,-14.5184,-0.0463066,5.92102,12.0157,-12.9593,10.7104,-8.83381,-0.125788,-5.20604,5.00938,11.5243,-11.8502,12.3022,-7.82534,2.08754,-0.661713,-0.136747,0.0245691,68,63,76,75,82,82,50,82,78,76,72,86
-4.9468,-1.95574,0.0462969,0.1823,-13.0047,27.5475,-14.5731,-0.0462969,0.0462969,0.1823,-13.0594,27.5475,-14.5184,-0.0462969,5.92076,12.0158,-12.9592,10.7103,-8.83381,-0.125801,-5.20607,5.00926,11.5245,-11.85,12.3024,-7.82555,2.08755,-0.66171,-0.136725,0.024564,68,63,76,75,82,82,50,82,78,76,72,86
-4.94678,-1.95552,0.0462876,0.182271,-13.0047,27.5475,-14.5731,-0.0462876,0.0462876,0.182271,-13.0594,27.5475,-14.5184,-0.0462876,5.92049,12.0159,-12.959,10.7103,-8.8338,-0.125814,-5.2061,5.00914,11.5247,-11.8497,12.3026,-7.82575,2.08757,-0.661708,-0.136703,0.0245591,68,63,76,75,82,82,50,82,78,76,72,86
-4.94676,-1.95529,0.0462788,0.182242,-13.0047,27.5475,-14.5731,-0.0462788,0.0462788,0.182242,-13.0594,27.5475,-14.5184,-0.0462788,5.92022,12.016,-12.9589,10.7102,-8.83379,-0.125828,-5.20613,5.00901,11.525,-11.8495,12.3029,-7.82595,2.08757,-0.661708,-0.136682,0.0245544,68,63,76,75,82,82,50,82,78,76,72,86
-4.94674,-1.95507,0.0462703,0.182214,-13.0047,27.5475,-14.5731,-0.0462703,0.0462703,0.182214,-13.0594,27.5475,-14.5184,-0.0462703,5.91995,12.0162,-12.9587,10.7101,-8.83377,-0.125842,-5.20615,5.00889,11.5252,-11.8493,12.3031,-7.82615,2.08758,-0.661709,-0.13666,0.0245499,68,63,76,75,82,82,50,82,78,76,72,86
-4.94672,-1.95485,0.0462622,0.182185,-13.0047,27.5475,-14.5731,-0.0462622,0.0462622,0.182185,-13.0594,27.5475,-14.5185,-0.0462622,5.91968,12.0163,-12.9586,10.7101,-8.83374,-0.125856,-5.20617,5.00876,11.5254,-11.8491,12.3033,-7.82633,2.08758,-0.661712,-0.136639,0.0245456,68,63,76,75,82,82,50,82,78,76,72,86
-4.9467,-1.95463,0.0462545,0.182156,-13.0047,27.5475,-14.5731,-0.0462545,0.0462545,0.182156,-13.0594,27.5475,-14.5185,-0.0462545,5.91941,12.0164,-12.9585,10.71,-8.8337,-0.125872,-5.20619,5.00863,11.5256,-11.849,12.3035,-7.82651,2.08759,-0.661716,-0.136617,0.0245415,68,63,76,75,82,82,50,82,78,76,72,86
-4.94669,-1.95441,0.0462472,0.182127,-13.0047,27.5475,-14.5731,-0.0462472,0.0462472,0.182127,-13.0594,27.5475,-14.5185,-0.0462472,5.91913,12.0165,-12.9583,10.71,-8.83366,-0.125887,-5.20621,5.00849,11.5258,-11.8488,12.3037,-7.82669,2.08759,-0.661722,-0.136596,0.0245376,68,63,76,75,82,82,50,82,78,76,72,86
-4.94668,-1.95419,0.0462403,0.182099,-13.0047,27.5475,-14.5731,-0.0462403,0.0462403,0.182099,-13.0594,27.5475,-14.5185,-0.0462403,5.91885,12.0166,-12.9582,10.7099,-8.83361,-0.125903,-5.20622,5.00836,11.526,-11.8486,12.3039,-7.82685,2.08758,-0.661729,-0.136574,0.0245339,68,63,76,75,82,82,50,82,78,76,72,86
-4.94667,-1.95397,0.0462334,0.182071,-13.0047,27.5475,-14.5731,-0.0462334,0.0462334,0.182071,-13.0594,27.5475,-14.5185,-0.0462334,5.91857,12.0168,-12.9581,10.7099,-8.83356,-0.125919,-5.20624,5.00822,11.5262,-11.8485,12.3042,-7.82702,2.08758,-0.661736,-0.136553,0.0245303,68,63,76,75,82,82,50,82,78,76,72,86
-4.94665,-1.95376,0.0462266,0.182043,-13.0048,27.5475,-14.5731,-0.0462266,0.0462266,0.182043,-13.0594,27.5475,-14.5185,-0.0462266,5.9183,12.0169,-12.958,10.7098,-8.83351,-0.125935,-5.20625,5.00809,11.5264,-11.8483,12.3044,-7.82718,2.08758,-0.661742,-0.136532,0.0245267,68,63,76,75,82,82,50,82,78,76,72,86
-4.94664,-1.95354,0.0462199,0.182015,-13.0048,27.5475,-14.5731,-0.0462199,0.0462199,0.182015,-13.0594,27.5475,-14.5185,-0.0462199,5.91803,12.017,-12.9579,10.7098,-8.83346,-0.12595,-5.20627,5.00796,11.5266,-11.8481,12.3046,-7.82734,2.08757,-0.661749,-0.136511,0.0245231,68,63,76,75,82,82,50,82,78,76,72,86
-4.94663,-1.95333,0.0462133,0.181987,-13.0048,27.5475,-14.5731,-0.0462133,0.0462133,0.181987,-13.0594,27.5475,-14.5185,-0.0462133,5.91776,12.0171,-12.9577,10.7097,-8.83341,-0.125965,-5.20628,5.00783,11.5267,-11.848,12.3048,-7.82751,2.08757,-0.661756,-0.136491,0.0245196,68,63,76,75,82,82,50,82,78,76,72,86
-4.94662,-1.95313,0.0462067,0.18196,-13.0048,27.5475,-14.5732,-0.0462067,0.0462067,0.18196,-13.0594,27.5475,-14.5186,-0.0462067,5.9175,12.0173,-12.9576,10.7097,-8.83336,-0.125981,-5.2063,5.0077,11.5269,-11.8478,12.305,-7.82766,2.08757,-0.661763,-0.13647,0.0245161,68,63,76,75,82,82,50,82,78,76,72,86
-4.94661,-1.95292,0.0462002,0.181933,-13.0048,27.5476,-14.5732,-0.0462002,0.0462002,0.181933,-13.0593,27.5476,-14.5186,-0.0462002,5.91724,12.0174,-12.9575,10.7096,-8.83331,-0.125996,-5.20631,5.00757,11.5271,-11.8477,12.3052,-7.82782,2.08757,-0.661769,-0.13645,0.0245127,68,63,76,75,82,82,50,82,78,76,72,86
-4.9466,-1.95272,0.0461938,0.181907,-13.0048,27.5476,-14.5732,-0.0461938,0.0461938,0.181907,-13.0593,27.5476,-14.5186,-0.0461938,5.91698,12.0175,-12.9574,10.7096,-8.83327,-0.12601,-5.20632,5.00744,11.5273,-11.8475,12.3054,-7.82798,2.08756,-0.661776,-0.13643,0.0245093,68,63,76,75,82,82,50,82,78,76,72,86
-4.94659,-1.95252,0.0461874,0.181881,-13.0048,27.5476,-14.5732,-0.0461874,0.0461874,0.181881,-13.0593,27.5476,-14.5186,-0.0461874,5.91672,12.0176,-12.9573,10.7095,-8.83322,-0.126025,-5.20634,5.00732,11.5275,-11.8474,12.3056,-7.82813,2.08756,-0.661782,-0.13641,0.0245059,68,63,76,75,82,82,50,82,78,76,72,86
-4.94658,-1.95232,0.0461811,0.181855,-13.0048,27.5476,-14.5732,-0.0461811,0.0461811,0.181855,-13.0593,27.5476,-14.5186,-0.0461811,5.91647,12.0177,-12.9572,10.7095,-8.83318,-0.12604,-5.20635,5.0072,11.5277,-11.8472,12.3058,-7.82828,2.08756,-0.661788,-0.136391,0.0245025,68,63,76,75,82,82,50,82,78,76,72,86
-4.94657,-1.95212,0.046175,0.181828,-13.0048,27.5476,-14.5732,-0.046175,0.046175,0.181828,-13.0593,27.5476,-14.5186,-0.046175,5.91622,12.0178,-12.9571,10.7094,-8.83313,-0.126052,-5.20637,5.00707,11.5278,-11.8471,12.306,-7.82843,2.08755,-0.661795,-0.136371,0.0244993,68,63,76,75,82,82,50,82,78,76,72,86
-4.94656,-1.95193,0.046169,0.181802,-13.0048,27.5476,-14.5732,-0.046169,0.046169,0.181802,-13.0593,27.5476,-14.5186,-0.046169,5.91596,12.0179,-12.957,10.7094,-8.83309,-0.126062,-5.20638,5.00695,11.528,-11.8469,12.3062,-7.82857,2.08755,-0.661803,-0.136351,0.0244961,68,63,76,75,82,82,50,82,78,76,72,86
-4.94656,-1.95174,0.0461632,0.181775,-13.0048,27.5476,-14.5732,-0.0461632,0.0461632,0.181775,-13.0593,27.5476,-14.5187,-0.0461632,5.91571,12.0181,-12.9568,10.7093,-8.83305,-0.12607,-5.20639,5.00683,11.5282,-11.8468,12.3064,-7.8287,2.08755,-0.661812,-0.136331,0.024493,68,63,76,75,82,82,50,82,78,76,72,86
-4.94656,-1.95155,0.0461576,0.181748,-13.0048,27.5476,-14.5732,-0.0461576,0.0461576,0.181748,-13.0593,27.5476,-14.5187,-0.0461576,5.91545,12.0182,-12.9567,10.7092,-8.833,-0.126075,-5.20641,5.00671,11.5284,-11.8467,12.3066,-7.82882,2.08754,-0.661821,-0.136311,0.0244901,68,63,76,75,82,82,50,82,78,76,72,86
-4.94656,-1.95137,0.0461521,0.181721,-13.0048,27.5476,-14.5732,-0.0461521,0.0461521,0.181721,-13.0593,27.5476,-14.5187,-0.0461521,5.9152,12.0183,-12.9566,10.7092,-8.83297,-0.126079,-5.20642,5.00659,11.5285,-11.8466,12.3068,-7.82894,2.08754,-0.661831,-0.136291,0.0244872,68,63,76,75,82,82,50,82,78,76,72,86
-4.94656,-1.95119,0.0461468,0.181694,-13.0048,27.5476,-14.5732,-0.0461468,0.0461468,0.181694,-13.0593,27.5476,-14.5187,-0.0461468,5.91494,12.0184,-12.9565,10.7091,-8.83293,-0.12608,-5.20643,5.00647,11.5287,-11.8465,12.307,-7.82906,2.08754,-0.661841,-0.13627,0.0244843,68,63,76,75,82,82,50,82,78,76,72,86
-4.94656,-1.95101,0.0461417,0.181666,-13.0048,27.5476,-14.5732,-0.0461417,0.0461417,0.181666,-13.0593,27.5476,-14.5187,-0.0461417,5.91469,12.0185,-12.9564,10.7091,-8.83289,-0.126079,-5.20644,5.00636,11.5289,-11.8463,12.3072,-7.82916,2.08753,-0.661852,-0.13625,0.0244816,68,63,76,75,82,82,50,82,78,76,72,86
-4.94662,-1.95065,0.0461276,0.181662,-13.0048,27.5476,-14.5732,-0.0461276,0.0461276,0.181662,-13.0593,27.5476,-14.5187,-0.0461276,5.91442,12.0188,-12.9565,10.709,-8.83277,-0.126039,-5.20645,5.00611,11.5293,-11.846,12.3076,-7.82941,2.08758,-0.661866,-0.136247,0.0244742,68,63,76,75,82,82,50,82,78,76,72,86
-4.94667,-1.9503,0.0461134,0.181656,-13.0049,27.5477,-14.5732,-0.0461134,0.0461134,0.181656,-13.0594,27.5477,-14.5187,-0.0461134,5.91415,12.019,-12.9565,10.7089,-8.83266,-0.125995,-5.20646,5.00587,11.5297,-11.8457,12.308,-7.82965,2.08763,-0.661877,-0.136242,0.0244666,68,63,76,75,82,82,50,82,78,76,72,86
-4.94673,-1.94994,0.0460991,0.181647,-13.0049,27.5477,-14.5733,-0.0460991,0.0460991,0.181647,-13.0594,27.5477,-14.5188,-0.0460991,5.91387,12.0193,-12.9565,10.7087,-8.83257,-0.125946,-5.20647,5.00564,11.5301,-11.8454,12.3084,-7.82988,2.08766,-0.661887,-0.136235,0.024459,68,63,76,75,82,82,50,82,78,76,72,86
-4.94679,-1.94959,0.0460845,0.181636,-13.0049,27.5477,-14.5733,-0.0460845,0.0460845,0.181636,-13.0594,27.5477,-14.5188,-0.0460845,5.91359,12.0195,-12.9565,10.7086,-8.83249,-0.125892,-5.20648,5.0054,11.5305,-11.8451,12.3088,-7.8301,2.0877,-0.661894,-0.136227,0.0244513,68,63,76,75,82,82,50,82,78,76,72,86
-4.94685,-1.94924,0.0460698,0.181623,-13.0049,27.5477,-14.5733,-0.0460698,0.0460698,0.181623,-13.0594,27.5477,-14.5188,-0.0460698,5.91329,12.0197,-12.9564,10.7085,-8.83243,-0.125833,-5.2065,5.00517,11.5309,-11.8449,12.3092,-7.83032,2.08773,-0.661899,-0.136217,0.0244434,68,63,76,75,82,82,50,82,78,76,72,86
-4.94691,-1.94889,0.0460549,0.181608,-13.0049,27.5477,-14.5733,-0.0460549,0.0460549,0.181608,-13.0594,27.5477,-14.5188,-0.0460549,5.91299,12.02,-12.9563,10.7083,-8.83239,-0.12577,-5.20651,5.00495,11.5313,-11.8446,12.3096,-7.83052,2.08775,-0.661902,-0.136206,0.0244355,68,63,76,75,82,82,50,82,78,76,72,86
-4.94697,-1.94855,0.0460398,0.18159,-13.0049,27.5477,-14.5733,-0.0460398,0.0460398,0.18159,-13.0594,27.5477,-14.5188,-0.0460398,5.91268,12.0202,-12.9562,10.7082,-8.83236,-0.125702,-5.20653,5.00473,11.5317,-11.8443,12.31,-7.83072,2.08777,-0.661903,-0.136193,0.0244275,68,63,76,75,82,82,50,82,78,76,72,86
-4.94703,-1.9482,0.0460245,0.18157,-13.0049,27.5478,-14.5733,-0.0460245,0.0460245,0.18157,-13.0594,27.5478,-14.5189,-0.0460245,5.91236,12.0205,-12.956,10.708,-8.83234,-0.12563,-5.20655,5.00451,11.5321,-11.8441,12.3104,-7.8309,2.08779,-0.661902,-0.136178,0.0244194,68,63,76,75,82,82,50,82,78,76,72,86
-4.94709,-1.94786,0.0460093,0.181551,-13.005,27.5478,-14.5733,-0.0460093,0.0460093,0.181551,-13.0594,27.5478,-14.5189,-0.0460093,5.91204,12.0207,-12.9559,10.7078,-8.83233,-0.125557,-5.20657,5.00429,11.5325,-11.8438,12.3108,-7.83109,2.0878,-0.661901,-0.136163,0.0244113,68,63,76,75,82,82,50,82,78,76,72,86
-4.94715,-1.94752,0.0459942,0.181529,-13.005,27.5478,-14.5733,-0.0459942,0.0459942,0.181529,-13.0594,27.5478,-14.5189,-0.0459942,5.91172,12.0209,-12.9557,10.7077,-8.83233,-0.125486,-5.2066,5.00407,11.5329,-11.8436,12.3112,-7.83126,2.08782,-0.661899,-0.136147,0.0244033,68,63,76,75,82,82,50,82,78,76,72,86
-4.94722,-1.94718,0.0459793,0.181506,-13.005,27.5478,-14.5734,-0.0459793,0.0459793,0.181506,-13.0595,27.5478,-14.5189,-0.0459793,5.91139,12.0212,-12.9555,10.7075,-8.83234,-0.125415,-5.20663,5.00386,11.5333,-11.8434,12.3116,-7.83143,2.08784,-0.661897,-0.13613,0.0243955,68,63,76,75,82,82,50,82,78,76,72,86
-4.94729,-1.94685,0.0459647,0.181482,-13.005,27.5478,-14.5734,-0.0459647,0.0459647,0.181482,-13.0595,27.5478,-14.5189,-0.0459647,5.91106,12.0214,-12.9554,10.7073,-8.83237,-0.125346,-5.20666,5.00366,11.5336,-11.8432,12.312,-7.83158,2.08786,-0.661895,-0.136111,0.0243877,68,63,76,75,82,82,50,82,78,76,72,86
-4.94737,-1.94651,0.0459502,0.181455,-13.005,27.5479,-14.5734,-0.0459502,0.0459502,0.181455,-13.0595,27.5479,-14.5189,-0.0459502,5.91073,12.0216,-12.9551,10.7072,-8.83241,-0.125278,-5.20669,5.00345,11.534,-11.843,12.3124,-7.83172,2.08787,-0.661892,-0.136091,0.02438,68,63,76,75,82,82,50,82,78,76,72,86
-4.94745,-1.94618,0.045936,0.181427,-13.0051,27.5479,-14.5734,-0.045936,0.045936,0.181427,-13.0595,27.5479,-14.519,-0.045936,5.91039,12.0219,-12.9549,10.707,-8.83246,-0.125211,-5.20673,5.00326,11.5344,-11.8428,12.3128,-7.83186,2.08789,-0.661888,-0.13607,0.0243724,68,63,76,75,82,82,50,82,78,76,72,86
-4.94753,-1.94585,0.0459219,0.181397,-13.0051,27.5479,-14.5734,-0.0459219,0.0459219,0.181397,-13.0595,27.5479,-14.519,-0.0459219,5.91005,12.0221,-12.9547,10.7068,-8.83253,-0.125145,-5.20677,5.00307,11.5348,-11.8426,12.3132,-7.83198,2.08791,-0.661885,-0.136048,0.024365,68,63,76,75,82,82,50,82,78,76,72,86
-4.94762,-1.94552,0.0459081,0.181366,-13.0051,27.5479,-14.5734,-0.0459081,0.0459081,0.181366,-13.0595,27.5479,-14.519,-0.0459081,5.90971,12.0223,-12.9544,10.7066,-8.83261,-0.12508,-5.20681,5.00288,11.5352,-11.8425,12.3136,-7.83209,2.08793,-0.66188,-0.136024,0.0243576,68,63,76,75,82,82,50,82,78,76,72,86
-4.94771,-1.94519,0.0458942,0.181334,-13.0051,27.5479,-14.5734,-0.0458942,0.0458942,0.181334,-13.0595,27.5479,-14.519,-0.0458942,5.90937,12.0226,-12.9542,10.7064,-8.83269,-0.125015,-5.20685,5.00269,11.5356,-11.8424,12.3139,-7.83221,2.08796,-0.661876,-0.136001,0.0243503,68,63,76,75,82,82,50,82,78,76,72,86
-4.94779,-1.94486,0.0458804,0.181302,-13.0051,27.5479,-14.5734,-0.0458804,0.0458804,0.181302,-13.0595,27.5479,-14.5191,-0.0458804,5.90902,12.0228,-12.9539,10.7062,-8.83277,-0.124953,-5.2069,5.00251,11.5359,-11.8422,12.3143,-7.83232,2.08797,-0.661872,-0.135977,0.024343,68,63,76,75,82,82,50,82,78,76,72,86
-4.94787,-1.94453,0.0458668,0.181269,-13.0051,27.548,-14.5735,-0.0458668,0.0458668,0.181269,-13.0595,27.548,-14.5191,-0.0458668,5.90867,12.023,-12.9536,10.706,-8.83287,-0.124894,-5.20694,5.00233,11.5363,-11.8421,12.3147,-7.83244,2.08798,-0.661869,-0.135952,0.0243357,68,63,76,75,82,82,50,82,78,76,72,86
-4.94794,-1.9442,0.0458532,0.181235,-13.0052,27.548,-14.5735,-0.0458532,0.0458532,0.181235,-13.0595,27.548,-14.5191,-0.0458532,5.90832,12.0233,-12.9533,10.7058,-8.83298,-0.124838,-5.20699,5.00215,11.5367,-11.8419,12.3151,-7.83256,2.08799,-0.661867,-0.135926,0.0243285,68,63,76,75,82,82,50,82,78,76,72,86
-4.94801,-1.94387,0.0458397,0.181201,-13.0052,27.548,-14.5735,-0.0458397,0.0458397,0.181201,-13.0595,27.548,-14.5191,-0.0458397,5.90797,12.0235,-12.953,10.7056,-8.83309,-0.124786,-5.20704,5.00197,11.537,-11.8418,12.3154,-7.83268,2.088,-0.661865,-0.1359,0.0243213,68,63,76,75,82,82,50,82,78,76,72,86
-4.94808,-1.94354,0.0458263,0.181165,-13.0052,27.548,-14.5735,-0.0458263,0.0458263,0.181165,-13.0595,27.548,-14.5191,-0.0458263,5.90762,12.0237,-12.9526,10.7054,-8.83322,-0.124736,-5.20709,5.00179,11.5374,-11.8416,12.3158,-7.83281,2.088,-0.661864,-0.135874,0.0243142,68,63,76,75,82,82,50,82,78,76,72,86
-4.94814,-1.94321,0.045813,0.181129,-13.0052,27.548,-14.5735,-0.045813,0.045813,0.181129,-13.0595,27.548,-14.5192,-0.045813,5.90726,12.0239,-12.9522,10.7052,-8.83335,-0.124689,-5.20714,5.00162,11.5378,-11.8415,12.3161,-7.83294,2.088,-0.661864,-0.135847,0.0243072,68,63,76,75,82,82,50,82,78,76,72,86
-4.94819,-1.94288,0.0457997,0.181092,-13.0052,27.548,-14.5735,-0.0457997,0.0457997,0.181092,-13.0595,27.548,-14.5192,-0.0457997,5.90691,12.0241,-12.9518,10.705,-8.83349,-0.124646,-5.20719,5.00145,11.5381,-11.8414,12.3165,-7.83307,2.08799,-0.661864,-0.135819,0.0243001,68,63,76,75,82,82,50,82,78,76,72,86
-4.94825,-1.94255,0.0457865,0.181054,-13.0052,27.548,-14.5735,-0.0457865,0.0457865,0.181054,-13.0596,27.548,-14.5192,-0.0457865,5.90655,12.0243,-12.9514,10.7048,-8.83363,-0.124602,-5.20724,5.00128,11.5385,-11.8412,12.3169,-7.8332,2.08798,-0.661864,-0.135791,0.0242931,68,63,76,75,82,82,50,82,78,76,72,86
-4.9483,-1.94222,0.0457733,0.181017,-13.0052,27.5481,-14.5735,-0.0457733,0.0457733,0.181017,-13.0596,27.5481,-14.5192,-0.0457733,5.90619,12.0246,-12.951,10.7046,-8.83377,-0.124558,-5.20729,5.0011,11.5388,-11.8411,12.3172,-7.83333,2.08797,-0.661864,-0.135763,0.0242861,68,63,76,75,82,82,50,82,78,76,72,86
-4.94836,-1.94189,0.04576,0.18098,-13.0053,27.5481,-14.5735,-0.04576,0.04576,0.18098,-13.0596,27.5481,-14.5192,-0.04576,5.90583,12.0248,-12.9506,10.7044,-8.83391,-0.124515,-5.20734,5.00093,11.5392,-11.841,12.3176,-7.83346,2.08797,-0.661865,-0.135735,0.0242791,68,63,76,75,82,82,50,82,78,76,72,86
-4.94841,-1.94156,0.0457468,0.180943,-13.0053,27.5481,-14.5735,-0.0457468,0.0457468,0.180943,-13.0596,27.5481,-14.5193,-0.0457468,5.90547,12.025,-12.9502,10.7042,-8.83405,-0.124471,-5.2074,5.00076,11.5396,-11.8408,12.3179,-7.83359,2.08796,-0.661865,-0.135707,0.0242721,68,63,76,75,82,82,50,82,78,76,72,86
-4.94847,-1.94123,0.0457336,0.180906,-13.0053,27.5481,-14.5735,-0.0457336,0.0457336,0.180906,-13.0596,27.5481,-14.5193,-0.0457336,5.90512,12.0252,-12.9498,10.7039,-8.83419,-0.124427,-5.20745,5.00059,11.5399,-11.8407,12.3183,-7.83372,2.08795,-0.661865,-0.135679,0.024265,68,63,76,75,82,82,50,82,78,76,72,86
-4.94852,-1.9409,0.0457204,0.180868,-13.0053,27.5481,-14.5736,-0.0457204,0.0457204,0.180868,-13.0596,27.5481,-14.5193,-0.0457204,5.90476,12.0254,-12.9494,10.7037,-8.83434,-0.124383,-5.2075,5.00042,11.5403,-11.8405,12.3186,-7.83385,2.08794,-0.661865,-0.135651,0.024258,68,63,76,75,82,82,50,82,78,76,72,86
-4.94857,-1.94057,0.0457071,0.180831,-13.0053,27.5481,-14.5736,-0.0457071,0.0457071,0.180831,-13.0596,27.5481,-14.5193,-0.0457071,5.9044,12.0256,-12.949,10.7035,-8.83448,-0.12434,-5.20755,5.00024,11.5406,-11.8404,12.319,-7.83398,2.08794,-0.661866,-0.135623,0.024251,68,63,76,75,82,82,50,82,78,76,72,86
-4.94863,-1.94023,0.0456939,0.180794,-13.0053,27.5481,-14.5736,-0.0456939,0.0456939,0.180794,-13.0596,27.5481,-14.5193,-0.0456939,5.90404,12.0259,-12.9486,10.7033,-8.83462,-0.124296,-5.2076,5.00007,11.541,-11.8403,12.3193,-7.83411,2.08793,-0.661866,-0.135596,0.024244,68,63,76,75,82,82,51,82,78,76,72,86
-4.94868,-1.9399,0.0456807,0.180757,-13.0054,27.5482,-14.5736,-0.0456807,0.0456807,0.180757,-13.0596,27.5482,-14.5194,-0.0456807,5.90368,12.0261,-12.9482,10.7031,-8.83476,-0.124252,-5.20765,4.9999,11.5413,-11.8401,12.3197,-7.83424,2.08792,-0.661866,-0.135568,0.024237,68,63,76,75,82,82,51,82,78,76,72,86
-4.94874,-1.93957,0.0456678,0.180718,-13.0054,27.5482,-14.5736,-0.0456678,0.0456678,0.180718,-13.0596,27.5482,-14.5194,-0.0456678,5.90332,12.0263,-12.9477,10.7029,-8.83491,-0.124215,-5.20771,4.99973,11.5417,-11.84,12.32,-7.83436,2.08791,-0.661866,-0.135539,0.0242301,68,63,76,75,82,82,51,82,78,76,72,86
-4.94879,-1.93923,0.0456553,0.180678,-13.0054,27.5482,-14.5736,-0.0456553,0.0456553,0.180678,-13.0596,27.5482,-14.5194,-0.0456553,5.90296,12.0265,-12.9473,10.7027,-8.83508,-0.124183,-5.20777,4.99957,11.542,-11.8399,12.3204,-7.83448,2.08791,-0.661866,-0.135508,0.0242235,68,63,76,75,82,82,51,82,78,76,72,86
-4.94885,-1.93889,0.0456432,0.180636,-13.0054,27.5482,-14.5736,-0.0456432,0.0456432,0.180636,-13.0596,27.5482,-14.5194,-0.0456432,5.90259,12.0267,-12.9469,10.7024,-8.83526,-0.124157,-5.20782,4.99941,11.5424,-11.8398,12.3207,-7.8346,2.0879,-0.661866,-0.135477,0.0242171,68,63,76,75,82,82,51,82,78,76,72,86
-4.9489,-1.93855,0.0456315,0.180593,-13.0054,27.5482,-14.5736,-0.0456315,0.0456315,0.180593,-13.0596,27.5482,-14.5194,-0.0456315,5.90222,12.0269,-12.9464,10.7022,-8.83545,-0.124136,-5.20788,4.99925,11.5427,-11.8397,12.321,-7.83471,2.0879,-0.661865,-0.135444,0.0242108,68,63,76,75,82,82,51,82,78,76,72,86
-4.94896,-1.9382,0.0456201,0.180547,-13.0054,27.5482,-14.5736,-0.0456201,0.0456201,0.180547,-13.0596,27.5482,-14.5195,-0.0456201,5.90184,12.0272,-12.9459,10.702,-8.83565,-0.124122,-5.20795,4.9991,11.5431,-11.8397,12.3213,-7.83482,2.08789,-0.661864,-0.135411,0.0242048,68,63,76,75,82,82,51,82,78,76,72,86
-4.94902,-1.93786,0.0456091,0.180501,-13.0055,27.5483,-14.5736,-0.0456091,0.0456091,0.180501,-13.0596,27.5483,-14.5195,-0.0456091,5.90146,12.0274,-12.9454,10.7017,-8.83587,-0.124113,-5.20801,4.99895,11.5434,-11.8396,12.3216,-7.83493,2.08789,-0.661863,-0.135376,0.024199,68,63,76,75,82,82,51,82,78,76,72,86
-4.94907,-1.93751,0.0455985,0.180453,-13.0055,27.5483,-14.5736,-0.0455985,0.0455985,0.180453,-13.0596,27.5483,-14.5195,-0.0455985,5.90107,12.0276,-12.9449,10.7015,-8.83609,-0.124111,-5.20808,4.99881,11.5437,-11.8396,12.3219,-7.83503,2.08789,-0.661861,-0.13534,0.0241933,68,63,76,75,82,82,51,82,78,76,72,86
-4.94913,-1.93717,0.0455878,0.180405,-13.0055,27.5483,-14.5736,-0.0455878,0.0455878,0.180405,-13.0596,27.5483,-14.5195,-0.0455878,5.90069,12.0278,-12.9444,10.7012,-8.83632,-0.124108,-5.20815,4.99867,11.5441,-11.8396,12.3222,-7.83513,2.08788,-0.66186,-0.135303,0.0241877,68,63,76,75,82,82,51,82,78,76,72,86
-4.94918,-1.93682,0.0455774,0.180355,-13.0055,27.5483,-14.5737,-0.0455774,0.0455774,0.180355,-13.0596,27.5483,-14.5195,-0.0455774,5.9003,12.028,-12.9439,10.701,-8.83655,-0.124112,-5.20822,4.99853,11.5444,-11.8395,12.3225,-7.83523,2.08788,-0.66186,-0.135266,0.0241822,68,63,76,75,82,82,51,82,78,76,72,86
-4.94923,-1.93647,0.0455672,0.180303,-13.0055,27.5483,-14.5737,-0.0455672,0.0455672,0.180303,-13.0596,27.5483,-14.5196,-0.0455672,5.8999,12.0282,-12.9433,10.7008,-8.83679,-0.124121,-5.20828,4.99839,11.5447,-11.8395,12.3228,-7.83534,2.08787,-0.661862,-0.135227,0.0241767,68,63,76,75,82,82,51,82,78,76,72,86
-4.94928,-1.93612,0.0455572,0.180249,-13.0055,27.5483,-14.5737,-0.0455572,0.0455572,0.180249,-13.0596,27.5483,-14.5196,-0.0455572,5.8995,12.0285,-12.9428,10.7005,-8.83702,-0.124137,-5.20835,4.99826,11.545,-11.8395,12.323,-7.83545,2.08786,-0.661865,-0.135187,0.0241714,68,63,76,75,82,82,51,82,78,76,72,86
-4.94932,-1.93577,0.0455475,0.180194,-13.0055,27.5483,-14.5737,-0.0455475,0.0455475,0.180194,-13.0596,27.5483,-14.5196,-0.0455475,5.89909,12.0287,-12.9423,10.7002,-8.83726,-0.124159,-5.20842,4.99813,11.5454,-11.8395,12.3233,-7.83556,2.08784,-0.66187,-0.135145,0.0241663,68,63,76,75,82,82,51,82,78,76,72,86
-4.94936,-1.93542,0.0455379,0.180136,-13.0056,27.5483,-14.5737,-0.0455379,0.0455379,0.180136,-13.0596,27.5483,-14.5196,-0.0455379,5.89868,12.0289,-12.9417,10.7,-8.83751,-0.124188,-5.20849,4.998,11.5457,-11.8394,12.3235,-7.83568,2.08783,-0.661877,-0.135102,0.0241612,68,63,76,75,82,82,51,82,78,76,72,86
-4.94939,-1.93506,0.0455286,0.180077,-13.0056,27.5484,-14.5737,-0.0455286,0.0455286,0.180077,-13.0596,27.5484,-14.5197,-0.0455286,5.89826,12.0291,-12.9411,10.6997,-8.83775,-0.124222,-5.20856,4.99787,11.546,-11.8394,12.3238,-7.83579,2.08781,-0.661886,-0.135058,0.0241562,68,63,76,75,82,82,51,82,78,76,72,86
-4.94943,-1.93471,0.0455195,0.180016,-13.0056,27.5484,-14.5737,-0.0455195,0.0455195,0.180016,-13.0596,27.5484,-14.5197,-0.0455195,5.89783,12.0293,-12.9405,10.6995,-8.838,-0.124263,-5.20862,4.99775,11.5463,-11.8394,12.324,-7.83592,2.08779,-0.661896,-0.135012,0.0241514,68,63,76,75,82,82,50,82,78,76,72,86
-4.94946,-1.93436,0.0455103,0.179955,-13.0056,27.5484,-14.5737,-0.0455103,0.0455103,0.179955,-13.0596,27.5484,-14.5197,-0.0455103,5.89741,12.0295,-12.94,10.6992,-8.83825,-0.124304,-5.20869,4.99763,11.5466,-11.8394,12.3243,-7.83604,2.08777,-0.661906,-0.134966,0.0241466,68,63,76,75,82,82,50,82,78,76,72,86
-4.94948,-1.93401,0.0455029,0.17989,-13.0056,27.5484,-14.5737,-0.0455029,0.0455029,0.17989,-13.0596,27.5484,-14.5197,-0.0455029,5.89697,12.0297,-12.9394,10.699,-8.8385,-0.124361,-5.20877,4.99752,11.5469,-11.8394,12.3245,-7.83615,2.08775,-0.66192,-0.134918,0.0241426,68,63,76,75,82,82,50,82,78,76,72,86
-4.9495,-1.93367,0.0454971,0.179821,-13.0056,27.5484,-14.5737,-0.0454971,0.0454971,0.179821,-13.0596,27.5484,-14.5198,-0.0454971,5.89652,12.0299,-12.9388,10.6987,-8.83874,-0.124437,-5.20885,4.99742,11.5471,-11.8394,12.3247,-7.83626,2.08773,-0.661938,-0.134866,0.0241395,68,63,76,75,82,82,50,82,78,76,72,86
-4.94952,-1.93333,0.0454929,0.179749,-13.0056,27.5484,-14.5737,-0.0454929,0.0454929,0.179749,-13.0595,27.5484,-14.5198,-0.0454929,5.89607,12.0301,-12.9382,10.6985,-8.83897,-0.124529,-5.20893,4.99732,11.5474,-11.8393,12.3249,-7.83636,2.08772,-0.661959,-0.134812,0.0241373,68,63,76,75,82,82,50,82,78,76,72,86
-4.94953,-1.93299,0.0454904,0.179672,-13.0056,27.5484,-14.5737,-0.0454904,0.0454904,0.179672,-13.0595,27.5484,-14.5198,-0.0454904,5.8956,12.0303,-12.9377,10.6982,-8.8392,-0.124638,-5.20903,4.99724,11.5476,-11.8393,12.325,-7.83645,2.08771,-0.661985,-0.134754,0.024136,68,63,76,75,82,82,50,82,78,76,72,86
-4.94954,-1.93266,0.0454895,0.179592,-13.0056,27.5484,-14.5737,-0.0454895,0.0454895,0.179592,-13.0595,27.5484,-14.5198,-0.0454895,5.89512,12.0305,-12.9371,10.698,-8.83943,-0.124764,-5.20913,4.99716,11.5478,-11.8393,12.3251,-7.83654,2.0877,-0.662014,-0.134694,0.0241355,68,63,76,75,82,82,50,82,78,76,72,86
-4.94954,-1.93233,0.0454903,0.179508,-13.0057,27.5484,-14.5737,-0.0454903,0.0454903,0.179508,-13.0595,27.5484,-14.5199,-0.0454903,5.89463,12.0307,-12.9365,10.6978,-8.83965,-0.124908,-5.20923,4.99709,11.548,-11.8393,12.3253,-7.83661,2.0877,-0.662047,-0.134631,0.0241359,68,63,76,75,82,82,50,82,78,76,72,86
-4.94953,-1.93201,0.0454927,0.17942,-13.0057,27.5484,-14.5737,-0.0454927,0.0454927,0.17942,-13.0595,27.5484,-14.5199,-0.0454927,5.89413,12.0309,-12.9359,10.6975,-8.83986,-0.125069,-5.20934,4.99703,11.5482,-11.8393,12.3253,-7.83668,2.08769,-0.662084,-0.134565,0.0241372,68,63,76,75,82,82,50,82,78,76,72,86
-4.94953,-1.93169,0.0454951,0.179332,-13.0057,27.5484,-14.5737,-0.0454951,0.0454951,0.179332,-13.0595,27.5484,-14.5199,-0.0454951,5.89363,12.0311,-12.9354,10.6973,-8.84008,-0.125229,-5.20945,4.99697,11.5483,-11.8393,12.3254,-7.83675,2.08769,-0.662121,-0.134499,0.0241385,68,63,76,75,82,82,50,82,78,76,72,86
-4.94952,-1.93136,0.0454976,0.179244,-13.0057,27.5484,-14.5737,-0.0454976,0.0454976,0.179244,-13.0595,27.5484,-14.5199,-0.0454976,5.89313,12.0313,-12.9348,10.6971,-8.84029,-0.12539,-5.20957,4.99692,11.5485,-11.8393,12.3255,-7.83683,2.08769,-0.662158,-0.134433,0.0241398,68,63,76,75,82,82,50,82,78,76,72,86
-4.94952,-1.93104,0.0455,0.179156,-13.0057,27.5484,-14.5737,-0.0455,0.0455,0.179156,-13.0594,27.5484,-14.52,-0.0455,5.89263,12.0315,-12.9342,10.6968,-8.8405,-0.125551,-5.20968,4.99686,11.5487,-11.8393,12.3256,-7.8369,2.08769,-0.662195,-0.134367,0.0241411,68,63,76,75,82,82,50,82,78,76,72,86
-4.94952,-1.93072,0.0455024,0.179067,-13.0057,27.5484,-14.5737,-0.0455024,0.0455024,0.179067,-13.0594,27.5484,-14.52,-0.0455024,5.89213,12.0317,-12.9336,10.6966,-8.84072,-0.125712,-5.20979,4.9968,11.5488,-11.8393,12.3257,-7.83697,2.08769,-0.662232,-0.134301,0.0241424,68,63,76,75,82,82,50,82,78,76,72,86
-4.94952,-1.93039,0.0455049,0.178979,-13.0057,27.5485,-14.5737,-0.0455049,0.0455049,0.178979,-13.0594,27.5485,-14.52,-0.0455049,5.89163,12.0319,-12.9331,10.6964,-8.84093,-0.125872,-5.2099,4.99674,11.549,-11.8393,12.3258,-7.83704,2.08769,-0.662269,-0.134235,0.0241437,68,63,76,75,82,82,50,82,78,76,72,86
-4.94951,-1.93006,0.0455073,0.178891,-13.0057,27.5485,-14.5737,-0.0455073,0.0455073,0.178891,-13.0594,27.5485,-14.52,-0.0455073,5.89114,12.0321,-12.9325,10.6962,-8.84115,-0.126033,-5.21001,4.99668,11.5492,-11.8394,12.3259,-7.83711,2.08768,-0.662306,-0.134169,0.0241449,68,63,76,75,82,82,50,82,78,76,72,86
-4.94951,-1.92974,0.0455097,0.178803,-13.0057,27.5485,-14.5737,-0.0455097,0.0455097,0.178803,-13.0594,27.5485,-14.5201,-0.0455097,5.89064,12.0322,-12.9319,10.6959,-8.84136,-0.126194,-5.21012,4.99662,11.5493,-11.8394,12.326,-7.83718,2.08768,-0.662343,-0.134102,0.0241462,68,63,76,75,82,82,50,82,78,76,72,86
-4.94951,-1.92941,0.0455122,0.178715,-13.0058,27.5485,-14.5737,-0.0455122,0.0455122,0.178715,-13.0594,27.5485,-14.5201,-0.0455122,5.89014,12.0324,-12.9313,10.6957,-8.84158,-0.126355,-5.21023,4.99656,11.5495,-11.8394,12.3261,-7.83725,2.08768,-0.66238,-0.134036,0.0241475,68,63,76,75,82,82,50,82,78,76,72,86
-4.94951,-1.92908,0.0455146,0.178627,-13.0058,27.5485,-14.5737,-0.0455146,0.0455146,0.178627,-13.0593,27.5485,-14.5201,-0.0455146,5.88964,12.0326,-12.9308,10.6955,-8.84179,-0.126515,-5.21034,4.9965,11.5497,-11.8394,12.3262,-7.83732,2.08768,-0.662418,-0.13397,0.0241488,68,63,76,75,82,82,50,82,78,76,72,86
-4.94951,-1.92876,0.0455172,0.178537,-13.0058,27.5485,-14.5737,-0.0455172,0.0455172,0.178537,-13.0593,27.5485,-14.5201,-0.0455172,5.88913,12.0328,-12.9302,10.6952,-8.842,-0.12668,-5.21045,4.99645,11.5498,-11.8394,12.3262,-7.83737,2.08768,-0.662453,-0.133903,0.0241502,68,63,76,75,82,82,50,82,78,76,72,86
-4.94951,-1.92844,0.0455201,0.178446,-13.0058,27.5485,-14.5737,-0.0455201,0.0455201,0.178446,-13.0593,27.5485,-14.5202,-0.0455201,5.88863,12.033,-12.9297,10.695,-8.8422,-0.126848,-5.21056,4.9964,11.55,-11.8394,12.3263,-7.83741,2.08769,-0.662487,-0.133835,0.0241517,68,63,76,75,82,82,50,82,78,76,72,86
-4.94951,-1.92813,0.0455232,0.178353,-13.0058,27.5485,-14.5737,-0.0455232,0.0455232,0.178353,-13.0593,27.5485,-14.5202,-0.0455232,5.88811,12.0332,-12.9291,10.6948,-8.84239,-0.127021,-5.21067,4.99635,11.5501,-11.8394,12.3264,-7.83742,2.08771,-0.66252,-0.133765,0.0241534,68,63,76,75,82,82,50,82,78,76,72,86
-4.94951,-1.92782,0.0455265,0.178258,-13.0058,27.5485,-14.5737,-0.0455265,0.0455265,0.178258,-13.0593,27.5485,-14.5202,-0.0455265,5.8876,12.0333,-12.9286,10.6946,-8.84257,-0.127197,-5.21077,4.99631,11.5502,-11.8394,12.3265,-7.83742,2.08772,-0.662552,-0.133694,0.0241551,68,63,76,75,82,82,50,82,78,76,72,86
-4.94951,-1.92752,0.04553,0.178162,-13.0058,27.5485,-14.5737,-0.04553,0.04553,0.178162,-13.0593,27.5485,-14.5202,-0.04553,5.88708,12.0335,-12.9282,10.6944,-8.84275,-0.127377,-5.21087,4.99627,11.5503,-11.8394,12.3265,-7.8374,2.08775,-0.662582,-0.133622,0.024157,68,63,76,75,82,82,50,82,78,76,72,86
-4.94951,-1.92723,0.0455338,0.178064,-13.0058,27.5485,-14.5737,-0.0455338,0.0455338,0.178064,-13.0592,27.5485,-14.5203,-0.0455338,5.88656,12.0336,-12.9277,10.6942,-8.84292,-0.127561,-5.21096,4.99624,11.5504,-11.8394,12.3266,-7.83737,2.08778,-0.662611,-0.133548,0.024159,68,63,76,75,82,82,50,82,78,76,72,86
-4.94952,-1.92694,0.0455377,0.177965,-13.0058,27.5485,-14.5737,-0.0455377,0.0455377,0.177965,-13.0592,27.5485,-14.5203,-0.0455377,5.88603,12.0337,-12.9272,10.694,-8.84308,-0.127748,-5.21106,4.99621,11.5505,-11.8394,12.3266,-7.83732,2.08782,-0.662639,-0.133473,0.0241611,68,63,76,75,82,82,50,82,78,76,72,86
-4.94952,-1.92665,0.0455417,0.177865,-13.0058,27.5485,-14.5737,-0.0455417,0.0455417,0.177865,-13.0592,27.5485,-14.5203,-0.0455417,5.88551,12.0339,-12.9268,10.6938,-8.84324,-0.127936,-5.21116,4.99618,11.5506,-11.8394,12.3266,-7.83726,2.08785,-0.662667,-0.133399,0.0241632,68,63,76,75,82,82,50,82,78,76,72,86
-4.94953,-1.92635,0.0455456,0.177765,-13.0058,27.5485,-14.5737,-0.0455456,0.0455456,0.177765,-13.0592,27.5485,-14.5204,-0.0455456,5.88498,12.034,-12.9264,10.6937,-8.8434,-0.128124,-5.21125,4.99615,11.5507,-11.8394,12.3267,-7.83721,2.08789,-0.662694,-0.133324,0.0241653,68,63,76,75,82,82,50,82,78,76,72,86
-4.94953,-1.92606,0.0455496,0.177666,-13.0059,27.5485,-14.5737,-0.0455496,0.0455496,0.177666,-13.0592,27.5485,-14.5204,-0.0455496,5.88445,12.0341,-12.9259,10.6935,-8.84357,-0.128312,-5.21135,4.99612,11.5508,-11.8395,12.3267,-7.83716,2.08792,-0.662722,-0.133249,0.0241674,68,63,76,75,82,82,50,82,78,76,72,86
-4.94954,-1.92577,0.0455535,0.177566,-13.0059,27.5485,-14.5737,-0.0455535,0.0455535,0.177566,-13.0591,27.5485,-14.5204,-0.0455535,5.88393,12.0342,-12.9255,10.6933,-8.84373,-0.128499,-5.21144,4.9961,11.5509,-11.8395,12.3268,-7.8371,2.08796,-0.662749,-0.133175,0.0241695,68,63,76,75,82,82,50,82,78,76,72,86
-4.94954,-1.92548,0.0455575,0.177467,-13.0059,27.5485,-14.5737,-0.0455575,0.0455575,0.177467,-13.0591,27.5485,-14.5204,-0.0455575,5.8834,12.0344,-12.925,10.6931,-8.84389,-0.128687,-5.21154,4.99607,11.5509,-11.8395,12.3268,-7.83705,2.08799,-0.662777,-0.1331,0.0241716,68,63,76,75,82,82,50,82,78,76,72,86
-4.94955,-1.92519,0.0455614,0.177367,-13.0059,27.5485,-14.5737,-0.0455614,0.0455614,0.177367,-13.0591,27.5485,-14.5205,-0.0455614,5.88287,12.0345,-12.9246,10.6929,-8.84405,-0.128875,-5.21163,4.99604,11.551,-11.8395,12.3268,-7.837,2.08803,-0.662805,-0.133025,0.0241737,68,63,76,75,82,82,50,82,78,76,72,86
-4.94956,-1.92489,0.0455654,0.177268,-13.0059,27.5485,-14.5737,-0.0455654,0.0455654,0.177268,-13.0591,27.5485,-14.5205,-0.0455654,5.88235,12.0346,-12.9241,10.6927,-8.84421,-0.129063,-5.21173,4.99601,11.5511,-11.8395,12.3269,-7.83694,2.08806,-0.662832,-0.132951,0.0241758,68,63,76,75,82,82,50,82,78,76,72,86
-4.94956,-1.9246,0.0455694,0.177168,-13.0059,27.5486,-14.5737,-0.0455694,0.0455694,0.177168,-13.0591,27.5486,-14.5205,-0.0455694,5.88182,12.0348,-12.9237,10.6925,-8.84437,-0.129251,-5.21182,4.99598,11.5512,-11.8395,12.3269,-7.83689,2.0881,-0.66286,-0.132876,0.0241779,68,63,76,75,82,82,50,82,78,76,72,86
-4.94957,-1.9243,0.0455733,0.177068,-13.0059,27.5486,-14.5737,-0.0455733,0.0455733,0.177068,-13.059,27.5486,-14.5206,-0.0455733,5.88129,12.0349,-12.9232,10.6923,-8.84454,-0.129438,-5.21192,4.99595,11.5513,-11.8395,12.3269,-7.83684,2.08813,-0.662887,-0.132801,0.02418,68,63,76,75,82,82,51,82,78,76,72,86
-4.94958,-1.92401,0.045577,0.176968,-13.0059,27.5486,-14.5737,-0.045577,0.045577,0.176968,-13.059,27.5486,-14.5206,-0.045577,5.88077,12.035,-12.9228,10.6922,-8.84469,-0.129618,-5.21201,4.99593,11.5514,-11.8395,12.327,-7.83678,2.08817,-0.662913,-0.132726,0.0241819,68,63,76,75,82,82,51,82,78,76,72,86
-4.94959,-1.92373,0.0455803,0.176868,-13.0059,27.5486,-14.5737,-0.0455803,0.0455803,0.176868,-13.059,27.5486,-14.5206,-0.0455803,5.88024,12.0351,-12.9224,10.692,-8.84484,-0.12979,-5.21209,4.9959,11.5515,-11.8396,12.327,-7.83672,2.08821,-0.662936,-0.132651,0.0241837,68,63,76,75,82,82,51,82,78,76,72,86
-4.9496,-1.92346,0.0455834,0.176767,-13.006,27.5486,-14.5737,-0.0455834,0.0455834,0.176767,-13.059,27.5486,-14.5206,-0.0455834,5.87972,12.0352,-12.922,10.6918,-8.84498,-0.129953,-5.21218,4.99588,11.5515,-11.8396,12.3271,-7.83665,2.08825,-0.662956,-0.132576,0.0241853,68,63,76,75,82,82,51,82,78,76,72,86
-4.94962,-1.9232,0.0455862,0.176666,-13.006,27.5486,-14.5737,-0.0455862,0.0455862,0.176666,-13.059,27.5486,-14.5207,-0.0455862,5.87919,12.0353,-12.9216,10.6917,-8.84512,-0.130109,-5.21225,4.99586,11.5516,-11.8396,12.3271,-7.83658,2.08829,-0.662974,-0.1325,0.0241868,68,63,76,75,82,82,51,82,78,76,72,86
-4.94964,-1.92294,0.0455887,0.176565,-13.006,27.5486,-14.5737,-0.0455887,0.0455887,0.176565,-13.0589,27.5486,-14.5207,-0.0455887,5.87867,12.0354,-12.9212,10.6915,-8.84525,-0.130256,-5.21232,4.99585,11.5517,-11.8396,12.3271,-7.8365,2.08833,-0.66299,-0.132424,0.0241882,68,63,76,75,82,82,51,82,78,76,72,86
-4.94966,-1.92268,0.0455909,0.176463,-13.006,27.5486,-14.5737,-0.0455909,0.0455909,0.176463,-13.0589,27.5486,-14.5207,-0.0455909,5.87815,12.0355,-12.9209,10.6913,-8.84537,-0.130396,-5.21239,4.99583,11.5517,-11.8396,12.3272,-7.83642,2.08838,-0.663003,-0.132347,0.0241893,68,63,76,75,82,82,51,82,78,76,72,86
-4.94968,-1.92244,0.0455929,0.176361,-13.006,27.5486,-14.5737,-0.0455929,0.0455929,0.176361,-13.0589,27.5486,-14.5207,-0.0455929,5.87762,12.0356,-12.9205,10.6912,-8.84548,-0.130527,-5.21245,4.99582,11.5518,-11.8396,12.3272,-7.83634,2.08842,-0.663014,-0.132271,0.0241904,68,63,76,75,82,82,51,82,78,76,72,86
-4.9497,-1.9222,0.0455948,0.176259,-13.006,27.5486,-14.5736,-0.0455948,0.0455948,0.176259,-13.0589,27.5486,-14.5208,-0.0455948,5.8771,12.0356,-12.9202,10.691,-8.8456,-0.130659,-5.21252,4.99581,11.5518,-11.8396,12.3272,-7.83625,2.08847,-0.663025,-0.132194,0.0241914,68,63,76,75,82,82,51,82,78,76,72,86
-4.94973,-1.92195,0.0455967,0.176156,-13.006,27.5486,-14.5736,-0.0455967,0.0455967,0.176156,-13.0589,27.5486,-14.5208,-0.0455967,5.87657,12.0357,-12.9199,10.6909,-8.84571,-0.130788,-5.21258,4.99579,11.5519,-11.8396,12.3272,-7.83617,2.08852,-0.663036,-0.132117,0.0241924,68,63,76,75,82,82,51,82,78,76,72,86
-4.94975,-1.9217,0.0455986,0.176054,-13.006,27.5486,-14.5736,-0.0455986,0.0455986,0.176054,-13.0588,27.5486,-14.5208,-0.0455986,5.87605,12.0358,-12.9195,10.6907,-8.84583,-0.130915,-5.21264,4.99578,11.5519,-11.8396,12.3273,-7.83609,2.08856,-0.663047,-0.13204,0.0241934,68,63,76,75,82,82,51,82,78,76,72,86
-4.94977,-1.92145,0.0456004,0.175951,-13.006,27.5486,-14.5736,-0.0456004,0.0456004,0.175951,-13.0588,27.5486,-14.5209,-0.0456004,5.87552,12.0358,-12.9192,10.6906,-8.84595,-0.131041,-5.2127,4.99576,11.552,-11.8396,12.3273,-7.836,2.08861,-0.663057,-0.131963,0.0241944,68,63,76,75,82,82,51,82,78,76,72,86
-4.9498,-1.9212,0.0456023,0.175848,-13.0061,27.5486,-14.5736,-0.0456023,0.0456023,0.175848,-13.0588,27.5486,-14.5209,-0.0456023,5.87499,12.0359,-12.9189,10.6904,-8.84606,-0.131164,-5.21276,4.99575,11.552,-11.8396,12.3273,-7.83592,2.08865,-0.663067,-0.131886,0.0241954,68,63,76,75,82,82,51,82,78,76,72,86
-4.94982,-1.92094,0.0456041,0.175744,-13.0061,27.5486,-14.5736,-0.0456041,0.0456041,0.175744,-13.0588,27.5486,-14.5209,-0.0456041,5.87445,12.036,-12.9185,10.6903,-8.84618,-0.131286,-5.21282,4.99573,11.552,-11.8396,12.3274,-7.83584,2.0887,-0.663078,-0.131808,0.0241963,68,63,76,75,82,82,51,82,78,76,72,86
-4.94985,-1.92068,0.0456059,0.175641,-13.0061,27.5486,-14.5736,-0.0456059,0.0456059,0.175641,-13.0588,27.5486,-14.5209,-0.0456059,5.87392,12.036,-12.9182,10.6901,-8.8463,-0.131405,-5.21287,4.99572,11.5521,-11.8395,12.3274,-7.83576,2.08875,-0.663088,-0.131731,0.0241973,68,63,76,75,82,82,51,82,78,76,72,86
-4.94987,-1.92042,0.0456077,0.175537,-13.0061,27.5486,-14.5736,-0.0456077,0.0456077,0.175537,-13.0588,27.5486,-14.521,-0.0456077,5.87338,12.0361,-12.9179,10.69,-8.84642,-0.131522,-5.21293,4.9957,11.5521,-11.8395,12.3275,-7.83568,2.08879,-0.663097,-0.131653,0.0241982,68,63,76,75,82,82,51,82,78,76,72,86
-4.9499,-1.92016,0.0456095,0.175433,-13.0061,27.5486,-14.5736,-0.0456095,0.0456095,0.175433,-13.0587,27.5486,-14.521,-0.0456095,5.87285,12.0361,-12.9176,10.6898,-8.84654,-0.13164,-5.21299,4.99568,11.5522,-11.8395,12.3275,-7.83561,2.08884,-0.663107,-0.131575,0.0241992,68,63,76,75,82,82,51,82,78,76,72,86
-4.94992,-1.91991,0.0456113,0.175329,-13.0061,27.5486,-14.5736,-0.0456113,0.0456113,0.175329,-13.0587,27.5486,-14.521,-0.0456113,5.87231,12.0362,-12.9172,10.6897,-8.84665,-0.131746,-5.21304,4.99566,11.5522,-11.8394,12.3275,-7.83554,2.08888,-0.663116,-0.131497,0.0242002,68,63,76,75,82,82,51,82,78,76,72,86
-4.94996,-1.91966,0.0456132,0.175226,-13.0061,27.5487,-14.5736,-0.0456132,0.0456132,0.175226,-13.0587,27.5487,-14.5211,-0.0456132,5.87178,12.0362,-12.9169,10.6896,-8.84676,-0.131842,-5.21309,4.99565,11.5522,-11.8394,12.3276,-7.83549,2.08892,-0.663124,-0.131419,0.0242011,68,63,76,75,82,82,51,82,78,76,72,86
-4.94999,-1.91942,0.045615,0.175122,-13.0061,27.5487,-14.5736,-0.045615,0.045615,0.175122,-13.0587,27.5487,-14.5211,-0.045615,5.87124,12.0363,-12.9166,10.6894,-8.84686,-0.131927,-5.21313,4.99563,11.5522,-11.8393,12.3276,-7.83545,2.08895,-0.66313,-0.131342,0.0242021,68,63,76,75,82,82,51,82,78,76,72,86
-4.95003,-1.91918,0.0456168,0.175019,-13.0062,27.5487,-14.5736,-0.0456168,0.0456168,0.175019,-13.0587,27.5487,-14.5211,-0.0456168,5.87071,12.0363,-12.9163,10.6893,-8.84695,-0.132002,-5.21317,4.99562,11.5523,-11.8393,12.3277,-7.83542,2.08898,-0.663135,-0.131264,0.0242031,68,63,76,75,82,82,51,82,78,76,72,86
-4.95007,-1.91895,0.0456186,0.174916,-13.0062,27.5487,-14.5736,-0.0456186,0.0456186,0.174916,-13.0587,27.5487,-14.5211,-0.0456186,5.87018,12.0364,-12.9161,10.6892,-8.84704,-0.132066,-5.21321,4.9956,11.5523,-11.8393,12.3277,-7.83541,2.08901,-0.66314,-0.131187,0.024204,68,63,76,75,82,82,51,82,78,76,72,86
-4.95011,-1.91873,0.0456204,0.174812,-13.0062,27.5487,-14.5736,-0.0456204,0.0456204,0.174812,-13.0586,27.5487,-14.5212,-0.0456204,5.86965,12.0364,-12.9158,10.6891,-8.84712,-0.132119,-5.21324,4.99559,11.5523,-11.8392,12.3278,-7.83541,2.08903,-0.663143,-0.131109,0.024205,68,63,76,75,82,82,51,82,78,76,72,86
-4.95016,-1.91852,0.0456223,0.174709,-13.0062,27.5487,-14.5736,-0.0456223,0.0456223,0.174709,-13.0586,27.5487,-14.5212,-0.0456223,5.86913,12.0364,-12.9156,10.689,-8.84719,-0.132161,-5.21327,4.99558,11.5523,-11.8392,12.3278,-7.83542,2.08904,-0.663144,-0.131032,0.024206,68,63,76,75,82,82,51,82,78,76,72,86
-4.95021,-1.9183,0.0456241,0.174606,-13.0062,27.5487,-14.5736,-0.0456241,0.0456241,0.174606,-13.0586,27.5487,-14.5212,-0.0456241,5.8686,12.0364,-12.9153,10.6889,-8.84727,-0.132203,-5.2133,4.99557,11.5523,-11.8391,12.3279,-7.83544,2.08906,-0.663146,-0.130955,0.0242069,68,63,76,75,82,82,51,82,78,76,72,86
-4.95026,-1.91809,0.0456259,0.174503,-13.0062,27.5487,-14.5736,-0.0456259,0.0456259,0.174503,-13.0586,27.5487,-14.5213,-0.0456259,5.86807,12.0364,-12.9151,10.6888,-8.84734,-0.132246,-5.21333,4.99556,11.5523,-11.8391,12.3279,-7.83545,2.08908,-0.663148,-0.130878,0.0242079,68,63,76,75,82,82,51,82,78,76,72,86
-4.95031,-1.91787,0.0456278,0.1744,-13.0062,27.5487,-14.5736,-0.0456278,0.0456278,0.1744,-13.0586,27.5487,-14.5213,-0.0456278,5.86755,12.0364,-12.9148,10.6887,-8.84741,-0.132288,-5.21336,4.99554,11.5523,-11.839,12.3279,-7.83546,2.08909,-0.66315,-0.1308,0.0242089,68,63,76,75,82,82,51,82,78,76,72,86
-4.95035,-1.91765,0.0456296,0.174297,-13.0063,27.5487,-14.5736,-0.0456296,0.0456296,0.174297,-13.0585,27.5487,-14.5213,-0.0456296,5.86702,12.0365,-12.9145,10.6886,-8.84749,-0.13233,-5.21339,4.99553,11.5523,-11.839,12.328,-7.83548,2.08911,-0.663152,-0.130723,0.0242098,68,63,76,75,82,82,51,82,78,76,72,86
-4.9504,-1.91744,0.0456314,0.174194,-13.0063,27.5487,-14.5736,-0.0456314,0.0456314,0.174194,-13.0585,27.5487,-14.5213,-0.0456314,5.86649,12.0365,-12.9143,10.6885,-8.84756,-0.132372,-5.21342,4.99552,11.5523,-11.839,12.328,-7.83549,2.08912,-0.663154,-0.130646,0.0242108,68,63,76,75,82,82,51,82,78,76,72,86
-4.95045,-1.91722,0.0456332,0.174091,-13.0063,27.5487,-14.5736,-0.0456332,0.0456332,0.174091,-13.0585,27.5487,-14.5214,-0.0456332,5.86596,12.0365,-12.914,10.6884,-8.84764,-0.132415,-5.21345,4.99551,11.5523,-11.8389,12.3281,-7.83551,2.08914,-0.663156,-0.130568,0.0242118,68,63,76,75,82,82,51,82,78,76,72,86
-4.9505,-1.917,0.0456351,0.173988,-13.0063,27.5487,-14.5736,-0.0456351,0.0456351,0.173988,-13.0585,27.5487,-14.5214,-0.0456351,5.86544,12.0365,-12.9138,10.6883,-8.84771,-0.132457,-5.21348,4.9955,11.5523,-11.8389,12.3281,-7.83552,2.08916,-0.663157,-0.130491,0.0242128,68,63,76,75,82,82,51,82,78,76,72,86
-4.95055,-1.91678,0.0456369,0.173885,-13.0063,27.5487,-14.5736,-0.0456369,0.0456369,0.173885,-13.0585,27.5487,-14.5214,-0.0456369,5.86491,12.0365,-12.9135,10.6882,-8.84778,-0.132499,-5.21351,4.99548,11.5523,-11.8388,12.3282,-7.83553,2.08917,-0.663159,-0.130414,0.0242137,68,63,76,75,82,82,51,82,78,76,72,86
-4.9506,-1.91657,0.0456387,0.173782,-13.0063,27.5488,-14.5736,-0.0456387,0.0456387,0.173782,-13.0585,27.5488,-14.5214,-0.0456387,5.86438,12.0366,-12.9133,10.6881,-8.84786,-0.132542,-5.21354,4.99547,11.5523,-11.8388,12.3282,-7.83555,2.08919,-0.663161,-0.130337,0.0242147,68,63,76,75,82,82,51,82,78,76,72,86
-4.95065,-1.91635,0.0456409,0.173679,-13.0064,27.5488,-14.5736,-0.0456409,0.0456409,0.173679,-13.0585,27.5488,-14.5215,-0.0456409,5.86386,12.0366,-12.913,10.688,-8.84792,-0.132582,-5.21357,4.99546,11.5523,-11.8388,12.3283,-7.83557,2.08921,-0.663164,-0.13026,0.0242158,68,63,76,75,82,82,51,82,78,76,72,86
-4.95071,-1.91615,0.0456433,0.173577,-13.0064,27.5488,-14.5736,-0.0456433,0.0456433,0.173577,-13.0585,27.5488,-14.5215,-0.0456433,5.86334,12.0366,-12.9128,10.6879,-8.84798,-0.132622,-5.2136,4.99545,11.5522,-11.8387,12.3283,-7.83559,2.08922,-0.663167,-0.130183,0.0242171,68,63,76,75,82,82,51,82,78,76,72,86
-4.95076,-1.91596,0.0456461,0.173475,-13.0064,27.5488,-14.5736,-0.0456461,0.0456461,0.173475,-13.0584,27.5488,-14.5215,-0.0456461,5.86282,12.0366,-12.9126,10.6879,-8.84803,-0.13266,-5.21363,4.99545,11.5522,-11.8387,12.3283,-7.83563,2.08924,-0.663171,-0.130106,0.0242186,68,63,76,75,82,82,51,82,78,76,72,86
-4.95082,-1.91577,0.0456491,0.173374,-13.0064,27.5488,-14.5736,-0.0456491,0.0456491,0.173374,-13.0584,27.5488,-14.5216,-0.0456491,5.86231,12.0366,-12.9123,10.6878,-8.84806,-0.132696,-5.21366,4.99545,11.5522,-11.8387,12.3284,-7.83567,2.08925,-0.663175,-0.13003,0.0242202,68,63,76,75,82,82,51,82,78,76,72,86
-4.95087,-1.91559,0.0456524,0.173272,-13.0064,27.5488,-14.5736,-0.0456524,0.0456524,0.173272,-13.0584,27.5488,-14.5216,-0.0456524,5.86181,12.0366,-12.9121,10.6877,-8.84809,-0.132731,-5.21369,4.99544,11.5522,-11.8388,12.3284,-7.83572,2.08927,-0.663181,-0.129954,0.024222,68,63,76,75,82,82,51,82,78,76,72,86
-4.95093,-1.91541,0.0456561,0.173171,-13.0065,27.5488,-14.5736,-0.0456561,0.0456561,0.173171,-13.0584,27.5488,-14.5216,-0.0456561,5.8613,12.0366,-12.9119,10.6876,-8.84811,-0.132765,-5.21372,4.99544,11.5521,-11.8388,12.3284,-7.83578,2.08928,-0.663187,-0.129879,0.0242239,68,63,76,75,82,82,51,82,78,76,72,86
-4.951,-1.91525,0.04566,0.173071,-13.0065,27.5488,-14.5736,-0.04566,0.04566,0.173071,-13.0584,27.5488,-14.5217,-0.04566,5.8608,12.0366,-12.9117,10.6876,-8.84812,-0.132797,-5.21375,4.99545,11.5521,-11.8389,12.3284,-7.83584,2.08929,-0.663193,-0.129803,0.024226,68,63,76,75,82,82,51,82,78,76,72,86
-4.95106,-1.91508,0.045664,0.17297,-13.0065,27.5488,-14.5736,-0.045664,0.045664,0.17297,-13.0584,27.5488,-14.5217,-0.045664,5.8603,12.0366,-12.9114,10.6875,-8.84813,-0.132829,-5.21378,4.99545,11.552,-11.8389,12.3284,-7.8359,2.08931,-0.6632,-0.129728,0.0242281,68,63,76,75,82,82,51,82,78,76,72,86
-4.95112,-1.91492,0.045668,0.17287,-13.0065,27.5489,-14.5736,-0.045668,0.045668,0.17287,-13.0584,27.5489,-14.5217,-0.045668,5.8598,12.0366,-12.9112,10.6874,-8.84814,-0.132861,-5.2138,4.99545,11.552,-11.839,12.3285,-7.83597,2.08932,-0.663206,-0.129652,0.0242302,68,63,76,75,82,82,51,82,78,76,72,86
-4.95118,-1.91475,0.0456719,0.172769,-13.0066,27.5489,-14.5736,-0.0456719,0.0456719,0.172769,-13.0584,27.5489,-14.5217,-0.0456719,5.8593,12.0366,-12.911,10.6873,-8.84815,-0.132893,-5.21383,4.99546,11.5519,-11.839,12.3285,-7.83603,2.08934,-0.663213,-0.129577,0.0242323,68,63,76,75,82,82,51,82,78,76,72,86
-4.95124,-1.91458,0.0456759,0.172669,-13.0066,27.5489,-14.5736,-0.0456759,0.0456759,0.172669,-13.0584,27.5489,-14.5218,-0.0456759,5.8588,12.0366,-12.9108,10.6873,-8.84816,-0.132925,-5.21386,4.99546,11.5519,-11.8391,12.3285,-7.8361,2.08935,-0.66322,-0.129502,0.0242344,68,63,76,75,82,82,51,82,78,76,72,86
-4.95131,-1.91442,0.0456798,0.172568,-13.0066,27.5489,-14.5736,-0.0456798,0.0456798,0.172568,-13.0584,27.5489,-14.5218,-0.0456798,5.8583,12.0366,-12.9106,10.6872,-8.84817,-0.132957,-5.21389,4.99546,11.5518,-11.8391,12.3285,-7.83616,2.08936,-0.663226,-0.129426,0.0242365,68,63,76,75,82,82,51,82,78,76,72,86
-4.95137,-1.91425,0.0456838,0.172468,-13.0066,27.5489,-14.5736,-0.0456838,0.0456838,0.172468,-13.0584,27.5489,-14.5218,-0.0456838,5.8578,12.0366,-12.9104,10.6871,-8.84818,-0.132989,-5.21392,4.99546,11.5518,-11.8392,12.3285,-7.83622,2.08938,-0.663233,-0.129351,0.0242386,68,63,76,75,82,82,51,82,78,76,72,86
-4.95143,-1.91408,0.0456877,0.172367,-13.0066,27.5489,-14.5736,-0.0456877,0.0456877,0.172367,-13.0584,27.5489,-14.5219,-0.0456877,5.8573,12.0365,-12.9101,10.6871,-8.84819,-0.133021,-5.21395,4.99547,11.5517,-11.8392,12.3285,-7.83629,2.08939,-0.663239,-0.129275,0.0242407,68,63,76,75,82,82,51,82,78,76,72,86
-4.9515,-1.91392,0.0456917,0.172267,-13.0067,27.5489,-14.5736,-0.0456917,0.0456917,0.172267,-13.0583,27.5489,-14.5219,-0.0456917,5.8568,12.0365,-12.9099,10.687,-8.8482,-0.133054,-5.21397,4.99547,11.5517,-11.8393,12.3286,-7.83635,2.0894,-0.663246,-0.1292,0.0242428,68,63,76,75,82,82,50,82,78,76,72,86
