565950964-design/kaipule_sdk/control/csv_file/woshou.csv
Head_1,Head_2,Joint_1,Joint_2,Joint_3,Joint_4,Joint_5,Joint_6,Joint_7,Joint_8,Joint_9,Joint_10,Joint_11,Joint_12,Joint_13,Joint_14,Joint_15,Joint_16,Joint_17,Joint_18,Joint_19,Joint_20,Joint_21,Joint_22,Joint_23,Joint_24,Joint_25,Joint_26,Joint_27,Joint_28,Finger_1,Finger_2,Finger_3,Finger_4,Finger_5,Finger_6,Finger_7,Finger_8,Finger_9,Finger_10,Finger_11,Finger_12
-2.51506,8.35872,-0.0996813,-0.34407,-14.0279,27.5047,-13.4786,0.0996813,-0.0996813,-0.34407,-13.9246,27.5047,-13.5818,0.0996813,1.90924,13.6586,2.28969,6.43771,2.35557,-1.94261,-7.60761,3.62959,14.7168,7.64378,7.55668,-9.70165,-11.9971,2.01321,0.258052,-0.0529097,90,90,88,88,85,10,89,100,100,95,91,11
-2.51507,8.35874,-0.0996812,-0.344069,-14.0279,27.5047,-13.4786,0.0996812,-0.0996812,-0.344069,-13.9246,27.5047,-13.5818,0.0996812,1.90924,13.6586,2.28969,6.43771,2.35557,-1.94261,-7.60761,3.62959,14.7168,7.64377,7.55668,-9.70166,-11.9971,2.01321,0.258052,-0.0529096,90,90,88,88,85,10,89,100,100,95,91,11
-2.51508,8.35877,-0.0996807,-0.344068,-14.0279,27.5047,-13.4786,0.0996807,-0.0996807,-0.344068,-13.9246,27.5047,-13.5818,0.0996807,1.90925,13.6586,2.28969,6.43771,2.35556,-1.94261,-7.60761,3.62958,14.7167,7.64374,7.55667,-9.70166,-11.9971,2.01321,0.258051,-0.0529093,90,90,88,88,85,10,89,100,100,95,91,11
-2.51511,8.35881,-0.0996798,-0.344065,-14.0279,27.5047,-13.4786,0.0996798,-0.0996798,-0.344065,-13.9246,27.5047,-13.5818,0.0996798,1.90925,13.6586,2.28967,6.4377,2.35556,-1.94261,-7.60761,3.62958,14.7167,7.6437,7.55667,-9.70166,-11.9971,2.0132,0.258049,-0.0529088,90,90,88,88,85,10,89,100,100,95,91,11
-2.51513,8.35887,-0.0996784,-0.344061,-14.0279,27.5047,-13.4786,0.0996784,-0.0996784,-0.344061,-13.9246,27.5047,-13.5818,0.0996784,1.90927,13.6586,2.28965,6.43769,2.35556,-1.94262,-7.60761,3.62957,14.7167,7.64365,7.55667,-9.70167,-11.9972,2.01319,0.258046,-0.0529081,90,90,88,88,85,10,89,100,100,95,91,11
-2.51517,8.35893,-0.0996765,-0.344057,-14.0279,27.5047,-13.4786,0.0996765,-0.0996765,-0.344057,-13.9246,27.5047,-13.5818,0.0996765,1.90928,13.6586,2.28962,6.43769,2.35556,-1.94264,-7.60762,3.62957,14.7167,7.64357,7.55666,-9.70168,-11.9972,2.01317,0.258042,-0.0529071,90,90,88,88,85,10,89,100,100,95,91,11
-2.5152,8.35899,-0.0996738,-0.344051,-14.0279,27.5047,-13.4786,0.0996738,-0.0996738,-0.344051,-13.9246,27.5047,-13.5818,0.0996738,1.90931,13.6586,2.28958,6.43768,2.35557,-1.94266,-7.60763,3.62956,14.7167,7.64348,7.55666,-9.70168,-11.9972,2.01316,0.258038,-0.0529057,90,90,88,88,85,10,89,100,100,95,91,11
-2.51524,8.35906,-0.0996704,-0.344044,-14.0279,27.5047,-13.4786,0.0996704,-0.0996704,-0.344044,-13.9247,27.5047,-13.5819,0.0996704,1.90934,13.6586,2.28952,6.43767,2.35559,-1.94269,-7.60765,3.62956,14.7167,7.64336,7.55665,-9.70169,-11.9972,2.01314,0.258033,-0.0529039,90,90,88,88,85,10,89,100,100,95,91,11
-2.51528,8.35913,-0.0996662,-0.344035,-14.0279,27.5047,-13.4786,0.0996662,-0.0996662,-0.344035,-13.9247,27.5047,-13.5818,0.0996662,1.90939,13.6586,2.28945,6.43766,2.35561,-1.94273,-7.60767,3.62956,14.7166,7.64323,7.55665,-9.7017,-11.9972,2.01311,0.258027,-0.0529016,90,90,88,88,85,10,89,100,100,95,91,11
-2.51531,8.35919,-0.099661,-0.344026,-14.0279,27.5047,-13.4786,0.099661,-0.099661,-0.344026,-13.9247,27.5047,-13.5818,0.099661,1.90944,13.6586,2.28937,6.43765,2.35564,-1.94279,-7.60771,3.62957,14.7166,7.64307,7.55665,-9.70171,-11.9973,2.01309,0.258019,-0.0528988,90,90,88,88,85,10,89,100,100,95,91,11
-2.51535,8.35926,-0.0996549,-0.344015,-14.0279,27.5047,-13.4786,0.0996549,-0.0996549,-0.344015,-13.9247,27.5047,-13.5818,0.0996549,1.9095,13.6586,2.28927,6.43765,2.35568,-1.94285,-7.60774,3.62958,14.7165,7.64289,7.55664,-9.70172,-11.9973,2.01306,0.258012,-0.0528956,90,90,88,88,85,10,89,100,100,95,91,11
-2.51539,8.35933,-0.099648,-0.344004,-14.0279,27.5047,-13.4786,0.099648,-0.099648,-0.344004,-13.9247,27.5047,-13.5818,0.099648,1.90957,13.6586,2.28915,6.43764,2.35573,-1.94292,-7.60779,3.62959,14.7165,7.6427,7.55664,-9.70172,-11.9973,2.01303,0.258003,-0.052892,90,90,88,88,85,10,89,100,100,95,91,11
-2.51544,8.35941,-0.0996402,-0.343991,-14.0279,27.5047,-13.4786,0.0996402,-0.0996402,-0.343991,-13.9247,27.5047,-13.5818,0.0996402,1.90965,13.6587,2.28903,6.43763,2.35579,-1.94299,-7.60784,3.62961,14.7164,7.64249,7.55664,-9.70173,-11.9974,2.01299,0.257994,-0.0528878,90,90,88,88,85,10,89,100,100,95,91,11
-2.51549,8.3595,-0.0996316,-0.343978,-14.0279,27.5047,-13.4786,0.0996316,-0.0996316,-0.343978,-13.9247,27.5047,-13.5818,0.0996316,1.90975,13.6587,2.28889,6.43763,2.35586,-1.94307,-7.6079,3.62964,14.7164,7.64228,7.55664,-9.70175,-11.9974,2.01296,0.257984,-0.0528833,90,90,88,88,85,10,89,100,100,95,91,11
-2.51554,8.3596,-0.0996222,-0.343964,-14.0277,27.5046,-13.4786,0.0996222,-0.0996222,-0.343964,-13.9245,27.5046,-13.5818,0.0996222,1.90985,13.6587,2.28873,6.43763,2.35594,-1.94316,-7.60796,3.62967,14.7163,7.64206,7.55664,-9.70176,-11.9975,2.01292,0.257973,-0.0528782,90,90,88,88,85,10,89,100,100,95,91,11
-2.51561,8.35971,-0.0996119,-0.34395,-14.0277,27.5046,-13.4786,0.0996119,-0.0996119,-0.34395,-13.9245,27.5046,-13.5818,0.0996119,1.90996,13.6588,2.28858,6.43764,2.35604,-1.94325,-7.60802,3.6297,14.7162,7.64183,7.55664,-9.70177,-11.9975,2.01288,0.257962,-0.0528727,90,90,88,88,85,10,89,100,100,95,91,11
-2.51568,8.35983,-0.0996007,-0.343935,-14.0277,27.5046,-13.4786,0.0996007,-0.0996007,-0.343935,-13.9245,27.5046,-13.5818,0.0996007,1.91007,13.6588,2.28841,6.43765,2.35614,-1.94335,-7.6081,3.62975,14.7162,7.6416,7.55665,-9.70179,-11.9976,2.01284,0.257951,-0.0528668,90,90,88,88,85,10,89,100,100,95,91,11
-2.51577,8.35997,-0.0995887,-0.34392,-14.0277,27.5046,-13.4786,0.0995887,-0.0995887,-0.34392,-13.9245,27.5046,-13.5817,0.0995887,1.9102,13.6589,2.28823,6.43766,2.35626,-1.94345,-7.60818,3.6298,14.7161,7.64136,7.55666,-9.70181,-11.9977,2.01279,0.25794,-0.0528604,90,90,88,88,85,10,89,100,100,95,91,11
-2.51585,8.36012,-0.0995759,-0.343904,-14.0277,27.5046,-13.4786,0.0995759,-0.0995759,-0.343904,-13.9246,27.5046,-13.5817,0.0995759,1.91034,13.6589,2.28805,6.43768,2.35638,-1.94355,-7.60826,3.62986,14.716,7.64114,7.55667,-9.70183,-11.9977,2.01275,0.257928,-0.0528536,90,90,88,88,85,10,89,100,100,95,91,11
-2.51595,8.3603,-0.0995623,-0.343889,-14.0277,27.5046,-13.4786,0.0995623,-0.0995623,-0.343889,-13.9246,27.5046,-13.5817,0.0995623,1.91049,13.659,2.28785,6.43769,2.35651,-1.94366,-7.60834,3.62993,14.7159,7.64091,7.55668,-9.70185,-11.9978,2.01271,0.257917,-0.0528464,90,90,88,88,85,10,89,100,100,95,91,11
-2.51605,8.3605,-0.0995481,-0.343873,-14.0277,27.5046,-13.4785,0.0995481,-0.0995481,-0.343873,-13.9246,27.5046,-13.5817,0.0995481,1.91064,13.6591,2.28765,6.43771,2.35665,-1.94377,-7.60842,3.63001,14.7159,7.64069,7.55669,-9.70188,-11.9979,2.01266,0.257905,-0.0528388,90,90,88,88,85,10,89,100,100,95,91,11
-2.51616,8.36072,-0.0995331,-0.343858,-14.0281,27.5048,-13.4786,0.0995331,-0.0995331,-0.343858,-13.9249,27.5048,-13.5818,0.0995331,1.91081,13.6591,2.28743,6.43772,2.3568,-1.94389,-7.60851,3.63009,14.7158,7.64049,7.55671,-9.70191,-11.998,2.01262,0.257893,-0.0528309,90,90,88,88,85,10,89,100,100,95,91,11
-2.51627,8.36097,-0.0995176,-0.343842,-14.0281,27.5048,-13.4786,0.0995176,-0.0995176,-0.343842,-13.9249,27.5048,-13.5818,0.0995176,1.91098,13.6592,2.2872,6.43773,2.35696,-1.94401,-7.60859,3.63019,14.7157,7.64028,7.55673,-9.70193,-11.998,2.01258,0.257881,-0.0528227,90,90,88,88,85,10,89,100,100,95,91,11
-2.51638,8.36125,-0.0995015,-0.343825,-14.0281,27.5048,-13.4786,0.0995015,-0.0995015,-0.343825,-13.9249,27.5048,-13.5817,0.0995015,1.91116,13.6593,2.28696,6.43774,2.35712,-1.94414,-7.60868,3.63029,14.7156,7.64009,7.55674,-9.70196,-11.9981,2.01254,0.257869,-0.0528141,90,90,88,88,85,10,89,100,100,95,91,11
-2.5165,8.36155,-0.0994848,-0.34381,-14.0281,27.5048,-13.4786,0.0994848,-0.0994848,-0.34381,-13.9249,27.5048,-13.5817,0.0994848,1.91135,13.6594,2.28672,6.43775,2.35729,-1.94428,-7.60876,3.6304,14.7155,7.63991,7.55676,-9.70199,-11.9982,2.0125,0.257857,-0.0528052,90,90,88,88,85,10,89,100,100,95,91,11
-2.51662,8.36188,-0.0994672,-0.343795,-14.0281,27.5048,-13.4786,0.0994672,-0.0994672,-0.343795,-13.925,27.5048,-13.5817,0.0994672,1.91155,13.6595,2.28647,6.43775,2.35746,-1.94442,-7.60884,3.63052,14.7154,7.63975,7.55678,-9.70202,-11.9983,2.01246,0.257846,-0.0527959,90,90,88,88,85,10,89,100,100,95,91,11
-2.51674,8.36224,-0.0994487,-0.34378,-14.0281,27.5048,-13.4786,0.0994487,-0.0994487,-0.34378,-13.925,27.5048,-13.5817,0.0994487,1.91176,13.6596,2.28622,6.43775,2.35763,-1.94456,-7.60893,3.63066,14.7153,7.63962,7.5568,-9.70206,-11.9984,2.01243,0.257835,-0.0527861,90,90,88,88,85,10,89,100,100,95,91,11
-2.51686,8.36262,-0.0994292,-0.343767,-14.0281,27.5048,-13.4785,0.0994292,-0.0994292,-0.343767,-13.925,27.5048,-13.5817,0.0994292,1.91197,13.6597,2.28597,6.43775,2.3578,-1.9447,-7.60901,3.63081,14.7152,7.6395,7.55683,-9.7021,-11.9985,2.01241,0.257825,-0.0527757,90,90,88,88,85,10,89,100,100,95,91,11
-2.51699,8.36303,-0.0994088,-0.343755,-14.0273,27.5042,-13.4783,0.0994088,-0.0994088,-0.343755,-13.9242,27.5042,-13.5815,0.0994088,1.91219,13.6598,2.28573,6.43776,2.35796,-1.94484,-7.60909,3.63097,14.7151,7.63941,7.55685,-9.70215,-11.9986,2.01238,0.257816,-0.0527648,90,90,88,88,85,10,89,100,100,95,91,11
-2.51711,8.36347,-0.0993871,-0.343745,-14.0273,27.5042,-13.4783,0.0993871,-0.0993871,-0.343745,-13.9242,27.5042,-13.5815,0.0993871,1.91243,13.6599,2.28549,6.43776,2.35812,-1.94498,-7.60917,3.63115,14.715,7.63934,7.55688,-9.7022,-11.9987,2.01237,0.257809,-0.0527533,90,90,88,88,85,10,89,100,100,95,91,11
-2.51724,8.36394,-0.0993643,-0.343737,-14.0273,27.5042,-13.4783,0.0993643,-0.0993643,-0.343737,-13.9242,27.5042,-13.5814,0.0993643,1.91267,13.6601,2.28526,6.43776,2.35828,-1.94512,-7.60925,3.63135,14.7149,7.63931,7.55692,-9.70225,-11.9988,2.01236,0.257803,-0.0527412,90,90,88,88,85,10,89,100,100,95,91,11
-2.51736,8.36443,-0.0993403,-0.343731,-14.0273,27.5042,-13.4783,0.0993403,-0.0993403,-0.343731,-13.9242,27.5042,-13.5814,0.0993403,1.91292,13.6602,2.28504,6.43777,2.35842,-1.94525,-7.60933,3.63157,14.7148,7.6393,7.55695,-9.70231,-11.9989,2.01236,0.257798,-0.0527284,90,90,88,88,85,10,89,100,100,95,91,11
-2.51749,8.36494,-0.0993153,-0.343726,-14.0274,27.5042,-13.4783,0.0993153,-0.0993153,-0.343726,-13.9242,27.5042,-13.5814,0.0993153,1.91317,13.6604,2.28483,6.43777,2.35856,-1.94538,-7.60941,3.6318,14.7147,7.63932,7.55699,-9.70238,-11.999,2.01236,0.257795,-0.0527152,90,90,88,88,85,10,89,100,100,95,91,11
-2.51762,8.36546,-0.0992892,-0.343722,-14.0274,27.5042,-13.4783,0.0992892,-0.0992892,-0.343722,-13.9243,27.5042,-13.5814,0.0992892,1.91344,13.6605,2.28464,6.43778,2.35868,-1.9455,-7.60949,3.63205,14.7145,7.63935,7.55704,-9.70244,-11.9991,2.01237,0.257792,-0.0527013,90,90,88,88,85,10,89,100,100,95,91,11
-2.51775,8.36599,-0.0992622,-0.34372,-14.0274,27.5042,-13.4782,0.0992622,-0.0992622,-0.34372,-13.9243,27.5042,-13.5814,0.0992622,1.91371,13.6607,2.28446,6.43778,2.3588,-1.94561,-7.60956,3.63231,14.7144,7.63941,7.55709,-9.70252,-11.9992,2.01239,0.25779,-0.052687,90,90,88,88,85,10,89,100,100,95,91,11
-2.51788,8.36652,-0.0992343,-0.343718,-14.0274,27.5042,-13.4782,0.0992343,-0.0992343,-0.343718,-13.9243,27.5042,-13.5813,0.0992343,1.91398,13.6609,2.2843,6.43779,2.3589,-1.94571,-7.60964,3.63257,14.7143,7.63949,7.55714,-9.70259,-11.9993,2.01241,0.257789,-0.0526722,90,90,88,88,85,10,89,100,100,95,91,11
-2.51801,8.36705,-0.0992057,-0.343717,-14.0274,27.5042,-13.4782,0.0992057,-0.0992057,-0.343717,-13.9243,27.5042,-13.5813,0.0992057,1.91426,13.661,2.28416,6.4378,2.359,-1.94581,-7.60971,3.63285,14.7142,7.63959,7.55719,-9.70268,-11.9994,2.01243,0.257788,-0.0526569,90,90,88,88,85,10,89,100,100,95,91,11
-2.51814,8.36757,-0.0991763,-0.343717,-14.0275,27.5042,-13.4782,0.0991763,-0.0991763,-0.343717,-13.9243,27.5042,-13.5813,0.0991763,1.91454,13.6612,2.28403,6.43782,2.35909,-1.94589,-7.60978,3.63313,14.7141,7.63971,7.55724,-9.70276,-11.9996,2.01246,0.257787,-0.0526413,90,90,88,88,85,10,89,100,100,95,91,11
-2.51827,8.3681,-0.0991462,-0.343717,-14.0275,27.5042,-13.4782,0.0991462,-0.0991462,-0.343717,-13.9244,27.5042,-13.5813,0.0991462,1.91483,13.6614,2.28392,6.43783,2.35916,-1.94597,-7.60985,3.63341,14.7139,7.63984,7.5573,-9.70285,-11.9997,2.01249,0.257788,-0.0526253,90,90,88,88,85,10,89,100,100,95,91,11
-2.51841,8.36863,-0.0991153,-0.343718,-14.0275,27.5042,-13.4781,0.0991153,-0.0991153,-0.343718,-13.9244,27.5042,-13.5812,0.0991153,1.91512,13.6616,2.28383,6.43784,2.35922,-1.94602,-7.60992,3.63371,14.7138,7.63998,7.55736,-9.70294,-11.9998,2.01253,0.257788,-0.0526089,90,90,88,88,85,10,89,100,100,95,91,11
-2.51853,8.36917,-0.0990836,-0.343719,-14.0275,27.5042,-13.4781,0.0990836,-0.0990836,-0.343719,-13.9244,27.5042,-13.5812,0.0990836,1.91542,13.6618,2.28376,6.43785,2.35926,-1.94607,-7.60998,3.63402,14.7137,7.64012,7.55743,-9.70303,-11.9999,2.01257,0.257789,-0.0525921,90,90,88,88,85,10,89,100,100,95,91,11
-2.51866,8.36972,-0.0990513,-0.343722,-14.0276,27.5042,-13.4781,0.0990513,-0.0990513,-0.343722,-13.9244,27.5042,-13.5812,0.0990513,1.91573,13.662,2.28371,6.43785,2.35928,-1.94609,-7.61003,3.63434,14.7135,7.64026,7.55749,-9.70312,-12.0001,2.01262,0.257791,-0.0525749,90,90,88,88,85,10,89,100,100,95,91,11
-2.51878,8.37028,-0.0990183,-0.343725,-14.028,27.5045,-13.4781,0.0990183,-0.0990183,-0.343725,-13.9249,27.5045,-13.5813,0.0990183,1.91605,13.6622,2.28368,6.43785,2.35929,-1.9461,-7.61008,3.63467,14.7134,7.6404,7.55756,-9.70321,-12.0002,2.01268,0.257793,-0.0525574,90,90,88,88,85,10,89,100,100,95,91,11
-2.51888,8.37086,-0.0989845,-0.343729,-14.028,27.5045,-13.4781,0.0989845,-0.0989845,-0.343729,-13.9249,27.5045,-13.5812,0.0989845,1.91638,13.6624,2.28368,6.43783,2.35926,-1.94609,-7.61012,3.63502,14.7132,7.64052,7.55764,-9.7033,-12.0003,2.01275,0.257797,-0.0525394,90,90,88,88,85,10,89,100,100,95,91,11
-2.51898,8.37147,-0.0989499,-0.343734,-14.0281,27.5045,-13.4781,0.0989499,-0.0989499,-0.343734,-13.9249,27.5045,-13.5812,0.0989499,1.91672,13.6626,2.2837,6.43781,2.35922,-1.94605,-7.61016,3.63539,14.713,7.64063,7.55771,-9.70338,-12.0005,2.01282,0.2578,-0.052521,90,90,88,88,85,10,89,100,100,95,91,11
-2.51908,8.37209,-0.0989148,-0.34374,-14.0281,27.5045,-13.4781,0.0989148,-0.0989148,-0.34374,-13.925,27.5045,-13.5812,0.0989148,1.91706,13.6628,2.28375,6.43777,2.35915,-1.94599,-7.61019,3.63576,14.7129,7.64073,7.55779,-9.70346,-12.0006,2.01291,0.257805,-0.0525024,90,90,88,88,85,10,89,100,100,95,91,11
-2.51916,8.37272,-0.0988793,-0.343746,-14.0281,27.5045,-13.478,0.0988793,-0.0988793,-0.343746,-13.925,27.5045,-13.5811,0.0988793,1.91742,13.663,2.28381,6.43773,2.35907,-1.94592,-7.61021,3.63615,14.7127,7.64083,7.55787,-9.70354,-12.0008,2.013,0.25781,-0.0524835,90,90,88,88,85,10,89,100,100,95,91,11
-2.51924,8.37337,-0.0988436,-0.343753,-14.0282,27.5045,-13.478,0.0988436,-0.0988436,-0.343753,-13.925,27.5045,-13.5811,0.0988436,1.91778,13.6632,2.28388,6.43768,2.35897,-1.94584,-7.61023,3.63654,14.7125,7.64091,7.55795,-9.70361,-12.0009,2.01309,0.257815,-0.0524645,90,90,88,88,85,10,89,100,100,95,91,11
-2.51931,8.37402,-0.0988077,-0.343761,-14.0282,27.5045,-13.478,0.0988077,-0.0988077,-0.343761,-13.9251,27.5045,-13.5811,0.0988077,1.91814,13.6633,2.28397,6.43763,2.35886,-1.94574,-7.61024,3.63694,14.7123,7.64099,7.55804,-9.70369,-12.001,2.01319,0.25782,-0.0524455,90,90,88,88,85,10,89,100,100,95,91,11
-2.51938,8.37468,-0.0987718,-0.343768,-14.028,27.5044,-13.4779,0.0987718,-0.0987718,-0.343768,-13.9249,27.5044,-13.581,0.0987718,1.91851,13.6635,2.28407,6.43757,2.35873,-1.94563,-7.61025,3.63735,14.712,7.64106,7.55812,-9.70376,-12.0012,2.01329,0.257826,-0.0524264,90,90,88,88,85,10,89,100,100,95,91,11
-2.51944,8.37534,-0.0987362,-0.343775,-14.0281,27.5044,-13.4779,0.0987362,-0.0987362,-0.343775,-13.9249,27.5044,-13.581,0.0987362,1.91887,13.6637,2.28417,6.43751,2.35861,-1.94551,-7.61025,3.63775,14.7118,7.64113,7.55821,-9.70383,-12.0013,2.0134,0.257831,-0.0524075,90,90,88,88,85,10,89,100,100,95,91,11
-2.51949,8.37601,-0.098701,-0.343782,-14.0281,27.5044,-13.4778,0.098701,-0.098701,-0.343782,-13.925,27.5044,-13.581,0.098701,1.91924,13.6638,2.28428,6.43745,2.35848,-1.94538,-7.61025,3.63815,14.7116,7.64119,7.55829,-9.7039,-12.0015,2.01351,0.257837,-0.0523888,90,90,88,88,85,10,89,100,100,95,91,11
-2.51954,8.37668,-0.0986659,-0.343789,-14.0281,27.5044,-13.4778,0.0986659,-0.0986659,-0.343789,-13.925,27.5044,-13.5809,0.0986659,1.9196,13.664,2.28439,6.43739,2.35834,-1.94524,-7.61025,3.63855,14.7114,7.64126,7.55838,-9.70397,-12.0016,2.01362,0.257842,-0.0523702,90,90,88,88,85,10,89,100,100,95,91,11
-2.51959,8.37734,-0.0986311,-0.343796,-14.0282,27.5044,-13.4778,0.0986311,-0.0986311,-0.343796,-13.925,27.5044,-13.5809,0.0986311,1.91996,13.6642,2.28452,6.43732,2.35819,-1.9451,-7.61024,3.63894,14.7112,7.64131,7.55846,-9.70404,-12.0017,2.01373,0.257847,-0.0523516,90,90,88,88,85,10,89,100,100,95,91,11
-2.51963,8.37801,-0.0985963,-0.343804,-14.0282,27.5044,-13.4777,0.0985963,-0.0985963,-0.343804,-13.925,27.5044,-13.5809,0.0985963,1.92032,13.6643,2.28465,6.43726,2.35804,-1.94495,-7.61023,3.63935,14.711,7.64136,7.55855,-9.70411,-12.0019,2.01384,0.257853,-0.0523332,90,90,88,88,85,10,89,100,100,95,91,11
-2.51967,8.37867,-0.0985617,-0.343813,-14.0282,27.5044,-13.4777,0.0985617,-0.0985617,-0.343813,-13.9251,27.5044,-13.5808,0.0985617,1.92069,13.6645,2.28479,6.43718,2.35787,-1.94479,-7.61022,3.63975,14.7108,7.6414,7.55863,-9.70417,-12.002,2.01396,0.257859,-0.0523148,90,90,88,88,85,10,89,100,100,95,91,11
-2.5197,8.37932,-0.0985272,-0.343822,-14.0285,27.5045,-13.4777,0.0985272,-0.0985272,-0.343822,-13.9253,27.5045,-13.5809,0.0985272,1.92105,13.6646,2.28495,6.4371,2.3577,-1.94464,-7.61021,3.64016,14.7105,7.64144,7.55872,-9.70423,-12.0021,2.01408,0.257866,-0.0522964,90,90,88,88,85,10,89,100,100,95,91,11
-2.51974,8.37996,-0.0984928,-0.343832,-14.0285,27.5045,-13.4777,0.0984928,-0.0984928,-0.343832,-13.9253,27.5045,-13.5808,0.0984928,1.9214,13.6647,2.28511,6.43702,2.35751,-1.94447,-7.61019,3.64057,14.7103,7.64146,7.5588,-9.70428,-12.0023,2.0142,0.257874,-0.0522782,90,90,88,88,85,10,89,100,100,95,91,11
-2.51977,8.3806,-0.0984586,-0.343844,-14.0285,27.5045,-13.4776,0.0984586,-0.0984586,-0.343844,-13.9254,27.5045,-13.5808,0.0984586,1.92176,13.6649,2.28528,6.43693,2.35731,-1.94431,-7.61018,3.64098,14.7101,7.64147,7.55889,-9.70433,-12.0024,2.01432,0.257883,-0.05226,90,90,88,88,85,10,89,100,100,95,91,11
-2.51979,8.38122,-0.0984246,-0.343857,-14.0286,27.5045,-13.4776,0.0984246,-0.0984246,-0.343857,-13.9254,27.5045,-13.5808,0.0984246,1.92212,13.665,2.28547,6.43684,2.3571,-1.94414,-7.61016,3.6414,14.7098,7.64146,7.55897,-9.70438,-12.0026,2.01444,0.257892,-0.0522419,90,90,88,88,85,10,89,100,100,95,91,11
-2.51982,8.38184,-0.0983908,-0.34387,-14.0286,27.5045,-13.4776,0.0983908,-0.0983908,-0.34387,-13.9254,27.5045,-13.5807,0.0983908,1.92247,13.6651,2.28566,6.43673,2.35688,-1.94397,-7.61015,3.64182,14.7096,7.64145,7.55906,-9.70442,-12.0027,2.01456,0.257903,-0.052224,90,90,88,88,85,10,89,100,100,95,91,11
-2.51984,8.38245,-0.0983574,-0.343885,-14.0286,27.5045,-13.4775,0.0983574,-0.0983574,-0.343885,-13.9255,27.5045,-13.5807,0.0983574,1.92283,13.6653,2.28586,6.43663,2.35665,-1.94379,-7.61013,3.64225,14.7094,7.64143,7.55914,-9.70445,-12.0029,2.01469,0.257913,-0.0522062,90,90,88,88,85,10,89,100,100,95,91,11
-2.51986,8.38306,-0.0983243,-0.3439,-14.0287,27.5045,-13.4775,0.0983243,-0.0983243,-0.3439,-13.9255,27.5045,-13.5807,0.0983243,1.92318,13.6654,2.28608,6.43651,2.35641,-1.94362,-7.61012,3.64268,14.7091,7.64139,7.55923,-9.70448,-12.003,2.01482,0.257925,-0.0521886,90,90,88,88,85,10,89,100,100,95,91,11
-2.51988,8.38366,-0.0982916,-0.343916,-14.0287,27.5045,-13.4775,0.0982916,-0.0982916,-0.343916,-13.9255,27.5045,-13.5807,0.0982916,1.92354,13.6655,2.2863,6.43639,2.35616,-1.94344,-7.61011,3.64312,14.7089,7.64135,7.55931,-9.70451,-12.0032,2.01495,0.257937,-0.0521713,90,90,88,88,85,10,89,100,100,95,91,11
-2.5199,8.38425,-0.0982589,-0.343932,-14.0287,27.5045,-13.4774,0.0982589,-0.0982589,-0.343932,-13.9255,27.5045,-13.5806,0.0982589,1.9239,13.6656,2.28653,6.43626,2.35589,-1.94326,-7.6101,3.64356,14.7087,7.64129,7.55939,-9.70452,-12.0034,2.01508,0.257949,-0.0521539,90,90,88,88,85,10,89,100,100,95,91,11
-2.51993,8.38485,-0.0982266,-0.34395,-14.0288,27.5045,-13.4774,0.0982266,-0.0982266,-0.34395,-13.9256,27.5045,-13.5806,0.0982266,1.92426,13.6657,2.28677,6.43612,2.35562,-1.94308,-7.61009,3.64401,14.7084,7.64123,7.55948,-9.70454,-12.0036,2.01521,0.257962,-0.0521367,90,90,88,88,85,10,89,100,100,95,91,11
-2.51994,8.38544,-0.0981951,-0.343968,-14.0288,27.5045,-13.4774,0.0981951,-0.0981951,-0.343968,-13.9256,27.5045,-13.5806,0.0981951,1.92463,13.6658,2.28701,6.43597,2.35533,-1.9429,-7.61009,3.64446,14.7082,7.64115,7.55956,-9.70454,-12.0038,2.01534,0.257976,-0.05212,90,90,88,88,85,10,89,100,100,95,91,11
-2.51995,8.38602,-0.0981647,-0.343986,-14.0288,27.5045,-13.4773,0.0981647,-0.0981647,-0.343986,-13.9256,27.5045,-13.5805,0.0981647,1.92499,13.6659,2.28726,6.43581,2.35505,-1.94273,-7.61009,3.64492,14.7079,7.64107,7.55964,-9.70454,-12.004,2.01548,0.25799,-0.0521038,90,90,88,88,85,10,89,100,100,95,91,11
-2.51995,8.3866,-0.0981358,-0.344004,-14.0289,27.5045,-13.4773,0.0981358,-0.0981358,-0.344004,-13.9257,27.5045,-13.5805,0.0981358,1.92536,13.6659,2.28751,6.43565,2.35476,-1.94256,-7.6101,3.64538,14.7077,7.64098,7.55973,-9.70454,-12.0042,2.01561,0.258003,-0.0520885,90,90,88,88,85,10,89,100,100,95,91,11
-2.51994,8.38717,-0.0981087,-0.344023,-14.0289,27.5045,-13.4773,0.0981087,-0.0981087,-0.344023,-13.9257,27.5045,-13.5805,0.0981087,1.92572,13.666,2.28776,6.43548,2.35447,-1.94239,-7.61012,3.64584,14.7075,7.64088,7.55982,-9.70452,-12.0044,2.01575,0.258017,-0.0520741,90,90,88,88,85,10,89,100,100,95,91,11
-2.51991,8.38773,-0.0980836,-0.344041,-14.0312,27.5061,-13.4777,0.0980836,-0.0980836,-0.344041,-13.928,27.5061,-13.5809,0.0980836,1.92609,13.666,2.288,6.4353,2.35419,-1.94223,-7.61015,3.6463,14.7073,7.64078,7.55991,-9.7045,-12.0046,2.01589,0.258031,-0.0520607,90,90,88,88,85,10,89,100,100,95,91,11
-2.51986,8.38828,-0.0980609,-0.34406,-14.0312,27.5061,-13.4777,0.0980609,-0.0980609,-0.34406,-13.928,27.5061,-13.5809,0.0980609,1.92646,13.6661,2.28824,6.43511,2.35391,-1.94207,-7.6102,3.64676,14.707,7.64067,7.56001,-9.70447,-12.0048,2.01602,0.258045,-0.0520487,90,90,88,88,85,10,89,100,100,95,91,11
-2.51978,8.38882,-0.0980407,-0.344078,-14.0313,27.5061,-13.4776,0.0980407,-0.0980407,-0.344078,-13.928,27.5061,-13.5809,0.0980407,1.92683,13.6661,2.28847,6.43491,2.35363,-1.94193,-7.61026,3.64722,14.7068,7.64056,7.56011,-9.70443,-12.005,2.01616,0.258059,-0.052038,90,90,88,88,85,10,89,100,100,95,91,11
-2.51968,8.38935,-0.0980231,-0.344096,-14.0313,27.5061,-13.4776,0.0980231,-0.0980231,-0.344096,-13.9281,27.5061,-13.5808,0.0980231,1.92719,13.666,2.28869,6.43471,2.35337,-1.94179,-7.61033,3.64767,14.7066,7.64044,7.56022,-9.70438,-12.0052,2.0163,0.258072,-0.0520286,90,90,88,88,85,10,89,100,100,95,91,11
-2.51957,8.38986,-0.0980081,-0.344115,-14.0313,27.5061,-13.4776,0.0980081,-0.0980081,-0.344115,-13.9281,27.5061,-13.5808,0.0980081,1.92756,13.666,2.2889,6.43449,2.35311,-1.94166,-7.61041,3.64813,14.7064,7.64032,7.56033,-9.70433,-12.0054,2.01643,0.258086,-0.0520207,90,90,88,88,85,10,89,100,100,95,91,11
-2.51945,8.39037,-0.0979957,-0.344133,-14.0314,27.5061,-13.4775,0.0979957,-0.0979957,-0.344133,-13.9281,27.5061,-13.5808,0.0979957,1.92792,13.6659,2.2891,6.43428,2.35287,-1.94155,-7.61051,3.64858,14.7062,7.6402,7.56045,-9.70427,-12.0055,2.01657,0.2581,-0.0520141,90,90,88,88,85,10,89,100,100,95,91,11
-2.51931,8.39087,-0.097986,-0.344151,-14.0314,27.5061,-13.4775,0.097986,-0.097986,-0.344151,-13.9282,27.5061,-13.5807,0.097986,1.92828,13.6659,2.28928,6.43405,2.35264,-1.94144,-7.61063,3.64903,14.706,7.64007,7.56057,-9.70421,-12.0057,2.0167,0.258113,-0.0520089,90,90,88,88,85,10,89,100,100,95,91,11
-2.51917,8.39136,-0.0979788,-0.344169,-14.0314,27.5061,-13.4775,0.0979788,-0.0979788,-0.344169,-13.9282,27.5061,-13.5807,0.0979788,1.92863,13.6658,2.28946,6.43383,2.35242,-1.94134,-7.61075,3.64947,14.7059,7.63994,7.56069,-9.70415,-12.0059,2.01684,0.258127,-0.0520051,90,90,88,88,85,10,89,100,100,95,91,11
-2.51904,8.39184,-0.0979742,-0.344186,-14.0315,27.5061,-13.4774,0.0979742,-0.0979742,-0.344186,-13.9282,27.5061,-13.5807,0.0979742,1.92898,13.6656,2.28962,6.43359,2.35222,-1.94124,-7.61089,3.64991,14.7057,7.63981,7.56082,-9.70408,-12.0061,2.01698,0.25814,-0.0520026,90,90,88,88,85,10,89,100,100,95,91,11
-2.5189,8.39232,-0.0979722,-0.344204,-14.0315,27.5061,-13.4774,0.0979722,-0.0979722,-0.344204,-13.9282,27.5061,-13.5807,0.0979722,1.92932,13.6655,2.28978,6.43335,2.35202,-1.94116,-7.61104,3.65034,14.7055,7.63968,7.56095,-9.704,-12.0063,2.01711,0.258153,-0.0520016,90,90,88,88,85,10,89,100,100,95,91,11
-2.51877,8.39279,-0.0979727,-0.344221,-14.0315,27.5061,-13.4774,0.0979727,-0.0979727,-0.344221,-13.9283,27.5061,-13.5806,0.0979727,1.92966,13.6654,2.28992,6.43311,2.35184,-1.94109,-7.61119,3.65077,14.7054,7.63955,7.56108,-9.70392,-12.0065,2.01725,0.258166,-0.0520018,90,90,88,88,85,10,89,100,100,95,91,11
-2.51862,8.39324,-0.0979757,-0.344239,-14.0316,27.5061,-13.4773,0.0979757,-0.0979757,-0.344239,-13.9283,27.5061,-13.5806,0.0979757,1.92999,13.6652,2.29004,6.43287,2.35169,-1.94102,-7.61137,3.65119,14.7053,7.63941,7.56121,-9.70385,-12.0067,2.01738,0.25818,-0.0520034,90,90,88,88,85,10,89,100,100,95,91,11
-2.51846,8.39369,-0.097981,-0.344258,-14.0316,27.5061,-13.4773,0.097981,-0.097981,-0.344258,-13.9283,27.5061,-13.5806,0.097981,1.93031,13.665,2.29014,6.43264,2.35156,-1.94098,-7.61155,3.6516,14.7052,7.63928,7.56135,-9.70377,-12.0069,2.01751,0.258194,-0.0520062,90,90,88,88,85,10,89,100,100,95,91,11
-2.51829,8.39412,-0.0979886,-0.344278,-14.0316,27.5061,-13.4773,0.0979886,-0.0979886,-0.344278,-13.9283,27.5061,-13.5806,0.0979886,1.93062,13.6648,2.29022,6.4324,2.35147,-1.94094,-7.61174,3.65201,14.705,7.63913,7.56149,-9.70371,-12.007,2.01764,0.258209,-0.0520103,90,90,88,88,85,10,89,100,100,95,91,11
-2.5181,8.39453,-0.0979984,-0.3443,-14.0322,27.5065,-13.4774,0.0979984,-0.0979984,-0.3443,-13.9289,27.5065,-13.5806,0.0979984,1.93091,13.6646,2.29028,6.43218,2.35141,-1.94092,-7.61194,3.65241,14.705,7.63898,7.56163,-9.70364,-12.0072,2.01777,0.258225,-0.0520155,90,90,88,88,85,10,89,100,100,95,91,11
-2.51788,8.39492,-0.0980106,-0.344323,-14.0322,27.5065,-13.4773,0.0980106,-0.0980106,-0.344323,-13.9289,27.5065,-13.5806,0.0980106,1.9312,13.6644,2.2903,6.43196,2.35141,-1.94092,-7.61215,3.65281,14.7049,7.63882,7.56177,-9.7036,-12.0074,2.01789,0.258242,-0.052022,90,90,88,88,85,10,89,100,100,95,91,11
-2.51763,8.39529,-0.0980249,-0.344349,-14.0323,27.5065,-13.4773,0.0980249,-0.0980249,-0.344349,-13.929,27.5065,-13.5806,0.0980249,1.93146,13.6642,2.29029,6.43176,2.35144,-1.94093,-7.61236,3.65321,14.7048,7.63866,7.56191,-9.70356,-12.0075,2.01801,0.258262,-0.0520295,90,90,88,88,85,10,89,100,100,95,91,11
-2.51736,8.39564,-0.098041,-0.344376,-14.0323,27.5065,-13.4773,0.098041,-0.098041,-0.344376,-13.929,27.5065,-13.5806,0.098041,1.93172,13.664,2.29025,6.43156,2.35152,-1.94097,-7.61259,3.6536,14.7048,7.63848,7.56205,-9.70353,-12.0077,2.01813,0.258282,-0.0520381,90,90,88,88,85,10,89,100,100,95,91,11
-2.51707,8.39598,-0.0980589,-0.344404,-14.0323,27.5065,-13.4772,0.0980589,-0.0980589,-0.344404,-13.929,27.5065,-13.5806,0.0980589,1.93196,13.6638,2.2902,6.43138,2.35164,-1.94101,-7.61282,3.65398,14.7047,7.6383,7.56219,-9.7035,-12.0078,2.01824,0.258303,-0.0520476,90,90,88,88,85,10,89,100,100,95,91,11
-2.51676,8.39629,-0.0980782,-0.344434,-14.0324,27.5065,-13.4772,0.0980782,-0.0980782,-0.344434,-13.929,27.5065,-13.5805,0.0980782,1.93219,13.6635,2.29012,6.4312,2.35178,-1.94107,-7.61306,3.65436,14.7047,7.63812,7.56234,-9.70349,-12.008,2.01836,0.258325,-0.0520579,90,90,88,88,85,10,89,100,100,95,91,11
-2.51644,8.3966,-0.0980989,-0.344464,-14.0324,27.5065,-13.4772,0.0980989,-0.0980989,-0.344464,-13.9291,27.5065,-13.5805,0.0980989,1.93241,13.6633,2.29002,6.43102,2.35195,-1.94113,-7.6133,3.65473,14.7047,7.63793,7.56248,-9.70348,-12.0081,2.01847,0.258348,-0.0520689,90,90,88,88,85,10,89,100,100,95,91,11
-2.51611,8.39688,-0.0981207,-0.344495,-14.0327,27.5068,-13.4772,0.0981207,-0.0981207,-0.344495,-13.9294,27.5068,-13.5806,0.0981207,1.93262,13.6631,2.28991,6.43086,2.35215,-1.94121,-7.61354,3.65509,14.7047,7.63774,7.56262,-9.70348,-12.0083,2.01857,0.258371,-0.0520805,90,90,88,88,85,10,89,100,100,95,91,11
-2.51576,8.39716,-0.0981435,-0.344526,-14.0328,27.5068,-13.4772,0.0981435,-0.0981435,-0.344526,-13.9294,27.5068,-13.5805,0.0981435,1.93282,13.6628,2.2898,6.43069,2.35236,-1.94128,-7.61378,3.65545,14.7047,7.63755,7.56276,-9.70348,-12.0084,2.01868,0.258394,-0.0520926,90,90,88,88,85,10,89,100,100,95,91,11
-2.5154,8.39741,-0.0981671,-0.344557,-14.0328,27.5068,-13.4772,0.0981671,-0.0981671,-0.344557,-13.9294,27.5068,-13.5805,0.0981671,1.93302,13.6626,2.28967,6.43053,2.35258,-1.94137,-7.61403,3.6558,14.7047,7.63735,7.5629,-9.70348,-12.0086,2.01878,0.258418,-0.0521051,90,90,88,88,85,10,89,100,100,95,91,11
-2.51503,8.39766,-0.0981914,-0.344588,-14.0328,27.5068,-13.4771,0.0981914,-0.0981914,-0.344588,-13.9294,27.5068,-13.5805,0.0981914,1.9332,13.6623,2.28954,6.43038,2.35282,-1.94145,-7.61427,3.65614,14.7047,7.63716,7.56305,-9.70349,-12.0087,2.01888,0.258441,-0.052118,90,90,88,88,85,10,89,100,100,95,91,11
-2.51466,8.39789,-0.0982163,-0.34462,-14.0328,27.5068,-13.4771,0.0982163,-0.0982163,-0.34462,-13.9295,27.5068,-13.5805,0.0982163,1.93338,13.6621,2.28939,6.43023,2.35307,-1.94155,-7.61452,3.65648,14.7047,7.63697,7.56319,-9.7035,-12.0088,2.01897,0.258465,-0.0521312,90,90,88,88,85,10,89,100,100,95,91,11
-2.51429,8.39812,-0.0982415,-0.344652,-14.0329,27.5068,-13.4771,0.0982415,-0.0982415,-0.344652,-13.9295,27.5068,-13.5805,0.0982415,1.93355,13.6618,2.28923,6.43009,2.35334,-1.94165,-7.61477,3.65681,14.7047,7.63677,7.56332,-9.70352,-12.009,2.01907,0.258489,-0.0521447,90,90,88,88,85,10,89,100,100,95,91,11
-2.51391,8.39833,-0.0982671,-0.344685,-14.0329,27.5068,-13.4771,0.0982671,-0.0982671,-0.344685,-13.9295,27.5068,-13.5805,0.0982671,1.93371,13.6616,2.28907,6.42996,2.35362,-1.94176,-7.61501,3.65713,14.7047,7.63658,7.56346,-9.70354,-12.0091,2.01916,0.258514,-0.0521582,90,90,88,88,85,10,89,100,100,95,91,11
-2.51354,8.39854,-0.0982928,-0.344718,-14.0336,27.5073,-13.4772,0.0982928,-0.0982928,-0.344718,-13.9302,27.5073,-13.5806,0.0982928,1.93386,13.6613,2.28888,6.42983,2.35392,-1.94187,-7.61526,3.65745,14.7048,7.63638,7.56359,-9.70357,-12.0092,2.01925,0.258539,-0.0521719,90,90,88,88,85,10,89,100,100,95,91,11
-2.51317,8.39873,-0.0983188,-0.344751,-14.0336,27.5073,-13.4772,0.0983188,-0.0983188,-0.344751,-13.9302,27.5073,-13.5806,0.0983188,1.934,13.6611,2.28869,6.42972,2.35424,-1.942,-7.6155,3.65776,14.7048,7.63618,7.56372,-9.7036,-12.0093,2.01933,0.258564,-0.0521857,90,90,88,88,85,10,89,100,100,95,91,11
-2.5128,8.39892,-0.0983448,-0.344785,-14.0336,27.5073,-13.4771,0.0983448,-0.0983448,-0.344785,-13.9302,27.5073,-13.5806,0.0983448,1.93414,13.6608,2.28849,6.42961,2.35458,-1.94213,-7.61575,3.65806,14.7048,7.63599,7.56384,-9.70364,-12.0094,2.01942,0.258589,-0.0521995,90,90,88,88,85,10,89,100,100,95,91,11
-2.51244,8.3991,-0.0983707,-0.34482,-14.0336,27.5073,-13.4771,0.0983707,-0.0983707,-0.34482,-13.9302,27.5073,-13.5806,0.0983707,1.93426,13.6606,2.28827,6.42951,2.35493,-1.94227,-7.61599,3.65836,14.7049,7.63579,7.56396,-9.70369,-12.0095,2.0195,0.258615,-0.0522133,90,90,88,88,85,10,89,100,100,95,91,11
-2.51207,8.39928,-0.0983963,-0.344856,-14.0337,27.5073,-13.4771,0.0983963,-0.0983963,-0.344856,-13.9302,27.5073,-13.5805,0.0983963,1.93438,13.6604,2.28804,6.42943,2.35529,-1.94242,-7.61623,3.65866,14.7049,7.63559,7.56407,-9.70374,-12.0096,2.01957,0.258642,-0.0522269,90,90,88,88,85,10,89,100,100,95,91,11
-2.51171,8.39944,-0.0984215,-0.344892,-14.0337,27.5073,-13.4771,0.0984215,-0.0984215,-0.344892,-13.9302,27.5073,-13.5805,0.0984215,1.93449,13.6602,2.28779,6.42935,2.35566,-1.94257,-7.61647,3.65895,14.705,7.63539,7.56418,-9.70379,-12.0097,2.01965,0.258669,-0.0522403,90,90,88,88,85,10,89,100,100,95,91,11
-2.51134,8.3996,-0.0984463,-0.34493,-14.0337,27.5073,-13.477,0.0984463,-0.0984463,-0.34493,-13.9302,27.5073,-13.5805,0.0984463,1.93459,13.66,2.28753,6.42929,2.35605,-1.94273,-7.6167,3.65924,14.705,7.63519,7.56428,-9.70385,-12.0098,2.01972,0.258698,-0.0522535,90,90,88,88,85,10,89,100,100,95,91,11
-2.51098,8.39975,-0.0984705,-0.344969,-14.0343,27.5077,-13.4772,0.0984705,-0.0984705,-0.344969,-13.9308,27.5077,-13.5806,0.0984705,1.93468,13.6598,2.28726,6.42924,2.35645,-1.94289,-7.61693,3.65953,14.7051,7.63499,7.56437,-9.70391,-12.0099,2.0198,0.258727,-0.0522663,90,90,88,88,85,10,89,100,100,95,91,11
-2.51061,8.39989,-0.0984941,-0.345011,-14.0343,27.5077,-13.4771,0.0984941,-0.0984941,-0.345011,-13.9308,27.5077,-13.5806,0.0984941,1.93477,13.6596,2.28698,6.42921,2.35683,-1.94305,-7.61714,3.65982,14.7051,7.63479,7.56444,-9.70396,-12.0099,2.01987,0.258758,-0.0522788,90,90,88,88,85,10,89,100,100,95,91,11
-2.51024,8.40001,-0.0985169,-0.345053,-14.0344,27.5077,-13.4771,0.0985169,-0.0985169,-0.345053,-13.9309,27.5077,-13.5806,0.0985169,1.93485,13.6594,2.28669,6.42919,2.35721,-1.94321,-7.61735,3.66011,14.7052,7.6346,7.56451,-9.70401,-12.01,2.01994,0.25879,-0.0522909,90,90,88,88,85,10,89,100,100,95,91,11
-2.50987,8.40013,-0.0985389,-0.345097,-14.0344,27.5077,-13.4771,0.0985389,-0.0985389,-0.345097,-13.9309,27.5077,-13.5806,0.0985389,1.93492,13.6592,2.28639,6.42918,2.3576,-1.94337,-7.61756,3.6604,14.7053,7.6344,7.56456,-9.70406,-12.0101,2.02,0.258823,-0.0523027,90,90,88,88,85,10,89,100,100,95,91,11
-2.50949,8.40024,-0.0985602,-0.345143,-14.0344,27.5077,-13.4771,0.0985602,-0.0985602,-0.345143,-13.9309,27.5077,-13.5806,0.0985602,1.93498,13.6591,2.28608,6.42919,2.358,-1.94354,-7.61775,3.66069,14.7054,7.63421,7.56461,-9.70411,-12.0102,2.02007,0.258857,-0.052314,90,90,88,88,85,10,89,100,100,95,91,11
-2.50911,8.40035,-0.0985808,-0.345189,-14.0344,27.5077,-13.477,0.0985808,-0.0985808,-0.345189,-13.9309,27.5077,-13.5806,0.0985808,1.93504,13.6589,2.28575,6.4292,2.35841,-1.9437,-7.61794,3.66098,14.7054,7.63401,7.56465,-9.70416,-12.0102,2.02014,0.258892,-0.0523249,90,90,88,88,85,10,89,100,100,95,91,11
-2.50872,8.40044,-0.0986007,-0.345237,-14.0345,27.5077,-13.477,0.0986007,-0.0986007,-0.345237,-13.9309,27.5077,-13.5806,0.0986007,1.93509,13.6588,2.28541,6.42923,2.35883,-1.94387,-7.61813,3.66127,14.7055,7.63382,7.56469,-9.70422,-12.0103,2.0202,0.258927,-0.0523355,90,90,88,88,85,10,89,100,100,95,91,11
-2.50833,8.40053,-0.0986198,-0.345285,-14.0364,27.5091,-13.4774,0.0986198,-0.0986198,-0.345285,-13.9328,27.5091,-13.581,0.0986198,1.93513,13.6586,2.28506,6.42926,2.35926,-1.94405,-7.61832,3.66156,14.7056,7.63363,7.56471,-9.70428,-12.0103,2.02027,0.258963,-0.0523456,90,90,88,88,85,10,89,100,100,95,91,11
-2.50793,8.40061,-0.098638,-0.345332,-14.0364,27.5091,-13.4774,0.098638,-0.098638,-0.345332,-13.9328,27.5091,-13.581,0.098638,1.93518,13.6585,2.28466,6.42929,2.35975,-1.94424,-7.61851,3.66184,14.7056,7.63344,7.56475,-9.70435,-12.0104,2.02034,0.258999,-0.0523553,90,90,88,88,85,10,89,100,100,95,91,11
-2.50751,8.40068,-0.0986556,-0.34538,-14.0364,27.5091,-13.4774,0.0986556,-0.0986556,-0.34538,-13.9328,27.5091,-13.581,0.0986556,1.93521,13.6584,2.28425,6.42932,2.36026,-1.94443,-7.6187,3.66212,14.7057,7.63326,7.56478,-9.70444,-12.0105,2.0204,0.259035,-0.0523646,90,90,88,88,85,10,89,100,100,95,91,11
-2.50709,8.40074,-0.0986724,-0.345428,-14.0364,27.5091,-13.4774,0.0986724,-0.0986724,-0.345428,-13.9328,27.5091,-13.581,0.0986724,1.93525,13.6582,2.28383,6.42936,2.36079,-1.94462,-7.61889,3.66239,14.7057,7.63307,7.5648,-9.70453,-12.0105,2.02047,0.259071,-0.0523736,90,90,88,88,85,10,89,100,100,95,91,11
-2.50667,8.4008,-0.0986887,-0.345477,-14.0364,27.5091,-13.4773,0.0986887,-0.0986887,-0.345477,-13.9328,27.5091,-13.581,0.0986887,1.93528,13.6581,2.2834,6.42941,2.36131,-1.94482,-7.61907,3.66266,14.7058,7.63289,7.56483,-9.70461,-12.0106,2.02053,0.259108,-0.0523823,90,90,88,88,85,10,89,100,100,95,91,11
-2.50624,8.40086,-0.0987046,-0.345525,-14.0365,27.5091,-13.4773,0.0987046,-0.0987046,-0.345525,-13.9328,27.5091,-13.581,0.0987046,1.9353,13.658,2.283,6.42946,2.3618,-1.945,-7.61924,3.66293,14.7058,7.63271,7.56484,-9.70469,-12.0107,2.0206,0.259144,-0.0523907,90,90,88,88,85,10,89,100,100,95,91,11
-2.50581,8.40091,-0.0987202,-0.345574,-14.0365,27.5091,-13.4773,0.0987202,-0.0987202,-0.345574,-13.9328,27.5091,-13.581,0.0987202,1.93533,13.6579,2.28261,6.42952,2.36225,-1.94518,-7.6194,3.66319,14.7059,7.63254,7.56485,-9.70475,-12.0107,2.02066,0.25918,-0.052399,90,90,88,88,85,10,89,100,100,95,91,11
-2.50538,8.40096,-0.0987354,-0.345622,-14.0365,27.5091,-13.4773,0.0987354,-0.0987354,-0.345622,-13.9328,27.5091,-13.581,0.0987354,1.93535,13.6578,2.28226,6.42959,2.36265,-1.94534,-7.61955,3.66346,14.7059,7.63237,7.56484,-9.7048,-12.0108,2.02071,0.259216,-0.0524071,90,90,88,88,85,10,89,100,100,95,91,11
-2.50496,8.401,-0.0987504,-0.345672,-14.0365,27.5091,-13.4773,0.0987504,-0.0987504,-0.345672,-13.9328,27.5091,-13.581,0.0987504,1.93535,13.6577,2.28195,6.42967,2.36297,-1.94549,-7.61968,3.66372,14.706,7.6322,7.56482,-9.70482,-12.0108,2.02077,0.259254,-0.052415,90,90,88,88,85,10,89,100,100,95,91,11
-2.50455,8.40104,-0.0987652,-0.345723,-14.0365,27.5091,-13.4772,0.0987652,-0.0987652,-0.345723,-13.9328,27.5091,-13.581,0.0987652,1.93536,13.6577,2.2817,6.42977,2.36322,-1.94561,-7.61979,3.66397,14.7061,7.63203,7.56479,-9.70482,-12.0108,2.02082,0.259292,-0.0524229,90,90,88,88,85,10,89,100,100,95,91,11
-2.50414,8.40109,-0.0987799,-0.345774,-14.0366,27.5091,-13.4772,0.0987799,-0.0987799,-0.345774,-13.9328,27.5091,-13.581,0.0987799,1.93536,13.6576,2.28148,6.42988,2.36339,-1.94572,-7.61989,3.66423,14.7062,7.63187,7.56474,-9.7048,-12.0108,2.02087,0.25933,-0.0524307,90,90,88,88,85,10,89,100,100,95,91,11
-2.50373,8.40112,-0.0987946,-0.345823,-14.0366,27.5091,-13.4772,0.0987946,-0.0987946,-0.345823,-13.9328,27.5091,-13.581,0.0987946,1.93536,13.6576,2.28132,6.43,2.36348,-1.9458,-7.61997,3.66448,14.7064,7.63172,7.56469,-9.70476,-12.0108,2.02091,0.259367,-0.0524385,90,90,88,88,85,10,89,100,100,95,91,11
-2.50331,8.40115,-0.0988093,-0.345869,-14.0366,27.5091,-13.4772,0.0988093,-0.0988093,-0.345869,-13.9328,27.5091,-13.581,0.0988093,1.93538,13.6576,2.28119,6.43011,2.36351,-1.94586,-7.62003,3.66472,14.7065,7.63158,7.56463,-9.70469,-12.0108,2.02094,0.259402,-0.0524463,90,90,88,88,85,10,89,100,100,95,91,11
-2.5029,8.40118,-0.098824,-0.345913,-14.0366,27.5091,-13.4772,0.098824,-0.098824,-0.345913,-13.9328,27.5091,-13.5809,0.098824,1.9354,13.6576,2.2811,6.43023,2.36347,-1.9459,-7.62007,3.66496,14.7067,7.63145,7.56456,-9.70462,-12.0107,2.02096,0.259435,-0.0524542,90,90,88,88,85,10,89,100,100,95,91,11
-2.50248,8.4012,-0.0988389,-0.345953,-14.0369,27.5093,-13.4772,0.0988389,-0.0988389,-0.345953,-13.9331,27.5093,-13.581,0.0988389,1.93543,13.6576,2.28105,6.43034,2.36337,-1.94592,-7.6201,3.66519,14.7068,7.63133,7.56449,-9.70453,-12.0107,2.02098,0.259465,-0.052462,90,90,88,88,85,10,89,100,100,95,91,11
-2.50205,8.40122,-0.098854,-0.345987,-14.0369,27.5093,-13.4772,0.098854,-0.098854,-0.345987,-13.9331,27.5093,-13.581,0.098854,1.93548,13.6576,2.28104,6.43044,2.36321,-1.9459,-7.62012,3.66541,14.707,7.63122,7.56442,-9.70443,-12.0106,2.02098,0.25949,-0.0524701,90,90,88,88,85,10,89,100,100,95,91,11
-2.50162,8.40123,-0.0988693,-0.346015,-14.037,27.5093,-13.4772,0.0988693,-0.0988693,-0.346015,-13.9331,27.5093,-13.581,0.0988693,1.93555,13.6576,2.28106,6.43052,2.36298,-1.94587,-7.62012,3.66563,14.7072,7.63114,7.56436,-9.70432,-12.0105,2.02096,0.259511,-0.0524782,90,90,88,88,85,10,89,100,100,95,91,11
-2.50118,8.40123,-0.0988848,-0.346039,-14.037,27.5093,-13.4772,0.0988848,-0.0988848,-0.346039,-13.9332,27.5093,-13.581,0.0988848,1.93564,13.6577,2.28111,6.4306,2.3627,-1.94581,-7.62011,3.66583,14.7074,7.63107,7.56429,-9.7042,-12.0104,2.02094,0.259529,-0.0524864,90,90,88,88,85,10,89,100,100,95,91,11
-2.50074,8.40122,-0.0989004,-0.346058,-14.037,27.5093,-13.4772,0.0989004,-0.0989004,-0.346058,-13.9332,27.5093,-13.581,0.0989004,1.93574,13.6577,2.28119,6.43066,2.36238,-1.94573,-7.62009,3.66603,14.7076,7.63101,7.56422,-9.70407,-12.0102,2.02091,0.259544,-0.0524947,90,90,88,88,85,10,89,100,100,95,91,11
-2.50029,8.40122,-0.098916,-0.346074,-14.037,27.5093,-13.4771,0.098916,-0.098916,-0.346074,-13.9332,27.5093,-13.581,0.098916,1.93585,13.6578,2.2813,6.43072,2.36201,-1.94563,-7.62006,3.66622,14.7079,7.63096,7.56415,-9.70393,-12.0101,2.02087,0.259555,-0.052503,90,90,88,88,85,10,89,100,100,95,91,11
-2.49984,8.4012,-0.0989316,-0.346086,-14.037,27.5093,-13.4771,0.0989316,-0.0989316,-0.346086,-13.9332,27.5093,-13.581,0.0989316,1.93597,13.6579,2.28143,6.43077,2.3616,-1.94552,-7.62001,3.6664,14.7081,7.63092,7.56409,-9.70379,-12.0099,2.02083,0.259564,-0.0525113,90,90,88,88,85,10,89,100,100,95,91,11
-2.4994,8.40119,-0.0989472,-0.346095,-14.0378,27.5098,-13.4773,0.0989472,-0.0989472,-0.346095,-13.9339,27.5098,-13.5811,0.0989472,1.9361,13.6579,2.28157,6.43082,2.36116,-1.9454,-7.61996,3.66658,14.7083,7.63089,7.56402,-9.70364,-12.0098,2.02078,0.259572,-0.0525196,90,90,88,88,85,10,89,100,100,95,91,11
-2.49895,8.40116,-0.0989628,-0.346103,-14.0378,27.5098,-13.4773,0.0989628,-0.0989628,-0.346103,-13.9339,27.5098,-13.5811,0.0989628,1.93624,13.658,2.28174,6.43087,2.36069,-1.94527,-7.61991,3.66675,14.7086,7.63087,7.56395,-9.70349,-12.0096,2.02072,0.259577,-0.0525279,90,90,88,88,85,10,89,100,100,95,91,11
-2.49851,8.40114,-0.0989782,-0.346108,-14.0378,27.5098,-13.4772,0.0989782,-0.0989782,-0.346108,-13.9339,27.5098,-13.5811,0.0989782,1.93637,13.6581,2.28192,6.43091,2.3602,-1.94513,-7.61984,3.66692,14.7088,7.63085,7.56389,-9.70332,-12.0094,2.02066,0.259581,-0.0525361,90,90,88,88,85,10,89,100,100,95,91,11
-2.49807,8.40111,-0.0989936,-0.346112,-14.0378,27.5098,-13.4772,0.0989936,-0.0989936,-0.346112,-13.934,27.5098,-13.5811,0.0989936,1.93652,13.6582,2.28211,6.43095,2.35969,-1.94498,-7.61977,3.66708,14.7091,7.63084,7.56382,-9.70316,-12.0092,2.0206,0.259584,-0.0525442,90,90,88,88,85,10,89,100,100,95,91,11
-2.49764,8.40108,-0.0990088,-0.346113,-14.0378,27.5098,-13.4772,0.0990088,-0.0990088,-0.346113,-13.934,27.5098,-13.5811,0.0990088,1.93666,13.6583,2.28232,6.43098,2.35917,-1.94482,-7.61969,3.66723,14.7093,7.63084,7.56375,-9.70299,-12.0091,2.02053,0.259585,-0.0525523,90,90,88,88,85,10,89,100,100,95,91,11
-2.4972,8.40105,-0.0990238,-0.346112,-14.0378,27.5098,-13.4772,0.0990238,-0.0990238,-0.346112,-13.934,27.5098,-13.581,0.0990238,1.93682,13.6584,2.28253,6.43101,2.35862,-1.94466,-7.61961,3.66738,14.7096,7.63085,7.56369,-9.70282,-12.0089,2.02046,0.259584,-0.0525603,90,90,88,88,85,10,89,100,100,95,91,11
-2.49677,8.40102,-0.0990387,-0.346108,-14.0378,27.5098,-13.4772,0.0990387,-0.0990387,-0.346108,-13.934,27.5098,-13.581,0.0990387,1.93698,13.6585,2.28276,6.43103,2.35807,-1.94448,-7.61953,3.66752,14.7098,7.63086,7.56363,-9.70266,-12.0087,2.02039,0.259581,-0.0525682,90,90,88,88,85,10,89,100,100,95,91,11
-2.49635,8.40098,-0.0990533,-0.346102,-14.0382,27.51,-13.4773,0.0990533,-0.0990533,-0.346102,-13.9343,27.51,-13.5811,0.0990533,1.93715,13.6586,2.28299,6.43104,2.3575,-1.9443,-7.61945,3.66765,14.7101,7.63087,7.56357,-9.70249,-12.0085,2.02031,0.259576,-0.052576,90,90,88,88,85,10,89,100,100,95,91,11
-2.49593,8.40095,-0.0990679,-0.346093,-14.0382,27.51,-13.4772,0.0990679,-0.0990679,-0.346093,-13.9343,27.51,-13.5811,0.0990679,1.93732,13.6587,2.28322,6.43105,2.35693,-1.94411,-7.61936,3.66778,14.7103,7.6309,7.56351,-9.70234,-12.0083,2.02023,0.259569,-0.0525837,90,90,88,88,85,10,89,100,100,95,91,11
-2.49551,8.40091,-0.0990822,-0.346081,-14.0382,27.51,-13.4772,0.0990822,-0.0990822,-0.346081,-13.9343,27.51,-13.5811,0.0990822,1.93751,13.6588,2.28346,6.43104,2.35635,-1.94391,-7.61928,3.66791,14.7106,7.63093,7.56346,-9.70218,-12.008,2.02014,0.259561,-0.0525913,90,90,88,88,85,10,89,100,100,95,91,11
-2.49509,8.40087,-0.0990964,-0.346066,-14.0382,27.51,-13.4772,0.0990964,-0.0990964,-0.346066,-13.9344,27.51,-13.581,0.0990964,1.9377,13.6589,2.28369,6.43103,2.35577,-1.9437,-7.61919,3.66803,14.7109,7.63096,7.56341,-9.70204,-12.0078,2.02005,0.25955,-0.0525988,90,90,88,88,85,10,89,100,100,95,91,11
-2.49469,8.40084,-0.0991104,-0.346049,-14.0382,27.51,-13.4772,0.0991104,-0.0991104,-0.346049,-13.9344,27.51,-13.581,0.0991104,1.9379,13.659,2.28393,6.431,2.35519,-1.94349,-7.6191,3.66814,14.7111,7.631,7.56337,-9.7019,-12.0076,2.01995,0.259537,-0.0526063,90,90,88,88,85,10,89,100,100,95,91,11
-2.49429,8.4008,-0.0991243,-0.346028,-14.0382,27.51,-13.4772,0.0991243,-0.0991243,-0.346028,-13.9344,27.51,-13.581,0.0991243,1.93811,13.6591,2.28417,6.43097,2.35462,-1.94327,-7.61902,3.66825,14.7114,7.63105,7.56333,-9.70177,-12.0074,2.01985,0.259521,-0.0526137,90,90,88,88,85,10,89,100,100,95,91,11
-2.4939,8.40076,-0.0991381,-0.346005,-14.0382,27.51,-13.4772,0.0991381,-0.0991381,-0.346005,-13.9344,27.51,-13.581,0.0991381,1.93833,13.6592,2.2844,6.43092,2.35405,-1.94304,-7.61893,3.66836,14.7116,7.6311,7.5633,-9.70165,-12.0072,2.01974,0.259504,-0.052621,90,90,88,88,85,10,89,100,100,95,91,11
-2.49352,8.40072,-0.0991518,-0.345978,-14.0382,27.51,-13.4772,0.0991518,-0.0991518,-0.345978,-13.9344,27.51,-13.581,0.0991518,1.93856,13.6593,2.28463,6.43087,2.35349,-1.94281,-7.61885,3.66845,14.7119,7.63114,7.56327,-9.70153,-12.0069,2.01963,0.259484,-0.0526283,90,90,88,88,85,10,89,100,100,95,91,11
-2.49315,8.40068,-0.0991651,-0.345949,-14.0382,27.51,-13.4772,0.0991651,-0.0991651,-0.345949,-13.9344,27.51,-13.581,0.0991651,1.9388,13.6594,2.28486,6.4308,2.35292,-1.94258,-7.61876,3.66855,14.7121,7.6312,7.56324,-9.70142,-12.0067,2.01952,0.259462,-0.0526354,90,90,88,88,85,10,89,100,100,95,91,11
-2.49279,8.40064,-0.0991784,-0.345918,-14.0382,27.51,-13.4772,0.0991784,-0.0991784,-0.345918,-13.9345,27.51,-13.5809,0.0991784,1.93905,13.6595,2.28509,6.43073,2.35237,-1.94234,-7.61868,3.66864,14.7124,7.63125,7.56322,-9.70132,-12.0064,2.0194,0.259438,-0.0526424,90,90,88,88,85,10,89,100,100,95,91,11
-2.49245,8.4006,-0.0991916,-0.345883,-14.0382,27.51,-13.4772,0.0991916,-0.0991916,-0.345883,-13.9345,27.51,-13.5809,0.0991916,1.93931,13.6596,2.28531,6.43064,2.35183,-1.9421,-7.61859,3.66872,14.7126,7.63131,7.5632,-9.70123,-12.0062,2.01927,0.259412,-0.0526494,90,90,88,88,85,10,89,100,100,95,91,11
-2.49212,8.40056,-0.099205,-0.345844,-14.0383,27.51,-13.4771,0.099205,-0.099205,-0.345844,-13.9345,27.51,-13.5809,0.099205,1.93958,13.6597,2.28551,6.43054,2.35132,-1.94186,-7.61851,3.6688,14.7129,7.63136,7.56319,-9.70114,-12.0059,2.01914,0.259383,-0.0526565,90,90,88,88,85,10,89,100,100,95,91,11
-2.4918,8.40051,-0.0992186,-0.345802,-14.0383,27.51,-13.4771,0.0992186,-0.0992186,-0.345802,-13.9345,27.51,-13.5809,0.0992186,1.93986,13.6598,2.28571,6.43043,2.35082,-1.94161,-7.61843,3.66887,14.7131,7.63141,7.56319,-9.70108,-12.0057,2.019,0.259351,-0.0526638,90,90,88,88,85,10,89,100,100,95,91,11
-2.4915,8.40046,-0.0992327,-0.345756,-14.0383,27.51,-13.4771,0.0992327,-0.0992327,-0.345756,-13.9345,27.51,-13.5809,0.0992327,1.94016,13.6599,2.28589,6.43031,2.35036,-1.94136,-7.61835,3.66894,14.7133,7.63145,7.56319,-9.70103,-12.0054,2.01886,0.259317,-0.0526713,90,90,88,88,85,10,89,100,100,95,91,11
-2.49122,8.40041,-0.0992473,-0.345706,-14.0379,27.5097,-13.477,0.0992473,-0.0992473,-0.345706,-13.9342,27.5097,-13.5807,0.0992473,1.94047,13.66,2.28605,6.43017,2.34993,-1.9411,-7.61828,3.669,14.7136,7.63148,7.56321,-9.70099,-12.0052,2.01871,0.259279,-0.052679,90,90,88,88,85,10,89,100,100,95,91,11
-2.49097,8.40036,-0.0992627,-0.34565,-14.0379,27.5097,-13.477,0.0992627,-0.0992627,-0.34565,-13.9342,27.5097,-13.5807,0.0992627,1.9408,13.6601,2.28618,6.43002,2.34955,-1.94083,-7.61821,3.66905,14.7138,7.6315,7.56323,-9.70097,-12.0049,2.01855,0.259237,-0.0526872,90,90,88,88,85,10,89,100,100,95,91,11
-2.49073,8.4003,-0.099279,-0.345589,-14.0379,27.5097,-13.477,0.099279,-0.099279,-0.345589,-13.9342,27.5097,-13.5807,0.099279,1.94115,13.6602,2.28629,6.42986,2.34921,-1.94055,-7.61814,3.66909,14.7141,7.6315,7.56326,-9.70098,-12.0046,2.01839,0.259192,-0.0526959,90,90,88,88,85,10,89,100,100,95,91,11
-2.49051,8.40024,-0.0992959,-0.345525,-14.0379,27.5097,-13.477,0.0992959,-0.0992959,-0.345525,-13.9342,27.5097,-13.5807,0.0992959,1.9415,13.6603,2.28638,6.42969,2.34891,-1.94027,-7.61808,3.66913,14.7144,7.6315,7.56329,-9.701,-12.0043,2.01822,0.259143,-0.0527049,90,90,88,88,85,10,89,100,100,95,91,11
-2.49031,8.40017,-0.0993133,-0.345457,-14.0379,27.5097,-13.477,0.0993133,-0.0993133,-0.345457,-13.9343,27.5097,-13.5806,0.0993133,1.94187,13.6603,2.28645,6.4295,2.34864,-1.93998,-7.61802,3.66916,14.7146,7.63148,7.56334,-9.70104,-12.0041,2.01804,0.259092,-0.0527141,90,90,88,88,85,10,89,100,100,95,91,11
-2.49012,8.4001,-0.0993311,-0.345386,-14.0379,27.5097,-13.477,0.0993311,-0.0993311,-0.345386,-13.9343,27.5097,-13.5806,0.0993311,1.94225,13.6604,2.2865,6.42931,2.34841,-1.93969,-7.61797,3.66918,14.7149,7.63146,7.56339,-9.70109,-12.0038,2.01786,0.259039,-0.0527236,90,90,88,88,85,10,89,100,100,95,91,11
-2.48995,8.40003,-0.0993492,-0.345312,-14.0379,27.5097,-13.477,0.0993492,-0.0993492,-0.345312,-13.9343,27.5097,-13.5806,0.0993492,1.94263,13.6605,2.28653,6.4291,2.3482,-1.9394,-7.61791,3.6692,14.7151,7.63143,7.56345,-9.70116,-12.0035,2.01768,0.258984,-0.0527332,90,90,88,88,85,10,89,100,100,95,91,11
-2.48979,8.39997,-0.0993674,-0.345237,-14.037,27.5091,-13.4768,0.0993674,-0.0993674,-0.345237,-13.9335,27.5091,-13.5804,0.0993674,1.94302,13.6605,2.28655,6.4289,2.34803,-1.9391,-7.61786,3.66921,14.7154,7.6314,7.56351,-9.70123,-12.0032,2.01749,0.258928,-0.0527429,90,90,88,88,85,10,89,100,100,95,91,11
-2.48964,8.3999,-0.0993857,-0.345161,-14.037,27.5091,-13.4768,0.0993857,-0.0993857,-0.345161,-13.9335,27.5091,-13.5804,0.0993857,1.94341,13.6606,2.28655,6.42868,2.34786,-1.93881,-7.61781,3.66922,14.7156,7.63137,7.56357,-9.70131,-12.0029,2.0173,0.258871,-0.0527526,90,90,88,88,85,10,89,100,100,95,91,11
-2.4895,8.39983,-0.099404,-0.345084,-14.037,27.5091,-13.4768,0.099404,-0.099404,-0.345084,-13.9335,27.5091,-13.5803,0.099404,1.9438,13.6606,2.28655,6.42847,2.34772,-1.93853,-7.61776,3.66922,14.7159,7.63133,7.56364,-9.7014,-12.0026,2.01711,0.258813,-0.0527623,90,90,88,88,85,10,89,100,100,95,91,11
-2.48937,8.39976,-0.0994223,-0.345006,-14.037,27.5091,-13.4768,0.0994223,-0.0994223,-0.345006,-13.9335,27.5091,-13.5803,0.0994223,1.9442,13.6607,2.28653,6.42825,2.3476,-1.93824,-7.61771,3.66923,14.7161,7.63129,7.56372,-9.70149,-12.0023,2.01692,0.258755,-0.052772,90,90,88,88,85,10,89,100,100,95,91,11
-2.48925,8.39969,-0.0994407,-0.344928,-14.037,27.5091,-13.4768,0.0994407,-0.0994407,-0.344928,-13.9336,27.5091,-13.5803,0.0994407,1.94459,13.6607,2.28651,6.42803,2.3475,-1.93795,-7.61766,3.66923,14.7163,7.63124,7.56379,-9.70159,-12.0021,2.01673,0.258696,-0.0527818,90,90,88,88,85,10,89,100,100,95,91,11
-2.48914,8.39961,-0.0994592,-0.344848,-14.037,27.5091,-13.4768,0.0994592,-0.0994592,-0.344848,-13.9336,27.5091,-13.5802,0.0994592,1.94498,13.6607,2.28647,6.4278,2.34741,-1.93767,-7.61762,3.66922,14.7166,7.63119,7.56387,-9.70169,-12.0018,2.01654,0.258636,-0.0527916,90,90,88,88,85,10,89,100,100,95,91,11
-2.48904,8.39954,-0.0994777,-0.344768,-14.037,27.5091,-13.4768,0.0994777,-0.0994777,-0.344768,-13.9336,27.5091,-13.5802,0.0994777,1.94538,13.6608,2.28643,6.42757,2.34735,-1.93738,-7.61758,3.66922,14.7168,7.63114,7.56395,-9.70181,-12.0015,2.01635,0.258576,-0.0528015,90,90,88,88,85,10,89,100,100,95,91,11
-2.48896,8.39947,-0.0994964,-0.344686,-14.0375,27.5094,-13.4769,0.0994964,-0.0994964,-0.344686,-13.9341,27.5094,-13.5803,0.0994964,1.94577,13.6608,2.28638,6.42735,2.34731,-1.93709,-7.61754,3.66921,14.717,7.63107,7.56403,-9.70193,-12.0012,2.01617,0.258515,-0.0528114,90,90,88,88,85,10,89,100,100,95,91,11
-2.48888,8.39939,-0.0995149,-0.344604,-14.0375,27.5094,-13.4769,0.0995149,-0.0995149,-0.344604,-13.9341,27.5094,-13.5802,0.0995149,1.94617,13.6609,2.28633,6.42712,2.34728,-1.9368,-7.61751,3.66919,14.7173,7.63101,7.56412,-9.70207,-12.001,2.01598,0.258453,-0.0528212,90,90,88,88,85,10,89,100,100,95,91,11
-2.48881,8.39932,-0.0995334,-0.344521,-14.0375,27.5094,-13.4769,0.0995334,-0.0995334,-0.344521,-13.9341,27.5094,-13.5802,0.0995334,1.94657,13.6609,2.28626,6.42689,2.34728,-1.93651,-7.61749,3.66917,14.7175,7.63093,7.5642,-9.70222,-12.0007,2.01579,0.25839,-0.0528311,90,90,88,88,85,10,89,100,100,95,91,11
-2.48875,8.39924,-0.0995521,-0.344436,-14.0375,27.5094,-13.4769,0.0995521,-0.0995521,-0.344436,-13.9341,27.5094,-13.5802,0.0995521,1.94697,13.6609,2.2862,6.42666,2.34729,-1.93622,-7.61746,3.66915,14.7177,7.63085,7.56428,-9.70238,-12.0005,2.0156,0.258327,-0.052841,90,90,88,88,85,10,89,100,100,95,91,11
-2.4887,8.39916,-0.0995711,-0.344351,-14.0375,27.5094,-13.4769,0.0995711,-0.0995711,-0.344351,-13.9342,27.5094,-13.5802,0.0995711,1.94737,13.6609,2.28612,6.42643,2.34732,-1.93593,-7.61744,3.66913,14.718,7.63075,7.56436,-9.70253,-12.0002,2.01542,0.258264,-0.0528511,90,90,88,88,85,10,89,100,100,95,91,11
-2.48867,8.39907,-0.0995904,-0.344266,-14.0375,27.5094,-13.4769,0.0995904,-0.0995904,-0.344266,-13.9342,27.5094,-13.5801,0.0995904,1.94778,13.661,2.28605,6.42621,2.34737,-1.93563,-7.61743,3.66911,14.7182,7.63065,7.56444,-9.70269,-11.9999,2.01524,0.2582,-0.0528613,90,90,88,88,85,10,89,100,100,95,91,11
-2.48865,8.39897,-0.0996101,-0.34418,-14.0375,27.5094,-13.4769,0.0996101,-0.0996101,-0.34418,-13.9342,27.5094,-13.5801,0.0996101,1.94818,13.661,2.28597,6.426,2.34744,-1.93533,-7.61741,3.66908,14.7184,7.63053,7.56452,-9.70285,-11.9997,2.01506,0.258135,-0.0528718,90,90,88,88,85,10,89,100,100,95,91,11
-2.48864,8.39887,-0.0996302,-0.344094,-14.0365,27.5087,-13.4767,0.0996302,-0.0996302,-0.344094,-13.9333,27.5087,-13.5799,0.0996302,1.94858,13.661,2.28588,6.42579,2.34752,-1.93503,-7.6174,3.66905,14.7187,7.63039,7.56459,-9.70299,-11.9995,2.01489,0.25807,-0.0528825,90,90,88,88,85,10,89,100,100,95,91,11
-2.48865,8.39875,-0.0996511,-0.344007,-14.0365,27.5087,-13.4766,0.0996511,-0.0996511,-0.344007,-13.9333,27.5087,-13.5799,0.0996511,1.94898,13.661,2.2858,6.42559,2.34761,-1.93473,-7.61739,3.66902,14.7189,7.63024,7.56465,-9.70314,-11.9992,2.01473,0.258006,-0.0528936,90,90,88,88,85,10,89,100,100,95,91,11
-2.48868,8.39863,-0.0996727,-0.343921,-14.0365,27.5087,-13.4766,0.0996727,-0.0996727,-0.343921,-13.9334,27.5087,-13.5798,0.0996727,1.94938,13.6611,2.28571,6.42541,2.34772,-1.93442,-7.61738,3.66899,14.7192,7.63008,7.56471,-9.70327,-11.999,2.01457,0.257941,-0.0529051,90,90,88,88,85,10,89,100,100,95,91,11
-2.48871,8.3985,-0.0996947,-0.343834,-14.0365,27.5087,-13.4766,0.0996947,-0.0996947,-0.343834,-13.9334,27.5087,-13.5798,0.0996947,1.94978,13.6611,2.28563,6.42523,2.34785,-1.93411,-7.61737,3.66895,14.7194,7.6299,7.56476,-9.70339,-11.9988,2.01442,0.257876,-0.0529168,90,90,88,88,85,10,89,100,100,95,91,11
-2.48876,8.39836,-0.0997171,-0.343747,-14.0365,27.5087,-13.4766,0.0997171,-0.0997171,-0.343747,-13.9334,27.5087,-13.5798,0.0997171,1.95018,13.6611,2.28554,6.42507,2.34798,-1.9338,-7.61736,3.66892,14.7197,7.62971,7.56481,-9.70349,-11.9985,2.01427,0.25781,-0.0529287,90,90,88,88,85,10,89,100,100,95,91,11
-2.48882,8.39821,-0.0997397,-0.343659,-14.0365,27.5087,-13.4766,0.0997397,-0.0997397,-0.343659,-13.9335,27.5087,-13.5797,0.0997397,1.95058,13.6611,2.28544,6.42492,2.34812,-1.93348,-7.61735,3.66887,14.7199,7.6295,7.56485,-9.70358,-11.9983,2.01414,0.257745,-0.0529407,90,90,88,88,85,10,89,100,100,95,91,11
-2.48889,8.39805,-0.0997624,-0.343571,-14.0366,27.5087,-13.4766,0.0997624,-0.0997624,-0.343571,-13.9335,27.5087,-13.5797,0.0997624,1.95097,13.6611,2.28534,6.42478,2.34826,-1.93317,-7.61734,3.66883,14.7202,7.62929,7.56489,-9.70365,-11.9981,2.014,0.257678,-0.0529528,90,90,88,88,85,10,89,100,100,95,91,11
-2.48897,8.3979,-0.0997852,-0.343482,-14.0366,27.5087,-13.4766,0.0997852,-0.0997852,-0.343482,-13.9335,27.5087,-13.5797,0.0997852,1.95137,13.6611,2.28524,6.42465,2.34841,-1.93285,-7.61733,3.66878,14.7204,7.62907,7.56492,-9.7037,-11.9979,2.01387,0.257611,-0.0529648,90,90,88,88,85,10,89,100,100,95,91,11
-2.48905,8.39774,-0.0998078,-0.343392,-14.0366,27.5087,-13.4766,0.0998078,-0.0998078,-0.343392,-13.9335,27.5087,-13.5797,0.0998078,1.95176,13.6611,2.28512,6.42453,2.34857,-1.93253,-7.61732,3.66872,14.7207,7.62884,7.56494,-9.70373,-11.9977,2.01375,0.257544,-0.0529768,90,90,88,88,85,10,89,100,100,95,91,11
-2.48914,8.39757,-0.0998302,-0.3433,-14.0366,27.5087,-13.4766,0.0998302,-0.0998302,-0.3433,-13.9336,27.5087,-13.5796,0.0998302,1.95216,13.6612,2.285,6.42443,2.34873,-1.93221,-7.61731,3.66866,14.7209,7.62859,7.56496,-9.70373,-11.9975,2.01363,0.257475,-0.0529888,90,90,88,88,85,10,89,100,100,95,91,11
-2.48923,8.39741,-0.0998525,-0.343208,-14.0365,27.5087,-13.4766,0.0998525,-0.0998525,-0.343208,-13.9336,27.5087,-13.5796,0.0998525,1.95255,13.6612,2.28487,6.42433,2.3489,-1.9319,-7.61729,3.66859,14.7212,7.62835,7.56498,-9.70371,-11.9973,2.01352,0.257406,-0.0530006,90,90,88,88,85,10,89,100,100,95,91,11
-2.48933,8.39724,-0.0998744,-0.343115,-14.0365,27.5087,-13.4766,0.0998744,-0.0998744,-0.343115,-13.9336,27.5087,-13.5796,0.0998744,1.95294,13.6612,2.28473,6.42425,2.34905,-1.93158,-7.61728,3.66852,14.7214,7.6281,7.56499,-9.70367,-11.9971,2.01341,0.257337,-0.0530122,90,90,88,88,85,10,89,100,100,95,91,11
-2.48943,8.39707,-0.0998959,-0.343022,-14.0365,27.5087,-13.4766,0.0998959,-0.0998959,-0.343022,-13.9336,27.5087,-13.5796,0.0998959,1.95333,13.6612,2.2846,6.42418,2.3492,-1.93127,-7.61726,3.66843,14.7217,7.62785,7.565,-9.70361,-11.9969,2.0133,0.257266,-0.0530237,90,90,88,88,85,10,89,100,100,95,91,11
-2.48954,8.3969,-0.099917,-0.342927,-14.0365,27.5087,-13.4766,0.099917,-0.099917,-0.342927,-13.9337,27.5087,-13.5795,0.099917,1.9537,13.6612,2.28445,6.42413,2.34933,-1.93096,-7.61724,3.66834,14.7219,7.6276,7.56501,-9.70353,-11.9968,2.0132,0.257195,-0.0530349,90,90,88,88,85,10,89,100,100,95,91,11
-2.48965,8.39673,-0.0999377,-0.342832,-14.0358,27.5082,-13.4765,0.0999377,-0.0999377,-0.342832,-13.933,27.5082,-13.5793,0.0999377,1.95408,13.6613,2.28431,6.42408,2.34945,-1.93065,-7.61722,3.66824,14.7222,7.62736,7.56501,-9.70344,-11.9966,2.01311,0.257124,-0.0530459,90,90,88,88,85,10,89,100,100,95,91,11
-2.48977,8.39655,-0.0999577,-0.342736,-14.0358,27.5082,-13.4765,0.0999577,-0.0999577,-0.342736,-13.933,27.5082,-13.5793,0.0999577,1.95443,13.6613,2.28416,6.42406,2.34954,-1.93035,-7.61719,3.66811,14.7224,7.62713,7.565,-9.70333,-11.9964,2.01302,0.257052,-0.0530565,90,90,88,88,85,10,89,100,100,95,91,11
-2.48988,8.39638,-0.099977,-0.342639,-14.0358,27.5082,-13.4765,0.099977,-0.099977,-0.342639,-13.933,27.5082,-13.5793,0.099977,1.95478,13.6614,2.28402,6.42405,2.34961,-1.93006,-7.61715,3.66798,14.7227,7.62692,7.56499,-9.7032,-11.9963,2.01294,0.256979,-0.0530668,90,90,88,88,85,10,89,100,100,95,91,11
-2.49,8.39621,-0.0999958,-0.342541,-14.0358,27.5082,-13.4765,0.0999958,-0.0999958,-0.342541,-13.933,27.5082,-13.5793,0.0999958,1.95512,13.6614,2.28387,6.42405,2.34965,-1.92977,-7.61711,3.66783,14.7229,7.62671,7.56498,-9.70306,-11.9961,2.01287,0.256906,-0.0530767,90,90,88,88,85,10,89,100,100,95,91,11
-2.49012,8.39604,-0.100014,-0.342444,-14.0358,27.5082,-13.4765,0.100014,-0.100014,-0.342444,-13.9331,27.5082,-13.5793,0.100014,1.95545,13.6614,2.28372,6.42406,2.34968,-1.92949,-7.61707,3.66767,14.7232,7.62651,7.56496,-9.70291,-11.996,2.0128,0.256833,-0.0530865,90,90,88,88,85,10,89,100,100,95,91,11
-2.49025,8.39586,-0.100032,-0.342347,-14.0358,27.5082,-13.4765,0.100032,-0.100032,-0.342347,-13.9331,27.5082,-13.5792,0.100032,1.95577,13.6615,2.28358,6.42408,2.3497,-1.92921,-7.61702,3.66751,14.7234,7.62631,7.56494,-9.70274,-11.9958,2.01273,0.25676,-0.0530959,90,90,88,88,85,10,89,100,100,95,91,11
-2.49038,8.39568,-0.100049,-0.34225,-14.0358,27.5082,-13.4765,0.100049,-0.100049,-0.34225,-13.9331,27.5082,-13.5792,0.100049,1.95609,13.6615,2.28344,6.42411,2.34971,-1.92894,-7.61696,3.66734,14.7236,7.62611,7.56491,-9.70256,-11.9957,2.01267,0.256687,-0.0531052,90,90,88,88,85,10,89,100,100,95,91,11
-2.49051,8.39549,-0.100066,-0.342153,-14.037,27.5091,-13.4768,0.100066,-0.100066,-0.342153,-13.9343,27.5091,-13.5795,0.100066,1.9564,13.6616,2.28329,6.42414,2.34971,-1.92867,-7.6169,3.66716,14.7239,7.62592,7.56489,-9.70237,-11.9956,2.01261,0.256615,-0.0531143,90,90,88,88,85,10,89,100,100,95,91,11
-2.49065,8.3953,-0.100084,-0.342058,-14.037,27.5091,-13.4768,0.100084,-0.100084,-0.342058,-13.9344,27.5091,-13.5794,0.100084,1.95671,13.6616,2.28316,6.42417,2.34972,-1.9284,-7.61684,3.667,14.7241,7.6257,7.56486,-9.70215,-11.9954,2.01255,0.256543,-0.0531234,90,90,88,88,85,10,89,100,100,95,91,11
-2.49079,8.3951,-0.100101,-0.341963,-14.037,27.5091,-13.4768,0.100101,-0.100101,-0.341963,-13.9344,27.5091,-13.5794,0.100101,1.95701,13.6617,2.28302,6.4242,2.34973,-1.92813,-7.61678,3.66683,14.7243,7.62547,7.56483,-9.70191,-11.9953,2.0125,0.256472,-0.0531324,90,90,88,88,85,10,89,100,100,95,91,11
-2.49093,8.3949,-0.100117,-0.34187,-14.037,27.5091,-13.4768,0.100117,-0.100117,-0.34187,-13.9344,27.5091,-13.5794,0.100117,1.95732,13.6617,2.28289,6.42424,2.34974,-1.92787,-7.61671,3.66667,14.7245,7.62523,7.5648,-9.70166,-11.9952,2.01244,0.256402,-0.0531413,90,90,88,88,85,10,89,100,100,95,91,11
-2.49108,8.39469,-0.100133,-0.341777,-14.0369,27.5091,-13.4768,0.100133,-0.100133,-0.341777,-13.9344,27.5091,-13.5794,0.100133,1.95761,13.6618,2.28276,6.42428,2.34973,-1.92761,-7.61665,3.6665,14.7248,7.62501,7.56476,-9.70141,-11.9951,2.01239,0.256333,-0.0531499,90,90,88,88,85,10,89,100,100,95,91,11
-2.49122,8.39448,-0.100149,-0.341686,-14.0369,27.5091,-13.4769,0.100149,-0.100149,-0.341686,-13.9344,27.5091,-13.5794,0.100149,1.95789,13.6618,2.28263,6.42433,2.34971,-1.92737,-7.61658,3.66632,14.725,7.62481,7.56473,-9.70116,-11.9949,2.01235,0.256264,-0.0531581,90,90,88,88,85,10,89,100,100,95,91,11
-2.49137,8.39427,-0.100164,-0.341595,-14.0369,27.5091,-13.4769,0.100164,-0.100164,-0.341595,-13.9345,27.5091,-13.5793,0.100164,1.95816,13.6619,2.2825,6.42439,2.34967,-1.92713,-7.61651,3.66613,14.7252,7.62463,7.56469,-9.70092,-11.9948,2.01231,0.256197,-0.0531659,90,90,88,88,85,10,89,100,100,95,91,11
-2.49152,8.39406,-0.100177,-0.341506,-14.0362,27.5086,-13.4767,0.100177,-0.100177,-0.341506,-13.9338,27.5086,-13.5792,0.100177,1.95841,13.6619,2.28237,6.42446,2.34961,-1.9269,-7.61644,3.66594,14.7254,7.62448,7.56465,-9.70071,-11.9947,2.01227,0.256129,-0.0531733,90,90,88,88,85,10,89,100,100,95,91,11
-2.49167,8.39386,-0.10019,-0.341417,-14.0362,27.5086,-13.4767,0.10019,-0.10019,-0.341417,-13.9338,27.5086,-13.5792,0.10019,1.95864,13.662,2.28224,6.42454,2.34951,-1.92669,-7.61638,3.66572,14.7256,7.62438,7.56462,-9.70052,-11.9946,2.01224,0.256063,-0.0531801,90,90,88,88,85,10,89,100,100,95,91,11
-2.49181,8.39365,-0.100202,-0.34133,-14.0362,27.5086,-13.4768,0.100202,-0.100202,-0.34133,-13.9338,27.5086,-13.5792,0.100202,1.95885,13.662,2.2821,6.42464,2.34938,-1.9265,-7.61631,3.6655,14.7258,7.62433,7.56458,-9.70037,-11.9946,2.01222,0.255997,-0.0531865,90,90,88,88,85,10,89,100,100,95,91,11
-2.49195,8.39345,-0.100213,-0.341243,-14.0362,27.5086,-13.4768,0.100213,-0.100213,-0.341243,-13.9338,27.5086,-13.5791,0.100213,1.95904,13.6621,2.28196,6.42476,2.34922,-1.92631,-7.61625,3.66525,14.726,7.62432,7.56455,-9.70025,-11.9945,2.0122,0.255932,-0.0531923,90,90,88,88,85,10,89,100,100,95,91,11
-2.4921,8.39325,-0.100223,-0.341157,-14.0362,27.5086,-13.4768,0.100223,-0.100223,-0.341157,-13.9338,27.5086,-13.5791,0.100223,1.95921,13.6622,2.28182,6.42488,2.34903,-1.92614,-7.6162,3.665,14.7261,7.62434,7.56451,-9.70015,-11.9945,2.01218,0.255868,-0.0531975,90,90,88,88,85,10,89,100,100,95,91,11
-2.49224,8.39305,-0.100232,-0.341073,-14.0362,27.5086,-13.4768,0.100232,-0.100232,-0.341073,-13.9338,27.5086,-13.5791,0.100232,1.95937,13.6623,2.28168,6.42501,2.34881,-1.92598,-7.61614,3.66474,14.7263,7.62439,7.56447,-9.70006,-11.9944,2.01217,0.255805,-0.0532023,90,90,88,88,85,10,89,100,100,95,91,11
-2.49238,8.39285,-0.10024,-0.340991,-14.0362,27.5086,-13.4768,0.10024,-0.10024,-0.340991,-13.9339,27.5086,-13.5791,0.10024,1.95951,13.6624,2.28154,6.42515,2.34857,-1.92583,-7.61608,3.66446,14.7265,7.62448,7.56444,-9.69999,-11.9944,2.01217,0.255743,-0.0532065,90,90,88,88,85,10,89,100,100,95,91,11
-2.49253,8.39264,-0.100247,-0.34091,-14.038,27.5099,-13.4772,0.100247,-0.100247,-0.34091,-13.9357,27.5099,-13.5795,0.100247,1.95964,13.6625,2.28141,6.42531,2.34831,-1.92569,-7.61602,3.66419,14.7267,7.62458,7.5644,-9.69993,-11.9944,2.01216,0.255682,-0.0532102,90,90,88,88,85,10,89,100,100,95,91,11
-2.49268,8.39243,-0.100253,-0.340831,-14.038,27.5099,-13.4773,0.100253,-0.100253,-0.340831,-13.9357,27.5099,-13.5795,0.100253,1.95975,13.6626,2.28128,6.42546,2.34802,-1.92556,-7.61597,3.66391,14.7268,7.62469,7.56436,-9.69987,-11.9944,2.01217,0.255623,-0.0532132,90,90,88,88,85,10,89,100,100,95,91,11
-2.49283,8.39222,-0.100257,-0.340753,-14.038,27.5099,-13.4773,0.100257,-0.100257,-0.340753,-13.9357,27.5099,-13.5795,0.100257,1.95986,13.6627,2.28116,6.42563,2.34772,-1.92543,-7.61591,3.66362,14.727,7.62481,7.56431,-9.69981,-11.9944,2.01217,0.255565,-0.0532157,90,90,88,88,85,10,89,100,100,95,91,11
-2.49298,8.392,-0.100261,-0.340678,-14.0379,27.5099,-13.4773,0.100261,-0.100261,-0.340678,-13.9357,27.5099,-13.5795,0.100261,1.95995,13.6628,2.28104,6.4258,2.3474,-1.92531,-7.61586,3.66334,14.7271,7.62495,7.56427,-9.69976,-11.9944,2.01218,0.255508,-0.0532178,90,90,88,88,85,10,89,100,100,95,91,11
-2.49313,8.39178,-0.100265,-0.340604,-14.0379,27.5099,-13.4773,0.100265,-0.100265,-0.340604,-13.9357,27.5099,-13.5795,0.100265,1.96003,13.6629,2.28092,6.42597,2.34707,-1.9252,-7.6158,3.66305,14.7273,7.62511,7.56423,-9.69972,-11.9944,2.01219,0.255453,-0.0532197,90,90,88,88,85,10,89,100,100,95,91,11
-2.49329,8.39156,-0.100268,-0.340531,-14.0379,27.5099,-13.4773,0.100268,-0.100268,-0.340531,-13.9357,27.5099,-13.5795,0.100268,1.9601,13.663,2.2808,6.42614,2.34674,-1.9251,-7.61575,3.66276,14.7274,7.62528,7.56418,-9.6997,-11.9944,2.0122,0.255398,-0.0532214,90,90,88,88,85,10,89,100,100,95,91,11
-2.49344,8.39133,-0.100271,-0.340459,-14.0379,27.5099,-13.4774,0.100271,-0.100271,-0.340459,-13.9357,27.5099,-13.5795,0.100271,1.96017,13.6631,2.28068,6.42632,2.3464,-1.925,-7.61571,3.66247,14.7275,7.62548,7.56415,-9.6997,-11.9944,2.01222,0.255344,-0.0532231,90,90,88,88,85,10,89,100,100,95,91,11
-2.4936,8.39111,-0.100275,-0.340388,-14.0382,27.5102,-13.4775,0.100275,-0.100275,-0.340388,-13.9361,27.5102,-13.5796,0.100275,1.96023,13.6632,2.28055,6.42649,2.34607,-1.92492,-7.61566,3.66217,14.7277,7.6257,7.56411,-9.69973,-11.9945,2.01223,0.255291,-0.0532249,90,90,88,88,85,10,89,100,100,95,91,11
-2.49375,8.39088,-0.100278,-0.340318,-14.0382,27.5102,-13.4775,0.100278,-0.100278,-0.340318,-13.9361,27.5102,-13.5796,0.100278,1.96028,13.6633,2.28041,6.42667,2.34575,-1.92484,-7.61562,3.66187,14.7278,7.62595,7.56409,-9.69979,-11.9945,2.01225,0.255238,-0.0532269,90,90,88,88,85,10,89,100,100,95,91,11
-2.49391,8.39066,-0.100283,-0.340248,-14.0382,27.5102,-13.4775,0.100283,-0.100283,-0.340248,-13.9361,27.5102,-13.5796,0.100283,1.96033,13.6634,2.28026,6.42685,2.34543,-1.92477,-7.61558,3.66157,14.7279,7.62623,7.56407,-9.69989,-11.9946,2.01226,0.255186,-0.0532292,90,90,88,88,85,10,89,100,100,95,91,11
-2.49406,8.39043,-0.100288,-0.340178,-14.0382,27.5102,-13.4775,0.100288,-0.100288,-0.340178,-13.9361,27.5102,-13.5796,0.100288,1.96038,13.6634,2.2801,6.42702,2.34513,-1.92472,-7.61555,3.66127,14.7281,7.62653,7.56405,-9.70003,-11.9946,2.01227,0.255134,-0.0532318,90,90,88,88,85,10,89,100,100,95,91,11
-2.49422,8.39021,-0.100293,-0.340109,-14.0381,27.5102,-13.4775,0.100293,-0.100293,-0.340109,-13.9361,27.5102,-13.5796,0.100293,1.96042,13.6635,2.27993,6.42719,2.34484,-1.92466,-7.61552,3.66097,14.7282,7.62685,7.56405,-9.7002,-11.9947,2.01229,0.255082,-0.0532348,90,90,88,88,85,10,89,100,100,95,91,11
-2.49437,8.38999,-0.1003,-0.340042,-14.0381,27.5102,-13.4776,0.1003,-0.1003,-0.340042,-13.9361,27.5102,-13.5796,0.1003,1.96046,13.6636,2.27975,6.42736,2.34456,-1.92462,-7.6155,3.66066,14.7284,7.6272,7.56404,-9.7004,-11.9947,2.0123,0.255031,-0.0532381,90,90,88,88,85,10,89,100,100,95,91,11
-2.49452,8.38977,-0.100307,-0.339975,-14.0381,27.5102,-13.4776,0.100307,-0.100307,-0.339975,-13.9361,27.5102,-13.5796,0.100307,1.96049,13.6637,2.27957,6.42752,2.34431,-1.92458,-7.61548,3.66036,14.7285,7.62756,7.56404,-9.70063,-11.9948,2.01232,0.254981,-0.053242,90,90,88,88,85,10,89,100,100,95,91,11
-2.49467,8.38955,-0.100315,-0.339909,-14.0392,27.511,-13.4778,0.100315,-0.100315,-0.339909,-13.9372,27.511,-13.5798,0.100315,1.96052,13.6637,2.27938,6.42767,2.34407,-1.92455,-7.61547,3.66006,14.7286,7.62795,7.56404,-9.70089,-11.9948,2.01234,0.254932,-0.0532462,90,90,88,88,85,10,89,100,100,95,91,11
-2.49481,8.38934,-0.100324,-0.339845,-14.0392,27.511,-13.4779,0.100324,-0.100324,-0.339845,-13.9372,27.511,-13.5798,0.100324,1.96054,13.6638,2.27918,6.42782,2.34384,-1.92452,-7.61546,3.65977,14.7288,7.62835,7.56404,-9.70117,-11.9949,2.01236,0.254884,-0.053251,90,90,88,88,85,10,89,100,100,95,91,11
-2.49495,8.38914,-0.100334,-0.339781,-14.0392,27.511,-13.4779,0.100334,-0.100334,-0.339781,-13.9372,27.511,-13.5798,0.100334,1.96056,13.6638,2.27898,6.42795,2.34364,-1.92449,-7.61545,3.65947,14.7289,7.62876,7.56404,-9.70149,-11.995,2.01239,0.254836,-0.0532564,90,90,88,88,85,10,89,100,100,95,91,11
-2.49509,8.38894,-0.100345,-0.339719,-14.0391,27.511,-13.4779,0.100345,-0.100345,-0.339719,-13.9372,27.511,-13.5798,0.100345,1.96058,13.6638,2.27878,6.42808,2.34346,-1.92447,-7.61544,3.65918,14.7291,7.62918,7.56405,-9.70182,-11.995,2.01241,0.254789,-0.0532622,90,90,88,88,85,10,89,100,100,95,91,11
-2.49522,8.38875,-0.100357,-0.339658,-14.0391,27.511,-13.4779,0.100357,-0.100357,-0.339658,-13.9372,27.511,-13.5798,0.100357,1.9606,13.6638,2.27857,6.4282,2.3433,-1.92445,-7.61545,3.65889,14.7292,7.62961,7.56405,-9.70218,-11.9951,2.01244,0.254743,-0.0532686,90,90,88,88,85,10,89,100,100,95,91,11
-2.49535,8.38855,-0.10037,-0.339598,-14.0391,27.511,-13.4779,0.10037,-0.10037,-0.339598,-13.9372,27.511,-13.5798,0.10037,1.96061,13.6639,2.27836,6.42831,2.34316,-1.92443,-7.61545,3.6586,14.7294,7.63005,7.56406,-9.70256,-11.9951,2.01247,0.254699,-0.0532754,90,90,88,88,85,10,89,100,100,95,91,11
-2.49548,8.38836,-0.100383,-0.33954,-14.0391,27.511,-13.478,0.100383,-0.100383,-0.33954,-13.9372,27.511,-13.5798,0.100383,1.96062,13.6639,2.27815,6.4284,2.34305,-1.92441,-7.61546,3.65832,14.7295,7.6305,7.56407,-9.70296,-11.9952,2.01249,0.254655,-0.0532826,90,90,88,88,85,10,89,100,100,95,91,11
-2.49561,8.38818,-0.100398,-0.339483,-14.0391,27.511,-13.478,0.100398,-0.100398,-0.339483,-13.9372,27.511,-13.5798,0.100398,1.96063,13.6639,2.27794,6.42849,2.34295,-1.9244,-7.61547,3.65805,14.7297,7.63095,7.56408,-9.70338,-11.9952,2.01252,0.254612,-0.0532902,90,90,88,88,85,10,89,100,100,95,91,11
-2.49574,8.38798,-0.100412,-0.339429,-14.0391,27.511,-13.478,0.100412,-0.100412,-0.339429,-13.9372,27.511,-13.5798,0.100412,1.96063,13.6639,2.27773,6.42857,2.34289,-1.92439,-7.61549,3.65778,14.7298,7.63141,7.56409,-9.70381,-11.9953,2.01255,0.254571,-0.0532981,90,90,88,88,85,10,89,100,100,95,91,11
-2.49586,8.38778,-0.100428,-0.339376,-14.039,27.511,-13.478,0.100428,-0.100428,-0.339376,-13.9372,27.511,-13.5798,0.100428,1.96063,13.6639,2.27752,6.42864,2.34284,-1.92439,-7.61551,3.65751,14.73,7.63187,7.5641,-9.70426,-11.9953,2.01257,0.254532,-0.0533063,90,90,88,88,85,10,89,100,100,95,91,11
-2.49598,8.38759,-0.100444,-0.339325,-14.039,27.511,-13.478,0.100444,-0.100444,-0.339325,-13.9372,27.511,-13.5798,0.100444,1.96063,13.6639,2.2773,6.4287,2.34282,-1.92438,-7.61553,3.65725,14.7302,7.63233,7.56412,-9.70471,-11.9953,2.01259,0.254493,-0.0533148,90,90,88,88,85,10,89,100,100,95,91,11
-2.4961,8.3874,-0.100461,-0.339274,-14.039,27.511,-13.4781,0.100461,-0.100461,-0.339274,-13.9372,27.511,-13.5798,0.100461,1.96063,13.6638,2.2771,6.42875,2.34282,-1.92438,-7.61556,3.657,14.7303,7.63278,7.56413,-9.70517,-11.9953,2.01262,0.254455,-0.0533237,90,90,88,88,85,10,89,100,100,95,91,11
-2.49621,8.38723,-0.100478,-0.339223,-14.039,27.511,-13.4781,0.100478,-0.100478,-0.339223,-13.9372,27.511,-13.5798,0.100478,1.96063,13.6638,2.2769,6.42878,2.34284,-1.92437,-7.61559,3.65674,14.7305,7.63323,7.56415,-9.70563,-11.9953,2.01264,0.254417,-0.053333,90,90,88,88,85,10,89,100,100,95,91,11
-2.49631,8.38706,-0.100496,-0.339172,-14.039,27.511,-13.4781,0.100496,-0.100496,-0.339172,-13.9372,27.511,-13.5798,0.100496,1.96063,13.6638,2.27672,6.4288,2.34288,-1.92436,-7.61563,3.65649,14.7306,7.63366,7.56418,-9.70608,-11.9953,2.01267,0.254379,-0.0533427,90,90,88,88,85,10,89,100,100,95,91,11
-2.49641,8.38692,-0.100515,-0.33912,-14.0395,27.5114,-13.4782,0.100515,-0.100515,-0.33912,-13.9377,27.5114,-13.58,0.100515,1.96065,13.6637,2.27654,6.4288,2.34294,-1.92435,-7.61567,3.65625,14.7308,7.63408,7.56421,-9.70652,-11.9953,2.01269,0.25434,-0.0533527,90,90,88,88,85,10,89,100,100,95,91,11
-2.49649,8.38681,-0.100535,-0.339066,-14.0395,27.5114,-13.4782,0.100535,-0.100535,-0.339066,-13.9377,27.5114,-13.58,0.100535,1.96067,13.6636,2.27638,6.42879,2.34302,-1.92433,-7.61571,3.656,14.7309,7.63448,7.56424,-9.70696,-11.9953,2.01272,0.2543,-0.0533634,90,90,88,88,85,10,89,100,100,95,91,11
-2.49657,8.38672,-0.100556,-0.33901,-14.0394,27.5114,-13.4783,0.100556,-0.100556,-0.33901,-13.9377,27.5114,-13.58,0.100556,1.96069,13.6636,2.27623,6.42876,2.34312,-1.9243,-7.61576,3.65575,14.731,7.63487,7.56428,-9.70738,-11.9952,2.01274,0.254258,-0.0533746,90,90,88,88,85,10,89,100,100,95,91,11
-2.49664,8.38665,-0.100578,-0.338953,-14.0394,27.5114,-13.4783,0.100578,-0.100578,-0.338953,-13.9377,27.5114,-13.58,0.100578,1.96073,13.6635,2.27611,6.42872,2.34324,-1.92427,-7.61582,3.6555,14.7312,7.63524,7.56432,-9.70778,-11.9951,2.01277,0.254215,-0.0533861,90,90,88,88,85,10,89,100,100,95,91,11
-2.49669,8.3866,-0.1006,-0.338895,-14.0394,27.5114,-13.4783,0.1006,-0.1006,-0.338895,-13.9377,27.5114,-13.58,0.1006,1.96078,13.6634,2.27599,6.42865,2.34337,-1.92424,-7.61587,3.65525,14.7313,7.63558,7.56437,-9.70816,-11.9951,2.01281,0.254171,-0.0533978,90,90,88,88,85,10,89,100,100,95,91,11
-2.49674,8.38657,-0.100622,-0.338836,-14.0394,27.5114,-13.4783,0.100622,-0.100622,-0.338836,-13.9377,27.5114,-13.58,0.100622,1.96083,13.6632,2.2759,6.42858,2.3435,-1.9242,-7.61594,3.65501,14.7314,7.63589,7.56441,-9.70852,-11.995,2.01284,0.254127,-0.0534096,90,90,88,88,85,10,89,100,100,95,91,11
-2.49679,8.38656,-0.100645,-0.338775,-14.0394,27.5114,-13.4783,0.100645,-0.100645,-0.338775,-13.9377,27.5114,-13.58,0.100645,1.96089,13.6631,2.27583,6.42849,2.34364,-1.92416,-7.616,3.65477,14.7315,7.63618,7.56446,-9.70884,-11.9949,2.01288,0.254082,-0.0534214,90,90,88,88,85,10,89,100,100,95,91,11
-2.49683,8.38656,-0.100667,-0.338715,-14.0402,27.512,-13.4785,0.100667,-0.100667,-0.338715,-13.9386,27.512,-13.5801,0.100667,1.96096,13.663,2.27578,6.42839,2.34378,-1.92412,-7.61607,3.65453,14.7316,7.63645,7.56451,-9.70913,-11.9947,2.01292,0.254036,-0.0534332,90,90,88,88,85,10,89,100,100,95,91,11
-2.49686,8.38657,-0.100688,-0.338654,-14.0402,27.512,-13.4785,0.100688,-0.100688,-0.338654,-13.9386,27.512,-13.5801,0.100688,1.96104,13.6628,2.27575,6.42827,2.34391,-1.92408,-7.61614,3.65431,14.7317,7.63667,7.56456,-9.70937,-11.9946,2.01297,0.25399,-0.0534445,90,90,88,88,85,10,89,100,100,95,91,11
-2.49689,8.38658,-0.100709,-0.338593,-14.0402,27.512,-13.4785,0.100709,-0.100709,-0.338593,-13.9386,27.512,-13.5801,0.100709,1.96112,13.6627,2.27575,6.42813,2.34403,-1.92404,-7.61622,3.65409,14.7318,7.63686,7.56461,-9.70957,-11.9945,2.01302,0.253945,-0.0534555,90,90,88,88,85,10,89,100,100,95,91,11
-2.49692,8.3866,-0.100729,-0.338532,-14.0401,27.512,-13.4786,0.100729,-0.100729,-0.338532,-13.9386,27.512,-13.5801,0.100729,1.96122,13.6626,2.27576,6.42799,2.34414,-1.92399,-7.6163,3.65388,14.7319,7.63702,7.56465,-9.70973,-11.9943,2.01307,0.253899,-0.0534663,90,90,88,88,85,10,89,100,100,95,91,11
-2.49695,8.38664,-0.100749,-0.338471,-14.0401,27.512,-13.4786,0.100749,-0.100749,-0.338471,-13.9386,27.512,-13.5801,0.100749,1.96132,13.6624,2.2758,6.42784,2.34425,-1.92395,-7.61638,3.65367,14.7319,7.63716,7.56469,-9.70986,-11.9942,2.01313,0.253853,-0.0534768,90,90,88,88,85,10,89,100,100,95,91,11
-2.49696,8.38668,-0.100768,-0.33841,-14.0401,27.512,-13.4786,0.100768,-0.100768,-0.33841,-13.9386,27.512,-13.5801,0.100768,1.96142,13.6622,2.27585,6.42768,2.34436,-1.9239,-7.61646,3.65347,14.732,7.63727,7.56474,-9.70996,-11.994,2.01319,0.253808,-0.0534871,90,90,88,88,85,10,89,100,100,95,91,11
-2.49697,8.38674,-0.100787,-0.33835,-14.0401,27.512,-13.4786,0.100787,-0.100787,-0.33835,-13.9386,27.512,-13.5801,0.100787,1.96153,13.6621,2.27591,6.42751,2.34446,-1.92386,-7.61655,3.65328,14.732,7.63736,7.56478,-9.71004,-11.9939,2.01325,0.253762,-0.0534972,90,90,88,88,85,10,89,100,100,95,91,11
-2.49698,8.38681,-0.100806,-0.338289,-14.0401,27.512,-13.4786,0.100806,-0.100806,-0.338289,-13.9386,27.512,-13.5801,0.100806,1.96164,13.6619,2.27598,6.42734,2.34457,-1.92381,-7.61663,3.65309,14.7321,7.63744,7.56482,-9.71009,-11.9937,2.01331,0.253717,-0.0535071,90,90,88,88,85,10,89,100,100,95,91,11
-2.49698,8.38691,-0.100825,-0.338229,-14.0401,27.512,-13.4786,0.100825,-0.100825,-0.338229,-13.9386,27.512,-13.5801,0.100825,1.96175,13.6618,2.27606,6.42717,2.34468,-1.92376,-7.61672,3.6529,14.7321,7.63751,7.56487,-9.71015,-11.9935,2.01338,0.253671,-0.0535172,90,90,88,88,85,10,89,100,100,95,91,11
-2.49697,8.38702,-0.100844,-0.338168,-14.0401,27.512,-13.4786,0.100844,-0.100844,-0.338168,-13.9386,27.512,-13.5801,0.100844,1.96187,13.6616,2.27613,6.427,2.3448,-1.92371,-7.6168,3.65271,14.7321,7.63757,7.56491,-9.7102,-11.9934,2.01344,0.253626,-0.0535272,90,90,88,88,85,10,89,100,100,95,91,11
-2.49695,8.38714,-0.100862,-0.338108,-14.0401,27.512,-13.4786,0.100862,-0.100862,-0.338108,-13.9386,27.512,-13.5801,0.100862,1.96198,13.6614,2.27622,6.42683,2.34492,-1.92366,-7.61689,3.65252,14.7322,7.63761,7.56496,-9.71024,-11.9932,2.01351,0.253581,-0.0535371,90,90,88,88,85,10,89,100,100,95,91,11
-2.49692,8.38728,-0.10088,-0.338049,-14.04,27.512,-13.4787,0.10088,-0.10088,-0.338049,-13.9386,27.512,-13.5801,0.10088,1.9621,13.6613,2.27631,6.42665,2.34504,-1.92361,-7.61697,3.65234,14.7322,7.63765,7.565,-9.71025,-11.993,2.01357,0.253537,-0.0535467,90,90,88,88,85,10,89,100,100,95,91,11
-2.49689,8.38743,-0.100898,-0.337991,-14.04,27.512,-13.4787,0.100898,-0.100898,-0.337991,-13.9386,27.512,-13.5801,0.100898,1.96221,13.6611,2.27642,6.42647,2.34514,-1.92356,-7.61706,3.65217,14.7322,7.63766,7.56505,-9.71024,-11.9928,2.01364,0.253494,-0.0535559,90,90,88,88,85,10,89,100,100,95,91,11
-2.49686,8.38758,-0.100914,-0.337935,-14.04,27.512,-13.4787,0.100914,-0.100914,-0.337935,-13.9386,27.512,-13.5801,0.100914,1.96234,13.6609,2.27653,6.42629,2.34524,-1.92352,-7.61715,3.65201,14.7322,7.63766,7.56508,-9.71021,-11.9926,2.01371,0.253451,-0.0535646,90,90,88,88,85,10,89,100,100,95,91,11
-2.49682,8.38774,-0.100929,-0.337879,-14.0412,27.5129,-13.4789,0.100929,-0.100929,-0.337879,-13.9398,27.5129,-13.5803,0.100929,1.96246,13.6608,2.27666,6.4261,2.34531,-1.92347,-7.61723,3.65185,14.7322,7.63764,7.56512,-9.71015,-11.9925,2.01378,0.253409,-0.0535728,90,90,88,88,84,10,89,100,100,95,91,11
-2.49678,8.38791,-0.100943,-0.337826,-14.0412,27.5129,-13.4789,0.100943,-0.100943,-0.337826,-13.9398,27.5129,-13.5803,0.100943,1.96258,13.6606,2.2768,6.4259,2.34537,-1.92343,-7.61732,3.65171,14.7322,7.63759,7.56515,-9.71004,-11.9923,2.01385,0.253369,-0.0535803,90,90,88,88,84,10,89,100,100,95,91,11
-2.49674,8.38807,-0.100956,-0.337774,-14.0412,27.5129,-13.4789,0.100956,-0.100956,-0.337774,-13.9398,27.5129,-13.5803,0.100956,1.96271,13.6605,2.27696,6.42569,2.3454,-1.92339,-7.61741,3.65158,14.7322,7.63752,7.56518,-9.7099,-11.9921,2.01392,0.253331,-0.053587,90,90,88,88,84,10,89,100,100,95,91,11
-2.4967,8.38824,-0.100968,-0.337725,-14.0411,27.5129,-13.479,0.100968,-0.100968,-0.337725,-13.9398,27.5129,-13.5803,0.100968,1.96284,13.6603,2.27713,6.42548,2.34542,-1.92335,-7.6175,3.65146,14.7322,7.63743,7.5652,-9.70973,-11.9919,2.014,0.253293,-0.0535931,90,90,88,88,84,10,89,100,100,95,91,11
-2.49665,8.38841,-0.100978,-0.337677,-14.0411,27.5129,-13.479,0.100978,-0.100978,-0.337677,-13.9398,27.5129,-13.5803,0.100978,1.96297,13.6602,2.27731,6.42526,2.3454,-1.92332,-7.61759,3.65135,14.7322,7.63732,7.56521,-9.70952,-11.9918,2.01408,0.253258,-0.0535985,90,90,88,88,84,10,89,100,100,95,91,11
-2.49661,8.38859,-0.100987,-0.337632,-14.0411,27.5129,-13.479,0.100987,-0.100987,-0.337632,-13.9398,27.5129,-13.5803,0.100987,1.9631,13.6601,2.27751,6.42504,2.34536,-1.92329,-7.61768,3.65126,14.7321,7.63719,7.56522,-9.70928,-11.9916,2.01416,0.253224,-0.0536032,90,90,88,88,84,10,89,100,100,95,91,11
-2.49655,8.38878,-0.100994,-0.337589,-14.0411,27.5129,-13.479,0.100994,-0.100994,-0.337589,-13.9399,27.5129,-13.5802,0.100994,1.96323,13.6599,2.27772,6.42481,2.34529,-1.92327,-7.61776,3.65118,14.7321,7.63704,7.56522,-9.709,-11.9914,2.01425,0.253192,-0.0536073,90,90,88,88,84,10,89,100,100,95,91,11
-2.4965,8.38898,-0.101001,-0.337548,-14.0416,27.5132,-13.4791,0.101001,-0.101001,-0.337548,-13.9403,27.5132,-13.5803,0.101001,1.96337,13.6598,2.27795,6.42458,2.34519,-1.92325,-7.61785,3.65111,14.732,7.63688,7.56522,-9.7087,-11.9913,2.01433,0.253161,-0.0536107,90,90,88,88,84,10,89,100,100,95,91,11
-2.49644,8.38919,-0.101006,-0.337509,-14.0416,27.5132,-13.4791,0.101006,-0.101006,-0.337509,-13.9403,27.5132,-13.5803,0.101006,1.9635,13.6597,2.27819,6.42434,2.34506,-1.92324,-7.61793,3.65105,14.732,7.63669,7.5652,-9.70837,-11.9911,2.01442,0.253132,-0.0536135,90,90,88,88,84,10,89,100,100,95,91,11
-2.49637,8.38941,-0.10101,-0.337473,-14.0416,27.5132,-13.4791,0.10101,-0.10101,-0.337473,-13.9403,27.5132,-13.5803,0.10101,1.96364,13.6596,2.27843,6.4241,2.34491,-1.92324,-7.618,3.65101,14.7319,7.6365,7.56518,-9.70801,-11.9909,2.01452,0.253105,-0.0536157,90,90,88,88,84,10,89,100,100,95,91,11
-2.4963,8.38965,-0.101013,-0.33744,-14.0416,27.5132,-13.4791,0.101013,-0.101013,-0.33744,-13.9404,27.5132,-13.5803,0.101013,1.96378,13.6595,2.27869,6.42386,2.34472,-1.92325,-7.61808,3.65097,14.7319,7.63629,7.56515,-9.70763,-11.9908,2.01461,0.25308,-0.0536174,90,90,88,88,84,10,89,100,100,95,91,11
-2.49623,8.3899,-0.101015,-0.337408,-14.0416,27.5132,-13.4791,0.101015,-0.101015,-0.337408,-13.9404,27.5132,-13.5803,0.101015,1.96391,13.6595,2.27896,6.42362,2.3445,-1.92326,-7.61815,3.65095,14.7318,7.63606,7.56512,-9.70723,-11.9906,2.01471,0.253056,-0.0536185,90,90,88,88,84,10,89,100,100,95,91,11
-2.49616,8.39017,-0.101017,-0.33738,-14.0416,27.5132,-13.4791,0.101017,-0.101017,-0.33738,-13.9404,27.5132,-13.5803,0.101017,1.96405,13.6594,2.27923,6.42338,2.34426,-1.92328,-7.61822,3.65095,14.7318,7.63583,7.56507,-9.70681,-11.9905,2.01481,0.253035,-0.0536192,90,90,88,88,84,10,89,100,100,95,91,11
-2.49608,8.39045,-0.101017,-0.337355,-14.0416,27.5132,-13.4791,0.101017,-0.101017,-0.337355,-13.9404,27.5132,-13.5803,0.101017,1.96418,13.6593,2.27952,6.42314,2.34398,-1.9233,-7.61828,3.65095,14.7317,7.63559,7.56502,-9.70636,-11.9904,2.01491,0.253016,-0.0536195,90,90,88,88,84,10,89,100,100,95,91,11
-2.496,8.39074,-0.101017,-0.337332,-14.0418,27.5134,-13.4791,0.101017,-0.101017,-0.337332,-13.9406,27.5134,-13.5803,0.101017,1.96431,13.6593,2.27982,6.4229,2.34367,-1.92333,-7.61834,3.65097,14.7317,7.63534,7.56497,-9.70591,-11.9902,2.01502,0.252999,-0.0536193,90,90,88,88,84,10,89,100,100,95,91,11
-2.49592,8.39106,-0.101016,-0.337313,-14.0418,27.5134,-13.4791,0.101016,-0.101016,-0.337313,-13.9406,27.5134,-13.5803,0.101016,1.96444,13.6593,2.28013,6.42267,2.34332,-1.92335,-7.6184,3.651,14.7316,7.63508,7.56491,-9.70543,-11.9901,2.01513,0.252985,-0.0536188,90,90,88,88,84,10,89,100,100,95,91,11
-2.49584,8.39139,-0.101014,-0.337297,-14.0418,27.5134,-13.4791,0.101014,-0.101014,-0.337297,-13.9406,27.5134,-13.5803,0.101014,1.96456,13.6592,2.28045,6.42244,2.34294,-1.92338,-7.61846,3.65105,14.7316,7.63482,7.56485,-9.70494,-11.9899,2.01523,0.252972,-0.0536178,90,90,88,88,84,10,89,100,100,95,91,11
-2.49576,8.39174,-0.101012,-0.337283,-14.0418,27.5134,-13.4791,0.101012,-0.101012,-0.337283,-13.9407,27.5134,-13.5803,0.101012,1.96468,13.6592,2.28077,6.42221,2.34253,-1.92341,-7.61851,3.6511,14.7315,7.63455,7.56478,-9.70444,-11.9898,2.01534,0.252962,-0.0536166,90,90,88,88,84,10,89,100,100,95,91,11
-2.49568,8.3921,-0.101009,-0.337273,-14.0418,27.5134,-13.4791,0.101009,-0.101009,-0.337273,-13.9407,27.5134,-13.5803,0.101009,1.9648,13.6592,2.28109,6.42199,2.3421,-1.92344,-7.61856,3.65117,14.7315,7.63428,7.5647,-9.70394,-11.9897,2.01545,0.252955,-0.0536152,90,90,88,88,84,10,89,100,100,95,91,11
-2.49559,8.39249,-0.101006,-0.337265,-14.0418,27.5134,-13.4791,0.101006,-0.101006,-0.337265,-13.9407,27.5134,-13.5803,0.101006,1.96491,13.6592,2.2814,6.42177,2.34167,-1.92349,-7.61861,3.65124,14.7315,7.63402,7.56462,-9.70344,-11.9895,2.01557,0.252949,-0.0536137,90,90,88,88,84,10,89,100,100,95,91,11
-2.4955,8.39288,-0.101003,-0.33726,-14.0419,27.5134,-13.4791,0.101003,-0.101003,-0.33726,-13.9407,27.5134,-13.5803,0.101003,1.96502,13.6592,2.2817,6.42156,2.34122,-1.92354,-7.61865,3.65132,14.7314,7.63377,7.56453,-9.70295,-11.9894,2.0157,0.252945,-0.0536122,90,90,88,88,84,10,89,100,100,95,91,11
-2.49541,8.3933,-0.101,-0.337258,-14.0415,27.5131,-13.479,0.101,-0.101,-0.337258,-13.9403,27.5131,-13.5802,0.101,1.96512,13.6592,2.28198,6.42135,2.34078,-1.92361,-7.61869,3.65141,14.7314,7.63352,7.56444,-9.70248,-11.9893,2.01583,0.252943,-0.0536105,90,90,88,88,84,10,89,100,100,95,91,11
-2.4953,8.39373,-0.100998,-0.337258,-14.0415,27.5131,-13.479,0.100998,-0.100998,-0.337258,-13.9403,27.5131,-13.5802,0.100998,1.96521,13.6592,2.28225,6.42114,2.34033,-1.92368,-7.61872,3.6515,14.7314,7.63328,7.56433,-9.70202,-11.9892,2.01596,0.252944,-0.0536091,90,90,88,88,84,10,89,100,100,95,91,11
-2.49519,8.39417,-0.100995,-0.337261,-14.0415,27.5131,-13.479,0.100995,-0.100995,-0.337261,-13.9403,27.5131,-13.5802,0.100995,1.96529,13.6593,2.28249,6.42094,2.33989,-1.92377,-7.61874,3.65159,14.7314,7.63306,7.56422,-9.70158,-11.9891,2.01611,0.252945,-0.0536077,90,90,88,88,84,10,89,100,100,95,91,11
-2.49508,8.39463,-0.100993,-0.337265,-14.0415,27.5131,-13.479,0.100993,-0.100993,-0.337265,-13.9403,27.5131,-13.5802,0.100993,1.96537,13.6593,2.28271,6.42075,2.33947,-1.92387,-7.61877,3.65169,14.7314,7.63285,7.5641,-9.70117,-11.989,2.01627,0.252949,-0.0536064,90,90,88,88,84,10,89,100,100,95,91,11
-2.49496,8.3951,-0.10099,-0.337272,-14.0415,27.5131,-13.479,0.10099,-0.10099,-0.337272,-13.9403,27.5131,-13.5802,0.10099,1.96544,13.6594,2.28289,6.42056,2.33906,-1.92399,-7.61878,3.6518,14.7315,7.63266,7.56398,-9.70078,-11.989,2.01643,0.252954,-0.0536051,90,90,88,88,84,10,89,100,100,95,91,11
-2.49484,8.39558,-0.100988,-0.33728,-14.0415,27.5131,-13.479,0.100988,-0.100988,-0.33728,-13.9403,27.5131,-13.5801,0.100988,1.9655,13.6594,2.28304,6.42037,2.33867,-1.92411,-7.61879,3.6519,14.7315,7.63248,7.56385,-9.70043,-11.9889,2.0166,0.25296,-0.053604,90,90,88,88,84,10,89,100,100,95,91,11
-2.49471,8.39606,-0.100986,-0.337291,-14.0415,27.5131,-13.479,0.100986,-0.100986,-0.337291,-13.9403,27.5131,-13.5801,0.100986,1.96556,13.6595,2.28315,6.42019,2.33831,-1.92424,-7.6188,3.65201,14.7316,7.63232,7.56372,-9.7001,-11.9889,2.01677,0.252968,-0.0536029,90,90,88,88,84,10,89,100,100,95,91,11
-2.49458,8.39655,-0.100984,-0.337302,-14.0409,27.5126,-13.4788,0.100984,-0.100984,-0.337302,-13.9397,27.5126,-13.58,0.100984,1.96561,13.6596,2.28322,6.42001,2.33798,-1.92439,-7.61881,3.65212,14.7316,7.63217,7.56358,-9.69981,-11.9889,2.01695,0.252977,-0.0536019,90,90,88,88,84,10,89,100,100,95,91,11
-2.49445,8.39703,-0.100982,-0.337316,-14.0409,27.5126,-13.4788,0.100982,-0.100982,-0.337316,-13.9397,27.5126,-13.58,0.100982,1.96565,13.6597,2.28324,6.41984,2.3377,-1.92455,-7.61881,3.65223,14.7317,7.63205,7.56344,-9.69956,-11.9889,2.01714,0.252987,-0.053601,90,90,88,88,84,10,89,100,100,95,91,11
-2.49431,8.39752,-0.100981,-0.337331,-14.0409,27.5126,-13.4788,0.100981,-0.100981,-0.337331,-13.9397,27.5126,-13.58,0.100981,1.96568,13.6597,2.28321,6.41967,2.33745,-1.92472,-7.61881,3.65234,14.7317,7.63195,7.56329,-9.69936,-11.9889,2.01733,0.252998,-0.0536002,90,90,88,88,84,10,89,100,100,95,91,11
-2.49418,8.39801,-0.100979,-0.337347,-14.0409,27.5126,-13.4788,0.100979,-0.100979,-0.337347,-13.9397,27.5126,-13.58,0.100979,1.96571,13.6598,2.28314,6.41951,2.33724,-1.92489,-7.61882,3.65245,14.7318,7.63188,7.56315,-9.69919,-11.989,2.01752,0.25301,-0.0535994,90,90,88,88,84,10,89,100,100,95,91,11
-2.49404,8.39849,-0.100978,-0.337364,-14.0409,27.5126,-13.4788,0.100978,-0.100978,-0.337364,-13.9397,27.5126,-13.58,0.100978,1.96574,13.6599,2.28303,6.41935,2.33705,-1.92507,-7.61881,3.65256,14.7319,7.63181,7.563,-9.69905,-11.9891,2.01772,0.253023,-0.0535986,90,90,88,88,84,10,89,100,100,95,91,11
-2.49391,8.39898,-0.100977,-0.337382,-14.041,27.5126,-13.4788,0.100977,-0.100977,-0.337382,-13.9397,27.5126,-13.58,0.100977,1.96576,13.66,2.28289,6.41919,2.3369,-1.92526,-7.61881,3.65267,14.732,7.63176,7.56286,-9.69894,-11.9891,2.01791,0.253036,-0.0535979,90,90,88,88,84,10,89,100,100,95,91,11
-2.49377,8.39946,-0.100975,-0.3374,-14.041,27.5126,-13.4788,0.100975,-0.100975,-0.3374,-13.9397,27.5126,-13.58,0.100975,1.96577,13.6601,2.28273,6.41904,2.33676,-1.92545,-7.6188,3.65277,14.732,7.63173,7.56271,-9.69885,-11.9892,2.01811,0.25305,-0.0535971,90,90,88,88,84,10,89,100,100,95,91,11
-2.49363,8.39995,-0.100974,-0.337419,-14.041,27.5126,-13.4788,0.100974,-0.100974,-0.337419,-13.9397,27.5126,-13.58,0.100974,1.96579,13.6602,2.28254,6.41889,2.33664,-1.92565,-7.6188,3.65288,14.7321,7.6317,7.56257,-9.69879,-11.9893,2.01832,0.253064,-0.0535964,90,90,88,88,84,10,89,100,100,95,91,11
-2.4935,8.40043,-0.100972,-0.337437,-14.041,27.5126,-13.4788,0.100972,-0.100972,-0.337437,-13.9397,27.5126,-13.58,0.100972,1.9658,13.6603,2.28234,6.41875,2.33653,-1.92584,-7.61879,3.65299,14.7322,7.63168,7.56243,-9.69872,-11.9894,2.01852,0.253078,-0.0535956,90,90,88,88,84,10,89,100,100,95,91,11
-2.49336,8.40092,-0.100971,-0.337456,-14.041,27.5126,-13.4787,0.100971,-0.100971,-0.337456,-13.9397,27.5126,-13.58,0.100971,1.96581,13.6604,2.28212,6.4186,2.33643,-1.92603,-7.61878,3.65309,14.7323,7.63166,7.56229,-9.69867,-11.9895,2.01872,0.253092,-0.0535948,90,90,88,88,84,10,89,100,100,95,91,11
-2.49323,8.40141,-0.100969,-0.337474,-14.041,27.5126,-13.4787,0.100969,-0.100969,-0.337474,-13.9397,27.5126,-13.58,0.100969,1.96582,13.6605,2.2819,6.41847,2.33634,-1.92622,-7.61876,3.65319,14.7324,7.63165,7.56215,-9.69863,-11.9896,2.01892,0.253106,-0.0535939,90,90,88,88,84,10,89,100,100,95,91,11
-2.49309,8.40189,-0.100968,-0.337493,-14.041,27.5126,-13.4787,0.100968,-0.100968,-0.337493,-13.9397,27.5126,-13.58,0.100968,1.96582,13.6606,2.28165,6.41833,2.33627,-1.92642,-7.61875,3.65329,14.7325,7.63164,7.56201,-9.69861,-11.9897,2.01912,0.25312,-0.0535931,90,90,88,88,84,10,89,100,100,95,91,11
-2.49296,8.40237,-0.100966,-0.337512,-14.041,27.5126,-13.4787,0.100966,-0.100966,-0.337512,-13.9397,27.5126,-13.58,0.100966,1.96583,13.6607,2.28139,6.4182,2.33622,-1.92661,-7.61874,3.65339,14.7325,7.63165,7.56187,-9.69862,-11.9898,2.01932,0.253134,-0.0535924,90,90,88,88,84,10,89,100,100,95,91,11
-2.49283,8.40284,-0.100965,-0.337532,-14.041,27.5126,-13.4787,0.100965,-0.100965,-0.337532,-13.9397,27.5126,-13.58,0.100965,1.96582,13.6608,2.2811,6.41807,2.3362,-1.92681,-7.61872,3.65349,14.7326,7.63167,7.56173,-9.69864,-11.9899,2.01952,0.253149,-0.0535918,90,90,88,88,84,10,89,100,100,95,91,11
-2.4927,8.40331,-0.100964,-0.337553,-14.0401,27.512,-13.4785,0.100964,-0.100964,-0.337553,-13.9388,27.512,-13.5798,0.100964,1.96582,13.6609,2.2808,6.41795,2.3362,-1.92702,-7.61871,3.65358,14.7327,7.63171,7.5616,-9.69869,-11.9901,2.01972,0.253165,-0.0535913,90,90,88,88,84,10,89,100,100,95,91,11
-2.49257,8.40378,-0.100963,-0.337575,-14.0401,27.512,-13.4785,0.100963,-0.100963,-0.337575,-13.9388,27.512,-13.5798,0.100963,1.9658,13.661,2.28047,6.41784,2.33623,-1.92723,-7.6187,3.65368,14.7328,7.63176,7.56146,-9.69877,-11.9902,2.01991,0.253181,-0.0535908,90,90,88,88,84,10,89,100,100,95,91,11
-2.49244,8.40424,-0.100963,-0.337598,-14.0401,27.512,-13.4785,0.100963,-0.100963,-0.337598,-13.9388,27.512,-13.5798,0.100963,1.96579,13.6611,2.28012,6.41773,2.33629,-1.92744,-7.61869,3.65378,14.7329,7.63183,7.56131,-9.69888,-11.9904,2.02011,0.253198,-0.0535906,90,90,88,88,84,10,89,100,100,95,91,11
-2.49232,8.40469,-0.100963,-0.337622,-14.0401,27.512,-13.4785,0.100963,-0.100963,-0.337622,-13.9388,27.512,-13.5798,0.100963,1.96576,13.6611,2.27975,6.41763,2.33639,-1.92767,-7.61869,3.65387,14.7329,7.63191,7.56117,-9.69901,-11.9905,2.0203,0.253216,-0.0535905,90,90,88,88,84,10,89,100,100,95,91,11
-2.4922,8.40513,-0.100963,-0.337647,-14.0401,27.512,-13.4785,0.100963,-0.100963,-0.337647,-13.9388,27.512,-13.5798,0.100963,1.96574,13.6612,2.27936,6.41752,2.33651,-1.9279,-7.61868,3.65397,14.733,7.63201,7.56103,-9.69918,-11.9907,2.02049,0.253235,-0.0535907,90,90,88,88,84,10,89,100,100,95,91,11
-2.49208,8.40557,-0.100964,-0.337673,-14.0401,27.512,-13.4785,0.100964,-0.100964,-0.337673,-13.9388,27.512,-13.5798,0.100964,1.9657,13.6613,2.27896,6.41743,2.33666,-1.92813,-7.61868,3.65407,14.7331,7.63212,7.56088,-9.69936,-11.9909,2.02067,0.253255,-0.0535911,90,90,88,88,84,10,89,100,100,95,91,11
-2.49196,8.40601,-0.100965,-0.3377,-14.0401,27.512,-13.4785,0.100965,-0.100965,-0.3377,-13.9388,27.512,-13.5798,0.100965,1.96567,13.6613,2.27855,6.41733,2.33685,-1.92837,-7.61868,3.65417,14.7331,7.63224,7.56074,-9.69956,-11.9911,2.02085,0.253275,-0.0535918,90,90,88,88,84,10,89,100,100,95,91,11
-2.49185,8.40644,-0.100967,-0.337728,-14.0397,27.5117,-13.4784,0.100967,-0.100967,-0.337728,-13.9384,27.5117,-13.5797,0.100967,1.96563,13.6613,2.27813,6.41724,2.33705,-1.92861,-7.61868,3.65427,14.7332,7.63236,7.5606,-9.69979,-11.9913,2.02102,0.253296,-0.0535928,90,90,88,88,84,10,89,100,100,95,91,11
-2.49173,8.40686,-0.10097,-0.337757,-14.0397,27.5117,-13.4784,0.10097,-0.10097,-0.337757,-13.9384,27.5117,-13.5797,0.10097,1.96558,13.6613,2.2777,6.41715,2.33729,-1.92885,-7.61869,3.65437,14.7332,7.63249,7.56045,-9.70002,-11.9915,2.02119,0.253318,-0.0535942,90,90,88,88,84,10,89,100,100,95,91,11
-2.49162,8.40728,-0.100973,-0.337787,-14.0398,27.5117,-13.4784,0.100973,-0.100973,-0.337787,-13.9384,27.5117,-13.5797,0.100973,1.96554,13.6613,2.27726,6.41706,2.33755,-1.9291,-7.6187,3.65447,14.7333,7.63263,7.56031,-9.70027,-11.9917,2.02135,0.25334,-0.0535959,90,90,88,88,84,10,89,100,100,95,91,11
-2.4915,8.40769,-0.100977,-0.337817,-14.0398,27.5117,-13.4784,0.100977,-0.100977,-0.337817,-13.9384,27.5117,-13.5797,0.100977,1.96549,13.6613,2.27683,6.41697,2.33783,-1.92935,-7.61871,3.65457,14.7333,7.63276,7.56017,-9.70053,-11.9919,2.02151,0.253363,-0.053598,90,90,88,88,84,10,89,100,100,95,91,11
-2.49139,8.4081,-0.100981,-0.337849,-14.0398,27.5117,-13.4784,0.100981,-0.100981,-0.337849,-13.9384,27.5117,-13.5797,0.100981,1.96543,13.6613,2.27639,6.41688,2.33814,-1.92961,-7.61872,3.65468,14.7333,7.63291,7.56003,-9.7008,-11.9922,2.02167,0.253387,-0.0536004,90,90,88,88,84,10,89,100,100,95,91,11
-2.49128,8.4085,-0.100987,-0.337881,-14.0398,27.5117,-13.4783,0.100987,-0.100987,-0.337881,-13.9384,27.5117,-13.5797,0.100987,1.96538,13.6613,2.27595,6.41679,2.33846,-1.92986,-7.61874,3.65478,14.7333,7.63305,7.55989,-9.70108,-11.9924,2.02182,0.253411,-0.0536032,90,90,88,88,84,10,89,100,100,95,91,11
-2.49117,8.40889,-0.100993,-0.337915,-14.0398,27.5117,-13.4783,0.100993,-0.100993,-0.337915,-13.9384,27.5117,-13.5797,0.100993,1.96532,13.6612,2.27552,6.4167,2.3388,-1.93011,-7.61877,3.65489,14.7334,7.6332,7.55974,-9.70137,-11.9926,2.02196,0.253436,-0.0536064,90,90,88,88,84,10,89,100,100,95,91,11
-2.49106,8.40928,-0.100999,-0.337949,-14.0398,27.5117,-13.4783,0.100999,-0.100999,-0.337949,-13.9384,27.5117,-13.5797,0.100999,1.96526,13.6612,2.2751,6.41662,2.33916,-1.93036,-7.61879,3.655,14.7334,7.63335,7.5596,-9.70166,-11.9929,2.02211,0.253462,-0.0536098,90,90,88,88,85,10,89,100,100,95,91,11
-2.49095,8.40966,-0.101006,-0.337985,-14.0398,27.5117,-13.4783,0.101006,-0.101006,-0.337985,-13.9384,27.5117,-13.5797,0.101006,1.96519,13.6611,2.27467,6.41654,2.33953,-1.93061,-7.61882,3.65512,14.7334,7.6335,7.55945,-9.70196,-11.9931,2.02224,0.253488,-0.0536136,90,90,88,88,85,10,89,100,100,95,91,11
-2.49085,8.41004,-0.101014,-0.338021,-14.0398,27.5117,-13.4783,0.101014,-0.101014,-0.338021,-13.9384,27.5117,-13.5797,0.101014,1.96513,13.661,2.27426,6.41646,2.33991,-1.93085,-7.61885,3.65523,14.7334,7.63365,7.55931,-9.70227,-11.9933,2.02238,0.253516,-0.0536178,90,90,88,88,85,10,89,100,100,95,91,11
-2.49074,8.4104,-0.101022,-0.338058,-14.0398,27.5117,-13.4783,0.101022,-0.101022,-0.338058,-13.9384,27.5117,-13.5797,0.101022,1.96506,13.6609,2.27386,6.41639,2.3403,-1.93109,-7.61889,3.65535,14.7334,7.63381,7.55916,-9.70257,-11.9935,2.02251,0.253544,-0.0536222,90,90,88,88,85,10,89,100,100,95,91,11
-2.49064,8.41076,-0.101031,-0.338096,-14.0398,27.5117,-13.4783,0.101031,-0.101031,-0.338096,-13.9384,27.5117,-13.5797,0.101031,1.96499,13.6608,2.27347,6.41631,2.34069,-1.93133,-7.61892,3.65547,14.7334,7.63396,7.55901,-9.70287,-11.9938,2.02264,0.253572,-0.0536268,90,90,88,88,85,10,89,100,100,95,91,11
-2.49053,8.41111,-0.10104,-0.338135,-14.0398,27.5117,-13.4783,0.10104,-0.10104,-0.338135,-13.9384,27.5117,-13.5797,0.10104,1.96492,13.6607,2.2731,6.41623,2.34108,-1.93156,-7.61897,3.65559,14.7333,7.63409,7.55885,-9.70316,-11.994,2.02278,0.253601,-0.0536317,90,90,88,88,85,10,89,100,100,95,91,11
-2.49043,8.41145,-0.10105,-0.338175,-14.0398,27.5117,-13.4783,0.10105,-0.10105,-0.338175,-13.9384,27.5117,-13.5797,0.10105,1.96485,13.6606,2.27274,6.41615,2.34146,-1.9318,-7.61902,3.65573,14.7333,7.63422,7.55869,-9.70343,-11.9942,2.02292,0.253631,-0.0536368,90,90,88,88,85,10,89,100,100,95,91,11
-2.49033,8.41178,-0.10106,-0.338216,-14.0397,27.5115,-13.4782,0.10106,-0.10106,-0.338216,-13.9382,27.5115,-13.5797,0.10106,1.96478,13.6604,2.27241,6.41607,2.34183,-1.93203,-7.61907,3.65586,14.7333,7.63433,7.55852,-9.70369,-11.9944,2.02307,0.253662,-0.053642,90,90,88,88,85,10,89,100,100,95,91,11
-2.49023,8.4121,-0.10107,-0.338257,-14.0397,27.5115,-13.4782,0.10107,-0.10107,-0.338257,-13.9382,27.5115,-13.5797,0.10107,1.96472,13.6603,2.2721,6.41598,2.34219,-1.93226,-7.61914,3.656,14.7332,7.63443,7.55835,-9.70392,-11.9946,2.02322,0.253693,-0.0536473,90,90,88,88,85,10,89,100,100,95,91,11
-2.49013,8.4124,-0.10108,-0.338299,-14.0397,27.5115,-13.4782,0.10108,-0.10108,-0.338299,-13.9382,27.5115,-13.5797,0.10108,1.96466,13.6601,2.27182,6.41588,2.34254,-1.93249,-7.61921,3.65615,14.7331,7.63451,7.55818,-9.70413,-11.9948,2.02338,0.253724,-0.0536528,90,90,88,88,85,10,89,100,100,95,91,11
-2.49004,8.4127,-0.10109,-0.338341,-14.0397,27.5115,-13.4782,0.10109,-0.10109,-0.338341,-13.9382,27.5115,-13.5797,0.10109,1.9646,13.6599,2.27157,6.41578,2.34287,-1.93271,-7.61928,3.65631,14.7331,7.63457,7.55799,-9.70431,-11.995,2.02355,0.253756,-0.0536583,90,90,88,88,85,10,89,100,100,95,91,11
-2.48995,8.41298,-0.101101,-0.338385,-14.0397,27.5115,-13.4782,0.101101,-0.101101,-0.338385,-13.9382,27.5115,-13.5797,0.101101,1.96454,13.6597,2.27134,6.41567,2.34317,-1.93294,-7.61936,3.65647,14.733,7.63461,7.5578,-9.70447,-11.9951,2.02373,0.253788,-0.0536638,90,90,88,88,85,10,89,100,100,95,91,11
-2.48985,8.41325,-0.101111,-0.338428,-14.0397,27.5115,-13.4782,0.101111,-0.101111,-0.338428,-13.9382,27.5115,-13.5797,0.101111,1.96449,13.6595,2.27113,6.41555,2.34346,-1.93316,-7.61945,3.65663,14.7329,7.63462,7.55761,-9.70459,-11.9953,2.02392,0.253821,-0.0536692,90,90,88,88,85,10,89,100,100,95,91,11
-2.48976,8.41351,-0.101121,-0.338472,-14.0397,27.5115,-13.4782,0.101121,-0.101121,-0.338472,-13.9382,27.5115,-13.5797,0.101121,1.96444,13.6593,2.27096,6.41543,2.34371,-1.93338,-7.61954,3.6568,14.7328,7.63461,7.55741,-9.70469,-11.9955,2.02412,0.253854,-0.0536746,90,90,88,88,85,10,89,100,100,95,91,11
-2.48967,8.41377,-0.101131,-0.338517,-14.0397,27.5115,-13.4782,0.101131,-0.101131,-0.338517,-13.9382,27.5115,-13.5797,0.101131,1.9644,13.6591,2.27081,6.4153,2.34393,-1.9336,-7.61963,3.65698,14.7327,7.63457,7.55721,-9.70475,-11.9957,2.02433,0.253887,-0.0536799,90,90,88,88,85,10,89,100,100,95,91,11
-2.48958,8.41402,-0.10114,-0.338562,-14.0397,27.5115,-13.4782,0.10114,-0.10114,-0.338562,-13.9382,27.5115,-13.5797,0.10114,1.96436,13.6589,2.2707,6.41517,2.34411,-1.93382,-7.61972,3.65717,14.7326,7.6345,7.557,-9.70477,-11.9959,2.02456,0.253922,-0.0536849,90,90,88,88,85,10,89,100,100,95,91,11
-2.48949,8.41426,-0.101149,-0.338608,-14.0398,27.5115,-13.4781,0.101149,-0.101149,-0.338608,-13.9382,27.5115,-13.5797,0.101149,1.96432,13.6586,2.27062,6.41502,2.34425,-1.93404,-7.61981,3.65736,14.7324,7.63439,7.55678,-9.70475,-11.9961,2.0248,0.253956,-0.0536897,90,90,88,88,85,10,89,100,100,95,91,11
