565950964-design/kaipule_sdk/control/csv_file/woshouzuo.csv
Head_1,Head_2,Joint_1,Joint_2,Joint_3,Joint_4,Joint_5,Joint_6,Joint_7,Joint_8,Joint_9,Joint_10,Joint_11,Joint_12,Joint_13,Joint_14,Joint_15,Joint_16,Joint_17,Joint_18,Joint_19,Joint_20,Joint_21,Joint_22,Joint_23,Joint_24,Joint_25,Joint_26,Joint_27,Joint_28,Finger_1,Finger_2,Finger_3,Finger_4,Finger_5,Finger_6,Finger_7,Finger_8,Finger_9,Finger_10,Finger_11,Finger_12
1.75058,-1.89028,0.428323,-0.129007,-17.1819,27.5108,-10.3347,-0.428323,0.428323,-0.129007,-17.1432,27.5108,-10.3734,-0.428323,4.66447,15.849,7.09514,9.71745,1.35067,-9.11,0.564477,5.3095,11.2604,-5.82917,6.05601,-3.57584,-13.7778,-0.188115,0.0967552,0.229433,67,85,85,88,90,10,86,88,93,85,93,43
1.75059,-1.89027,0.428323,-0.129008,-17.1819,27.5108,-10.3347,-0.428323,0.428323,-0.129008,-17.1432,27.5108,-10.3734,-0.428323,4.66447,15.849,7.09515,9.71744,1.35068,-9.11001,0.564475,5.30952,11.2603,-5.82917,6.05601,-3.57585,-13.7778,-0.188117,0.0967561,0.229434,67,85,85,88,90,10,86,88,93,85,93,43
1.75059,-1.89026,0.428325,-0.129011,-17.1819,27.5108,-10.3347,-0.428325,0.428325,-0.129011,-17.1432,27.5108,-10.3734,-0.428325,4.66449,15.849,7.09515,9.71743,1.35069,-9.11001,0.56447,5.30954,11.2603,-5.82918,6.05601,-3.57587,-13.7778,-0.188123,0.096758,0.229435,67,85,85,88,90,10,86,88,93,85,93,43
1.7506,-1.89024,0.428327,-0.129015,-17.1819,27.5108,-10.3347,-0.428327,0.428327,-0.129015,-17.1432,27.5108,-10.3734,-0.428327,4.6645,15.8491,7.09517,9.71741,1.35071,-9.11002,0.564464,5.30958,11.2603,-5.82918,6.05602,-3.57589,-13.7778,-0.188131,0.0967609,0.229436,67,85,85,88,90,10,86,88,93,85,93,43
1.75062,-1.89021,0.42833,-0.12902,-17.1819,27.5108,-10.3347,-0.42833,0.42833,-0.12902,-17.1432,27.5108,-10.3734,-0.42833,4.66452,15.8491,7.0952,9.71739,1.35071,-9.11004,0.564455,5.30962,11.2603,-5.82919,6.05603,-3.57593,-13.7778,-0.188143,0.0967648,0.229437,67,85,85,88,90,10,86,88,93,85,93,43
1.75063,-1.89019,0.428334,-0.129026,-17.1819,27.5108,-10.3347,-0.428334,0.428334,-0.129026,-17.1432,27.5108,-10.3734,-0.428334,4.66455,15.8491,7.09525,9.71736,1.35072,-9.11005,0.564444,5.30968,11.2603,-5.8292,6.05604,-3.57597,-13.7778,-0.188158,0.0967697,0.229439,67,85,85,88,90,10,86,88,93,85,93,43
1.75064,-1.89015,0.428337,-0.129034,-17.1819,27.5108,-10.3347,-0.428337,0.428337,-0.129034,-17.1432,27.5108,-10.3734,-0.428337,4.66457,15.8491,7.09531,9.71733,1.35071,-9.11007,0.564431,5.30974,11.2603,-5.82921,6.05606,-3.57601,-13.7778,-0.188177,0.0967756,0.229441,67,85,85,88,90,10,86,88,93,85,93,43
1.75066,-1.89012,0.428341,-0.129043,-17.1819,27.5108,-10.3347,-0.428341,0.428341,-0.129043,-17.1432,27.5108,-10.3734,-0.428341,4.6646,15.8492,7.09539,9.71729,1.35069,-9.11009,0.564415,5.30981,11.2603,-5.82923,6.05609,-3.57607,-13.7778,-0.188199,0.0967824,0.229443,67,85,85,88,90,10,86,88,93,85,93,43
1.75068,-1.89008,0.428345,-0.129053,-17.1827,27.5113,-10.3348,-0.428345,0.428345,-0.129053,-17.144,27.5113,-10.3736,-0.428345,4.66462,15.8492,7.09549,9.71725,1.35067,-9.11012,0.564397,5.30989,11.2603,-5.82924,6.05612,-3.57613,-13.7778,-0.188222,0.09679,0.229445,67,85,85,88,90,10,86,88,93,85,93,43
1.7507,-1.89004,0.428349,-0.129064,-17.1827,27.5113,-10.3348,-0.428349,0.428349,-0.129064,-17.144,27.5113,-10.3736,-0.428349,4.66465,15.8493,7.0956,9.7172,1.35063,-9.11015,0.564376,5.30997,11.2603,-5.82926,6.05615,-3.57619,-13.7778,-0.18825,0.0967983,0.229448,67,85,85,88,90,10,86,88,93,85,93,43
1.75072,-1.88999,0.428354,-0.129077,-17.1827,27.5113,-10.3348,-0.428354,0.428354,-0.129077,-17.144,27.5113,-10.3736,-0.428354,4.66467,15.8493,7.09574,9.71715,1.35058,-9.11018,0.564353,5.31006,11.2603,-5.82928,6.0562,-3.57627,-13.7778,-0.188282,0.0968075,0.22945,67,85,85,88,90,10,86,88,93,85,93,43
1.75074,-1.88995,0.428358,-0.12909,-17.1827,27.5113,-10.3348,-0.428358,0.428358,-0.12909,-17.144,27.5113,-10.3735,-0.428358,4.6647,15.8494,7.09591,9.71709,1.35051,-9.11021,0.564326,5.31015,11.2603,-5.82931,6.05625,-3.57634,-13.7778,-0.188316,0.0968178,0.229452,67,85,85,88,90,10,86,88,93,85,93,43
1.75076,-1.8899,0.428361,-0.129106,-17.1828,27.5113,-10.3348,-0.428361,0.428361,-0.129106,-17.144,27.5113,-10.3735,-0.428361,4.66472,15.8494,7.0961,9.71703,1.35042,-9.11025,0.564297,5.31025,11.2604,-5.82934,6.0563,-3.57643,-13.7778,-0.188352,0.0968292,0.229454,67,85,85,88,90,10,86,88,93,85,93,43
1.75079,-1.88985,0.428364,-0.129122,-17.1828,27.5113,-10.3348,-0.428364,0.428364,-0.129122,-17.144,27.5113,-10.3735,-0.428364,4.66473,15.8495,7.09633,9.71696,1.3503,-9.11029,0.564266,5.31034,11.2604,-5.82936,6.05636,-3.57652,-13.7779,-0.188389,0.0968418,0.229456,67,85,85,88,90,10,86,88,93,85,93,43
1.75081,-1.8898,0.428365,-0.129141,-17.1828,27.5113,-10.3348,-0.428365,0.428365,-0.129141,-17.144,27.5113,-10.3735,-0.428365,4.66474,15.8496,7.0966,9.71689,1.35015,-9.11032,0.564233,5.31044,11.2604,-5.82939,6.05643,-3.57662,-13.7779,-0.188426,0.0968556,0.229456,67,85,85,88,90,10,86,88,93,85,93,43
1.75083,-1.88975,0.428365,-0.129161,-17.1828,27.5113,-10.3348,-0.428365,0.428365,-0.129161,-17.144,27.5113,-10.3735,-0.428365,4.66474,15.8496,7.09691,9.71681,1.34997,-9.11036,0.564198,5.31054,11.2605,-5.82942,6.0565,-3.57672,-13.7779,-0.188462,0.0968707,0.229456,67,85,85,88,90,10,86,88,93,85,93,43
1.75086,-1.8897,0.428364,-0.129182,-17.1828,27.5113,-10.3348,-0.428364,0.428364,-0.129182,-17.144,27.5113,-10.3735,-0.428364,4.66473,15.8497,7.09724,9.71674,1.34976,-9.11039,0.564162,5.31064,11.2606,-5.82945,6.05658,-3.57683,-13.7779,-0.188497,0.0968866,0.229456,67,85,85,88,90,10,86,88,93,85,93,43
1.75088,-1.88964,0.42836,-0.129205,-17.1828,27.5113,-10.3348,-0.42836,0.42836,-0.129205,-17.144,27.5113,-10.3735,-0.42836,4.66471,15.8497,7.09762,9.71666,1.34951,-9.11042,0.564125,5.31074,11.2606,-5.82948,6.05666,-3.57693,-13.7779,-0.188532,0.0969039,0.229454,67,85,85,88,90,10,86,88,93,85,93,43
1.75089,-1.88959,0.428355,-0.12923,-17.1828,27.5113,-10.3348,-0.428355,0.428355,-0.12923,-17.144,27.5113,-10.3735,-0.428355,4.66468,15.8497,7.09804,9.71657,1.34922,-9.11044,0.564088,5.31083,11.2607,-5.82951,6.05674,-3.57705,-13.7779,-0.188565,0.0969226,0.229451,67,85,85,88,90,10,86,88,93,85,93,43
1.75091,-1.88953,0.428347,-0.129257,-17.1828,27.5113,-10.3348,-0.428347,0.428347,-0.129257,-17.144,27.5113,-10.3735,-0.428347,4.66464,15.8498,7.09851,9.71649,1.34889,-9.11046,0.564049,5.31093,11.2608,-5.82955,6.05683,-3.57717,-13.7779,-0.188596,0.0969427,0.229447,67,85,85,88,90,10,86,88,93,85,93,43
1.75093,-1.88947,0.428338,-0.129285,-17.1828,27.5113,-10.3348,-0.428338,0.428338,-0.129285,-17.144,27.5113,-10.3735,-0.428338,4.66459,15.8498,7.09902,9.7164,1.34852,-9.11048,0.564008,5.31102,11.2609,-5.82957,6.05692,-3.57729,-13.7779,-0.188623,0.0969641,0.229442,67,85,85,88,90,10,86,88,93,85,93,43
1.75095,-1.88942,0.428327,-0.129316,-17.1828,27.5113,-10.3348,-0.428327,0.428327,-0.129316,-17.144,27.5113,-10.3736,-0.428327,4.66453,15.8498,7.09957,9.71632,1.34812,-9.1105,0.563964,5.31111,11.2611,-5.8296,6.05701,-3.57742,-13.778,-0.188645,0.0969867,0.229436,67,85,85,88,90,10,86,88,93,85,93,43
1.75098,-1.88937,0.428314,-0.129347,-17.1828,27.5113,-10.3348,-0.428314,0.428314,-0.129347,-17.144,27.5113,-10.3736,-0.428314,4.66446,15.8498,7.10014,9.71623,1.3477,-9.11052,0.563916,5.31119,11.2612,-5.82961,6.0571,-3.57756,-13.778,-0.188664,0.0970105,0.229428,67,85,85,88,90,10,86,88,93,85,93,43
1.75102,-1.88932,0.428299,-0.129381,-17.1828,27.5113,-10.3347,-0.428299,0.428299,-0.129381,-17.144,27.5113,-10.3736,-0.428299,4.66437,15.8498,7.10075,9.71615,1.34725,-9.11053,0.563865,5.31128,11.2614,-5.82963,6.05719,-3.57771,-13.778,-0.188676,0.0970355,0.22942,67,85,85,88,90,10,86,88,93,85,93,43
1.75107,-1.88928,0.428283,-0.129415,-17.1828,27.5113,-10.3347,-0.428283,0.428283,-0.129415,-17.144,27.5113,-10.3736,-0.428283,4.66428,15.8497,7.10137,9.71607,1.34678,-9.11055,0.563812,5.31136,11.2615,-5.82964,6.05728,-3.57786,-13.778,-0.188686,0.097061,0.229412,67,85,85,88,90,10,86,88,93,85,93,43
1.75114,-1.88925,0.428265,-0.12945,-17.1828,27.5113,-10.3347,-0.428265,0.428265,-0.12945,-17.144,27.5113,-10.3736,-0.428265,4.66418,15.8497,7.102,9.716,1.34631,-9.11057,0.563752,5.31143,11.2617,-5.82963,6.05736,-3.57802,-13.778,-0.188686,0.0970876,0.229402,67,85,85,88,90,10,86,88,93,85,93,43
1.75122,-1.88923,0.428245,-0.129487,-17.1828,27.5113,-10.3347,-0.428245,0.428245,-0.129487,-17.144,27.5113,-10.3736,-0.428245,4.66407,15.8496,7.10265,9.71593,1.34582,-9.11059,0.563687,5.3115,11.2618,-5.82962,6.05744,-3.57818,-13.778,-0.18868,0.0971153,0.229391,67,85,85,88,90,10,86,88,93,85,93,43
1.75131,-1.88922,0.428224,-0.129525,-17.1828,27.5113,-10.3347,-0.428224,0.428224,-0.129525,-17.144,27.5113,-10.3736,-0.428224,4.66394,15.8496,7.10331,9.71586,1.34532,-9.11061,0.563616,5.31157,11.262,-5.8296,6.05751,-3.57835,-13.7779,-0.188667,0.0971438,0.229379,67,85,85,88,90,10,86,88,93,85,93,43
1.75142,-1.88921,0.428201,-0.129564,-17.1828,27.5113,-10.3347,-0.428201,0.428201,-0.129564,-17.144,27.5113,-10.3736,-0.428201,4.66381,15.8495,7.104,9.7158,1.3448,-9.11064,0.563542,5.31163,11.2622,-5.82957,6.05758,-3.57853,-13.7779,-0.188648,0.0971731,0.229367,67,85,85,88,90,10,86,88,93,85,93,43
1.75153,-1.88921,0.428177,-0.129604,-17.1828,27.5113,-10.3347,-0.428177,0.428177,-0.129604,-17.144,27.5113,-10.3736,-0.428177,4.66367,15.8494,7.1047,9.71574,1.34427,-9.11066,0.563465,5.31169,11.2623,-5.82953,6.05765,-3.57872,-13.7779,-0.188625,0.0972031,0.229354,67,85,85,88,90,10,86,88,93,85,93,43
1.75166,-1.88921,0.428152,-0.129645,-17.1828,27.5113,-10.3347,-0.428152,0.428152,-0.129645,-17.144,27.5113,-10.3736,-0.428152,4.66352,15.8493,7.10542,9.71569,1.34372,-9.11068,0.563386,5.31175,11.2625,-5.82949,6.05771,-3.57891,-13.7779,-0.188597,0.0972336,0.22934,67,85,85,88,90,10,86,88,93,85,93,43
1.75179,-1.88922,0.428127,-0.129686,-17.1828,27.5113,-10.3347,-0.428127,0.428127,-0.129686,-17.1439,27.5113,-10.3736,-0.428127,4.66338,15.8492,7.10615,9.71563,1.34316,-9.1107,0.563304,5.31181,11.2627,-5.82945,6.05778,-3.57912,-13.7779,-0.188565,0.0972647,0.229326,67,85,85,88,90,10,86,88,93,85,93,43
1.75193,-1.88924,0.428102,-0.129728,-17.1851,27.5129,-10.3351,-0.428102,0.428102,-0.129728,-17.1462,27.5129,-10.374,-0.428102,4.66322,15.8491,7.10689,9.71558,1.3426,-9.11072,0.563222,5.31186,11.2629,-5.8294,6.05784,-3.57932,-13.7778,-0.188532,0.0972958,0.229313,67,85,85,88,90,10,86,88,93,85,93,43
1.75208,-1.88926,0.428076,-0.12977,-17.1851,27.5129,-10.3351,-0.428076,0.428076,-0.12977,-17.1462,27.5129,-10.374,-0.428076,4.66308,15.849,7.10766,9.71552,1.342,-9.11072,0.563143,5.31192,11.2631,-5.82935,6.0579,-3.57953,-13.7778,-0.188498,0.0973273,0.229299,67,85,85,88,90,10,86,88,93,85,93,43
1.75223,-1.88928,0.428051,-0.129812,-17.1851,27.5129,-10.3351,-0.428051,0.428051,-0.129812,-17.1462,27.5129,-10.374,-0.428051,4.66293,15.8489,7.10845,9.71546,1.34138,-9.11072,0.563064,5.31199,11.2632,-5.8293,6.05797,-3.57975,-13.7778,-0.188461,0.0973593,0.229285,67,85,85,88,90,10,86,88,93,85,93,43
1.7524,-1.8893,0.428026,-0.129855,-17.1852,27.5129,-10.3351,-0.428026,0.428026,-0.129855,-17.1462,27.5129,-10.374,-0.428026,4.66278,15.8488,7.10925,9.71541,1.34075,-9.11071,0.562984,5.31205,11.2634,-5.82925,6.05804,-3.57998,-13.7778,-0.188423,0.0973914,0.229271,67,85,85,88,90,10,86,88,93,85,93,43
1.75257,-1.88933,0.428,-0.129898,-17.1852,27.5129,-10.3351,-0.428,0.428,-0.129898,-17.1462,27.5129,-10.374,-0.428,4.66262,15.8487,7.11005,9.71535,1.34013,-9.11071,0.562904,5.31211,11.2636,-5.8292,6.0581,-3.58021,-13.7778,-0.188382,0.0974235,0.229257,67,85,85,88,90,10,86,88,93,85,93,43
1.75274,-1.88937,0.427974,-0.129941,-17.1852,27.5129,-10.3351,-0.427974,0.427974,-0.129941,-17.1462,27.5129,-10.3741,-0.427974,4.66247,15.8486,7.11083,9.7153,1.33951,-9.11071,0.562822,5.31217,11.2638,-5.82914,6.05816,-3.58043,-13.7778,-0.188339,0.0974554,0.229243,67,85,85,88,90,10,86,88,93,85,93,43
1.75291,-1.8894,0.427947,-0.129983,-17.1852,27.5129,-10.3351,-0.427947,0.427947,-0.129983,-17.1462,27.5129,-10.3741,-0.427947,4.66231,15.8485,7.1116,9.71525,1.33891,-9.11071,0.562737,5.31222,11.264,-5.82908,6.05821,-3.58065,-13.7778,-0.188293,0.0974871,0.229228,67,85,85,88,90,10,86,88,93,85,93,43
1.75307,-1.88943,0.427919,-0.130025,-17.1852,27.5129,-10.3351,-0.427919,0.427919,-0.130025,-17.1462,27.5129,-10.3741,-0.427919,4.66214,15.8484,7.11234,9.71522,1.33833,-9.11072,0.56265,5.31226,11.2641,-5.82901,6.05826,-3.58087,-13.7778,-0.188244,0.0975184,0.229213,67,85,85,88,90,10,86,88,93,85,93,43
1.75323,-1.88947,0.427891,-0.130065,-17.1852,27.5129,-10.3351,-0.427891,0.427891,-0.130065,-17.1461,27.5129,-10.3741,-0.427891,4.66198,15.8483,7.11306,9.71518,1.33778,-9.11074,0.562561,5.3123,11.2643,-5.82894,6.0583,-3.58107,-13.7777,-0.188194,0.0975491,0.229198,67,85,85,88,90,10,86,88,93,85,93,43
1.75338,-1.8895,0.427862,-0.130106,-17.1852,27.5129,-10.3351,-0.427862,0.427862,-0.130106,-17.1461,27.5129,-10.3741,-0.427862,4.6618,15.8481,7.11373,9.71516,1.33727,-9.11078,0.562466,5.31233,11.2645,-5.82886,6.05834,-3.58127,-13.7777,-0.18814,0.0975792,0.229182,67,85,85,88,90,10,86,88,93,85,93,43
1.7535,-1.88954,0.427832,-0.130145,-17.1852,27.5129,-10.3351,-0.427832,0.427832,-0.130145,-17.1461,27.5129,-10.3741,-0.427832,4.66162,15.848,7.11435,9.71514,1.33681,-9.11083,0.562367,5.31234,11.2647,-5.82877,6.05837,-3.58146,-13.7776,-0.188082,0.0976085,0.229165,67,85,85,88,90,10,86,88,93,85,93,43
1.75363,-1.88957,0.427801,-0.130183,-17.1852,27.5129,-10.3351,-0.427801,0.427801,-0.130183,-17.1461,27.5129,-10.3741,-0.427801,4.66143,15.8478,7.11493,9.71513,1.33639,-9.11089,0.562263,5.31235,11.2648,-5.82868,6.0584,-3.58164,-13.7775,-0.188021,0.0976372,0.229148,67,85,85,88,90,10,86,88,93,85,93,43
1.75375,-1.8896,0.427769,-0.13022,-17.1852,27.5129,-10.3351,-0.427769,0.427769,-0.13022,-17.1461,27.5129,-10.3741,-0.427769,4.66124,15.8476,7.11546,9.71513,1.33601,-9.11097,0.562156,5.31234,11.265,-5.82858,6.05841,-3.5818,-13.7774,-0.187957,0.0976652,0.229131,67,85,85,88,90,10,86,88,93,85,93,43
1.75389,-1.88964,0.427736,-0.130257,-17.1852,27.5129,-10.3351,-0.427736,0.427736,-0.130257,-17.1461,27.5129,-10.3742,-0.427736,4.66104,15.8474,7.11594,9.71514,1.33567,-9.11106,0.562047,5.31232,11.2652,-5.82847,6.05841,-3.58194,-13.7773,-0.18789,0.0976924,0.229113,67,85,85,88,90,10,86,88,93,85,93,43
1.75403,-1.88968,0.427703,-0.130292,-17.1851,27.5129,-10.3351,-0.427703,0.427703,-0.130292,-17.1461,27.5129,-10.3742,-0.427703,4.66084,15.8472,7.11637,9.71516,1.33538,-9.11117,0.561937,5.3123,11.2653,-5.82837,6.0584,-3.58207,-13.7772,-0.187821,0.0977189,0.229095,67,85,85,88,90,10,86,88,93,85,93,43
1.7542,-1.88973,0.427669,-0.130326,-17.1851,27.5129,-10.3351,-0.427669,0.427669,-0.130326,-17.146,27.5129,-10.3742,-0.427669,4.66063,15.847,7.11674,9.71518,1.33514,-9.11129,0.561826,5.31226,11.2655,-5.82826,6.05838,-3.58217,-13.777,-0.187748,0.0977446,0.229076,67,85,85,88,90,10,86,88,93,85,93,43
1.75438,-1.88978,0.427636,-0.130359,-17.1862,27.5137,-10.3353,-0.427636,0.427636,-0.130359,-17.1471,27.5137,-10.3744,-0.427636,4.66042,15.8468,7.11707,9.7152,1.33493,-9.11142,0.561716,5.31222,11.2657,-5.82816,6.05834,-3.58226,-13.7769,-0.187675,0.0977695,0.229058,67,85,85,88,90,10,86,88,93,85,93,43
1.75459,-1.88983,0.427603,-0.130391,-17.1862,27.5137,-10.3353,-0.427603,0.427603,-0.130391,-17.1471,27.5137,-10.3744,-0.427603,4.66021,15.8466,7.11734,9.71523,1.33476,-9.11158,0.561607,5.31217,11.2658,-5.82806,6.05829,-3.58232,-13.7767,-0.187599,0.0977934,0.22904,67,85,85,88,90,10,86,88,93,85,93,43
1.75483,-1.88989,0.427569,-0.130422,-17.1862,27.5137,-10.3353,-0.427569,0.427569,-0.130422,-17.1471,27.5137,-10.3744,-0.427569,4.66,15.8464,7.11754,9.71527,1.33465,-9.11175,0.561499,5.31211,11.266,-5.82796,6.05823,-3.58235,-13.7765,-0.187521,0.0978163,0.229022,67,85,85,88,90,10,86,88,93,85,93,43
1.7551,-1.88996,0.427536,-0.130451,-17.1862,27.5137,-10.3353,-0.427536,0.427536,-0.130451,-17.147,27.5137,-10.3744,-0.427536,4.65979,15.8462,7.11769,9.71531,1.33458,-9.11194,0.561392,5.31205,11.2662,-5.82787,6.05815,-3.58235,-13.7763,-0.18744,0.0978384,0.229003,67,85,85,88,90,10,86,88,93,85,93,43
1.7554,-1.89003,0.427502,-0.13048,-17.1862,27.5137,-10.3353,-0.427502,0.427502,-0.13048,-17.147,27.5137,-10.3744,-0.427502,4.65957,15.846,7.11779,9.71536,1.33455,-9.11214,0.561287,5.31197,11.2663,-5.82778,6.05806,-3.58233,-13.7761,-0.187358,0.0978598,0.228985,67,85,85,88,90,10,86,88,93,85,93,43
1.75572,-1.8901,0.427469,-0.130507,-17.1862,27.5137,-10.3353,-0.427469,0.427469,-0.130507,-17.147,27.5137,-10.3745,-0.427469,4.65936,15.8458,7.11785,9.7154,1.33455,-9.11235,0.561184,5.3119,11.2665,-5.82769,6.05795,-3.5823,-13.7759,-0.187275,0.0978806,0.228967,67,85,85,88,90,10,86,88,93,85,93,43
1.75606,-1.89018,0.427436,-0.130534,-17.1862,27.5137,-10.3353,-0.427436,0.427436,-0.130534,-17.147,27.5137,-10.3745,-0.427436,4.65914,15.8456,7.11787,9.71545,1.33458,-9.11257,0.561082,5.31182,11.2667,-5.82761,6.05784,-3.58225,-13.7757,-0.18719,0.0979008,0.228949,67,85,85,88,90,10,86,88,93,85,93,43
1.75642,-1.89026,0.427402,-0.130561,-17.1861,27.5137,-10.3353,-0.427402,0.427402,-0.130561,-17.147,27.5137,-10.3745,-0.427402,4.65893,15.8455,7.11786,9.71551,1.33463,-9.11279,0.560982,5.31173,11.2668,-5.82752,6.05772,-3.58219,-13.7754,-0.187105,0.0979205,0.228931,67,85,85,88,90,10,86,88,93,85,93,43
1.75678,-1.89035,0.42737,-0.130586,-17.1863,27.5138,-10.3353,-0.42737,0.42737,-0.130586,-17.1471,27.5138,-10.3745,-0.42737,4.65872,15.8453,7.11783,9.71556,1.33471,-9.11302,0.560885,5.31165,11.267,-5.82744,6.0576,-3.58212,-13.7752,-0.187021,0.0979396,0.228913,67,85,85,88,90,10,86,88,93,85,93,43
1.75716,-1.89043,0.427337,-0.130612,-17.1863,27.5138,-10.3354,-0.427337,0.427337,-0.130612,-17.1471,27.5138,-10.3745,-0.427337,4.65851,15.8451,7.11778,9.71562,1.33479,-9.11324,0.56079,5.31156,11.2672,-5.82735,6.05748,-3.58205,-13.775,-0.186935,0.0979587,0.228895,67,85,85,88,90,10,86,88,93,85,93,43
1.75755,-1.89052,0.427305,-0.130637,-17.1863,27.5138,-10.3354,-0.427305,0.427305,-0.130637,-17.1471,27.5138,-10.3746,-0.427305,4.6583,15.8449,7.11772,9.71567,1.33489,-9.11347,0.560696,5.31148,11.2673,-5.82726,6.05736,-3.58198,-13.7747,-0.186848,0.0979776,0.228877,67,85,85,88,90,10,86,88,93,85,93,43
1.75795,-1.89061,0.427273,-0.130661,-17.1863,27.5138,-10.3354,-0.427273,0.427273,-0.130661,-17.1471,27.5138,-10.3746,-0.427273,4.65809,15.8447,7.11765,9.71573,1.33501,-9.11369,0.560604,5.3114,11.2675,-5.82718,6.05723,-3.5819,-13.7745,-0.186761,0.097996,0.22886,67,85,85,88,90,10,86,88,93,85,93,43
1.75836,-1.8907,0.427241,-0.130685,-17.1862,27.5138,-10.3354,-0.427241,0.427241,-0.130685,-17.147,27.5138,-10.3746,-0.427241,4.65789,15.8445,7.11754,9.71579,1.33514,-9.11393,0.560515,5.31131,11.2676,-5.82709,6.0571,-3.58181,-13.7742,-0.186674,0.0980138,0.228843,67,85,85,88,90,10,86,88,93,85,93,43
1.75877,-1.8908,0.42721,-0.130708,-17.1862,27.5138,-10.3354,-0.42721,0.42721,-0.130708,-17.147,27.5138,-10.3746,-0.42721,4.65769,15.8443,7.11742,9.71584,1.33529,-9.11416,0.560427,5.31122,11.2678,-5.82701,6.05696,-3.58172,-13.774,-0.186588,0.098031,0.228826,67,85,85,88,90,10,86,88,93,85,93,43
1.75919,-1.89089,0.42718,-0.13073,-17.1862,27.5138,-10.3354,-0.42718,0.42718,-0.13073,-17.147,27.5138,-10.3746,-0.42718,4.65748,15.8441,7.11726,9.71591,1.33546,-9.1144,0.56034,5.31113,11.2679,-5.82694,6.05681,-3.5816,-13.7738,-0.186503,0.0980473,0.228809,67,85,85,88,90,10,86,88,93,85,93,43
1.75961,-1.89098,0.42715,-0.13075,-17.1862,27.5138,-10.3354,-0.42715,0.42715,-0.13075,-17.147,27.5138,-10.3746,-0.42715,4.65729,15.8439,7.11708,9.71597,1.33565,-9.11465,0.560256,5.31104,11.2681,-5.82687,6.05666,-3.58147,-13.7735,-0.186419,0.0980627,0.228793,67,85,85,88,90,10,86,88,93,85,93,43
1.76003,-1.89107,0.42712,-0.13077,-17.1868,27.5142,-10.3355,-0.42712,0.42712,-0.13077,-17.1476,27.5142,-10.3747,-0.42712,4.65709,15.8437,7.11688,9.71603,1.33585,-9.1149,0.560172,5.31094,11.2682,-5.8268,6.05651,-3.58133,-13.7732,-0.186337,0.0980773,0.228777,67,85,85,88,90,10,86,88,93,85,93,43
1.76044,-1.89116,0.427092,-0.130787,-17.1868,27.5142,-10.3355,-0.427092,0.427092,-0.130787,-17.1476,27.5142,-10.3748,-0.427092,4.6569,15.8436,7.11664,9.71609,1.33608,-9.11517,0.560092,5.31083,11.2684,-5.82675,6.05635,-3.58117,-13.773,-0.186258,0.0980903,0.228761,67,85,85,88,90,10,86,88,93,85,93,43
1.76084,-1.89124,0.427064,-0.130803,-17.1868,27.5142,-10.3355,-0.427064,0.427064,-0.130803,-17.1476,27.5142,-10.3748,-0.427064,4.6567,15.8434,7.11636,9.71616,1.33633,-9.11544,0.560014,5.31072,11.2685,-5.8267,6.05618,-3.58098,-13.7727,-0.186181,0.098102,0.228746,67,85,85,88,90,10,86,88,93,85,93,43
1.76125,-1.89133,0.427037,-0.130816,-17.1868,27.5142,-10.3355,-0.427037,0.427037,-0.130816,-17.1475,27.5142,-10.3748,-0.427037,4.65651,15.8433,7.11604,9.71623,1.3366,-9.11572,0.559937,5.3106,11.2687,-5.82667,6.056,-3.58078,-13.7725,-0.186105,0.0981124,0.228731,67,85,85,88,90,10,86,88,93,85,93,43
1.76165,-1.89141,0.42701,-0.130829,-17.1868,27.5142,-10.3356,-0.42701,0.42701,-0.130829,-17.1475,27.5142,-10.3748,-0.42701,4.65632,15.8431,7.1157,9.71629,1.33688,-9.11601,0.559861,5.31047,11.2688,-5.82664,6.05582,-3.58055,-13.7722,-0.186029,0.0981215,0.228716,67,85,85,88,90,10,86,88,93,85,93,43
1.76206,-1.8915,0.426985,-0.130839,-17.1868,27.5142,-10.3356,-0.426985,0.426985,-0.130839,-17.1475,27.5142,-10.3748,-0.426985,4.65614,15.843,7.11533,9.71636,1.33718,-9.11631,0.559784,5.31033,11.269,-5.82662,6.05562,-3.58031,-13.7719,-0.185955,0.0981295,0.228702,67,85,85,88,90,10,86,88,93,85,93,43
1.76247,-1.89158,0.42696,-0.130848,-17.1868,27.5142,-10.3356,-0.42696,0.42696,-0.130848,-17.1475,27.5142,-10.3748,-0.42696,4.65595,15.8429,7.11493,9.71644,1.33749,-9.11662,0.559707,5.31019,11.2691,-5.82662,6.05542,-3.58005,-13.7717,-0.18588,0.0981363,0.228689,67,85,85,88,90,10,86,88,93,85,93,43
1.76288,-1.89167,0.426936,-0.130856,-17.1867,27.5142,-10.3356,-0.426936,0.426936,-0.130856,-17.1475,27.5142,-10.3748,-0.426936,4.65577,15.8428,7.11451,9.71651,1.3378,-9.11694,0.559628,5.31005,11.2693,-5.82661,6.05521,-3.57977,-13.7714,-0.185805,0.098142,0.228676,67,85,85,88,90,10,86,88,93,85,93,43
1.76329,-1.89176,0.426913,-0.130862,-17.1865,27.5141,-10.3356,-0.426913,0.426913,-0.130862,-17.1473,27.5141,-10.3748,-0.426913,4.65559,15.8427,7.11409,9.71659,1.33812,-9.11726,0.559549,5.3099,11.2694,-5.82662,6.055,-3.57948,-13.7711,-0.18573,0.0981469,0.228664,67,85,85,88,90,10,86,88,93,85,93,43
1.76371,-1.89185,0.426892,-0.130868,-17.1865,27.5141,-10.3356,-0.426892,0.426892,-0.130868,-17.1473,27.5141,-10.3748,-0.426892,4.65541,15.8426,7.11364,9.71667,1.33844,-9.11758,0.559466,5.30975,11.2696,-5.82663,6.05478,-3.57918,-13.7709,-0.185655,0.098151,0.228652,67,85,85,88,90,10,86,88,93,85,93,43
1.76413,-1.89195,0.426871,-0.130872,-17.1865,27.5141,-10.3356,-0.426871,0.426871,-0.130872,-17.1472,27.5141,-10.3748,-0.426871,4.65524,15.8426,7.11318,9.71675,1.33876,-9.11791,0.55938,5.3096,11.2698,-5.82665,6.05455,-3.57886,-13.7706,-0.18558,0.0981543,0.22864,67,85,85,88,90,10,86,88,93,85,93,43
1.76456,-1.89205,0.426851,-0.130875,-17.1865,27.5141,-10.3356,-0.426851,0.426851,-0.130875,-17.1472,27.5141,-10.3749,-0.426851,4.65506,15.8425,7.1127,9.71684,1.33908,-9.11825,0.559291,5.30944,11.2699,-5.82668,6.05431,-3.57852,-13.7703,-0.185503,0.0981564,0.22863,67,85,85,88,90,10,86,88,93,85,93,43
1.76499,-1.89216,0.426832,-0.130876,-17.1865,27.5141,-10.3356,-0.426832,0.426832,-0.130876,-17.1472,27.5141,-10.3749,-0.426832,4.65489,15.8424,7.11221,9.71692,1.3394,-9.11859,0.559201,5.30927,11.2701,-5.82671,6.05407,-3.57819,-13.7701,-0.185423,0.0981572,0.228619,67,85,85,88,90,10,86,88,93,85,93,43
1.76542,-1.89226,0.426814,-0.130875,-17.1865,27.5141,-10.3356,-0.426814,0.426814,-0.130875,-17.1472,27.5141,-10.3749,-0.426814,4.65472,15.8424,7.11171,9.71701,1.33973,-9.11894,0.55911,5.3091,11.2702,-5.82675,6.05382,-3.57784,-13.7698,-0.185338,0.0981565,0.228609,67,85,85,88,90,10,86,88,93,85,93,43
1.76585,-1.89238,0.426797,-0.130872,-17.1864,27.5141,-10.3356,-0.426797,0.426797,-0.130872,-17.1472,27.5141,-10.3749,-0.426797,4.65456,15.8424,7.11119,9.71709,1.34005,-9.11929,0.559018,5.30892,11.2704,-5.82678,6.05356,-3.5775,-13.7695,-0.185248,0.0981541,0.2286,67,85,85,88,90,10,86,88,93,85,93,43
1.76628,-1.89249,0.42678,-0.130867,-17.1864,27.5141,-10.3357,-0.42678,0.42678,-0.130867,-17.1472,27.5141,-10.3749,-0.42678,4.65439,15.8423,7.11065,9.71718,1.34037,-9.11964,0.558926,5.30872,11.2705,-5.82682,6.0533,-3.57716,-13.7693,-0.185152,0.0981499,0.228591,67,85,85,88,90,10,86,88,93,85,93,43
1.76669,-1.89261,0.426764,-0.130859,-17.1865,27.5141,-10.3357,-0.426764,0.426764,-0.130859,-17.1472,27.5141,-10.3749,-0.426764,4.65423,15.8423,7.11012,9.71726,1.34069,-9.12,0.558835,5.30853,11.2707,-5.82685,6.05303,-3.57683,-13.7691,-0.185053,0.0981444,0.228582,67,85,85,88,90,10,86,88,93,85,93,43
1.7671,-1.89273,0.426747,-0.130849,-17.1865,27.5141,-10.3357,-0.426747,0.426747,-0.130849,-17.1472,27.5141,-10.375,-0.426747,4.65407,15.8423,7.10957,9.71734,1.34101,-9.12036,0.558746,5.30832,11.2709,-5.82688,6.05276,-3.57651,-13.7688,-0.184944,0.0981369,0.228573,67,85,85,88,90,10,86,88,93,85,93,43
1.76749,-1.89285,0.426732,-0.130836,-17.1864,27.5141,-10.3357,-0.426732,0.426732,-0.130836,-17.1472,27.5141,-10.375,-0.426732,4.65392,15.8423,7.109,9.71741,1.34133,-9.12072,0.558659,5.3081,11.2711,-5.8269,6.05249,-3.5762,-13.7686,-0.184827,0.0981272,0.228564,67,85,85,88,90,10,86,88,93,85,93,43
1.76788,-1.89297,0.426716,-0.13082,-17.1864,27.5141,-10.3357,-0.426716,0.426716,-0.13082,-17.1472,27.5141,-10.375,-0.426716,4.65376,15.8424,7.10843,9.71748,1.34164,-9.12109,0.558574,5.30786,11.2713,-5.82692,6.05221,-3.5759,-13.7684,-0.184703,0.0981154,0.228556,67,85,85,88,90,10,86,88,93,85,93,43
1.76826,-1.8931,0.426701,-0.130802,-17.1864,27.5141,-10.3358,-0.426701,0.426701,-0.130802,-17.1472,27.5141,-10.375,-0.426701,4.65361,15.8424,7.10784,9.71754,1.34196,-9.12145,0.558489,5.30762,11.2714,-5.82693,6.05193,-3.57562,-13.7682,-0.184571,0.0981012,0.228547,67,85,85,88,90,10,86,88,93,85,93,43
1.76863,-1.89323,0.426686,-0.13078,-17.1864,27.5141,-10.3358,-0.426686,0.426686,-0.13078,-17.1472,27.5141,-10.375,-0.426686,4.65347,15.8424,7.10724,9.7176,1.34228,-9.12182,0.558405,5.30737,11.2717,-5.82693,6.05165,-3.57535,-13.7679,-0.184432,0.0980847,0.228539,67,85,85,88,90,10,86,88,93,85,93,43
1.76899,-1.89336,0.426671,-0.130754,-17.1864,27.5141,-10.3358,-0.426671,0.426671,-0.130754,-17.1471,27.5141,-10.375,-0.426671,4.65333,15.8425,7.10663,9.71765,1.3426,-9.12219,0.558321,5.3071,11.2719,-5.82693,6.05137,-3.57509,-13.7677,-0.184288,0.0980658,0.228531,67,85,85,88,90,10,86,88,93,85,93,43
1.76935,-1.89348,0.426656,-0.130726,-17.1863,27.5141,-10.3358,-0.426656,0.426656,-0.130726,-17.1471,27.5141,-10.375,-0.426656,4.65319,15.8425,7.106,9.7177,1.34293,-9.12256,0.558238,5.30682,11.2721,-5.82692,6.05108,-3.57485,-13.7675,-0.184138,0.0980445,0.228523,67,85,85,88,90,10,86,88,93,85,93,43
1.7697,-1.89361,0.426642,-0.130696,-17.1863,27.5141,-10.3358,-0.426642,0.426642,-0.130696,-17.1471,27.5141,-10.375,-0.426642,4.65307,15.8426,7.10536,9.71774,1.34325,-9.12292,0.558155,5.30654,11.2723,-5.82691,6.0508,-3.57462,-13.7674,-0.183986,0.0980218,0.228515,67,85,85,88,90,10,86,88,93,85,93,43
1.77004,-1.89374,0.426628,-0.130663,-17.1863,27.5141,-10.3359,-0.426628,0.426628,-0.130663,-17.1471,27.5141,-10.3751,-0.426628,4.65294,15.8427,7.10472,9.71778,1.34358,-9.12328,0.558072,5.30626,11.2725,-5.82689,6.05052,-3.57441,-13.7672,-0.183829,0.0979969,0.228508,67,85,85,88,90,10,86,88,93,85,93,43
1.77039,-1.89386,0.426614,-0.130626,-17.1863,27.5141,-10.3359,-0.426614,0.426614,-0.130626,-17.1471,27.5141,-10.3751,-0.426614,4.65283,15.8427,7.10406,9.71781,1.34391,-9.12365,0.557988,5.30596,11.2727,-5.82686,6.05024,-3.57422,-13.767,-0.183668,0.0979697,0.2285,67,85,85,88,90,10,86,88,93,85,93,43
1.77073,-1.89398,0.4266,-0.130587,-17.1863,27.5141,-10.3359,-0.4266,0.4266,-0.130587,-17.1471,27.5141,-10.3751,-0.4266,4.65272,15.8428,7.10339,9.71783,1.34424,-9.12401,0.557904,5.30566,11.2729,-5.82683,6.04996,-3.57404,-13.7668,-0.183503,0.0979402,0.228493,67,85,85,88,90,10,86,88,93,85,93,43
1.77106,-1.8941,0.426587,-0.130544,-17.1862,27.5141,-10.3359,-0.426587,0.426587,-0.130544,-17.1471,27.5141,-10.3751,-0.426587,4.65262,15.8429,7.1027,9.71784,1.34459,-9.12436,0.55782,5.30534,11.2732,-5.82678,6.04969,-3.57388,-13.7666,-0.183336,0.0979081,0.228485,67,85,85,88,90,10,86,88,93,85,93,43
1.77139,-1.89422,0.426573,-0.130498,-17.1862,27.5141,-10.3359,-0.426573,0.426573,-0.130498,-17.1471,27.5141,-10.3751,-0.426573,4.65253,15.8429,7.102,9.71784,1.34494,-9.12472,0.557736,5.30502,11.2734,-5.82673,6.04942,-3.57374,-13.7665,-0.183166,0.0978736,0.228478,67,85,85,88,90,10,86,88,93,85,93,43
1.7717,-1.89434,0.426559,-0.130449,-17.1862,27.5141,-10.336,-0.426559,0.426559,-0.130449,-17.1471,27.5141,-10.3751,-0.426559,4.65245,15.843,7.10128,9.71783,1.34531,-9.12506,0.557653,5.30469,11.2736,-5.82666,6.04915,-3.57362,-13.7663,-0.182995,0.0978365,0.22847,67,85,85,88,90,10,86,88,93,85,93,43
1.77199,-1.89447,0.426546,-0.130396,-17.1862,27.5141,-10.336,-0.426546,0.426546,-0.130396,-17.147,27.5141,-10.3751,-0.426546,4.65237,15.8431,7.10056,9.71781,1.34568,-9.12541,0.55757,5.30435,11.2739,-5.82659,6.04888,-3.57352,-13.7662,-0.182822,0.097797,0.228463,67,85,85,88,90,10,86,88,93,85,93,43
1.77227,-1.89459,0.426532,-0.130341,-17.1861,27.5141,-10.336,-0.426532,0.426532,-0.130341,-17.147,27.5141,-10.3751,-0.426532,4.6523,15.8432,7.09983,9.71777,1.34607,-9.12575,0.557489,5.30401,11.2741,-5.8265,6.04861,-3.57343,-13.766,-0.182651,0.0977561,0.228455,67,85,85,88,90,10,86,88,93,85,93,43
1.77253,-1.89471,0.426519,-0.130282,-17.1861,27.5141,-10.336,-0.426519,0.426519,-0.130282,-17.147,27.5141,-10.3751,-0.426519,4.65225,15.8433,7.09908,9.71772,1.34647,-9.12608,0.557408,5.30366,11.2743,-5.8264,6.04835,-3.57337,-13.7659,-0.18248,0.0977114,0.228448,67,85,85,88,90,10,86,88,93,85,93,43
1.77277,-1.89484,0.426505,-0.130218,-17.1861,27.5141,-10.3361,-0.426505,0.426505,-0.130218,-17.147,27.5141,-10.3751,-0.426505,4.6522,15.8434,7.09832,9.71765,1.3469,-9.1264,0.55733,5.30329,11.2746,-5.82629,6.0481,-3.57334,-13.7658,-0.18231,0.0976636,0.228441,67,85,85,88,90,10,86,88,93,85,93,43
1.77299,-1.89497,0.426491,-0.130151,-17.1861,27.5141,-10.3361,-0.426491,0.426491,-0.130151,-17.147,27.5141,-10.3751,-0.426491,4.65216,15.8435,7.09755,9.71757,1.34734,-9.12672,0.557252,5.30292,11.2748,-5.82616,6.04784,-3.57334,-13.7657,-0.182141,0.0976133,0.228433,67,85,85,88,90,10,86,88,93,85,93,43
1.7732,-1.8951,0.426478,-0.130081,-17.186,27.5141,-10.3361,-0.426478,0.426478,-0.130081,-17.147,27.5141,-10.3751,-0.426478,4.65213,15.8436,7.09677,9.71748,1.34779,-9.12703,0.557175,5.30254,11.275,-5.82602,6.04759,-3.57335,-13.7656,-0.181972,0.0975611,0.228426,67,85,85,88,90,10,86,88,93,85,93,43
1.77339,-1.89523,0.426464,-0.13001,-17.186,27.5141,-10.3361,-0.426464,0.426464,-0.13001,-17.147,27.5141,-10.3752,-0.426464,4.65211,15.8436,7.09598,9.71737,1.34825,-9.12734,0.5571,5.30216,11.2753,-5.82587,6.04735,-3.57337,-13.7655,-0.181803,0.0975073,0.228418,67,85,85,88,90,10,86,88,93,85,93,43
1.77356,-1.89536,0.42645,-0.129937,-17.186,27.5141,-10.3362,-0.42645,0.42645,-0.129937,-17.147,27.5141,-10.3752,-0.42645,4.6521,15.8437,7.09518,9.71726,1.34872,-9.12764,0.557026,5.30178,11.2755,-5.82572,6.0471,-3.57341,-13.7654,-0.181636,0.0974524,0.228411,67,85,85,88,90,10,86,88,93,85,93,43
1.77372,-1.89549,0.426436,-0.129862,-17.186,27.5141,-10.3362,-0.426436,0.426436,-0.129862,-17.147,27.5141,-10.3752,-0.426436,4.65208,15.8438,7.09439,9.71714,1.34919,-9.12793,0.556954,5.3014,11.2758,-5.82556,6.04686,-3.57346,-13.7653,-0.18147,0.0973968,0.228403,67,85,85,88,90,10,86,88,93,85,93,43
1.77387,-1.89562,0.426422,-0.129788,-17.185,27.5135,-10.3361,-0.426422,0.426422,-0.129788,-17.1461,27.5135,-10.375,-0.426422,4.65208,15.8439,7.0936,9.71702,1.34967,-9.12823,0.556883,5.30102,11.276,-5.8254,6.04663,-3.57352,-13.7652,-0.181306,0.0973412,0.228395,67,85,85,88,90,10,86,88,93,85,93,43
1.774,-1.89575,0.426408,-0.129716,-17.185,27.5135,-10.3361,-0.426408,0.426408,-0.129716,-17.1461,27.5135,-10.375,-0.426408,4.65207,15.844,7.09282,9.7169,1.35014,-9.12851,0.556814,5.30065,11.2762,-5.82525,6.0464,-3.57358,-13.7651,-0.181143,0.0972869,0.228388,67,85,85,88,90,10,86,88,93,85,93,43
1.77412,-1.89588,0.426394,-0.129644,-17.185,27.5135,-10.3361,-0.426394,0.426394,-0.129644,-17.1461,27.5135,-10.375,-0.426394,4.65206,15.8441,7.09204,9.71679,1.3506,-9.1288,0.556747,5.30028,11.2765,-5.82509,6.04618,-3.57365,-13.765,-0.180981,0.0972332,0.22838,67,85,85,88,90,10,86,88,93,85,93,43
1.77423,-1.896,0.42638,-0.129573,-17.185,27.5135,-10.3362,-0.42638,0.42638,-0.129573,-17.1461,27.5135,-10.375,-0.42638,4.65205,15.8442,7.09126,9.71666,1.35107,-9.12908,0.556682,5.29992,11.2767,-5.82493,6.04596,-3.57372,-13.765,-0.180821,0.0971796,0.228372,67,85,85,88,90,10,86,88,93,85,93,43
1.77433,-1.89613,0.426366,-0.129501,-17.1849,27.5135,-10.3362,-0.426366,0.426366,-0.129501,-17.1461,27.5135,-10.375,-0.426366,4.65205,15.8443,7.09049,9.71654,1.35154,-9.12936,0.556618,5.29956,11.277,-5.82477,6.04574,-3.57379,-13.7649,-0.180662,0.0971256,0.228365,67,85,85,88,90,10,86,88,93,85,93,43
1.77443,-1.89626,0.426353,-0.129428,-17.1849,27.5135,-10.3362,-0.426353,0.426353,-0.129428,-17.1461,27.5135,-10.375,-0.426353,4.65206,15.8443,7.08972,9.71641,1.35201,-9.12963,0.556555,5.2992,11.2772,-5.8246,6.04553,-3.57388,-13.7648,-0.180507,0.0970708,0.228357,67,85,85,88,90,10,86,88,93,85,93,43
1.77451,-1.89638,0.426339,-0.129353,-17.1849,27.5135,-10.3362,-0.426339,0.426339,-0.129353,-17.1461,27.5135,-10.375,-0.426339,4.65207,15.8444,7.08896,9.71627,1.35248,-9.12989,0.556493,5.29883,11.2774,-5.82443,6.04533,-3.57398,-13.7648,-0.180354,0.0970149,0.22835,67,85,85,88,90,10,86,88,93,85,93,43
1.77459,-1.89651,0.426327,-0.129277,-17.1849,27.5135,-10.3363,-0.426327,0.426327,-0.129277,-17.1461,27.5135,-10.375,-0.426327,4.65209,15.8445,7.0882,9.71612,1.35296,-9.13014,0.556432,5.29847,11.2776,-5.82425,6.04512,-3.5741,-13.7647,-0.180205,0.0969575,0.228343,67,85,85,88,90,10,86,88,93,85,93,43
1.77467,-1.89663,0.426314,-0.129199,-17.1842,27.5131,-10.3362,-0.426314,0.426314,-0.129199,-17.1455,27.5131,-10.375,-0.426314,4.65211,15.8446,7.08745,9.71596,1.35344,-9.13038,0.556372,5.2981,11.2779,-5.82407,6.04493,-3.57422,-13.7647,-0.18006,0.0968996,0.228336,67,85,85,88,90,10,86,88,93,85,93,43
1.77475,-1.89675,0.426302,-0.129119,-17.1842,27.5131,-10.3362,-0.426302,0.426302,-0.129119,-17.1455,27.5131,-10.375,-0.426302,4.65214,15.8447,7.08672,9.71579,1.35392,-9.13061,0.556311,5.29773,11.2781,-5.82387,6.04473,-3.57436,-13.7647,-0.17992,0.0968392,0.22833,67,85,85,88,90,10,86,88,93,85,93,43
1.77482,-1.89687,0.42629,-0.129035,-17.1842,27.5131,-10.3362,-0.42629,0.42629,-0.129035,-17.1455,27.5131,-10.375,-0.42629,4.65218,15.8448,7.08598,9.71562,1.35441,-9.13082,0.55625,5.29735,11.2783,-5.82367,6.04454,-3.57452,-13.7646,-0.179785,0.0967764,0.228323,67,85,85,88,90,10,86,88,93,85,93,43
1.77489,-1.89699,0.426279,-0.128949,-17.1842,27.5131,-10.3363,-0.426279,0.426279,-0.128949,-17.1455,27.5131,-10.375,-0.426279,4.65222,15.8449,7.08526,9.71542,1.3549,-9.13103,0.55619,5.29697,11.2785,-5.82345,6.04435,-3.5747,-13.7646,-0.179654,0.0967115,0.228317,67,85,85,88,90,10,86,88,93,85,93,43
1.77496,-1.8971,0.426269,-0.128859,-17.1841,27.5131,-10.3363,-0.426269,0.426269,-0.128859,-17.1455,27.5131,-10.375,-0.426269,4.65228,15.845,7.08455,9.71522,1.35539,-9.13122,0.556132,5.29657,11.2787,-5.82323,6.04417,-3.57489,-13.7646,-0.179528,0.0966445,0.228312,67,85,85,88,90,10,86,88,93,85,93,43
1.77502,-1.89722,0.426259,-0.128767,-17.1841,27.5131,-10.3363,-0.426259,0.426259,-0.128767,-17.1455,27.5131,-10.375,-0.426259,4.65233,15.8451,7.08386,9.715,1.35589,-9.1314,0.556075,5.29617,11.2789,-5.82299,6.04399,-3.5751,-13.7646,-0.179407,0.0965756,0.228306,67,85,85,88,90,10,86,88,93,85,93,43
1.77507,-1.89733,0.42625,-0.128673,-17.1841,27.5131,-10.3364,-0.42625,0.42625,-0.128673,-17.1455,27.5131,-10.375,-0.42625,4.6524,15.8451,7.08317,9.71478,1.35638,-9.13157,0.556021,5.29576,11.2791,-5.82275,6.04381,-3.57532,-13.7646,-0.179291,0.0965049,0.228301,67,85,85,88,90,10,86,88,93,85,93,43
1.7751,-1.89744,0.426241,-0.128577,-17.1841,27.5131,-10.3364,-0.426241,0.426241,-0.128577,-17.1455,27.5131,-10.375,-0.426241,4.65247,15.8452,7.08251,9.71454,1.35687,-9.13172,0.55597,5.29535,11.2793,-5.8225,6.04363,-3.57555,-13.7646,-0.17918,0.0964324,0.228296,67,85,85,88,90,10,86,88,93,85,93,43
1.77513,-1.89755,0.426233,-0.12848,-17.1837,27.5128,-10.3363,-0.426233,0.426233,-0.12848,-17.1451,27.5128,-10.3749,-0.426233,4.65254,15.8453,7.08186,9.7143,1.35736,-9.13186,0.555921,5.29493,11.2795,-5.82225,6.04345,-3.5758,-13.7646,-0.179074,0.0963597,0.228292,67,85,85,88,90,10,86,88,93,85,93,43
1.77515,-1.89765,0.426225,-0.12838,-17.1836,27.5128,-10.3364,-0.426225,0.426225,-0.12838,-17.1451,27.5128,-10.3749,-0.426225,4.65261,15.8454,7.08123,9.71404,1.35784,-9.132,0.555877,5.29451,11.2797,-5.822,6.04328,-3.57605,-13.7647,-0.178972,0.0962851,0.228288,67,85,85,88,90,10,86,88,93,85,93,43
1.77516,-1.89775,0.426218,-0.128279,-17.1836,27.5128,-10.3364,-0.426218,0.426218,-0.128279,-17.1451,27.5128,-10.3749,-0.426218,4.65269,15.8456,7.08061,9.71377,1.35833,-9.13211,0.555835,5.29409,11.2799,-5.82174,6.04311,-3.57631,-13.7647,-0.178874,0.0962092,0.228284,67,85,85,88,90,10,86,88,93,85,93,43
1.77515,-1.89785,0.426211,-0.128176,-17.1836,27.5128,-10.3364,-0.426211,0.426211,-0.128176,-17.1451,27.5128,-10.3749,-0.426211,4.65277,15.8457,7.08002,9.7135,1.35881,-9.13222,0.555798,5.29365,11.2801,-5.82147,6.04293,-3.57659,-13.7647,-0.178782,0.0961321,0.22828,67,85,85,88,90,10,86,88,93,85,93,43
1.77512,-1.89795,0.426205,-0.128072,-17.1835,27.5128,-10.3365,-0.426205,0.426205,-0.128072,-17.1451,27.5128,-10.3749,-0.426205,4.65285,15.8458,7.07946,9.71321,1.35927,-9.13231,0.555765,5.29321,11.2802,-5.8212,6.04276,-3.57687,-13.7648,-0.178696,0.096054,0.228276,67,85,85,88,90,10,86,88,93,85,93,43
1.77508,-1.89804,0.426199,-0.127967,-17.1835,27.5128,-10.3365,-0.426199,0.426199,-0.127967,-17.1451,27.5128,-10.3749,-0.426199,4.65293,15.8459,7.07893,9.71292,1.35972,-9.13239,0.555736,5.29277,11.2804,-5.82092,6.04258,-3.57716,-13.7648,-0.178616,0.0959752,0.228273,67,85,85,88,90,10,86,88,93,85,93,43
1.77501,-1.89814,0.426193,-0.127861,-17.1835,27.5128,-10.3365,-0.426193,0.426193,-0.127861,-17.1451,27.5128,-10.3749,-0.426193,4.653,15.846,7.07843,9.71263,1.36016,-9.13246,0.555711,5.29231,11.2806,-5.82064,6.04241,-3.57747,-13.7649,-0.178543,0.095896,0.22827,67,85,85,88,90,10,86,88,93,85,93,43
1.77492,-1.89823,0.426187,-0.127755,-17.1834,27.5128,-10.3366,-0.426187,0.426187,-0.127755,-17.1451,27.5128,-10.3749,-0.426187,4.65307,15.8461,7.07798,9.71233,1.36057,-9.13251,0.55569,5.29184,11.2808,-5.82035,6.04224,-3.57778,-13.7649,-0.178478,0.0958165,0.228267,67,85,85,88,90,10,86,88,93,85,93,43
1.77482,-1.89832,0.426182,-0.12765,-17.1831,27.5126,-10.3365,-0.426182,0.426182,-0.12765,-17.1448,27.5126,-10.3748,-0.426182,4.65313,15.8462,7.07756,9.71204,1.36096,-9.13255,0.555672,5.29138,11.2809,-5.82006,6.04207,-3.57809,-13.765,-0.178418,0.0957377,0.228264,67,85,85,88,90,10,86,88,93,85,93,43
1.77469,-1.89841,0.426177,-0.127545,-17.183,27.5126,-10.3366,-0.426177,0.426177,-0.127545,-17.1448,27.5126,-10.3748,-0.426177,4.65317,15.8463,7.07718,9.71174,1.36133,-9.13258,0.55566,5.2909,11.2811,-5.81976,6.04189,-3.57841,-13.7651,-0.178365,0.0956589,0.228261,67,85,85,88,90,10,86,88,93,85,93,43
1.77452,-1.8985,0.426172,-0.12744,-17.183,27.5126,-10.3366,-0.426172,0.426172,-0.12744,-17.1448,27.5126,-10.3748,-0.426172,4.65321,15.8464,7.07684,9.71144,1.36168,-9.13259,0.555654,5.29042,11.2813,-5.81946,6.04172,-3.57875,-13.7651,-0.178321,0.0955803,0.228259,67,85,85,88,90,10,86,88,93,85,93,43
1.77433,-1.89859,0.426167,-0.127336,-17.183,27.5126,-10.3366,-0.426167,0.426167,-0.127336,-17.1448,27.5126,-10.3748,-0.426167,4.65324,15.8466,7.07656,9.71114,1.36199,-9.13259,0.555651,5.28992,11.2814,-5.81915,6.04155,-3.57909,-13.7652,-0.178284,0.0955021,0.228256,67,85,85,88,90,10,86,88,93,85,93,43
1.77412,-1.89868,0.426162,-0.127232,-17.1829,27.5126,-10.3367,-0.426162,0.426162,-0.127232,-17.1448,27.5126,-10.3748,-0.426162,4.65326,15.8467,7.07632,9.71084,1.36228,-9.13258,0.555651,5.28942,11.2816,-5.81883,6.04138,-3.57943,-13.7653,-0.178255,0.0954243,0.228253,67,85,85,88,90,10,86,88,93,85,93,43
1.77389,-1.89877,0.426157,-0.12713,-17.1829,27.5126,-10.3367,-0.426157,0.426157,-0.12713,-17.1447,27.5126,-10.3748,-0.426157,4.65326,15.8468,7.07613,9.71054,1.36254,-9.13256,0.555651,5.28891,11.2818,-5.81851,6.04121,-3.57978,-13.7654,-0.178234,0.0953471,0.22825,67,85,85,88,90,10,86,88,93,85,93,43
1.77365,-1.89885,0.426152,-0.127028,-17.1828,27.5126,-10.3367,-0.426152,0.426152,-0.127028,-17.1447,27.5126,-10.3749,-0.426152,4.65326,15.8469,7.076,9.71025,1.36277,-9.13253,0.555652,5.28839,11.2819,-5.81818,6.04103,-3.58013,-13.7655,-0.17822,0.0952707,0.228248,67,85,85,88,90,10,86,88,93,85,93,43
1.7734,-1.89894,0.426147,-0.126927,-17.1828,27.5126,-10.3368,-0.426147,0.426147,-0.126927,-17.1447,27.5126,-10.3749,-0.426147,4.65324,15.847,7.07591,9.70996,1.36297,-9.13249,0.555653,5.28787,11.2821,-5.81785,6.04086,-3.58048,-13.7655,-0.178214,0.095195,0.228245,67,85,85,88,90,10,86,88,93,85,93,43
1.77314,-1.89902,0.426142,-0.126828,-17.1828,27.5126,-10.3368,-0.426142,0.426142,-0.126828,-17.1447,27.5126,-10.3749,-0.426142,4.65321,15.8471,7.07585,9.70968,1.36315,-9.13245,0.555652,5.28735,11.2823,-5.81752,6.04069,-3.58082,-13.7656,-0.178212,0.0951207,0.228243,67,85,85,88,90,10,86,88,93,85,93,43
1.77289,-1.89911,0.426138,-0.12673,-17.1827,27.5126,-10.3369,-0.426138,0.426138,-0.12673,-17.1447,27.5126,-10.3749,-0.426138,4.65317,15.8473,7.07586,9.70941,1.3633,-9.13241,0.555647,5.28682,11.2825,-5.81719,6.04052,-3.58117,-13.7657,-0.178218,0.0950476,0.22824,67,85,85,88,90,10,86,88,93,85,93,43
1.77265,-1.89919,0.426133,-0.126634,-17.1827,27.5126,-10.3369,-0.426133,0.426133,-0.126634,-17.1447,27.5126,-10.3749,-0.426133,4.65311,15.8474,7.07593,9.70914,1.36341,-9.13236,0.555638,5.28628,11.2826,-5.81685,6.04035,-3.58151,-13.7658,-0.178232,0.0949755,0.228237,67,85,85,88,90,10,86,88,93,85,93,43
1.7724,-1.89927,0.426128,-0.126539,-17.1827,27.5126,-10.3369,-0.426128,0.426128,-0.126539,-17.1447,27.5126,-10.3749,-0.426128,4.65305,15.8475,7.07604,9.70888,1.3635,-9.13231,0.555625,5.28574,11.2828,-5.81651,6.04018,-3.58185,-13.7659,-0.178252,0.0949046,0.228235,67,85,85,88,90,10,86,88,93,85,93,43
1.77214,-1.89935,0.426124,-0.126446,-17.1826,27.5126,-10.337,-0.426124,0.426124,-0.126446,-17.1447,27.5126,-10.3749,-0.426124,4.65297,15.8476,7.0762,9.70863,1.36357,-9.13226,0.55561,5.2852,11.283,-5.81617,6.04001,-3.58218,-13.766,-0.178278,0.0948347,0.228232,67,85,85,88,90,10,86,88,93,85,93,43
1.77187,-1.89943,0.426119,-0.126355,-17.1826,27.5126,-10.337,-0.426119,0.426119,-0.126355,-17.1447,27.5126,-10.3749,-0.426119,4.65288,15.8478,7.07639,9.70839,1.36361,-9.13221,0.555593,5.28466,11.2832,-5.81582,6.03984,-3.58252,-13.7661,-0.17831,0.0947661,0.22823,67,85,85,88,90,10,86,88,93,85,93,43
1.77158,-1.89951,0.426115,-0.126265,-17.1825,27.5126,-10.337,-0.426115,0.426115,-0.126265,-17.1447,27.5126,-10.3749,-0.426115,4.65279,15.8479,7.07661,9.70815,1.36363,-9.13215,0.555575,5.28411,11.2833,-5.81548,6.03967,-3.58285,-13.7663,-0.178346,0.0946985,0.228227,67,85,85,88,90,10,86,88,93,85,93,43
1.77128,-1.89958,0.42611,-0.126176,-17.1825,27.5126,-10.3371,-0.42611,0.42611,-0.126176,-17.1447,27.5126,-10.3749,-0.42611,4.65269,15.848,7.07686,9.70791,1.36364,-9.13208,0.555555,5.28357,11.2835,-5.81514,6.0395,-3.58317,-13.7664,-0.178387,0.0946321,0.228225,67,85,85,88,90,10,86,88,93,85,93,43
1.77097,-1.89965,0.426106,-0.12609,-17.1822,27.5124,-10.3371,-0.426106,0.426106,-0.12609,-17.1444,27.5124,-10.3749,-0.426106,4.65259,15.8481,7.07713,9.70769,1.36363,-9.13202,0.555535,5.28303,11.2837,-5.8148,6.03934,-3.58349,-13.7665,-0.17843,0.0945672,0.228223,67,85,85,88,90,10,86,88,93,85,93,43
1.77063,-1.89972,0.426102,-0.126004,-17.1822,27.5124,-10.3371,-0.426102,0.426102,-0.126004,-17.1444,27.5124,-10.3749,-0.426102,4.65248,15.8483,7.07741,9.70746,1.36362,-9.13194,0.555517,5.2825,11.2838,-5.81446,6.03917,-3.58381,-13.7666,-0.178477,0.0945034,0.22822,67,85,85,88,90,10,86,88,93,85,93,43
1.77026,-1.89979,0.426098,-0.125921,-17.1822,27.5124,-10.3372,-0.426098,0.426098,-0.125921,-17.1444,27.5124,-10.3749,-0.426098,4.65237,15.8484,7.0777,9.70724,1.36359,-9.13187,0.555501,5.28198,11.284,-5.81413,6.03901,-3.58413,-13.7667,-0.178528,0.0944406,0.228218,67,85,85,88,90,10,86,88,93,85,93,43
1.76988,-1.89985,0.426094,-0.125839,-17.1821,27.5124,-10.3372,-0.426094,0.426094,-0.125839,-17.1444,27.5124,-10.375,-0.426094,4.65226,15.8485,7.07801,9.70703,1.36356,-9.13179,0.555484,5.28146,11.2842,-5.8138,6.03886,-3.58444,-13.7668,-0.178582,0.0943791,0.228216,67,85,85,88,90,10,86,88,93,85,93,43
1.76947,-1.89992,0.42609,-0.125758,-17.1821,27.5124,-10.3372,-0.42609,0.42609,-0.125758,-17.1444,27.5124,-10.375,-0.42609,4.65215,15.8486,7.07834,9.70682,1.36351,-9.13171,0.555466,5.28094,11.2843,-5.81347,6.0387,-3.58474,-13.7669,-0.178637,0.0943189,0.228214,67,85,85,88,90,10,86,88,93,85,93,43
1.76904,-1.89998,0.426087,-0.12568,-17.182,27.5124,-10.3373,-0.426087,0.426087,-0.12568,-17.1443,27.5124,-10.375,-0.426087,4.65203,15.8487,7.07868,9.70661,1.36345,-9.13163,0.555446,5.28043,11.2845,-5.81315,6.03855,-3.58504,-13.767,-0.178695,0.0942599,0.228212,67,85,85,88,90,10,86,88,93,85,93,43
1.7686,-1.90003,0.426083,-0.125603,-17.182,27.5124,-10.3373,-0.426083,0.426083,-0.125603,-17.1443,27.5124,-10.375,-0.426083,4.65191,15.8488,7.07904,9.70642,1.36338,-9.13155,0.555423,5.27992,11.2846,-5.81283,6.03839,-3.58534,-13.7671,-0.178754,0.0942023,0.22821,67,85,85,88,90,10,86,88,93,85,93,43
1.76814,-1.90009,0.426079,-0.125528,-17.182,27.5124,-10.3373,-0.426079,0.426079,-0.125528,-17.1443,27.5124,-10.375,-0.426079,4.65178,15.849,7.07943,9.70623,1.3633,-9.13147,0.555397,5.27942,11.2848,-5.81251,6.03824,-3.58562,-13.7672,-0.178814,0.0941461,0.228208,67,85,85,88,90,10,86,88,93,85,93,43
1.76769,-1.90014,0.426075,-0.125455,-17.1816,27.5121,-10.3373,-0.426075,0.426075,-0.125455,-17.1439,27.5121,-10.375,-0.426075,4.65165,15.8491,7.07982,9.70605,1.3632,-9.1314,0.555368,5.27893,11.285,-5.8122,6.0381,-3.5859,-13.7673,-0.178873,0.0940915,0.228206,67,85,85,88,90,10,86,88,93,85,93,43
1.76722,-1.90019,0.426071,-0.125384,-17.1815,27.5121,-10.3374,-0.426071,0.426071,-0.125384,-17.1439,27.5121,-10.375,-0.426071,4.65152,15.8492,7.08023,9.70587,1.3631,-9.13134,0.555334,5.27844,11.2851,-5.81189,6.03795,-3.58617,-13.7675,-0.178933,0.0940381,0.228203,67,85,85,88,90,10,86,88,93,85,93,43
1.76674,-1.90024,0.426066,-0.125315,-17.1815,27.5121,-10.3374,-0.426066,0.426066,-0.125315,-17.1439,27.5121,-10.375,-0.426066,4.65139,15.8493,7.08065,9.7057,1.36298,-9.13128,0.555293,5.27796,11.2853,-5.81159,6.0378,-3.58643,-13.7676,-0.178992,0.0939862,0.228201,67,85,85,88,90,10,86,88,93,85,93,43
1.76626,-1.90028,0.426062,-0.125248,-17.1815,27.5121,-10.3374,-0.426062,0.426062,-0.125248,-17.1439,27.5121,-10.375,-0.426062,4.65125,15.8494,7.0811,9.70554,1.36286,-9.13122,0.555248,5.27749,11.2855,-5.81128,6.03765,-3.58668,-13.7677,-0.179051,0.0939357,0.228198,67,85,85,88,90,10,86,88,93,85,93,43
1.76577,-1.90033,0.426057,-0.125182,-17.1814,27.5121,-10.3375,-0.426057,0.426057,-0.125182,-17.1439,27.5121,-10.375,-0.426057,4.6511,15.8495,7.08157,9.70539,1.36271,-9.13118,0.555198,5.27702,11.2856,-5.81098,6.03751,-3.58693,-13.7678,-0.17911,0.0938868,0.228196,67,85,85,88,90,10,86,88,93,85,93,43
1.76528,-1.90037,0.426053,-0.125119,-17.1814,27.5121,-10.3375,-0.426053,0.426053,-0.125119,-17.1439,27.5121,-10.375,-0.426053,4.65095,15.8497,7.08207,9.70525,1.36256,-9.13115,0.555145,5.27655,11.2858,-5.81068,6.03737,-3.58716,-13.7679,-0.179168,0.0938394,0.228194,67,85,85,88,90,10,86,88,93,85,93,43
1.76479,-1.90041,0.426049,-0.125058,-17.1814,27.5121,-10.3375,-0.426049,0.426049,-0.125058,-17.1439,27.5121,-10.3751,-0.426049,4.65079,15.8498,7.08259,9.70512,1.36239,-9.13114,0.555087,5.27608,11.286,-5.81039,6.03724,-3.58739,-13.768,-0.179226,0.0937938,0.228191,67,85,85,88,90,10,86,88,93,85,93,43
1.7643,-1.90046,0.426045,-0.125,-17.1813,27.5121,-10.3376,-0.426045,0.426045,-0.125,-17.1438,27.5121,-10.3751,-0.426045,4.65061,15.8499,7.08315,9.705,1.3622,-9.13114,0.555027,5.27561,11.2861,-5.81009,6.03711,-3.5876,-13.7681,-0.179283,0.0937498,0.228189,67,85,85,88,90,10,86,88,93,85,93,43
1.76382,-1.9005,0.426042,-0.124943,-17.1812,27.512,-10.3376,-0.426042,0.426042,-0.124943,-17.1437,27.512,-10.3751,-0.426042,4.65043,15.8501,7.08371,9.70489,1.36201,-9.13116,0.554965,5.27515,11.2863,-5.8098,6.03699,-3.58781,-13.7682,-0.179339,0.0937074,0.228188,67,85,85,88,90,10,86,88,93,85,93,43
1.76335,-1.90055,0.42604,-0.124889,-17.1811,27.512,-10.3376,-0.42604,0.42604,-0.124889,-17.1437,27.512,-10.3751,-0.42604,4.65023,15.8502,7.08432,9.70479,1.36179,-9.13121,0.554899,5.27468,11.2865,-5.8095,6.03688,-3.58802,-13.7683,-0.179397,0.0936671,0.228186,67,85,85,88,90,10,86,88,93,85,93,43
1.76289,-1.9006,0.426038,-0.124838,-17.1811,27.512,-10.3376,-0.426038,0.426038,-0.124838,-17.1436,27.512,-10.3751,-0.426038,4.65002,15.8503,7.08496,9.70471,1.36156,-9.13128,0.554829,5.27421,11.2866,-5.80919,6.03678,-3.58822,-13.7684,-0.179455,0.0936286,0.228186,67,85,85,88,90,10,86,88,93,85,93,43
1.76244,-1.90065,0.426038,-0.124789,-17.1811,27.512,-10.3377,-0.426038,0.426038,-0.124789,-17.1436,27.512,-10.3751,-0.426038,4.64979,15.8505,7.08563,9.70463,1.36132,-9.13137,0.554758,5.27374,11.2868,-5.80889,6.03669,-3.58842,-13.7685,-0.179514,0.0935919,0.228186,67,85,85,88,90,10,86,88,93,85,93,43
1.76199,-1.9007,0.426038,-0.124742,-17.181,27.512,-10.3377,-0.426038,0.426038,-0.124742,-17.1436,27.512,-10.3751,-0.426038,4.64956,15.8506,7.08632,9.70457,1.36106,-9.13148,0.554686,5.27327,11.2869,-5.80859,6.03661,-3.58861,-13.7686,-0.179571,0.0935568,0.228186,67,85,85,88,90,10,86,88,93,85,93,43
1.76154,-1.90074,0.426039,-0.124698,-17.181,27.512,-10.3378,-0.426039,0.426039,-0.124698,-17.1436,27.512,-10.3752,-0.426039,4.64931,15.8508,7.08704,9.70452,1.3608,-9.13161,0.554612,5.2728,11.2871,-5.80829,6.03654,-3.58879,-13.7687,-0.179626,0.0935232,0.228186,67,85,85,88,90,10,86,88,93,85,93,43
1.76109,-1.90078,0.42604,-0.124655,-17.1809,27.512,-10.3378,-0.42604,0.42604,-0.124655,-17.1436,27.512,-10.3752,-0.42604,4.64906,15.851,7.08778,9.70447,1.36052,-9.13175,0.554539,5.27233,11.2872,-5.80799,6.03647,-3.58896,-13.7688,-0.179679,0.093491,0.228186,67,85,85,88,90,10,86,88,93,85,93,43
1.76063,-1.90082,0.426041,-0.124613,-17.1809,27.512,-10.3378,-0.426041,0.426041,-0.124613,-17.1435,27.512,-10.3752,-0.426041,4.6488,15.8511,7.08853,9.70443,1.36024,-9.13189,0.554465,5.27186,11.2874,-5.8077,6.03641,-3.58912,-13.7688,-0.17973,0.0934601,0.228187,67,85,85,88,90,10,86,88,93,85,93,43
1.76018,-1.90084,0.426043,-0.124574,-17.1809,27.5121,-10.3379,-0.426043,0.426043,-0.124574,-17.1435,27.5121,-10.3752,-0.426043,4.64854,15.8513,7.08928,9.70439,1.35995,-9.13205,0.554393,5.2714,11.2875,-5.80742,6.03635,-3.58927,-13.7689,-0.179778,0.0934303,0.228188,67,85,85,88,90,10,86,88,93,85,93,43
1.75971,-1.90086,0.426044,-0.124535,-17.1809,27.5121,-10.3379,-0.426044,0.426044,-0.124535,-17.1435,27.5121,-10.3753,-0.426044,4.64828,15.8515,7.09003,9.70435,1.35966,-9.13219,0.554324,5.27095,11.2877,-5.80716,6.0363,-3.58941,-13.769,-0.179819,0.0934013,0.228189,67,85,85,88,90,10,86,88,93,85,93,43
1.75923,-1.90086,0.426045,-0.124498,-17.1808,27.5121,-10.3379,-0.426045,0.426045,-0.124498,-17.1435,27.5121,-10.3753,-0.426045,4.64802,15.8516,7.09079,9.7043,1.35937,-9.13233,0.554256,5.27051,11.2878,-5.80691,6.03625,-3.58953,-13.7691,-0.179854,0.0933732,0.228189,67,85,85,88,90,10,86,88,93,85,93,43
1.75874,-1.90085,0.426046,-0.124461,-17.1808,27.5121,-10.338,-0.426046,0.426046,-0.124461,-17.1435,27.5121,-10.3753,-0.426046,4.64776,15.8518,7.09156,9.70426,1.35907,-9.13248,0.55419,5.27007,11.288,-5.80668,6.03621,-3.58965,-13.7691,-0.179887,0.0933461,0.22819,67,85,85,88,90,10,86,88,93,85,93,43
1.75824,-1.90083,0.426047,-0.124427,-17.1808,27.5121,-10.338,-0.426047,0.426047,-0.124427,-17.1434,27.5121,-10.3753,-0.426047,4.6475,15.8519,7.09232,9.70423,1.35878,-9.13264,0.554124,5.26964,11.2881,-5.80644,6.03617,-3.58976,-13.7692,-0.179919,0.0933201,0.228191,67,85,85,88,90,10,86,88,93,85,93,43
1.75774,-1.9008,0.426049,-0.124394,-17.1807,27.5121,-10.338,-0.426049,0.426049,-0.124394,-17.1434,27.5121,-10.3753,-0.426049,4.64724,15.8521,7.0931,9.7042,1.35847,-9.1328,0.554057,5.26921,11.2883,-5.8062,6.03614,-3.58987,-13.7693,-0.179951,0.0932953,0.228192,67,85,85,88,90,10,86,88,93,85,93,43
1.75723,-1.90077,0.426052,-0.124362,-17.1807,27.5121,-10.3381,-0.426052,0.426052,-0.124362,-17.1434,27.5121,-10.3754,-0.426052,4.64697,15.8523,7.09387,9.70419,1.35817,-9.13298,0.553989,5.26878,11.2884,-5.80596,6.03611,-3.58998,-13.7693,-0.179987,0.0932717,0.228193,67,85,85,88,90,10,86,88,93,85,93,43
1.75672,-1.90073,0.426055,-0.124333,-17.1807,27.5121,-10.3381,-0.426055,0.426055,-0.124333,-17.1434,27.5121,-10.3754,-0.426055,4.64669,15.8524,7.09464,9.70418,1.35787,-9.13318,0.553918,5.26836,11.2885,-5.80571,6.03608,-3.59009,-13.7694,-0.180026,0.0932495,0.228195,67,85,85,88,90,10,86,88,93,85,93,43
1.75622,-1.90068,0.426059,-0.124305,-17.1805,27.5119,-10.3381,-0.426059,0.426059,-0.124305,-17.1432,27.5119,-10.3754,-0.426059,4.64642,15.8526,7.09541,9.70418,1.35757,-9.13338,0.553846,5.26794,11.2887,-5.80545,6.03606,-3.59021,-13.7695,-0.180069,0.0932284,0.228197,67,85,85,88,90,10,86,88,93,85,93,43
1.75571,-1.90064,0.426064,-0.124279,-17.1804,27.5119,-10.3381,-0.426064,0.426064,-0.124279,-17.1431,27.5119,-10.3754,-0.426064,4.64613,15.8528,7.09619,9.7042,1.35726,-9.13361,0.55377,5.26752,11.2888,-5.80518,6.03605,-3.59034,-13.7695,-0.18012,0.093209,0.2282,67,85,85,88,90,10,86,88,93,85,93,43
1.75521,-1.90059,0.426071,-0.124255,-17.1804,27.5119,-10.3382,-0.426071,0.426071,-0.124255,-17.1431,27.5119,-10.3754,-0.426071,4.64584,15.853,7.09696,9.70424,1.35696,-9.13387,0.553691,5.26711,11.2889,-5.80488,6.03604,-3.59048,-13.7696,-0.18018,0.0931912,0.228203,67,85,85,88,90,10,86,88,93,85,93,43
1.75471,-1.90053,0.426078,-0.124233,-17.1804,27.5119,-10.3382,-0.426078,0.426078,-0.124233,-17.1431,27.5119,-10.3755,-0.426078,4.64553,15.8531,7.09773,9.70429,1.35666,-9.13415,0.553607,5.2667,11.289,-5.80457,6.03603,-3.59064,-13.7696,-0.180247,0.0931749,0.228207,67,85,85,88,90,10,86,88,93,85,93,43
1.75421,-1.90047,0.426087,-0.124213,-17.1803,27.5119,-10.3382,-0.426087,0.426087,-0.124213,-17.1431,27.5119,-10.3755,-0.426087,4.64523,15.8533,7.0985,9.70436,1.35636,-9.13445,0.553518,5.26629,11.2891,-5.80424,6.03603,-3.5908,-13.7697,-0.180323,0.0931598,0.228212,67,85,85,88,90,10,86,88,93,85,93,43
1.75371,-1.90041,0.426096,-0.124195,-17.1803,27.5119,-10.3383,-0.426096,0.426096,-0.124195,-17.143,27.5119,-10.3755,-0.426096,4.64492,15.8535,7.09926,9.70443,1.35606,-9.13477,0.553424,5.26589,11.2892,-5.8039,6.03603,-3.59098,-13.7698,-0.180407,0.0931459,0.228217,67,85,85,88,90,10,86,88,93,85,93,43
1.75321,-1.90034,0.426105,-0.124178,-17.1803,27.5119,-10.3383,-0.426105,0.426105,-0.124178,-17.143,27.5119,-10.3755,-0.426105,4.6446,15.8537,7.10001,9.70452,1.35575,-9.13511,0.553326,5.26549,11.2893,-5.80354,6.03604,-3.59117,-13.7698,-0.180499,0.0931331,0.228222,67,85,85,88,90,10,86,88,93,85,93,43
1.75272,-1.90027,0.426115,-0.124162,-17.1802,27.5119,-10.3383,-0.426115,0.426115,-0.124162,-17.143,27.5119,-10.3756,-0.426115,4.64429,15.8539,7.10075,9.70461,1.35545,-9.13546,0.553222,5.2651,11.2893,-5.80316,6.03605,-3.59137,-13.7699,-0.180599,0.0931213,0.228228,67,85,85,88,90,10,86,88,93,85,93,43
1.75224,-1.90019,0.426125,-0.124147,-17.1802,27.5119,-10.3383,-0.426125,0.426125,-0.124147,-17.143,27.5119,-10.3756,-0.426125,4.64398,15.8541,7.10148,9.70471,1.35515,-9.13582,0.553116,5.26471,11.2894,-5.80279,6.03606,-3.59158,-13.7699,-0.180703,0.0931103,0.228233,67,85,85,88,90,10,86,88,93,85,93,43
1.75175,-1.90011,0.426136,-0.124133,-17.1802,27.5119,-10.3384,-0.426136,0.426136,-0.124133,-17.1429,27.5119,-10.3756,-0.426136,4.64366,15.8543,7.1022,9.70481,1.35485,-9.1362,0.553006,5.26433,11.2895,-5.80239,6.03607,-3.59181,-13.77,-0.180815,0.0930997,0.228239,67,85,85,88,90,10,86,88,93,85,93,43
1.75127,-1.90003,0.426146,-0.12412,-17.1802,27.5119,-10.3384,-0.426146,0.426146,-0.12412,-17.1429,27.5119,-10.3756,-0.426146,4.64335,15.8545,7.10292,9.70492,1.35454,-9.13658,0.552891,5.26395,11.2896,-5.80198,6.03609,-3.59204,-13.77,-0.180934,0.0930896,0.228245,67,85,85,88,90,10,86,88,93,85,93,43
1.7508,-1.89994,0.426157,-0.124107,-17.1801,27.5119,-10.3384,-0.426157,0.426157,-0.124107,-17.1429,27.5119,-10.3757,-0.426157,4.64305,15.8546,7.10361,9.70503,1.35423,-9.13698,0.55277,5.26358,11.2896,-5.80156,6.03612,-3.59229,-13.7701,-0.181061,0.0930803,0.22825,67,85,85,88,90,10,86,88,93,85,93,43
1.75033,-1.89984,0.426167,-0.124096,-17.1801,27.5119,-10.3385,-0.426167,0.426167,-0.124096,-17.1429,27.5119,-10.3757,-0.426167,4.64274,15.8548,7.10429,9.70514,1.35393,-9.13739,0.552644,5.26322,11.2897,-5.80114,6.03614,-3.59255,-13.7701,-0.181194,0.0930719,0.228256,67,85,85,88,90,10,86,88,93,85,93,43
1.74987,-1.89974,0.426177,-0.124086,-17.1801,27.5119,-10.3385,-0.426177,0.426177,-0.124086,-17.1428,27.5119,-10.3757,-0.426177,4.64244,15.855,7.10495,9.70525,1.35363,-9.1378,0.552512,5.26287,11.2898,-5.8007,6.03617,-3.59281,-13.7702,-0.181335,0.0930644,0.228262,67,85,85,88,90,10,86,88,93,85,93,43
1.74942,-1.89962,0.426187,-0.124077,-17.18,27.5119,-10.3385,-0.426187,0.426187,-0.124077,-17.1428,27.5119,-10.3757,-0.426187,4.64214,15.8552,7.10557,9.70535,1.35333,-9.13823,0.552374,5.26252,11.2898,-5.80027,6.03619,-3.59308,-13.7702,-0.181483,0.0930578,0.228267,67,85,85,88,90,10,86,88,93,85,93,43
1.74897,-1.89949,0.426197,-0.12407,-17.18,27.5119,-10.3385,-0.426197,0.426197,-0.12407,-17.1428,27.5119,-10.3758,-0.426197,4.64184,15.8553,7.10617,9.70546,1.35304,-9.13867,0.55223,5.26219,11.2899,-5.79983,6.03622,-3.59335,-13.7703,-0.181638,0.0930524,0.228272,67,85,85,88,90,10,86,88,93,85,93,43
1.74854,-1.89936,0.426206,-0.124064,-17.18,27.5119,-10.3386,-0.426206,0.426206,-0.124064,-17.1428,27.5119,-10.3758,-0.426206,4.64155,15.8555,7.10674,9.70556,1.35276,-9.13911,0.552084,5.26187,11.29,-5.79939,6.03624,-3.59363,-13.7703,-0.181796,0.0930477,0.228277,67,85,85,88,90,10,86,88,93,85,93,43
1.74812,-1.89921,0.426214,-0.124059,-17.18,27.5119,-10.3386,-0.426214,0.426214,-0.124059,-17.1427,27.5119,-10.3758,-0.426214,4.64127,15.8556,7.10726,9.70565,1.35248,-9.13957,0.551927,5.26157,11.29,-5.79896,6.03626,-3.5939,-13.7704,-0.181962,0.0930446,0.228281,67,85,85,88,90,10,86,88,93,85,93,43
1.74772,-1.89905,0.426221,-0.124057,-17.1799,27.5119,-10.3386,-0.426221,0.426221,-0.124057,-17.1427,27.5119,-10.3758,-0.426221,4.64099,15.8558,7.10774,9.70573,1.35222,-9.14003,0.551761,5.26127,11.2901,-5.79853,6.03627,-3.59417,-13.7704,-0.182135,0.0930428,0.228285,67,85,85,88,90,10,86,88,93,85,93,43
1.74733,-1.89887,0.426227,-0.124056,-17.1799,27.5119,-10.3386,-0.426227,0.426227,-0.124056,-17.1427,27.5119,-10.3759,-0.426227,4.64071,15.8559,7.10818,9.7058,1.35197,-9.14051,0.55159,5.261,11.2902,-5.79811,6.03628,-3.59444,-13.7705,-0.182314,0.0930423,0.228289,67,85,85,88,90,10,86,88,93,85,93,43
1.74694,-1.89869,0.426233,-0.124057,-17.1799,27.5119,-10.3387,-0.426233,0.426233,-0.124057,-17.1427,27.5119,-10.3759,-0.426233,4.64044,15.8561,7.10859,9.70587,1.35172,-9.14098,0.551413,5.26073,11.2902,-5.79769,6.03629,-3.59471,-13.7706,-0.182498,0.0930428,0.228292,67,85,85,88,90,10,86,88,93,85,93,43
1.74658,-1.89849,0.426239,-0.124059,-17.1799,27.5119,-10.3387,-0.426239,0.426239,-0.124059,-17.1427,27.5119,-10.3759,-0.426239,4.64018,15.8562,7.10898,9.70593,1.35148,-9.14147,0.551234,5.26047,11.2903,-5.79727,6.03629,-3.59498,-13.7707,-0.182685,0.0930443,0.228295,67,85,85,88,90,10,86,88,93,85,93,43
1.74622,-1.89829,0.426244,-0.124062,-17.1799,27.5119,-10.3387,-0.426244,0.426244,-0.124062,-17.1426,27.5119,-10.3759,-0.426244,4.63992,15.8563,7.10933,9.70599,1.35125,-9.14195,0.551052,5.26023,11.2904,-5.79686,6.0363,-3.59525,-13.7707,-0.182876,0.0930465,0.228298,67,85,85,88,90,10,86,88,93,85,93,43
1.74587,-1.89808,0.426249,-0.124066,-17.1798,27.5119,-10.3387,-0.426249,0.426249,-0.124066,-17.1426,27.5119,-10.3759,-0.426249,4.63966,15.8564,7.10967,9.70604,1.35102,-9.14243,0.550869,5.25999,11.2904,-5.79645,6.0363,-3.59552,-13.7708,-0.183069,0.0930495,0.228301,67,85,85,88,90,10,86,88,93,85,93,43
1.74553,-1.89787,0.426254,-0.124071,-17.1793,27.5115,-10.3386,-0.426254,0.426254,-0.124071,-17.142,27.5115,-10.3759,-0.426254,4.63941,15.8566,7.10999,9.70609,1.35079,-9.14291,0.550687,5.25977,11.2905,-5.79604,6.0363,-3.59578,-13.7709,-0.183261,0.0930529,0.228303,67,85,85,88,90,10,86,88,93,85,93,43
1.74521,-1.89765,0.426259,-0.124076,-17.1792,27.5115,-10.3387,-0.426259,0.426259,-0.124076,-17.142,27.5115,-10.3759,-0.426259,4.63917,15.8567,7.11032,9.70614,1.35056,-9.14338,0.550511,5.25955,11.2906,-5.79564,6.0363,-3.59606,-13.771,-0.183452,0.0930567,0.228306,67,85,85,88,90,10,86,88,93,85,93,43
1.7449,-1.89743,0.426264,-0.124081,-17.1792,27.5115,-10.3387,-0.426264,0.426264,-0.124081,-17.142,27.5115,-10.3759,-0.426264,4.63893,15.8568,7.11063,9.70619,1.35033,-9.14384,0.550338,5.25934,11.2906,-5.79524,6.03631,-3.59633,-13.7711,-0.183644,0.0930608,0.228309,67,85,85,88,90,10,86,88,93,85,93,43
1.7446,-1.8972,0.426268,-0.124087,-17.1792,27.5115,-10.3387,-0.426268,0.426268,-0.124087,-17.142,27.5115,-10.3759,-0.426268,4.6387,15.8569,7.11094,9.70623,1.3501,-9.14429,0.550166,5.25914,11.2907,-5.79484,6.03631,-3.59661,-13.7712,-0.183836,0.0930654,0.228311,67,85,85,88,90,10,86,88,93,85,93,43
1.7443,-1.89697,0.426273,-0.124094,-17.1792,27.5115,-10.3387,-0.426273,0.426273,-0.124094,-17.142,27.5115,-10.3759,-0.426273,4.63847,15.857,7.11122,9.70627,1.34988,-9.14475,0.549993,5.25894,11.2908,-5.79444,6.03631,-3.59688,-13.7713,-0.184027,0.0930704,0.228314,67,85,85,88,90,10,86,88,93,85,93,43
1.74402,-1.89674,0.426277,-0.124101,-17.1792,27.5115,-10.3387,-0.426277,0.426277,-0.124101,-17.142,27.5115,-10.376,-0.426277,4.63825,15.8571,7.11148,9.70631,1.34967,-9.1452,0.549819,5.25876,11.2908,-5.79406,6.0363,-3.59715,-13.7713,-0.184219,0.0930759,0.228316,67,85,85,88,90,10,86,88,93,85,93,43
1.74374,-1.89651,0.42628,-0.124109,-17.1792,27.5115,-10.3387,-0.42628,0.42628,-0.124109,-17.1419,27.5115,-10.376,-0.42628,4.63804,15.8572,7.11171,9.70634,1.34947,-9.14565,0.549641,5.25858,11.2909,-5.79369,6.0363,-3.59741,-13.7714,-0.184412,0.093082,0.228318,67,85,85,88,90,10,86,88,93,85,93,43
1.74347,-1.89628,0.426282,-0.124118,-17.1792,27.5115,-10.3388,-0.426282,0.426282,-0.124118,-17.1419,27.5115,-10.376,-0.426282,4.63782,15.8573,7.11191,9.70636,1.34928,-9.14611,0.549459,5.25841,11.2909,-5.79332,6.03629,-3.59765,-13.7715,-0.184604,0.0930886,0.228319,67,85,85,88,90,10,86,88,93,85,93,43
1.74321,-1.89605,0.426284,-0.124127,-17.1784,27.5111,-10.3387,-0.426284,0.426284,-0.124127,-17.1412,27.5111,-10.3759,-0.426284,4.63761,15.8574,7.11208,9.70639,1.34911,-9.14656,0.549276,5.25825,11.291,-5.79297,6.03628,-3.59789,-13.7716,-0.184795,0.0930955,0.22832,67,85,85,88,90,10,86,88,93,85,93,43
1.74295,-1.89583,0.426285,-0.124137,-17.1784,27.5111,-10.3387,-0.426285,0.426285,-0.124137,-17.1412,27.5111,-10.3759,-0.426285,4.63741,15.8575,7.1122,9.7064,1.34895,-9.14702,0.549083,5.2581,11.2911,-5.79264,6.03627,-3.59811,-13.7717,-0.184988,0.093103,0.228321,67,85,85,88,90,10,86,88,93,85,93,43
1.74269,-1.89561,0.426285,-0.124148,-17.1784,27.5111,-10.3387,-0.426285,0.426285,-0.124148,-17.1412,27.5111,-10.3759,-0.426285,4.63721,15.8575,7.11228,9.70641,1.34882,-9.14748,0.548883,5.25795,11.2911,-5.79232,6.03626,-3.59831,-13.7718,-0.185181,0.0931111,0.22832,67,85,85,88,90,10,86,88,93,85,93,43
1.74244,-1.89539,0.426284,-0.12416,-17.1784,27.5111,-10.3387,-0.426284,0.426284,-0.12416,-17.1412,27.5111,-10.3759,-0.426284,4.63701,15.8576,7.11231,9.70641,1.34871,-9.14795,0.548674,5.25781,11.2912,-5.79202,6.03624,-3.59849,-13.7719,-0.185375,0.0931197,0.22832,67,85,85,88,90,10,86,88,93,85,93,43
1.7422,-1.89517,0.426281,-0.124172,-17.1784,27.5111,-10.3387,-0.426281,0.426281,-0.124172,-17.1411,27.5111,-10.376,-0.426281,4.63682,15.8576,7.1123,9.70641,1.34862,-9.14842,0.548459,5.25768,11.2913,-5.79173,6.03622,-3.59866,-13.772,-0.185569,0.0931289,0.228318,67,85,85,88,90,10,86,88,93,85,93,43
1.74196,-1.89496,0.426278,-0.124185,-17.1784,27.5111,-10.3387,-0.426278,0.426278,-0.124185,-17.1411,27.5111,-10.376,-0.426278,4.63663,15.8577,7.11225,9.7064,1.34855,-9.1489,0.548237,5.25755,11.2913,-5.79146,6.03619,-3.59881,-13.7721,-0.185764,0.0931387,0.228317,67,85,85,88,90,10,86,88,93,85,93,43
1.74174,-1.89474,0.426274,-0.124199,-17.1784,27.5111,-10.3387,-0.426274,0.426274,-0.124199,-17.1411,27.5111,-10.376,-0.426274,4.63645,15.8577,7.11215,9.70638,1.3485,-9.14939,0.54801,5.25744,11.2914,-5.79121,6.03616,-3.59895,-13.7722,-0.185959,0.093149,0.228314,67,85,85,88,90,10,86,88,93,85,93,43
1.74153,-1.89452,0.426269,-0.124213,-17.1784,27.5111,-10.3387,-0.426269,0.426269,-0.124213,-17.1411,27.5111,-10.376,-0.426269,4.63627,15.8577,7.11201,9.70635,1.34847,-9.14989,0.547776,5.25733,11.2915,-5.79097,6.03612,-3.59907,-13.7723,-0.186155,0.0931598,0.228311,67,85,85,88,90,10,86,88,93,85,93,43
1.74132,-1.8943,0.426263,-0.124228,-17.1782,27.5109,-10.3387,-0.426263,0.426263,-0.124228,-17.1409,27.5109,-10.376,-0.426263,4.6361,15.8577,7.11185,9.70631,1.34845,-9.1504,0.547541,5.25723,11.2915,-5.79074,6.03608,-3.59918,-13.7724,-0.186348,0.0931709,0.228308,67,85,85,88,90,10,86,88,93,85,93,43
1.74113,-1.89408,0.426256,-0.124244,-17.1782,27.5109,-10.3387,-0.426256,0.426256,-0.124244,-17.1409,27.5109,-10.376,-0.426256,4.63593,15.8577,7.11165,9.70627,1.34844,-9.15091,0.547302,5.25715,11.2916,-5.79052,6.03603,-3.59928,-13.7725,-0.186541,0.0931828,0.228305,67,85,85,88,90,10,86,88,93,85,93,43
1.74095,-1.89386,0.426249,-0.12426,-17.1782,27.5109,-10.3387,-0.426249,0.426249,-0.12426,-17.1409,27.5109,-10.376,-0.426249,4.63577,15.8577,7.11141,9.70622,1.34845,-9.15143,0.547058,5.25707,11.2916,-5.79032,6.03597,-3.59937,-13.7726,-0.186734,0.0931953,0.228301,67,85,85,88,90,10,86,88,93,85,93,43
1.74079,-1.89364,0.426241,-0.124278,-17.1782,27.5109,-10.3387,-0.426241,0.426241,-0.124278,-17.1409,27.5109,-10.376,-0.426241,4.63562,15.8576,7.11113,9.70615,1.34847,-9.15197,0.54681,5.257,11.2917,-5.79014,6.03591,-3.59944,-13.7727,-0.186927,0.0932083,0.228296,67,85,85,88,90,10,86,88,93,85,93,43
1.74064,-1.89341,0.426232,-0.124295,-17.1782,27.5109,-10.3387,-0.426232,0.426232,-0.124295,-17.1409,27.5109,-10.376,-0.426232,4.63546,15.8576,7.11082,9.70608,1.34852,-9.15251,0.546557,5.25694,11.2918,-5.78996,6.03584,-3.5995,-13.7728,-0.187121,0.0932216,0.228291,67,85,85,88,90,10,86,88,93,85,93,43
1.7405,-1.89318,0.426222,-0.124313,-17.1781,27.5109,-10.3388,-0.426222,0.426222,-0.124313,-17.1409,27.5109,-10.376,-0.426222,4.63532,15.8575,7.11047,9.706,1.34858,-9.15306,0.546299,5.25688,11.2918,-5.7898,6.03577,-3.59955,-13.7729,-0.187315,0.093235,0.228286,67,85,85,88,90,10,86,88,93,85,93,43
1.74039,-1.89295,0.426211,-0.124331,-17.1781,27.5109,-10.3388,-0.426211,0.426211,-0.124331,-17.1408,27.5109,-10.3761,-0.426211,4.63517,15.8575,7.11009,9.70591,1.34867,-9.15362,0.546036,5.25683,11.2919,-5.78966,6.0357,-3.59957,-13.7731,-0.187511,0.0932484,0.22828,67,85,85,88,90,10,86,88,93,85,93,43
1.74029,-1.89271,0.426199,-0.124349,-17.1781,27.5109,-10.3388,-0.426199,0.426199,-0.124349,-17.1408,27.5109,-10.3761,-0.426199,4.63503,15.8574,7.10967,9.70581,1.34878,-9.15418,0.545768,5.25678,11.2919,-5.78953,6.03563,-3.59958,-13.7732,-0.187708,0.0932617,0.228273,67,85,85,88,90,10,86,88,93,85,93,43
1.7402,-1.89248,0.426186,-0.124366,-17.1781,27.5109,-10.3388,-0.426186,0.426186,-0.124366,-17.1408,27.5109,-10.3761,-0.426186,4.63489,15.8573,7.10924,9.7057,1.34892,-9.15475,0.545498,5.25672,11.292,-5.78941,6.03555,-3.59958,-13.7733,-0.187905,0.0932748,0.228266,67,85,85,88,90,10,86,88,93,85,93,43
1.74014,-1.89224,0.426173,-0.124383,-17.1782,27.511,-10.3388,-0.426173,0.426173,-0.124383,-17.1408,27.511,-10.3761,-0.426173,4.63475,15.8572,7.10877,9.70558,1.34908,-9.15532,0.545224,5.25667,11.292,-5.7893,6.03548,-3.59955,-13.7734,-0.188103,0.0932873,0.228259,67,85,85,88,90,10,86,88,93,85,93,43
1.7401,-1.892,0.426158,-0.124399,-17.1781,27.511,-10.3388,-0.426158,0.426158,-0.124399,-17.1408,27.511,-10.3761,-0.426158,4.63461,15.857,7.10827,9.70546,1.34927,-9.15589,0.544944,5.25661,11.292,-5.78921,6.03542,-3.59951,-13.7735,-0.188304,0.0932993,0.228251,67,85,85,88,90,10,86,88,93,85,93,43
1.74008,-1.89176,0.426143,-0.124415,-17.1781,27.511,-10.3388,-0.426143,0.426143,-0.124415,-17.1408,27.511,-10.3761,-0.426143,4.63447,15.8569,7.10775,9.70532,1.34948,-9.15646,0.544659,5.25654,11.292,-5.78913,6.03535,-3.59944,-13.7736,-0.188507,0.0933109,0.228243,67,85,85,88,90,10,86,88,93,85,93,43
1.74007,-1.89151,0.426126,-0.12443,-17.1781,27.511,-10.3388,-0.426126,0.426126,-0.12443,-17.1408,27.511,-10.3761,-0.426126,4.63433,15.8567,7.1072,9.70517,1.34973,-9.15704,0.544369,5.25648,11.2921,-5.78906,6.03529,-3.59936,-13.7737,-0.188711,0.0933222,0.228234,67,85,85,88,90,10,86,88,93,85,93,43
1.74009,-1.89126,0.426108,-0.124444,-17.1781,27.511,-10.3388,-0.426108,0.426108,-0.124444,-17.1408,27.511,-10.3761,-0.426108,4.63419,15.8565,7.10663,9.70501,1.34999,-9.15763,0.544074,5.25642,11.2921,-5.789,6.03522,-3.59927,-13.7737,-0.188918,0.0933333,0.228224,67,85,85,88,90,10,86,88,93,85,93,43
1.74011,-1.89102,0.426088,-0.124459,-17.1781,27.511,-10.3388,-0.426088,0.426088,-0.124459,-17.1408,27.511,-10.3761,-0.426088,4.63406,15.8563,7.10604,9.70485,1.35029,-9.15821,0.543775,5.25635,11.2921,-5.78896,6.03516,-3.59915,-13.7738,-0.189127,0.0933441,0.228213,67,85,85,88,90,10,86,88,93,85,93,43
1.74015,-1.89077,0.426068,-0.124473,-17.1781,27.511,-10.3388,-0.426068,0.426068,-0.124473,-17.1408,27.511,-10.3762,-0.426068,4.63392,15.8561,7.10544,9.70467,1.3506,-9.1588,0.543472,5.25628,11.2921,-5.78892,6.03509,-3.59903,-13.7739,-0.189337,0.0933547,0.228202,67,85,85,88,90,10,86,88,93,85,93,43
1.74019,-1.89052,0.426046,-0.124487,-17.178,27.5109,-10.3388,-0.426046,0.426046,-0.124487,-17.1406,27.5109,-10.3761,-0.426046,4.63378,15.8559,7.10484,9.70449,1.35093,-9.15938,0.543168,5.25622,11.2921,-5.78889,6.03502,-3.5989,-13.774,-0.189546,0.0933652,0.22819,67,85,85,88,90,10,86,88,93,85,93,43
1.74024,-1.89028,0.426022,-0.124501,-17.178,27.5109,-10.3388,-0.426022,0.426022,-0.124501,-17.1406,27.5109,-10.3761,-0.426022,4.63365,15.8556,7.10424,9.70431,1.35128,-9.15997,0.542859,5.25616,11.2921,-5.78887,6.03495,-3.59876,-13.7741,-0.189759,0.0933757,0.228177,67,85,85,88,90,10,86,88,93,85,93,43
1.7403,-1.89004,0.425997,-0.124515,-17.178,27.5109,-10.3388,-0.425997,0.425997,-0.124515,-17.1406,27.5109,-10.3762,-0.425997,4.63352,15.8553,7.10363,9.70411,1.35165,-9.16056,0.542544,5.2561,11.2921,-5.78886,6.03488,-3.59862,-13.7742,-0.189974,0.0933862,0.228163,67,85,85,88,90,10,86,88,93,85,93,43
1.74037,-1.8898,0.425969,-0.124529,-17.1779,27.5109,-10.3388,-0.425969,0.425969,-0.124529,-17.1406,27.5109,-10.3762,-0.425969,4.63339,15.855,7.10302,9.70391,1.35203,-9.16116,0.542226,5.25604,11.292,-5.78886,6.0348,-3.59846,-13.7743,-0.19019,0.0933967,0.228148,67,85,85,88,90,10,86,88,93,85,93,43
1.74044,-1.88956,0.425941,-0.124543,-17.1779,27.5109,-10.3388,-0.425941,0.425941,-0.124543,-17.1406,27.5109,-10.3762,-0.425941,4.63327,15.8547,7.10241,9.7037,1.35244,-9.16175,0.541905,5.25598,11.292,-5.78886,6.03472,-3.5983,-13.7743,-0.190407,0.0934071,0.228133,67,85,85,88,90,10,86,88,93,85,93,43
1.74052,-1.88933,0.425912,-0.124557,-17.1779,27.5109,-10.3388,-0.425912,0.425912,-0.124557,-17.1406,27.5109,-10.3762,-0.425912,4.63314,15.8544,7.1018,9.70349,1.35285,-9.16234,0.541584,5.25592,11.292,-5.78887,6.03464,-3.59813,-13.7744,-0.190623,0.0934174,0.228117,67,85,85,88,90,10,86,88,93,85,93,43
1.74061,-1.88909,0.425881,-0.12457,-17.1779,27.5109,-10.3388,-0.425881,0.425881,-0.12457,-17.1406,27.5109,-10.3762,-0.425881,4.63302,15.854,7.10119,9.70328,1.35328,-9.16293,0.541263,5.25587,11.292,-5.78889,6.03456,-3.59796,-13.7745,-0.190839,0.0934276,0.2281,67,85,85,88,90,10,86,88,93,85,93,43
1.7407,-1.88886,0.42585,-0.124584,-17.1779,27.5109,-10.3388,-0.42585,0.42585,-0.124584,-17.1406,27.5109,-10.3762,-0.42585,4.6329,15.8537,7.10057,9.70306,1.35372,-9.16351,0.540943,5.25582,11.292,-5.78891,6.03448,-3.59778,-13.7746,-0.191053,0.0934377,0.228083,67,85,85,88,90,10,86,88,93,85,93,43
1.74081,-1.88864,0.425819,-0.124597,-17.1779,27.5109,-10.3388,-0.425819,0.425819,-0.124597,-17.1405,27.5109,-10.3762,-0.425819,4.63278,15.8533,7.09996,9.70284,1.35415,-9.16408,0.540627,5.25576,11.292,-5.78893,6.03439,-3.5976,-13.7746,-0.191264,0.0934475,0.228066,67,85,85,88,90,10,86,88,93,85,93,43
1.74092,-1.88841,0.425788,-0.124609,-17.178,27.5109,-10.3389,-0.425788,0.425788,-0.124609,-17.1406,27.5109,-10.3762,-0.425788,4.63266,15.853,7.09936,9.70262,1.35459,-9.16465,0.540314,5.25571,11.292,-5.78896,6.03431,-3.59741,-13.7747,-0.191471,0.093457,0.228049,67,85,85,88,90,10,86,88,93,85,93,43
1.74105,-1.88819,0.425757,-0.124622,-17.178,27.5109,-10.3389,-0.425757,0.425757,-0.124622,-17.1406,27.5109,-10.3762,-0.425757,4.63255,15.8526,7.09875,9.7024,1.35503,-9.16521,0.540004,5.25566,11.292,-5.789,6.03423,-3.59723,-13.7748,-0.191674,0.0934662,0.228032,67,85,85,88,90,10,86,88,93,85,93,43
1.74118,-1.88797,0.425725,-0.124633,-17.178,27.5109,-10.3389,-0.425725,0.425725,-0.124633,-17.1406,27.5109,-10.3763,-0.425725,4.63244,15.8523,7.09815,9.70218,1.35548,-9.16577,0.539696,5.25561,11.292,-5.78904,6.03415,-3.59704,-13.7749,-0.191875,0.0934751,0.228015,67,85,85,88,90,10,86,88,93,85,93,43
1.74132,-1.88776,0.425694,-0.124645,-17.178,27.5109,-10.3389,-0.425694,0.425694,-0.124645,-17.1406,27.5109,-10.3763,-0.425694,4.63233,15.8519,7.09756,9.70195,1.35592,-9.16631,0.539391,5.25556,11.2919,-5.78908,6.03407,-3.59685,-13.7749,-0.192073,0.0934839,0.227998,67,85,85,88,90,10,86,88,93,85,93,43
1.74147,-1.88755,0.425662,-0.124657,-17.178,27.5109,-10.3389,-0.425662,0.425662,-0.124657,-17.1406,27.5109,-10.3763,-0.425662,4.63222,15.8515,7.09697,9.70173,1.35637,-9.16685,0.539089,5.25551,11.2919,-5.78913,6.03399,-3.59665,-13.775,-0.19227,0.0934927,0.22798,67,85,85,88,90,10,86,88,93,85,93,43
1.74163,-1.88734,0.425629,-0.124669,-17.178,27.5109,-10.3389,-0.425629,0.425629,-0.124669,-17.1406,27.5109,-10.3763,-0.425629,4.63212,15.8512,7.09639,9.70151,1.35682,-9.16739,0.538789,5.25546,11.2919,-5.78917,6.03391,-3.59646,-13.7751,-0.192466,0.0935015,0.227962,67,85,85,88,90,10,86,88,93,85,93,43
1.74178,-1.88713,0.425596,-0.12468,-17.178,27.5109,-10.3389,-0.425596,0.425596,-0.12468,-17.1406,27.5109,-10.3763,-0.425596,4.63201,15.8508,7.09582,9.70129,1.35728,-9.16792,0.538491,5.25542,11.2919,-5.78922,6.03383,-3.59627,-13.7751,-0.192662,0.0935103,0.227944,67,85,85,88,90,10,86,88,93,85,93,43
1.74194,-1.88693,0.425564,-0.124692,-17.178,27.5109,-10.3389,-0.425564,0.425564,-0.124692,-17.1406,27.5109,-10.3763,-0.425564,4.63191,15.8504,7.09527,9.70107,1.35773,-9.16843,0.538197,5.25537,11.2919,-5.78927,6.03374,-3.59609,-13.7752,-0.192856,0.0935191,0.227926,67,85,85,88,90,10,86,88,93,85,93,43
1.7421,-1.88673,0.42553,-0.124704,-17.1783,27.5111,-10.3389,-0.42553,0.42553,-0.124704,-17.1409,27.5111,-10.3763,-0.42553,4.63182,15.85,7.09472,9.70086,1.35818,-9.16894,0.537906,5.25534,11.2919,-5.78932,6.03366,-3.5959,-13.7753,-0.193051,0.0935281,0.227908,67,85,85,88,90,10,86,88,93,85,93,43
1.74226,-1.88654,0.425496,-0.124716,-17.1783,27.5111,-10.3389,-0.425496,0.425496,-0.124716,-17.1409,27.5111,-10.3764,-0.425496,4.63172,15.8497,7.09417,9.70065,1.35863,-9.16945,0.537618,5.2553,11.2919,-5.78936,6.03358,-3.59571,-13.7753,-0.193248,0.0935373,0.22789,67,85,85,88,90,10,86,88,93,85,93,43
1.74242,-1.88635,0.425462,-0.124729,-17.1783,27.5111,-10.3389,-0.425462,0.425462,-0.124729,-17.1408,27.5111,-10.3764,-0.425462,4.63162,15.8493,7.09365,9.70043,1.35908,-9.16994,0.53733,5.25527,11.2919,-5.78941,6.0335,-3.59553,-13.7754,-0.193445,0.0935466,0.227871,67,85,85,88,90,10,86,88,93,85,93,43
1.74258,-1.88616,0.425428,-0.124741,-17.1783,27.5111,-10.3389,-0.425428,0.425428,-0.124741,-17.1408,27.5111,-10.3764,-0.425428,4.63153,15.8489,7.09314,9.70022,1.35954,-9.17044,0.537042,5.25524,11.2919,-5.78945,6.03341,-3.59535,-13.7755,-0.193643,0.0935561,0.227852,67,85,85,88,90,10,86,88,93,85,93,43
1.74274,-1.88598,0.425393,-0.124754,-17.1783,27.5111,-10.3389,-0.425393,0.425393,-0.124754,-17.1408,27.5111,-10.3764,-0.425393,4.63144,15.8485,7.09267,9.70002,1.35998,-9.17093,0.536751,5.25521,11.2918,-5.78949,6.03333,-3.59518,-13.7755,-0.193842,0.0935655,0.227833,67,85,85,88,90,10,86,88,93,85,93,43
1.74291,-1.8858,0.425357,-0.124767,-17.1783,27.5111,-10.339,-0.425357,0.425357,-0.124767,-17.1408,27.5111,-10.3764,-0.425357,4.63136,15.8481,7.09222,9.69981,1.36043,-9.17142,0.536458,5.25519,11.2918,-5.78954,6.03324,-3.59502,-13.7756,-0.194042,0.093575,0.227814,67,85,85,88,90,10,86,88,93,85,93,43
1.74308,-1.88562,0.425322,-0.124779,-17.1783,27.5111,-10.339,-0.425322,0.425322,-0.124779,-17.1408,27.5111,-10.3764,-0.425322,4.63127,15.8477,7.09182,9.69961,1.36086,-9.17191,0.536161,5.25517,11.2918,-5.78957,6.03314,-3.59487,-13.7757,-0.194242,0.0935843,0.227794,67,85,85,88,90,10,86,88,93,85,93,43
1.74325,-1.88545,0.425286,-0.124791,-17.1784,27.5112,-10.339,-0.425286,0.425286,-0.124791,-17.141,27.5112,-10.3764,-0.425286,4.6312,15.8473,7.09144,9.6994,1.36129,-9.17239,0.535864,5.25515,11.2918,-5.78961,6.03305,-3.59473,-13.7757,-0.19444,0.0935936,0.227775,67,85,84,88,90,10,86,88,93,85,93,43
1.74343,-1.88529,0.425251,-0.124804,-17.1784,27.5112,-10.339,-0.425251,0.425251,-0.124804,-17.141,27.5112,-10.3764,-0.425251,4.63112,15.8469,7.09111,9.69921,1.36171,-9.17287,0.535558,5.25514,11.2918,-5.78965,6.03295,-3.5946,-13.7758,-0.194637,0.0936028,0.227756,67,85,84,88,90,10,86,88,93,85,93,43
1.7436,-1.88513,0.425216,-0.124816,-17.1784,27.5112,-10.339,-0.425216,0.425216,-0.124816,-17.141,27.5112,-10.3764,-0.425216,4.63105,15.8465,7.09084,9.69901,1.36212,-9.17336,0.535245,5.25513,11.2918,-5.78968,6.03285,-3.59449,-13.7758,-0.194834,0.093612,0.227737,67,85,84,88,90,10,86,88,93,85,93,43
1.74378,-1.88497,0.42518,-0.124828,-17.1784,27.5112,-10.339,-0.42518,0.42518,-0.124828,-17.1409,27.5112,-10.3764,-0.42518,4.63099,15.8461,7.09061,9.69882,1.36251,-9.17386,0.534925,5.25513,11.2917,-5.78971,6.03275,-3.5944,-13.7759,-0.195031,0.093621,0.227717,67,85,84,88,90,10,86,88,93,85,93,43
1.74397,-1.88482,0.425145,-0.12484,-17.1784,27.5112,-10.339,-0.425145,0.425145,-0.12484,-17.1409,27.5112,-10.3764,-0.425145,4.63093,15.8457,7.09043,9.69862,1.36289,-9.17435,0.534598,5.25513,11.2917,-5.78973,6.03264,-3.59431,-13.776,-0.195228,0.0936297,0.227698,67,85,84,88,90,10,86,88,93,85,93,43
1.74416,-1.88467,0.425109,-0.124851,-17.1784,27.5112,-10.339,-0.425109,0.425109,-0.124851,-17.1409,27.5112,-10.3764,-0.425109,4.63088,15.8453,7.0903,9.69843,1.36326,-9.17485,0.534264,5.25513,11.2917,-5.78976,6.03253,-3.59424,-13.776,-0.195426,0.093638,0.227679,67,85,84,88,90,10,86,88,93,85,93,43
1.74435,-1.88454,0.425074,-0.124861,-17.1784,27.5112,-10.339,-0.425074,0.425074,-0.124861,-17.1409,27.5112,-10.3764,-0.425074,4.63083,15.8448,7.09022,9.69825,1.36361,-9.17535,0.533922,5.25514,11.2917,-5.78979,6.03242,-3.59419,-13.7761,-0.195626,0.0936459,0.227659,67,85,84,88,90,10,86,88,93,85,93,43
1.74455,-1.8844,0.425039,-0.124871,-17.1784,27.5112,-10.339,-0.425039,0.425039,-0.124871,-17.1409,27.5112,-10.3764,-0.425039,4.63079,15.8444,7.0902,9.69806,1.36394,-9.17585,0.533574,5.25515,11.2916,-5.78981,6.03231,-3.59414,-13.7762,-0.195827,0.0936533,0.22764,67,85,84,88,90,10,86,88,93,85,93,43
1.74475,-1.88428,0.425004,-0.12488,-17.1784,27.5112,-10.339,-0.425004,0.425004,-0.12488,-17.1409,27.5112,-10.3764,-0.425004,4.63075,15.844,7.09021,9.69788,1.36426,-9.17636,0.533224,5.25516,11.2916,-5.78983,6.0322,-3.59411,-13.7763,-0.196027,0.0936603,0.227621,67,85,84,88,90,10,86,88,93,85,93,43
1.74495,-1.88416,0.424969,-0.124889,-17.1784,27.5112,-10.339,-0.424969,0.424969,-0.124889,-17.1409,27.5112,-10.3764,-0.424969,4.63072,15.8436,7.09025,9.69769,1.36458,-9.17686,0.532872,5.25517,11.2915,-5.78986,6.03208,-3.59408,-13.7763,-0.196231,0.0936665,0.227602,67,85,84,88,90,10,86,88,93,85,93,43
1.74516,-1.88405,0.424933,-0.124896,-17.1784,27.5112,-10.339,-0.424933,0.424933,-0.124896,-17.1409,27.5112,-10.3764,-0.424933,4.6307,15.8432,7.09033,9.6975,1.36487,-9.17736,0.532517,5.25518,11.2915,-5.78988,6.03197,-3.59407,-13.7764,-0.196437,0.093672,0.227582,67,85,84,88,90,10,86,88,93,85,93,43
1.74537,-1.88395,0.424898,-0.124902,-17.1784,27.5112,-10.339,-0.424898,0.424898,-0.124902,-17.1409,27.5112,-10.3765,-0.424898,4.63068,15.8427,7.09047,9.69732,1.36515,-9.17786,0.532154,5.25519,11.2915,-5.7899,6.03185,-3.59407,-13.7765,-0.196646,0.0936769,0.227563,67,85,84,88,90,10,86,88,93,85,93,43
1.74559,-1.88386,0.424864,-0.124908,-17.1784,27.5112,-10.339,-0.424864,0.424864,-0.124908,-17.1409,27.5112,-10.3765,-0.424864,4.63067,15.8423,7.09066,9.69714,1.3654,-9.17838,0.531782,5.25521,11.2914,-5.78992,6.03174,-3.59407,-13.7765,-0.196855,0.0936812,0.227544,67,85,84,88,90,10,86,88,93,85,93,43
1.74581,-1.88377,0.42483,-0.124913,-17.1784,27.5112,-10.339,-0.42483,0.42483,-0.124913,-17.1409,27.5112,-10.3765,-0.42483,4.63066,15.8419,7.09092,9.69696,1.36563,-9.1789,0.531399,5.25523,11.2914,-5.78995,6.03162,-3.59408,-13.7766,-0.197066,0.0936851,0.227526,67,85,84,88,90,10,86,88,93,85,93,43
1.74603,-1.88369,0.424797,-0.124918,-17.1784,27.5112,-10.339,-0.424797,0.424797,-0.124918,-17.1409,27.5112,-10.3765,-0.424797,4.63067,15.8415,7.09124,9.69679,1.36581,-9.17944,0.531002,5.25525,11.2913,-5.78997,6.03151,-3.59409,-13.7767,-0.197276,0.0936885,0.227508,67,85,84,88,90,10,86,88,93,85,93,43
1.74626,-1.88361,0.424765,-0.124922,-17.1784,27.5112,-10.339,-0.424765,0.424765,-0.124922,-17.1409,27.5112,-10.3764,-0.424765,4.63067,15.8411,7.09164,9.69663,1.36596,-9.17999,0.530591,5.25528,11.2913,-5.79,6.03139,-3.5941,-13.7767,-0.197485,0.0936915,0.227491,67,85,84,88,90,10,86,88,93,85,93,43
1.74648,-1.88354,0.424735,-0.124926,-17.1784,27.5112,-10.339,-0.424735,0.424735,-0.124926,-17.1409,27.5112,-10.3764,-0.424735,4.63068,15.8407,7.09208,9.69647,1.36607,-9.18055,0.530173,5.25531,11.2912,-5.79003,6.03128,-3.59412,-13.7768,-0.197692,0.0936942,0.227474,67,85,84,88,90,10,86,88,93,85,93,43
1.74671,-1.88348,0.424706,-0.124929,-17.1784,27.5112,-10.339,-0.424706,0.424706,-0.124929,-17.1409,27.5112,-10.3764,-0.424706,4.6307,15.8403,7.09263,9.69633,1.36613,-9.18113,0.529731,5.25535,11.2911,-5.79007,6.03116,-3.59413,-13.7769,-0.197897,0.0936968,0.227458,67,85,84,88,90,10,86,88,93,85,93,43
1.74695,-1.88342,0.424679,-0.124932,-17.1784,27.5112,-10.339,-0.424679,0.424679,-0.124932,-17.1409,27.5112,-10.3764,-0.424679,4.63073,15.8399,7.09327,9.69619,1.36613,-9.18174,0.529267,5.25539,11.2911,-5.79011,6.03105,-3.59414,-13.777,-0.198102,0.0936993,0.227444,67,85,84,88,90,10,86,88,93,85,93,43
1.74718,-1.88336,0.424654,-0.124935,-17.1784,27.5112,-10.339,-0.424654,0.424654,-0.124935,-17.1409,27.5112,-10.3764,-0.424654,4.63076,15.8396,7.09399,9.69607,1.36608,-9.18237,0.528786,5.25543,11.291,-5.79015,6.03093,-3.59415,-13.7771,-0.198304,0.0937015,0.22743,67,85,84,88,90,10,86,88,93,85,93,43
1.74742,-1.88331,0.424631,-0.124938,-17.1784,27.5112,-10.339,-0.424631,0.424631,-0.124938,-17.1409,27.5112,-10.3764,-0.424631,4.63079,15.8392,7.09479,9.69595,1.36599,-9.18301,0.52829,5.25548,11.2909,-5.7902,6.03082,-3.59415,-13.7772,-0.198503,0.0937035,0.227417,67,85,84,88,90,10,86,88,93,85,93,43
1.74765,-1.88326,0.424608,-0.12494,-17.1784,27.5112,-10.339,-0.424608,0.424608,-0.12494,-17.1409,27.5112,-10.3764,-0.424608,4.63083,15.8389,7.09564,9.69584,1.36586,-9.18366,0.527783,5.25554,11.2908,-5.79025,6.0307,-3.59415,-13.7773,-0.1987,0.0937052,0.227405,67,85,84,88,90,10,86,88,93,85,93,43
1.74789,-1.88322,0.424587,-0.124942,-17.1784,27.5112,-10.3389,-0.424587,0.424587,-0.124942,-17.1409,27.5112,-10.3764,-0.424587,4.63088,15.8386,7.09654,9.69573,1.36571,-9.18432,0.527267,5.25559,11.2907,-5.7903,6.03059,-3.59416,-13.7774,-0.198893,0.0937067,0.227393,67,85,84,88,90,10,86,88,93,85,93,43
1.74813,-1.88317,0.424567,-0.124944,-17.1784,27.5112,-10.3389,-0.424567,0.424567,-0.124944,-17.1409,27.5112,-10.3764,-0.424567,4.63093,15.8382,7.09748,9.69563,1.36553,-9.18499,0.526744,5.25565,11.2906,-5.79035,6.03048,-3.59416,-13.7775,-0.199083,0.093708,0.227382,67,85,84,88,90,10,86,88,93,85,93,43
1.74836,-1.88313,0.424548,-0.124945,-17.1785,27.5113,-10.339,-0.424548,0.424548,-0.124945,-17.1411,27.5113,-10.3764,-0.424548,4.63098,15.8379,7.09844,9.69554,1.36533,-9.18565,0.526222,5.2557,11.2905,-5.7904,6.03037,-3.59416,-13.7777,-0.199268,0.0937091,0.227372,67,85,84,88,90,10,86,88,93,85,93,43
1.74859,-1.88309,0.424529,-0.124946,-17.1786,27.5113,-10.339,-0.424529,0.424529,-0.124946,-17.1411,27.5113,-10.3764,-0.424529,4.63103,15.8376,7.09942,9.69545,1.36512,-9.1863,0.5257,5.25576,11.2904,-5.79046,6.03026,-3.59416,-13.7778,-0.199448,0.0937097,0.227362,67,85,84,88,90,10,86,88,93,85,93,43
1.74881,-1.88305,0.424511,-0.124947,-17.1786,27.5113,-10.339,-0.424511,0.424511,-0.124947,-17.1411,27.5113,-10.3764,-0.424511,4.63108,15.8373,7.10041,9.69537,1.3649,-9.18696,0.525178,5.25582,11.2903,-5.79051,6.03015,-3.59416,-13.7779,-0.199623,0.0937099,0.227352,67,85,84,88,90,10,86,88,93,85,93,43
1.74903,-1.88302,0.424493,-0.124947,-17.1786,27.5113,-10.3389,-0.424493,0.424493,-0.124947,-17.1411,27.5113,-10.3764,-0.424493,4.63114,15.837,7.10143,9.69529,1.36466,-9.18761,0.524654,5.25587,11.2902,-5.79056,6.03004,-3.59417,-13.778,-0.199795,0.09371,0.227342,67,85,84,88,90,10,86,88,93,85,93,43
1.74925,-1.88298,0.424477,-0.124947,-17.1786,27.5113,-10.3389,-0.424477,0.424477,-0.124947,-17.1411,27.5113,-10.3764,-0.424477,4.6312,15.8367,7.10247,9.69521,1.36441,-9.18826,0.52413,5.25593,11.2901,-5.79062,6.02994,-3.59417,-13.7781,-0.199963,0.0937099,0.227333,67,85,84,88,90,10,86,88,93,85,93,43
1.74947,-1.88294,0.424461,-0.124946,-17.1786,27.5113,-10.3389,-0.424461,0.424461,-0.124946,-17.1411,27.5113,-10.3764,-0.424461,4.63126,15.8364,7.10353,9.69514,1.36414,-9.18891,0.523605,5.25599,11.29,-5.79067,6.02983,-3.59417,-13.7782,-0.200129,0.0937098,0.227325,67,85,84,88,90,10,86,88,93,85,93,43
1.74969,-1.88291,0.424447,-0.124946,-17.1786,27.5113,-10.3389,-0.424447,0.424447,-0.124946,-17.1411,27.5113,-10.3764,-0.424447,4.63132,15.8362,7.10462,9.69508,1.36384,-9.18956,0.523079,5.25605,11.2898,-5.79073,6.02973,-3.59416,-13.7783,-0.200292,0.0937098,0.227317,67,85,84,88,90,10,86,88,93,85,93,43
1.7499,-1.88287,0.424433,-0.124947,-17.1786,27.5113,-10.3389,-0.424433,0.424433,-0.124947,-17.1411,27.5113,-10.3764,-0.424433,4.63138,15.8359,7.10573,9.69502,1.36353,-9.19022,0.522551,5.25611,11.2897,-5.79079,6.02963,-3.59416,-13.7785,-0.200454,0.09371,0.227309,67,85,84,88,90,10,86,88,93,85,93,43
1.75011,-1.88284,0.424421,-0.124947,-17.1786,27.5113,-10.3389,-0.424421,0.424421,-0.124947,-17.1411,27.5113,-10.3764,-0.424421,4.63144,15.8357,7.10684,9.69496,1.3632,-9.19087,0.522027,5.25618,11.2896,-5.79085,6.02953,-3.59415,-13.7786,-0.200614,0.0937104,0.227303,67,85,84,88,90,10,86,88,93,85,93,43
1.75032,-1.88281,0.424411,-0.124948,-17.1786,27.5113,-10.3389,-0.424411,0.424411,-0.124948,-17.1411,27.5113,-10.3764,-0.424411,4.63151,15.8354,7.10799,9.69492,1.36284,-9.19153,0.521498,5.25625,11.2895,-5.79091,6.02944,-3.59415,-13.7787,-0.200772,0.0937113,0.227297,67,85,84,88,90,10,86,88,93,85,93,43
1.75053,-1.88278,0.424401,-0.12495,-17.1786,27.5113,-10.3389,-0.424401,0.424401,-0.12495,-17.1411,27.5113,-10.3764,-0.424401,4.63157,15.8352,7.10917,9.69487,1.36245,-9.19221,0.520967,5.25632,11.2894,-5.79097,6.02934,-3.59414,-13.7788,-0.20093,0.0937127,0.227292,67,85,84,88,90,10,86,88,93,85,93,43
1.75074,-1.88275,0.424394,-0.124953,-17.1786,27.5113,-10.3389,-0.424394,0.424394,-0.124953,-17.1411,27.5113,-10.3764,-0.424394,4.63164,15.835,7.11037,9.69484,1.36203,-9.19288,0.520432,5.2564,11.2893,-5.79104,6.02925,-3.59413,-13.779,-0.201087,0.0937145,0.227288,67,85,84,88,90,10,86,88,93,85,93,43
1.75095,-1.88273,0.424388,-0.124956,-17.1786,27.5113,-10.3389,-0.424388,0.424388,-0.124956,-17.1411,27.5113,-10.3764,-0.424388,4.63171,15.8348,7.1116,9.69481,1.36159,-9.19357,0.519895,5.25649,11.2891,-5.79111,6.02916,-3.59411,-13.7791,-0.201246,0.0937166,0.227285,67,85,84,88,90,10,86,88,93,85,93,43
1.75115,-1.8827,0.424383,-0.124959,-17.1786,27.5113,-10.3389,-0.424383,0.424383,-0.124959,-17.1411,27.5113,-10.3764,-0.424383,4.63178,15.8346,7.11286,9.69478,1.36111,-9.19426,0.519357,5.25657,11.289,-5.79118,6.02907,-3.59409,-13.7792,-0.201405,0.0937191,0.227282,67,85,84,88,90,10,86,88,93,85,93,43
1.75134,-1.88268,0.42438,-0.124962,-17.1786,27.5113,-10.3389,-0.42438,0.42438,-0.124962,-17.1411,27.5113,-10.3764,-0.42438,4.63185,15.8345,7.11413,9.69477,1.36062,-9.19496,0.518816,5.25667,11.2889,-5.79125,6.02899,-3.59406,-13.7794,-0.201566,0.0937218,0.22728,67,85,84,88,90,10,86,88,93,85,93,43
1.75153,-1.88265,0.424379,-0.124966,-17.1786,27.5113,-10.3389,-0.424379,0.424379,-0.124966,-17.1411,27.5113,-10.3764,-0.424379,4.63193,15.8343,7.11543,9.69476,1.36009,-9.19567,0.518274,5.25676,11.2887,-5.79132,6.02891,-3.59404,-13.7795,-0.201728,0.0937247,0.22728,67,85,84,88,90,10,86,88,93,85,93,43
1.75171,-1.88262,0.424378,-0.12497,-17.1788,27.5114,-10.3389,-0.424378,0.424378,-0.12497,-17.1413,27.5114,-10.3764,-0.424378,4.63201,15.8342,7.11673,9.69475,1.35955,-9.19637,0.517736,5.25686,11.2886,-5.7914,6.02883,-3.594,-13.7796,-0.20189,0.0937277,0.227279,67,85,84,88,90,10,86,88,93,85,93,43
1.75187,-1.88259,0.424379,-0.124974,-17.1788,27.5114,-10.3389,-0.424379,0.424379,-0.124974,-17.1413,27.5114,-10.3764,-0.424379,4.63209,15.834,7.11805,9.69476,1.35899,-9.19708,0.517201,5.25696,11.2884,-5.79147,6.02875,-3.59397,-13.7798,-0.202055,0.0937305,0.22728,67,85,84,88,90,10,86,88,93,85,93,43
1.75202,-1.88255,0.424382,-0.124978,-17.1788,27.5114,-10.3389,-0.424382,0.424382,-0.124978,-17.1413,27.5114,-10.3764,-0.424382,4.63217,15.8339,7.11938,9.69477,1.35841,-9.19779,0.516666,5.25706,11.2883,-5.79154,6.02868,-3.59392,-13.7799,-0.202222,0.0937334,0.227281,67,85,84,88,90,10,86,88,93,85,93,43
1.75215,-1.88251,0.424385,-0.124982,-17.1788,27.5114,-10.3389,-0.424385,0.424385,-0.124982,-17.1413,27.5114,-10.3764,-0.424385,4.63225,15.8338,7.12073,9.69478,1.35781,-9.19851,0.516128,5.25716,11.2881,-5.79162,6.0286,-3.59388,-13.78,-0.202391,0.0937363,0.227283,67,85,84,88,90,10,86,88,93,85,93,43
1.75228,-1.88247,0.424391,-0.124986,-17.1788,27.5114,-10.3389,-0.424391,0.424391,-0.124986,-17.1413,27.5114,-10.3764,-0.424391,4.63234,15.8337,7.12211,9.6948,1.35717,-9.19924,0.515587,5.25727,11.288,-5.7917,6.02853,-3.59382,-13.7802,-0.202564,0.0937395,0.227286,67,85,84,88,90,10,86,88,93,85,93,43
1.75239,-1.88243,0.424398,-0.124991,-17.1788,27.5114,-10.3389,-0.424398,0.424398,-0.124991,-17.1413,27.5114,-10.3764,-0.424398,4.63243,15.8336,7.12351,9.69484,1.3565,-9.19999,0.515038,5.25739,11.2878,-5.79178,6.02847,-3.59377,-13.7803,-0.202739,0.093743,0.22729,67,85,84,88,90,10,86,88,93,85,93,43
1.7525,-1.88239,0.424407,-0.124996,-17.1789,27.5114,-10.3388,-0.424407,0.424407,-0.124996,-17.1414,27.5114,-10.3763,-0.424407,4.63253,15.8335,7.12493,9.69488,1.3558,-9.20075,0.514481,5.25751,11.2876,-5.79186,6.0284,-3.59371,-13.7804,-0.202918,0.0937468,0.227295,67,85,84,88,90,10,86,88,93,85,93,43
1.7526,-1.88234,0.424418,-0.125002,-17.1789,27.5114,-10.3388,-0.424418,0.424418,-0.125002,-17.1414,27.5114,-10.3763,-0.424418,4.63264,15.8335,7.12638,9.69493,1.35506,-9.20153,0.513914,5.25765,11.2874,-5.79196,6.02833,-3.59364,-13.7806,-0.2031,0.0937512,0.227301,67,85,84,88,90,10,86,88,93,85,93,43
1.7527,-1.88229,0.42443,-0.125008,-17.1789,27.5114,-10.3388,-0.42443,0.42443,-0.125008,-17.1414,27.5114,-10.3763,-0.42443,4.63275,15.8334,7.12783,9.69498,1.3543,-9.20232,0.513345,5.25779,11.2873,-5.79205,6.02827,-3.59358,-13.7807,-0.203283,0.0937558,0.227308,67,85,84,88,90,10,86,88,93,85,93,43
1.75279,-1.88225,0.424444,-0.125015,-17.1789,27.5114,-10.3388,-0.424444,0.424444,-0.125015,-17.1414,27.5114,-10.3763,-0.424444,4.63286,15.8334,7.12931,9.69505,1.35351,-9.20313,0.512766,5.25794,11.2871,-5.79215,6.0282,-3.59351,-13.7808,-0.203469,0.0937612,0.227315,67,85,84,88,90,10,86,88,93,85,93,43
1.75289,-1.8822,0.424459,-0.125023,-17.1789,27.5114,-10.3388,-0.424459,0.424459,-0.125023,-17.1414,27.5114,-10.3763,-0.424459,4.63298,15.8333,7.13081,9.69513,1.35268,-9.20396,0.512174,5.2581,11.2869,-5.79225,6.02814,-3.59344,-13.781,-0.203659,0.0937673,0.227324,67,85,84,88,90,10,86,88,93,85,93,43
1.75298,-1.88215,0.424477,-0.125032,-17.1789,27.5114,-10.3388,-0.424477,0.424477,-0.125032,-17.1414,27.5114,-10.3763,-0.424477,4.63311,15.8333,7.13234,9.69521,1.35181,-9.20481,0.511569,5.25827,11.2867,-5.79236,6.02808,-3.59337,-13.7811,-0.203852,0.093774,0.227333,67,85,84,88,90,10,86,88,93,85,93,43
1.75306,-1.8821,0.424496,-0.125042,-17.1789,27.5114,-10.3388,-0.424496,0.424496,-0.125042,-17.1414,27.5114,-10.3763,-0.424496,4.63324,15.8333,7.1339,9.69531,1.3509,-9.20569,0.510948,5.25845,11.2864,-5.79248,6.02802,-3.5933,-13.7813,-0.204048,0.0937812,0.227344,67,85,84,88,90,10,86,88,93,85,93,43
1.75313,-1.88205,0.424517,-0.125052,-17.1789,27.5114,-10.3388,-0.424517,0.424517,-0.125052,-17.1414,27.5114,-10.3763,-0.424517,4.63339,15.8333,7.13549,9.69541,1.34995,-9.2066,0.510311,5.25865,11.2862,-5.79262,6.02796,-3.59322,-13.7814,-0.204247,0.093789,0.227355,67,85,84,88,90,10,86,88,93,85,93,43
1.7532,-1.882,0.424539,-0.125063,-17.179,27.5114,-10.3387,-0.424539,0.424539,-0.125063,-17.1414,27.5114,-10.3763,-0.424539,4.63354,15.8333,7.1371,9.69551,1.34895,-9.20754,0.509657,5.25886,11.286,-5.79276,6.0279,-3.59315,-13.7816,-0.204449,0.0937971,0.227367,67,85,84,88,90,10,86,88,93,85,93,43
1.75325,-1.88195,0.424563,-0.125074,-17.179,27.5114,-10.3387,-0.424563,0.424563,-0.125074,-17.1415,27.5114,-10.3762,-0.424563,4.63371,15.8333,7.13874,9.69563,1.34792,-9.2085,0.508985,5.25908,11.2857,-5.79292,6.02785,-3.59308,-13.7817,-0.204653,0.0938056,0.22738,67,85,84,88,90,10,86,88,93,85,93,43
1.75329,-1.8819,0.424587,-0.125086,-17.179,27.5114,-10.3387,-0.424587,0.424587,-0.125086,-17.1415,27.5114,-10.3762,-0.424587,4.63388,15.8334,7.14037,9.69574,1.34687,-9.20948,0.508308,5.25931,11.2855,-5.79308,6.02779,-3.59301,-13.7819,-0.204856,0.0938142,0.227393,67,85,84,88,90,10,86,88,93,85,93,43
1.75332,-1.88184,0.424613,-0.125097,-17.179,27.5114,-10.3387,-0.424613,0.424613,-0.125097,-17.1415,27.5114,-10.3762,-0.424613,4.63408,15.8334,7.14205,9.69585,1.34576,-9.21051,0.507598,5.25956,11.2852,-5.79327,6.02774,-3.59294,-13.782,-0.205062,0.0938228,0.227407,67,85,84,88,90,10,86,88,93,85,93,43
1.75333,-1.88179,0.42464,-0.125108,-17.179,27.5114,-10.3387,-0.42464,0.42464,-0.125108,-17.1415,27.5114,-10.3762,-0.42464,4.63429,15.8334,7.14376,9.69597,1.34459,-9.21157,0.506861,5.25983,11.285,-5.79348,6.02769,-3.59288,-13.7822,-0.205271,0.0938314,0.227422,67,85,84,88,90,10,86,88,93,85,93,43
1.75332,-1.88174,0.424667,-0.12512,-17.1791,27.5114,-10.3386,-0.424667,0.424667,-0.12512,-17.1415,27.5114,-10.3762,-0.424667,4.63452,15.8335,7.14548,9.69609,1.34339,-9.21267,0.506105,5.26012,11.2847,-5.7937,6.02764,-3.59281,-13.7824,-0.205481,0.0938401,0.227437,67,85,84,88,90,10,86,88,93,85,93,43
1.7533,-1.88169,0.424696,-0.125132,-17.1791,27.5114,-10.3386,-0.424696,0.424696,-0.125132,-17.1415,27.5114,-10.3762,-0.424696,4.63476,15.8335,7.14723,9.69621,1.34216,-9.21379,0.505336,5.26042,11.2844,-5.79393,6.02759,-3.59276,-13.7825,-0.205692,0.093849,0.227453,67,85,84,88,90,10,86,88,93,85,93,43
1.75327,-1.88164,0.424726,-0.125144,-17.1791,27.5114,-10.3386,-0.424726,0.424726,-0.125144,-17.1416,27.5114,-10.3761,-0.424726,4.635,15.8335,7.14897,9.69633,1.34091,-9.21493,0.504558,5.26072,11.2841,-5.79418,6.02755,-3.5927,-13.7827,-0.205903,0.0938581,0.227469,67,85,84,88,90,10,86,88,93,85,93,43
1.75322,-1.88158,0.424756,-0.125157,-17.1791,27.5114,-10.3386,-0.424756,0.424756,-0.125157,-17.1416,27.5114,-10.3761,-0.424756,4.63525,15.8336,7.15072,9.69645,1.33964,-9.21607,0.503776,5.26103,11.2839,-5.79443,6.0275,-3.59264,-13.7828,-0.206113,0.0938675,0.227486,67,85,84,88,90,10,86,88,93,85,93,43
1.75317,-1.88153,0.424787,-0.125169,-17.1791,27.5114,-10.3385,-0.424787,0.424787,-0.125169,-17.1416,27.5114,-10.3761,-0.424787,4.6355,15.8336,7.15247,9.69658,1.33836,-9.21722,0.502993,5.26135,11.2836,-5.79469,6.02746,-3.59258,-13.783,-0.206323,0.0938771,0.227502,67,85,84,88,90,10,86,88,93,85,93,43
1.75311,-1.88148,0.424817,-0.125182,-17.1786,27.5111,-10.3384,-0.424817,0.424817,-0.125182,-17.1411,27.5111,-10.376,-0.424817,4.63575,15.8337,7.15419,9.6967,1.33709,-9.21836,0.502218,5.26167,11.2833,-5.79496,6.02742,-3.59253,-13.7831,-0.206529,0.0938868,0.227519,67,85,84,88,90,10,86,88,93,85,93,43
1.75304,-1.88144,0.424848,-0.125196,-17.1787,27.5111,-10.3384,-0.424848,0.424848,-0.125196,-17.1411,27.5111,-10.376,-0.424848,4.636,15.8337,7.15589,9.69683,1.33583,-9.21948,0.501461,5.26198,11.283,-5.79522,6.02738,-3.59247,-13.7833,-0.206732,0.0938971,0.227536,67,85,84,88,90,10,86,88,93,85,93,43
1.75296,-1.88139,0.424878,-0.12521,-17.1787,27.5111,-10.3384,-0.424878,0.424878,-0.12521,-17.1411,27.5111,-10.376,-0.424878,4.63623,15.8338,7.15757,9.69695,1.33459,-9.22058,0.500716,5.26228,11.2827,-5.79547,6.02734,-3.5924,-13.7835,-0.206933,0.0939078,0.227552,67,85,84,88,90,10,86,88,93,85,93,43
1.75288,-1.88134,0.424909,-0.125225,-17.1787,27.5111,-10.3384,-0.424909,0.424909,-0.125225,-17.1412,27.5111,-10.3759,-0.424909,4.63647,15.8338,7.15923,9.69708,1.33335,-9.22168,0.499978,5.26259,11.2824,-5.79573,6.0273,-3.59234,-13.7836,-0.207132,0.0939187,0.227569,67,85,84,88,90,10,86,88,93,85,93,43
1.75279,-1.8813,0.42494,-0.125239,-17.1787,27.5111,-10.3383,-0.42494,0.42494,-0.125239,-17.1412,27.5111,-10.3759,-0.42494,4.63671,15.8339,7.16087,9.69721,1.33211,-9.22277,0.499242,5.2629,11.2822,-5.796,6.02726,-3.59228,-13.7837,-0.207329,0.0939295,0.227586,67,85,84,88,90,10,86,88,93,85,93,43
1.75269,-1.88125,0.424971,-0.125254,-17.1788,27.5111,-10.3383,-0.424971,0.424971,-0.125254,-17.1412,27.5111,-10.3759,-0.424971,4.63695,15.8339,7.16251,9.69733,1.33086,-9.22387,0.498504,5.26322,11.2819,-5.79626,6.02722,-3.59222,-13.7839,-0.207524,0.0939401,0.227603,67,85,84,88,90,10,86,88,93,85,93,43
1.7526,-1.88121,0.425002,-0.125267,-17.1788,27.5111,-10.3383,-0.425002,0.425002,-0.125267,-17.1412,27.5111,-10.3759,-0.425002,4.6372,15.834,7.16414,9.69745,1.3296,-9.22498,0.497759,5.26354,11.2816,-5.79654,6.02719,-3.59217,-13.784,-0.207717,0.0939503,0.22762,67,85,84,88,90,10,86,88,93,85,93,43
1.7525,-1.88116,0.425033,-0.12528,-17.1788,27.5111,-10.3383,-0.425033,0.425033,-0.12528,-17.1412,27.5111,-10.3759,-0.425033,4.63747,15.834,7.16577,9.69757,1.32834,-9.2261,0.497003,5.26387,11.2813,-5.79682,6.02716,-3.59212,-13.7842,-0.20791,0.0939599,0.227637,67,85,84,88,90,10,86,88,93,85,93,43
1.7524,-1.88112,0.425064,-0.125292,-17.1788,27.511,-10.3382,-0.425064,0.425064,-0.125292,-17.1412,27.511,-10.3758,-0.425064,4.63774,15.8341,7.16739,9.69769,1.32707,-9.22722,0.496245,5.26419,11.281,-5.79711,6.02712,-3.59208,-13.7843,-0.2081,0.093969,0.227654,67,85,84,88,90,10,86,88,93,85,93,43
1.75231,-1.88108,0.425095,-0.125303,-17.1789,27.511,-10.3382,-0.425095,0.425095,-0.125303,-17.1413,27.511,-10.3758,-0.425095,4.63802,15.8341,7.16901,9.69781,1.32578,-9.22837,0.49547,5.26454,11.2807,-5.7974,6.02709,-3.59205,-13.7845,-0.208288,0.0939769,0.22767,67,85,84,88,90,10,86,88,93,85,93,43
1.75223,-1.88103,0.425126,-0.125312,-17.1789,27.511,-10.3382,-0.425126,0.425126,-0.125312,-17.1413,27.511,-10.3758,-0.425126,4.63833,15.8342,7.17064,9.69792,1.32446,-9.22955,0.494674,5.26489,11.2804,-5.79771,6.02706,-3.59202,-13.7846,-0.208476,0.0939837,0.227688,67,85,84,88,90,10,86,88,93,85,93,43
1.75215,-1.88099,0.425157,-0.125319,-17.1789,27.511,-10.3382,-0.425157,0.425157,-0.125319,-17.1413,27.511,-10.3758,-0.425157,4.63866,15.8342,7.17227,9.69802,1.32312,-9.23076,0.493856,5.26525,11.2801,-5.79804,6.02704,-3.592,-13.7848,-0.208664,0.0939895,0.227705,67,85,84,88,90,10,86,88,93,85,93,43
1.75207,-1.88095,0.425188,-0.125325,-17.1789,27.511,-10.3381,-0.425188,0.425188,-0.125325,-17.1414,27.511,-10.3757,-0.425188,4.639,15.8343,7.17391,9.69812,1.32176,-9.23199,0.493017,5.26563,11.2798,-5.79837,6.02701,-3.592,-13.7849,-0.208851,0.0939941,0.227722,67,85,84,88,90,10,86,88,93,85,93,43
1.75198,-1.8809,0.425219,-0.12533,-17.179,27.511,-10.3381,-0.425219,0.425219,-0.12533,-17.1414,27.511,-10.3757,-0.425219,4.63937,15.8343,7.17556,9.69821,1.32037,-9.23324,0.492154,5.26602,11.2795,-5.79871,6.02699,-3.592,-13.7851,-0.209038,0.0939976,0.227738,67,85,84,88,90,10,86,88,93,85,93,43
